sluyters/QuantumLeap/backend/src/datasets/dynamic/HandGestureDataset_SHREC2017_csv/Gesture10/finger_2/subject_1_essai_1_skeletons_world.csv
Wrist_x,Wrist_y,Wrist_z,Palm_x,Palm_y,Palm_z,thumb_base_x,thumb_base_y,thumb_base_z,thumb_first_joint_x,thumb_first_joint_y,thumb_first_joint_z,thumb_second_joint_x,thumb_second_joint_y,thumb_second_joint_z,thumb_tip_x,thumb_tip_y,thumb_tip_z,index_base_x,index_base_y,index_base_z,index_first_joint_x,index_first_joint_y,index_first_joint_z,index_second_joint_x,index_second_joint_y,index_second_joint_z,index_tip_x,index_tip_y,index_tip_z,middle_base_x,middle_base_y,middle_base_z,middle_first_joint_x,middle_first_joint_y,middle_first_joint_z,middle_second_joint_x,middle_second_joint_y,middle_second_joint_z,middle_tip_x,middle_tip_y,middle_tip_z,ring_base_x,ring_base_y,ring_base_z,ring_first_joint_x,ring_first_joint_y,ring_first_joint_z,ring_second_joint_x,ring_second_joint_y,ring_second_joint_z,ring_tip_x,ring_tip_y,ring_tip_z,pinky_base_x,pinky_base_y,pinky_base_z,pinky_first_joint_x,pinky_first_joint_y,pinky_first_joint_z,pinky_second_joint_x,pinky_second_joint_y,pinky_second_joint_z,pinky_tip_x,pinky_tip_y,pinky_tip_z,
0.49445588,-0.2471969,0.547523,0.48114422,-0.20066044,0.545082,0.46943314,-0.23695309,0.546901,0.44521452,-0.21310016,0.546902,0.4116521,-0.18735174,0.529408,0.40407,-0.17554408,0.531922,0.4480766,-0.16683452,0.542615,0.43571581,-0.13183765,0.532461,0.43424165,-0.11570376,0.533175,0.43286161,-0.10072073,0.533824,0.47232972,-0.16336444,0.542757,0.4588005,-0.12681434,0.531678,0.45101326,-0.10574664,0.525215,0.46189887,-0.094166949,0.53976,0.4933548,-0.16452902,0.543137,0.48052645,-0.13374166,0.533216,0.4740344,-0.1181446,0.52814,0.48626787,-0.11021288,0.542686,0.51965531,-0.17309852,0.544037,0.51018217,-0.14929428,0.53443,0.50591993,-0.13839684,0.530016,0.5159904,-0.13385052,0.540613
0.4896192,-0.2437665,0.545706,0.47615019,-0.19731127,0.542239,0.46580613,-0.2351553,0.544291,0.44292363,-0.21183274,0.544679,0.40956572,-0.18610311,0.527263,0.40070023,-0.17166084,0.52957,0.44277569,-0.16370126,0.538043,0.43092667,-0.12814864,0.526822,0.43026438,-0.11192789,0.527658,0.42890358,-0.098218623,0.528418,0.46773103,-0.16026287,0.538938,0.45416865,-0.12316341,0.52664,0.44612308,-0.10338876,0.519466,0.45691935,-0.091757424,0.533638,0.48948556,-0.16157195,0.540049,0.47630465,-0.13181772,0.528959,0.46947823,-0.114572,0.523285,0.48069427,-0.10573409,0.537435,0.5169577,-0.1719671,0.541989,0.50672844,-0.14788448,0.531599,0.5021704,-0.13689867,0.526825,0.51220553,-0.13209874,0.537181
0.48576945,-0.24122896,0.54522,0.47261107,-0.19586073,0.538812,0.46354809,-0.2341661,0.542855,0.43700721,-0.20899134,0.538987,0.40251309,-0.1825238,0.519545,0.39276585,-0.16710109,0.520307,0.43594104,-0.16024788,0.531383,0.42273148,-0.12390238,0.517222,0.42458,-0.10817984,0.520444,0.42595448,-0.094792933,0.523374,0.46134404,-0.15763676,0.53271,0.44755093,-0.12002031,0.518877,0.43952694,-0.098495756,0.510807,0.45051279,-0.086523604,0.524493,0.48360962,-0.15975854,0.534494,0.46889171,-0.12774955,0.520878,0.46157969,-0.11164529,0.513912,0.47225869,-0.10148708,0.527165,0.5126076,-0.16949378,0.537769,0.4991518,-0.14471743,0.524568,0.49357803,-0.13337662,0.518503,0.5027558,-0.12703376,0.527956
0.48566685,-0.24156134,0.545873,0.47139541,-0.19556431,0.537729,0.46351289,-0.23440669,0.54359,0.43673455,-0.20931159,0.538777,0.40311357,-0.18319551,0.520418,0.39528909,-0.17025031,0.521567,0.43428679,-0.15979892,0.529227,0.4197482,-0.12310775,0.513331,0.42140675,-0.10701659,0.515859,0.42224821,-0.092549025,0.518157,0.45917043,-0.15709022,0.529973,0.44286807,-0.11848432,0.512583,0.43325441,-0.09653233,0.502439,0.44274499,-0.084887102,0.514957,0.48113035,-0.15918561,0.531466,0.46542894,-0.12668251,0.51585,0.45744142,-0.11043521,0.50786,0.46808551,-0.099741083,0.520366,0.50924367,-0.16936958,0.534729,0.49539483,-0.14384209,0.520209,0.48985418,-0.13255197,0.513537,0.49805073,-0.12602712,0.522542
0.48676189,-0.24244865,0.547624,0.467447,-0.1941848,0.534357,0.46422959,-0.23498057,0.544978,0.43570829,-0.20919554,0.537732,0.40079993,-0.18285182,0.517991,0.3896953,-0.16629685,0.516503,0.42862026,-0.15743094,0.521901,0.41038262,-0.11992887,0.500975,0.41245775,-0.10459976,0.504344,0.41432028,-0.090074116,0.507408,0.45264462,-0.15467939,0.521721,0.43754342,-0.11680023,0.505461,0.42931987,-0.094272967,0.495976,0.43877426,-0.082884987,0.508877,0.4746959,-0.15722195,0.523003,0.45555397,-0.12341551,0.502756,0.44549047,-0.10693536,0.492397,0.45370848,-0.096683573,0.502937,0.50339997,-0.16794547,0.526985,0.48708574,-0.14109938,0.508447,0.47928493,-0.12924237,0.49993,0.48561526,-0.12275141,0.507388
0.48459652,-0.24211442,0.545719,0.46224592,-0.19374812,0.527034,0.46275099,-0.23471142,0.543759,0.43315505,-0.2088754,0.534948,0.39914019,-0.18228486,0.515893,0.38678574,-0.16499684,0.512354,0.42212924,-0.15485058,0.511793,0.40207647,-0.11670048,0.485919,0.40512875,-0.10176624,0.48981,0.40549168,-0.087186006,0.493348,0.44568088,-0.15347776,0.509238,0.42801061,-0.1141589,0.488461,0.41769497,-0.091787574,0.476342,0.42766718,-0.079291137,0.487455,0.46614289,-0.15659985,0.509147,0.44340434,-0.12212445,0.48454,0.4317137,-0.10551535,0.47195,0.43898931,-0.094931823,0.480121,0.49382801,-0.16871512,0.512555,0.47557526,-0.1411754,0.491826,0.46716665,-0.12922649,0.482303,0.47401597,-0.12253456,0.488623
0.48270257,-0.24212966,0.543849,0.45826615,-0.19493002,0.520721,0.46046314,-0.23427206,0.541332,0.42761655,-0.20949524,0.527744,0.39432924,-0.18224116,0.50869,0.38157098,-0.16361211,0.504474,0.41606028,-0.15383967,0.501738,0.39276063,-0.11591568,0.471904,0.39646994,-0.10145037,0.476239,0.39840778,-0.086319106,0.480179,0.43886273,-0.15370265,0.498694,0.42145871,-0.11449185,0.477641,0.41128948,-0.092108868,0.46536,0.41959742,-0.078539672,0.476246,0.45933127,-0.15721976,0.49868,0.43699068,-0.12299552,0.474031,0.4254941,-0.10656536,0.461419,0.43100366,-0.094518377,0.469362,0.48767111,-0.17004111,0.503012,0.47022321,-0.14267907,0.482748,0.46218313,-0.13086905,0.473438,0.46737867,-0.12232223,0.479807
0.47713765,-0.23945244,0.537271,0.45578377,-0.19220981,0.515243,0.45264496,-0.23160966,0.53398,0.42108946,-0.20667534,0.51975,0.38699297,-0.18034317,0.50075,0.37585269,-0.16196392,0.497782,0.41266338,-0.15126047,0.495999,0.38993871,-0.11221004,0.466664,0.39331312,-0.097258401,0.469745,0.39641492,-0.082981467,0.472545,0.43558399,-0.14943201,0.494265,0.41018382,-0.10693225,0.464422,0.39499473,-0.084542465,0.447014,0.40153553,-0.072003776,0.454257,0.45696632,-0.15273856,0.49521,0.43337304,-0.11831313,0.468931,0.42251245,-0.097843279,0.455486,0.42841248,-0.090655573,0.462914,0.48761507,-0.16127064,0.500448,0.46969671,-0.13400181,0.480113,0.46143072,-0.12183719,0.47077,0.46584767,-0.11732347,0.47736
0.46951108,-0.23747497,0.529045,0.45179522,-0.19223298,0.504267,0.44805614,-0.23142377,0.525414,0.41545487,-0.20895812,0.509263,0.37860346,-0.18424762,0.489743,0.36489369,-0.16719962,0.485522,0.40461003,-0.15167945,0.482714,0.3791625,-0.11297659,0.450798,0.38074348,-0.09797363,0.451852,0.38220905,-0.083709938,0.45281,0.42725861,-0.14867685,0.48067,0.40247553,-0.10941731,0.453362,0.38802837,-0.087116813,0.437432,0.39468937,-0.072716204,0.445863,0.44896508,-0.15108005,0.481657,0.42472395,-0.11664222,0.453272,0.41227352,-0.099581427,0.43875,0.41929029,-0.088290321,0.445042,0.47975727,-0.16267376,0.487459,0.45749139,-0.13427911,0.461468,0.44721338,-0.12213868,0.449526,0.45248649,-0.11529125,0.453396
0.46559923,-0.23793723,0.522666,0.44615466,-0.19035498,0.497726,0.44360453,-0.23008507,0.517807,0.40893549,-0.20562492,0.500355,0.37159098,-0.17910792,0.478114,0.35737759,-0.16089583,0.47204,0.3987457,-0.14869935,0.474464,0.37555286,-0.11188446,0.44257,0.37258995,-0.096507962,0.437438,0.36993038,-0.082180517,0.432772,0.42259143,-0.14690174,0.473973,0.39653122,-0.10776274,0.444266,0.38398826,-0.086218451,0.426937,0.38809297,-0.073514909,0.434311,0.44528434,-0.1502969,0.476258,0.4215214,-0.11615496,0.448665,0.40932162,-0.099215996,0.434548,0.41674901,-0.088068849,0.441354,0.47714615,-0.16309586,0.483597,0.45515998,-0.13671664,0.456393,0.44441144,-0.12478286,0.443894,0.44769287,-0.11592448,0.447113
0.4609925,-0.23761461,0.515298,0.44089951,-0.19520844,0.487909,0.44094153,-0.23220628,0.510207,0.40229121,-0.2096982,0.49139,0.36577915,-0.18511422,0.471559,0.35235857,-0.16775665,0.467129,0.39216165,-0.1537124,0.462681,0.36548663,-0.1148871,0.428586,0.3633859,-0.099252421,0.424738,0.36151203,-0.084754944,0.42124,0.4160857,-0.15180839,0.461824,0.38666652,-0.11263235,0.42653,0.36944657,-0.090627864,0.405943,0.37451134,-0.078965678,0.410299,0.43878255,-0.1551232,0.464069,0.41122778,-0.1209481,0.432122,0.39706424,-0.10404574,0.415777,0.40230458,-0.093261656,0.419869,0.47058996,-0.16772347,0.471824,0.44546126,-0.14047761,0.442934,0.4338336,-0.12833617,0.42966,0.43766068,-0.12210692,0.431825
0.46251555,-0.2429522,0.510957,0.43680514,-0.20116726,0.48083,0.43867896,-0.23345733,0.506595,0.39989957,-0.21596345,0.486946,0.36280378,-0.19259822,0.46728,0.3480245,-0.17479222,0.461238,0.38736621,-0.15986286,0.454693,0.35955406,-0.12159931,0.418026,0.35697476,-0.10654937,0.412899,0.35467852,-0.092507216,0.408238,0.40985567,-0.15834407,0.452137,0.37791411,-0.11923029,0.414696,0.35921873,-0.097238116,0.392856,0.36274883,-0.086086558,0.395716,0.43161785,-0.16192562,0.453279,0.40232789,-0.12740022,0.420025,0.38727955,-0.11041413,0.403012,0.39132244,-0.099895611,0.405975,0.46274692,-0.1747372,0.460268,0.43707063,-0.14656711,0.430479,0.42516709,-0.13404297,0.416792,0.42846126,-0.12734332,0.418241
0.45877871,-0.24582772,0.506373,0.4316944,-0.20675807,0.473466,0.43555365,-0.239335,0.501166,0.39048357,-0.2199367,0.477881,0.35306575,-0.1978508,0.458622,0.33848771,-0.18061149,0.453057,0.38206655,-0.16597909,0.44434,0.35084417,-0.12589865,0.405621,0.3478155,-0.11073163,0.400841,0.34509223,-0.096576304,0.396496,0.40499088,-0.16561762,0.442126,0.37256403,-0.12554556,0.404177,0.35356825,-0.10306695,0.382041,0.35689831,-0.091822805,0.384478,0.4269685,-0.1699718,0.443849,0.3963942,-0.13546859,0.409262,0.38067499,-0.11842439,0.391567,0.38380513,-0.10825032,0.393387,0.45810101,-0.18329817,0.452034,0.43116803,-0.15540677,0.422154,0.41871253,-0.14297645,0.408426,0.42134883,-0.13665736,0.409604
0.45672082,-0.24863942,0.5012,0.42604436,-0.2067587,0.465575,0.43310419,-0.24253569,0.495868,0.38966153,-0.22548849,0.47216,0.3511532,-0.20558173,0.45315,0.33458099,-0.18879613,0.446353,0.37307874,-0.17430529,0.434442,0.34116949,-0.13385846,0.393385,0.33835566,-0.11918076,0.388068,0.33584855,-0.10547703,0.383235,0.3955433,-0.17134624,0.431647,0.36009457,-0.13209989,0.390634,0.33935275,-0.11023796,0.366709,0.3405942,-0.099777036,0.366965,0.41775147,-0.17330542,0.433185,0.3856139,-0.13925847,0.396158,0.36905976,-0.12244103,0.377214,0.37087901,-0.11314758,0.377144,0.45022459,-0.18336317,0.441667,0.42178542,-0.15681053,0.408823,0.40860008,-0.14502869,0.393733,0.40980911,-0.13920895,0.3928
0.45512444,-0.25251513,0.49759,0.42293134,-0.21815168,0.459464,0.43109963,-0.24683353,0.491904,0.38419312,-0.23388898,0.467377,0.34510392,-0.21535614,0.44877,0.32741346,-0.19890508,0.441211,0.36725118,-0.18263447,0.42617,0.33549064,-0.14270452,0.38445,0.33156928,-0.12821791,0.377373,0.32805811,-0.11476884,0.37094,0.38958373,-0.18043982,0.423153,0.3536403,-0.14153352,0.380813,0.3325526,-0.11966896,0.356115,0.33316137,-0.1096614,0.355251,0.41181562,-0.18289169,0.424778,0.37922231,-0.14898018,0.386628,0.36240269,-0.13220151,0.367109,0.36349275,-0.12289461,0.365951,0.4445615,-0.19327253,0.43383,0.41437379,-0.16694562,0.399673,0.40040381,-0.15548154,0.383979,0.40004509,-0.15004456,0.38162
0.45100687,-0.25459327,0.491443,0.41745882,-0.21763657,0.452642,0.4271572,-0.24966275,0.484918,0.37834202,-0.23726016,0.459323,0.34012977,-0.21785488,0.442075,0.32411307,-0.19921905,0.436587,0.36145432,-0.18539585,0.417797,0.33048189,-0.14501858,0.377106,0.32789416,-0.13083189,0.371547,0.32486075,-0.11545896,0.366494,0.3846106,-0.18296124,0.415688,0.34927186,-0.14351951,0.373976,0.32860245,-0.12188462,0.349644,0.32886959,-0.11009397,0.349473,0.40758754,-0.18518308,0.418133,0.37403856,-0.15102414,0.380212,0.35676188,-0.13411954,0.360811,0.35764047,-0.122912,0.36,0.44006829,-0.19299709,0.428265,0.4099704,-0.16922125,0.393528,0.39546696,-0.15767799,0.377568,0.39354493,-0.1497255,0.374659
0.43512388,-0.27733022,0.473221,0.40536871,-0.23161366,0.439684,0.41087611,-0.26915876,0.468045,0.36416906,-0.24645054,0.445819,0.33134146,-0.22639586,0.434354,0.31921635,-0.21034549,0.432316,0.35403193,-0.1934873,0.410171,0.32476872,-0.15045246,0.370765,0.31991459,-0.1357889,0.362184,0.31496578,-0.13444056,0.354383,0.37687759,-0.19175744,0.407744,0.34138094,-0.1523267,0.364864,0.32051463,-0.13033137,0.339851,0.32143428,-0.12324777,0.338617,0.39896151,-0.19484168,0.40936,0.36496727,-0.16035747,0.371504,0.34749738,-0.14343457,0.352136,0.34808764,-0.13481688,0.351213,0.43051195,-0.20639481,0.417539,0.40146168,-0.17991448,0.38466,0.388022,-0.16837462,0.369554,0.3890732,-0.16382158,0.36852
0.43449161,-0.28229381,0.471818,0.401357,-0.24262873,0.436191,0.41091235,-0.27454293,0.467675,0.36385548,-0.25726556,0.445907,0.33156606,-0.2371578,0.435313,0.31885625,-0.22042531,0.432238,0.34816669,-0.20478639,0.406604,0.31624557,-0.16125555,0.365259,0.31066967,-0.14736979,0.35681,0.30438758,-0.14700122,0.349129,0.36930507,-0.2027833,0.402259,0.33131396,-0.16373625,0.358598,0.30905543,-0.14190247,0.333129,0.30779691,-0.1354567,0.330807,0.39039931,-0.20563671,0.402522,0.3535768,-0.17434368,0.363222,0.33469519,-0.15889372,0.343115,0.33226206,-0.15183785,0.339937,0.42156907,-0.21692011,0.409523,0.39018963,-0.19024294,0.375599,0.37567548,-0.1786044,0.360013,0.37455313,-0.17393869,0.357466
0.43130827,-0.2926039,0.468854,0.39769139,-0.25475652,0.432293,0.4071949,-0.28433833,0.464131,0.3585336,-0.26674959,0.44187,0.32195303,-0.24858234,0.426737,0.30284905,-0.23285049,0.418225,0.34492046,-0.21695152,0.401316,0.31403314,-0.17429779,0.359404,0.30832063,-0.15890031,0.349721,0.30174982,-0.15854904,0.340918,0.36658961,-0.21571251,0.397473,0.32961547,-0.17649052,0.353189,0.30787525,-0.15428335,0.327356,0.30701806,-0.1457869,0.324507,0.3879655,-0.21910482,0.398249,0.35446737,-0.18474476,0.358351,0.33713533,-0.16761824,0.337939,0.3366466,-0.15965154,0.334691,0.419197,-0.23083679,0.406021,0.38953287,-0.20098024,0.373338,0.37578072,-0.18759985,0.358321,0.37628106,-0.1821344,0.357128
0.42578197,-0.30260872,0.464202,0.39371353,-0.26552424,0.426656,0.4014513,-0.29394048,0.458791,0.35364976,-0.27745191,0.436697,0.31708603,-0.25749356,0.421449,0.29962423,-0.24050001,0.413986,0.34072866,-0.22711656,0.394116,0.30934974,-0.18584776,0.351669,0.30175673,-0.17054867,0.339792,0.29333048,-0.17067931,0.328994,0.36294005,-0.22654875,0.390898,0.32556258,-0.18740696,0.346316,0.30357818,-0.16517044,0.320309,0.30247407,-0.1572441,0.31714,0.38472441,-0.23048529,0.392295,0.35236003,-0.19416894,0.353605,0.33559707,-0.17608594,0.33381,0.33669105,-0.168206,0.332057,0.41636768,-0.24283248,0.400974,0.38686965,-0.21283479,0.368105,0.37317756,-0.19935463,0.353003,0.37383843,-0.19429615,0.351741
0.42887969,-0.31780535,0.465054,0.39626588,-0.2844714,0.428196,0.40735094,-0.31882309,0.460761,0.36039495,-0.29679459,0.438916,0.32366202,-0.27664899,0.423212,0.30507724,-0.2599356,0.414617,0.34192914,-0.24972954,0.397578,0.3090429,-0.20853021,0.355351,0.2989244,-0.19328708,0.341626,0.28924939,-0.18741722,0.329149,0.36300659,-0.24742764,0.393093,0.32409434,-0.20745626,0.348514,0.30129301,-0.18483632,0.322509,0.29925131,-0.17749681,0.319185,0.38415377,-0.24972311,0.393371,0.34901566,-0.21341586,0.354478,0.330935,-0.19525988,0.334579,0.33008983,-0.18795167,0.332252,0.41554755,-0.25976973,0.400623,0.38517234,-0.22958971,0.367452,0.37109633,-0.21598311,0.352212,0.37114109,-0.21125952,0.350605
0.43020349,-0.33014833,0.466492,0.39444697,-0.29376048,0.428733,0.40577748,-0.32290498,0.461416,0.35758871,-0.30277562,0.439489,0.32018974,-0.2825558,0.422086,0.30342458,-0.26252862,0.413641,0.34072316,-0.25915899,0.396483,0.30775436,-0.216474,0.35386,0.29815147,-0.2012594,0.340569,0.28896188,-0.19704339,0.328487,0.36253125,-0.25758943,0.392772,0.32377388,-0.21691752,0.34821,0.30106159,-0.19403423,0.322215,0.29900495,-0.18690642,0.318811,0.38408276,-0.26038849,0.393786,0.34923169,-0.22374763,0.354907,0.3312912,-0.20539427,0.335016,0.33045578,-0.19830151,0.332581,0.41560944,-0.27082975,0.402061,0.38575281,-0.24077514,0.368709,0.37189853,-0.22718998,0.353385,0.37198118,-0.22274708,0.351569
0.43472927,-0.34883089,0.476285,0.40560044,-0.31557506,0.437724,0.40724506,-0.34723058,0.467753,0.36175561,-0.3184118,0.442854,0.32397329,-0.29368836,0.421865,0.30585229,-0.2761454,0.410862,0.35345438,-0.27671246,0.400429,0.31459329,-0.23448026,0.357983,0.3035339,-0.22065573,0.346207,0.29367451,-0.21197672,0.335501,0.37861559,-0.27802109,0.401,0.344668,-0.24100783,0.354348,0.32441875,-0.21962392,0.327135,0.32317622,-0.22017958,0.321414,0.40242794,-0.28334746,0.405625,0.37423174,-0.25161328,0.364018,0.3593399,-0.23560003,0.342731,0.36010947,-0.23045814,0.337065,0.43565209,-0.29700578,0.418242,0.40177014,-0.26705848,0.384302,0.38617406,-0.25357251,0.368708,0.38414225,-0.2494188,0.366149
0.43311957,-0.36298967,0.477494,0.40480342,-0.32648832,0.438434,0.40744829,-0.35323195,0.468823,0.36023053,-0.32849516,0.442729,0.32079085,-0.30605525,0.419552,0.30070381,-0.28935663,0.40633,0.35218873,-0.28709831,0.40062,0.31318528,-0.24426195,0.357942,0.30277873,-0.23097812,0.34692,0.29350429,-0.22283257,0.3369,0.37740164,-0.28844167,0.401234,0.34322284,-0.25079748,0.354277,0.3228582,-0.2314138,0.326885,0.32049474,-0.23440394,0.320573,0.40131269,-0.29385288,0.40595,0.37294789,-0.26153966,0.364111,0.35796608,-0.24520899,0.342705,0.35809812,-0.23982809,0.336463,0.43475246,-0.30770334,0.418765,0.40078472,-0.2772487,0.384687,0.38515091,-0.26351977,0.36903,0.38288936,-0.25934134,0.366267
0.44898252,-0.39202531,0.509552,0.41358787,-0.35283903,0.47063,0.40798444,-0.37786633,0.495969,0.36776401,-0.35919967,0.461813,0.32788088,-0.32979588,0.432354,0.30680471,-0.30847364,0.413074,0.35879411,-0.3107586,0.42651,0.3313567,-0.27560185,0.383034,0.32386526,-0.27058414,0.369257,0.31515164,-0.27332435,0.356733,0.38989537,-0.31747103,0.433562,0.34744573,-0.31551519,0.386802,0.32020032,-0.29007801,0.359526,0.31117173,-0.28144561,0.351379,0.41861678,-0.32703924,0.443563,0.37763484,-0.32304821,0.400741,0.35358918,-0.30301465,0.378833,0.34288179,-0.29429065,0.370402,0.45719099,-0.34525567,0.462488,0.41320401,-0.33724083,0.425585,0.38999858,-0.32368963,0.40863,0.37818928,-0.31655142,0.401685
0.43629287,-0.39964294,0.517026,0.4073256,-0.3642876,0.475857,0.41052925,-0.38456813,0.506017,0.37388587,-0.3773263,0.473956,0.33932353,-0.35135099,0.446501,0.32009588,-0.32880749,0.42647,0.36214908,-0.31555313,0.433565,0.31118489,-0.31182587,0.389601,0.31329682,-0.3172917,0.390887,0.31950254,-0.30967331,0.392056,0.38478286,-0.32888109,0.436648,0.32903046,-0.32192363,0.388669,0.30388182,-0.29657583,0.360681,0.2955387,-0.28441126,0.350489,0.40833324,-0.34428526,0.443624,0.35549151,-0.33502598,0.401077,0.32982768,-0.31488382,0.379308,0.31576573,-0.30489858,0.369248,0.44053097,-0.36946207,0.45946,0.38982571,-0.35370144,0.422733,0.36531094,-0.33907467,0.405858,0.35035533,-0.33179705,0.397661
0.39341815,-0.39357357,0.474956,0.38475315,-0.34282636,0.435936,0.37350205,-0.3671408,0.463176,0.35557877,-0.35167785,0.434406,0.33713755,-0.33446484,0.406478,0.32939622,-0.31620649,0.389138,0.34791195,-0.28060001,0.394098,0.29636524,-0.26935303,0.351163,0.29167808,-0.28195888,0.356123,0.28938444,-0.29038745,0.360633,0.3722469,-0.29780657,0.398774,0.32729818,-0.27534657,0.351587,0.29134036,-0.2670911,0.324062,0.27743194,-0.27088518,0.316942,0.39304543,-0.31898221,0.40683,0.37378169,-0.28298603,0.365849,0.35617524,-0.2717376,0.344881,0.35289067,-0.27120831,0.338153,0.42033519,-0.35347951,0.423516,0.39320031,-0.32235015,0.386755,0.38044525,-0.30806141,0.369865,0.37823867,-0.30283806,0.363824
0.39052972,-0.39234241,0.468689,0.38297858,-0.35064911,0.42981,0.37019702,-0.36614439,0.456358,0.35208342,-0.35701253,0.426719,0.33110371,-0.33924887,0.398426,0.32165958,-0.32058627,0.380615,0.34636274,-0.28936374,0.387352,0.29093006,-0.27909985,0.344172,0.28662689,-0.28619413,0.348935,0.28296923,-0.29254593,0.353266,0.36982924,-0.30927366,0.392783,0.330687,-0.28333022,0.3457,0.3076347,-0.2677268,0.318235,0.2933299,-0.27196962,0.310998,0.39113058,-0.33076988,0.401446,0.37479459,-0.29074871,0.361038,0.35580042,-0.28141102,0.340364,0.35116068,-0.28287404,0.333665,0.41901511,-0.3647642,0.418809,0.39416541,-0.32846402,0.381994,0.38160087,-0.31324892,0.365079,0.37896371,-0.3083275,0.358914
0.39250241,-0.39696652,0.46799,0.38556753,-0.36005575,0.428793,0.37416477,-0.37607375,0.455892,0.35445983,-0.36728232,0.426073,0.3317707,-0.34762401,0.397742,0.32151952,-0.32427421,0.380456,0.34658923,-0.29805543,0.38642,0.2915111,-0.28749393,0.343259,0.28721456,-0.29425529,0.347739,0.28356993,-0.30030525,0.351812,0.37053342,-0.31714421,0.391462,0.32989002,-0.29092457,0.344192,0.30600303,-0.2751061,0.316617,0.29156577,-0.27929074,0.309106,0.39248253,-0.33813584,0.399838,0.37465373,-0.29624746,0.359003,0.353806,-0.28728637,0.338111,0.34733674,-0.28919194,0.331058,0.42157296,-0.37185553,0.416929,0.39558251,-0.33388979,0.380075,0.38250892,-0.318104,0.363142,0.37822678,-0.30929902,0.356796
0.40634716,-0.41447657,0.472105,0.39305483,-0.37066058,0.432351,0.38638308,-0.39141273,0.462801,0.34671405,-0.39058504,0.4335,0.31116908,-0.35809445,0.408829,0.29827081,-0.3368699,0.396715,0.35147437,-0.31161779,0.393239,0.29800191,-0.30187549,0.351651,0.29410541,-0.31018988,0.356576,0.29114995,-0.31705437,0.361054,0.37288875,-0.3276034,0.39449,0.32924012,-0.29994785,0.347082,0.30372722,-0.28330263,0.319427,0.289453,-0.28776577,0.312163,0.39322977,-0.34595432,0.399804,0.3717436,-0.30287964,0.357823,0.34806908,-0.29379481,0.336344,0.33941554,-0.29621169,0.329229,0.42143129,-0.37646323,0.413444,0.39395387,-0.33920769,0.377197,0.38022153,-0.32365874,0.360543,0.3771848,-0.31417766,0.35458
0.41024457,-0.42003531,0.468631,0.39016527,-0.37103888,0.427965,0.38768311,-0.39633666,0.4579,0.34392855,-0.39559784,0.427507,0.30664622,-0.36231445,0.402289,0.29275542,-0.34082586,0.390338,0.34522605,-0.31398475,0.386376,0.30209153,-0.29763653,0.343668,0.30173391,-0.31045109,0.346465,0.30115896,-0.32301951,0.349007,0.36897269,-0.32972335,0.389236,0.32455422,-0.30213802,0.341317,0.29859554,-0.2854303,0.313364,0.28344654,-0.28855721,0.304328,0.390547,-0.34541369,0.395973,0.36834147,-0.3019678,0.354091,0.3443235,-0.29324442,0.332662,0.33591318,-0.29653097,0.326118,0.42127923,-0.37703458,0.411437,0.39230216,-0.33963594,0.374673,0.37798028,-0.32396009,0.357782,0.37313267,-0.3171985,0.350438
0.41178495,-0.42249334,0.467301,0.39130386,-0.37719249,0.426905,0.39031844,-0.40515707,0.457211,0.3416866,-0.38686995,0.427403,0.30004476,-0.36126703,0.40343,0.28224938,-0.34260644,0.392997,0.34214433,-0.32219851,0.386334,0.30059986,-0.30481558,0.342636,0.30209602,-0.31883065,0.346188,0.30224035,-0.32816945,0.349417,0.36748493,-0.33193652,0.388433,0.32865447,-0.28967454,0.340638,0.2994512,-0.28297505,0.312758,0.28518743,-0.28649246,0.304394,0.39033774,-0.34878315,0.394515,0.36610325,-0.30437924,0.352448,0.34198631,-0.29632227,0.330925,0.33310021,-0.30000285,0.323934,0.42239106,-0.37796765,0.409168,0.3913118,-0.34216326,0.372576,0.37643102,-0.32661963,0.355763,0.37149202,-0.31788729,0.34895
0.41475353,-0.42597062,0.46885,0.39428627,-0.38274477,0.428525,0.39262065,-0.40829429,0.458685,0.34293141,-0.38800821,0.428756,0.30126344,-0.36221453,0.404642,0.2832031,-0.34396535,0.394138,0.34408146,-0.32541231,0.387905,0.30320132,-0.30772503,0.344176,0.30523068,-0.32182434,0.347833,0.3067966,-0.3358744,0.351158,0.3688528,-0.33803312,0.390121,0.33404059,-0.29264107,0.342347,0.30435006,-0.28231663,0.314479,0.29055467,-0.28614372,0.306205,0.39268194,-0.35374805,0.396291,0.36704049,-0.30868125,0.353884,0.34264517,-0.3029531,0.332188,0.33271422,-0.30502113,0.324483,0.42620751,-0.38141788,0.411033,0.39823956,-0.34566666,0.374187,0.38451547,-0.33004511,0.357258,0.38120205,-0.32510918,0.350883
0.41867078,-0.43082487,0.468941,0.39546752,-0.38406972,0.428745,0.39435203,-0.41007349,0.459014,0.34464589,-0.3914746,0.429312,0.30484203,-0.36470727,0.406262,0.28409191,-0.34540983,0.394685,0.34539649,-0.32925888,0.388523,0.30502529,-0.31134429,0.344839,0.30765289,-0.32582826,0.348801,0.30849553,-0.33865743,0.352404,0.37010016,-0.34126686,0.390463,0.33493819,-0.29331636,0.342765,0.30519399,-0.2832407,0.314942,0.29182462,-0.28748724,0.306927,0.39392637,-0.35637066,0.396393,0.36735384,-0.30940476,0.353847,0.34274884,-0.30336385,0.332079,0.32960627,-0.30551697,0.32412,0.42692575,-0.38213076,0.410831,0.39756141,-0.3483508,0.37399,0.38210817,-0.3367328,0.357063,0.37931907,-0.32902694,0.350726
0.41997251,-0.4315573,0.468976,0.39611071,-0.38464763,0.428757,0.39566735,-0.41131074,0.459341,0.34569572,-0.39161838,0.430002,0.3050425,-0.36613325,0.4072,0.28448707,-0.3465224,0.394834,0.3458622,-0.33005959,0.388897,0.30564051,-0.3118432,0.345229,0.30838387,-0.32621575,0.349222,0.30959068,-0.33932496,0.352853,0.37031117,-0.34161945,0.390452,0.33516458,-0.29348753,0.34278,0.30559332,-0.28325957,0.314971,0.29247055,-0.28773376,0.306987,0.39395262,-0.35634394,0.396067,0.36626029,-0.31120739,0.353407,0.34146103,-0.30381288,0.331581,0.32827471,-0.30653533,0.323611,0.42681399,-0.38186117,0.410145,0.39677573,-0.34871689,0.373346,0.38146947,-0.33615365,0.356439,0.37806074,-0.32981049,0.350102
0.42074765,-0.43195085,0.468897,0.3964121,-0.38491226,0.428673,0.39641656,-0.41200285,0.459411,0.34623363,-0.39153148,0.430261,0.30549853,-0.36672008,0.407454,0.28461846,-0.34706063,0.394777,0.34602574,-0.33039406,0.389006,0.3058838,-0.3120269,0.345351,0.3086929,-0.32634924,0.349368,0.31015814,-0.33962639,0.353019,0.37033944,-0.34172452,0.390365,0.33522399,-0.29352332,0.342711,0.30576058,-0.28320397,0.314914,0.29279259,-0.28781645,0.306953,0.39388015,-0.35625317,0.395818,0.36543308,-0.31149114,0.353113,0.3407464,-0.30397803,0.331265,0.32754871,-0.30699353,0.323299,0.42672062,-0.38167616,0.409709,0.39629892,-0.34882627,0.372945,0.38106713,-0.33579365,0.356054,0.37735902,-0.33013967,0.349723
0.42029168,-0.43097554,0.468035,0.39512714,-0.38268341,0.428101,0.39587356,-0.41112629,0.458539,0.3452458,-0.38818392,0.429261,0.30576363,-0.36486189,0.407366,0.28494983,-0.34641948,0.394921,0.34506081,-0.32839455,0.388618,0.30471231,-0.30957221,0.345086,0.30778793,-0.32413808,0.349594,0.30973444,-0.33756924,0.353692,0.36939225,-0.33989224,0.390069,0.33468568,-0.29259914,0.342544,0.30515599,-0.28199971,0.314822,0.29275688,-0.28740315,0.307278,0.39268375,-0.35361079,0.395567,0.36349885,-0.31013651,0.352979,0.34017871,-0.29840328,0.331189,0.33121559,-0.30215902,0.323641,0.42552515,-0.38038052,0.409456,0.39364516,-0.34310527,0.372821,0.37917603,-0.32757181,0.355988,0.37551376,-0.32246175,0.349913
0.41886721,-0.42818985,0.467669,0.39511852,-0.38189704,0.427946,0.3957399,-0.41014731,0.458103,0.34713172,-0.38190801,0.428665,0.31132028,-0.35931288,0.408694,0.29038598,-0.34176753,0.393803,0.34438648,-0.32501585,0.388516,0.30382029,-0.30415566,0.34522,0.30657669,-0.31873781,0.350058,0.30947722,-0.33456679,0.354456,0.36885787,-0.33441021,0.390115,0.33390351,-0.2872032,0.342684,0.30447722,-0.27721842,0.315015,0.29314469,-0.2864525,0.307748,0.39196149,-0.34991112,0.395712,0.36332073,-0.30662155,0.353208,0.34122978,-0.29685554,0.331461,0.33147778,-0.30097661,0.324189,0.42558365,-0.3770722,0.409677,0.39435919,-0.34143699,0.373122,0.37993434,-0.32601983,0.356326,0.37590226,-0.32107965,0.350423
0.41827111,-0.42729135,0.466942,0.39378803,-0.37859693,0.427427,0.39410792,-0.40706366,0.457316,0.34735617,-0.3783168,0.427738,0.30956055,-0.35519047,0.406409,0.2918251,-0.33516211,0.392503,0.34602486,-0.31851192,0.388059,0.30552408,-0.29840542,0.344701,0.31263842,-0.3116964,0.349833,0.31679388,-0.3248593,0.354498,0.36990431,-0.33133717,0.389794,0.33463922,-0.28680075,0.342463,0.30528033,-0.27848426,0.314853,0.29333075,-0.28646144,0.307847,0.39184265,-0.34594054,0.395481,0.365748,-0.30308068,0.353075,0.34265075,-0.29281236,0.331379,0.33322178,-0.29788703,0.324372,0.42577957,-0.37600748,0.40951,0.39700058,-0.33894493,0.372967,0.38194389,-0.32528727,0.356178,0.37652966,-0.3210509,0.350485
0.42164094,-0.42952648,0.468767,0.39661113,-0.37577315,0.429457,0.39661557,-0.40927982,0.458736,0.34778131,-0.37747668,0.428606,0.31117636,-0.35823158,0.410594,0.29053881,-0.3381417,0.397176,0.34774127,-0.31689068,0.3897,0.30675891,-0.29908718,0.346456,0.31022016,-0.31505646,0.351786,0.31300705,-0.33089575,0.356632,0.37231057,-0.32991814,0.392019,0.33610005,-0.27940725,0.34475,0.30669658,-0.27454885,0.317176,0.29524025,-0.28152891,0.310338,0.39668725,-0.33974493,0.398165,0.36544819,-0.29668544,0.355825,0.34368965,-0.28691706,0.334163,0.33559448,-0.29560739,0.327327,0.43152035,-0.36597328,0.412688,0.40013925,-0.33234115,0.376143,0.38521625,-0.31783528,0.359353,0.38230785,-0.32053409,0.353742
0.42381907,-0.42958989,0.469975,0.40025017,-0.36952795,0.431073,0.39770886,-0.40790436,0.459576,0.34964502,-0.37647332,0.431514,0.31449741,-0.35717426,0.416567,0.29425245,-0.3374257,0.401981,0.34857764,-0.31364643,0.391116,0.30972623,-0.29846168,0.348054,0.31442341,-0.31331663,0.353826,0.31864635,-0.32788118,0.359073,0.37453281,-0.32482158,0.394024,0.33960169,-0.27925529,0.346954,0.30985732,-0.27175532,0.319497,0.29842199,-0.2767367,0.313054,0.39943351,-0.33932304,0.400612,0.36861752,-0.29840014,0.358431,0.34724462,-0.28901718,0.33685,0.33912227,-0.29702256,0.330403,0.43433846,-0.36556433,0.41557,0.40368201,-0.33223574,0.37911,0.38908854,-0.31787258,0.362358,0.38567498,-0.31504707,0.356963
0.4288078,-0.42651838,0.474625,0.40485497,-0.36737548,0.435996,0.40276601,-0.40434034,0.463888,0.35360017,-0.37229558,0.435655,0.31893122,-0.35478789,0.420683,0.29848599,-0.3343221,0.407737,0.35292822,-0.30757934,0.395783,0.31381666,-0.29106453,0.352819,0.31869057,-0.30566307,0.358813,0.32449067,-0.32793931,0.364263,0.37943203,-0.31861835,0.399207,0.34444764,-0.27305174,0.352276,0.31507765,-0.26594151,0.3249,0.30476472,-0.27571372,0.318668,0.40483664,-0.33303434,0.40619,0.37347853,-0.29389841,0.364103,0.35222358,-0.2848197,0.34257,0.34504356,-0.29496518,0.336324,0.44039615,-0.35924287,0.421556,0.40971416,-0.32600895,0.385142,0.39513248,-0.31171317,0.368411,0.39250656,-0.31325227,0.363086
0.42784195,-0.41263911,0.471349,0.40711388,-0.3538854,0.436836,0.40339723,-0.39176937,0.462874,0.35554867,-0.36073603,0.436374,0.32195193,-0.34582762,0.424371,0.30161848,-0.3302018,0.412104,0.35885022,-0.30315881,0.402362,0.32290598,-0.28943958,0.362931,0.33169173,-0.30736769,0.373476,0.33958338,-0.32490009,0.383062,0.38410627,-0.31253364,0.403965,0.35178804,-0.26942521,0.360311,0.3242869,-0.26438193,0.334846,0.3174678,-0.27425743,0.332948,0.40801833,-0.32512998,0.409006,0.37960931,-0.28862614,0.370003,0.35990082,-0.28124411,0.350048,0.35626483,-0.29066552,0.348182,0.44103863,-0.34838876,0.421344,0.41246473,-0.31763047,0.387353,0.39890203,-0.30446434,0.371736,0.39896181,-0.30420621,0.3697
0.43378465,-0.40561062,0.47574,0.40806903,-0.35130164,0.437954,0.40851583,-0.38767919,0.466778,0.35990369,-0.36220434,0.441429,0.32475553,-0.34588367,0.428047,0.30424928,-0.32677326,0.41679,0.35555216,-0.29371224,0.400624,0.31655179,-0.27641235,0.358476,0.32207432,-0.29023131,0.365916,0.3269608,-0.30373746,0.372681,0.38048899,-0.30230084,0.401967,0.34434402,-0.25604725,0.355797,0.31546275,-0.24937388,0.328864,0.30633756,-0.25703973,0.323945,0.40474656,-0.31472444,0.407145,0.3728108,-0.27527091,0.365844,0.35168659,-0.26643828,0.344714,0.34492261,-0.27268476,0.339813,0.439316,-0.33871235,0.420258,0.40804638,-0.30569419,0.384578,0.39326158,-0.29152958,0.368185,0.39063295,-0.28888203,0.363986
0.43583777,-0.39689095,0.475758,0.40986414,-0.33754229,0.438451,0.41164379,-0.38049539,0.468437,0.36481179,-0.35637636,0.447782,0.32903809,-0.34018511,0.436074,0.30685279,-0.3233476,0.422415,0.35890961,-0.28591853,0.403584,0.32892309,-0.24542755,0.361567,0.33360153,-0.26137259,0.369544,0.34575886,-0.29008232,0.389311,0.38221567,-0.2925265,0.40292,0.34086603,-0.26457668,0.357418,0.31645529,-0.25113587,0.330875,0.30819856,-0.25989034,0.326555,0.40497731,-0.3031904,0.406394,0.36317426,-0.26179227,0.367024,0.34057128,-0.25561852,0.346882,0.33524165,-0.26503805,0.342985,0.43765956,-0.32490803,0.417439,0.40638394,-0.29422742,0.382722,0.39177541,-0.28059509,0.366771,0.38949876,-0.27812737,0.363075
0.44625827,-0.38392681,0.483852,0.41490527,-0.33171645,0.445536,0.42147442,-0.36953311,0.476792,0.37541234,-0.34656134,0.453898,0.34112242,-0.33392862,0.441749,0.31672777,-0.31486654,0.426356,0.3627859,-0.28977457,0.410325,0.32537521,-0.24854234,0.368105,0.32807245,-0.26619964,0.374894,0.34211207,-0.29313738,0.394266,0.38583756,-0.2953467,0.409045,0.34380746,-0.26063844,0.362953,0.31934045,-0.24544494,0.336067,0.31250813,-0.25213351,0.330658,0.40856632,-0.304781,0.412121,0.36815153,-0.26403124,0.372433,0.34690609,-0.24836728,0.352128,0.33992462,-0.25503416,0.347206,0.43973925,-0.31966126,0.422893,0.4083635,-0.28973289,0.38755,0.39376522,-0.27621974,0.371312,0.3924128,-0.27648478,0.366877
0.44908821,-0.38216797,0.48744,0.41693604,-0.33255502,0.449569,0.42403858,-0.36830805,0.480366,0.37579939,-0.34660653,0.455958,0.34155043,-0.33413832,0.444082,0.31680397,-0.31478727,0.428412,0.362428,-0.28954101,0.41464,0.32459709,-0.24619685,0.372541,0.32763958,-0.26377185,0.379866,0.34427803,-0.29392153,0.399405,0.38358455,-0.29168625,0.4135,0.34351777,-0.25791631,0.367686,0.31906461,-0.242436,0.34096,0.31513449,-0.25273051,0.336045,0.40666786,-0.29986014,0.416643,0.36750452,-0.25966125,0.377028,0.34650956,-0.245358,0.35676,0.34243233,-0.25544543,0.352278,0.44040232,-0.31727841,0.42741,0.40973821,-0.28404629,0.391985,0.39544626,-0.26913147,0.375708,0.39363877,-0.26377393,0.371689
0.45082442,-0.37212134,0.489807,0.42014178,-0.32223345,0.452131,0.42615095,-0.36023023,0.483249,0.37730055,-0.33896269,0.460418,0.34006924,-0.32366698,0.445465,0.31613026,-0.3047165,0.431002,0.36831887,-0.28192862,0.418008,0.33932707,-0.24485582,0.375753,0.32408547,-0.23060662,0.354815,0.31942289,-0.23963913,0.350513,0.39150169,-0.28488458,0.41625,0.34930503,-0.25035694,0.370706,0.32412071,-0.23524362,0.344139,0.31855972,-0.24261916,0.339403,0.4139475,-0.29156732,0.418862,0.372716,-0.25323527,0.379784,0.35140579,-0.23843275,0.35979,0.34580731,-0.24456558,0.355576,0.44598637,-0.30682949,0.428976,0.41279471,-0.27602708,0.394024,0.39745068,-0.26204503,0.377964,0.39467819,-0.25684617,0.374047
0.45003801,-0.3586761,0.490458,0.42049861,-0.3121228,0.452515,0.42562781,-0.34770805,0.483888,0.37777666,-0.32919217,0.460999,0.339002,-0.31261454,0.444067,0.31631069,-0.29496215,0.431248,0.36848276,-0.2718131,0.418194,0.33933339,-0.23496732,0.37576,0.32383703,-0.22069728,0.354543,0.31837034,-0.22900857,0.349358,0.39162208,-0.27470698,0.416378,0.34926168,-0.24042819,0.37066,0.32398038,-0.22547352,0.34399,0.3181458,-0.23251138,0.338962,0.41405621,-0.28134511,0.418972,0.37269441,-0.24336337,0.379762,0.35131886,-0.22871744,0.359701,0.34544456,-0.23452434,0.355203,0.44613088,-0.29657091,0.429115,0.41280938,-0.26609132,0.394038,0.39740546,-0.25227207,0.377921,0.39440807,-0.24684801,0.373791
0.45235394,-0.35538662,0.493025,0.42263736,-0.30342797,0.455211,0.42802538,-0.33914494,0.486668,0.38057218,-0.33045957,0.463266,0.34572151,-0.30474245,0.447561,0.33137693,-0.28748257,0.442074,0.37072365,-0.26270755,0.421255,0.32853079,-0.21961057,0.381558,0.30847915,-0.22048758,0.361709,0.30808245,-0.23121989,0.359273,0.39370268,-0.26590058,0.419197,0.35112926,-0.23224167,0.373624,0.3256778,-0.21733289,0.34704,0.31964072,-0.22397972,0.342132,0.41602483,-0.27280329,0.421578,0.37453807,-0.23539573,0.38236,0.35303165,-0.22062821,0.362295,0.3468888,-0.22597901,0.357875,0.44799258,-0.28837558,0.431449,0.4123006,-0.25324032,0.397014,0.39797968,-0.25246459,0.381193,0.39064364,-0.25513,0.377144
0.4639831,-0.36240275,0.507014,0.42970766,-0.31178196,0.470569,0.43891419,-0.34707169,0.500794,0.39141154,-0.32744057,0.475242,0.35345529,-0.30755101,0.456608,0.33736796,-0.28935553,0.449057,0.37705704,-0.27249288,0.437721,0.34054938,-0.22904444,0.397675,0.32117894,-0.22157313,0.377652,0.31944824,-0.23726173,0.374826,0.40004294,-0.27423984,0.435859,0.36144823,-0.23963274,0.391251,0.33857233,-0.22220072,0.365229,0.33576877,-0.22255007,0.361718,0.42250763,-0.27995538,0.438254,0.38540527,-0.24453473,0.39956,0.36631591,-0.22824058,0.379763,0.36306236,-0.22623944,0.376637,0.45485258,-0.29415644,0.447885,0.42337839,-0.26241065,0.414007,0.40858733,-0.25221871,0.398441,0.40536001,-0.25722017,0.395409
0.47693339,-0.3724706,0.524673,0.44406521,-0.31896422,0.490745,0.44389042,-0.35208373,0.515183,0.39456739,-0.3332084,0.495435,0.35487179,-0.31387694,0.476241,0.33484639,-0.29932622,0.46705,0.39595464,-0.27636792,0.455347,0.35786014,-0.2363685,0.415817,0.33937897,-0.22182739,0.396052,0.33855903,-0.23111957,0.394492,0.42299165,-0.27991481,0.458432,0.39293643,-0.23202704,0.415099,0.37300123,-0.22877048,0.389822,0.36953668,-0.24061137,0.388205,0.4477734,-0.28727461,0.464629,0.42145102,-0.24566151,0.425918,0.40786622,-0.23553457,0.406112,0.40721733,-0.24593185,0.404528,0.48098978,-0.30366822,0.4782,0.44727794,-0.27112756,0.444138,0.43196279,-0.25753172,0.428488,0.43044512,-0.25271274,0.426581
0.4719663,-0.36554722,0.523234,0.44344702,-0.31638314,0.491314,0.44150296,-0.35007174,0.514855,0.39395007,-0.32721289,0.496004,0.3548147,-0.3067719,0.476778,0.33548999,-0.29035972,0.46756,0.39596379,-0.27038212,0.458729,0.35746261,-0.22771458,0.421044,0.33897093,-0.21359179,0.402202,0.33940704,-0.22369194,0.402367,0.42235281,-0.27363244,0.460915,0.38790358,-0.22542391,0.419422,0.36766141,-0.224015,0.395218,0.36744192,-0.23715422,0.395278,0.44644515,-0.28083429,0.466155,0.42070048,-0.23938831,0.429147,0.40748975,-0.22906994,0.410212,0.40849106,-0.24010537,0.410321,0.47860812,-0.29720022,0.478238,0.44594468,-0.26460514,0.445596,0.43113232,-0.25102273,0.430599,0.43070344,-0.24646498,0.429982
0.4700295,-0.36120468,0.52714,0.44623925,-0.3120666,0.496393,0.44594512,-0.3508993,0.520547,0.40293,-0.32589716,0.503473,0.36354689,-0.30490299,0.484377,0.34737445,-0.28900587,0.478993,0.3979091,-0.26779146,0.466927,0.35899801,-0.22702152,0.430952,0.33977106,-0.20719503,0.412964,0.3388408,-0.21160344,0.414272,0.42282959,-0.26848018,0.467109,0.39121565,-0.22133518,0.426837,0.37205718,-0.21901017,0.403345,0.37220966,-0.23273541,0.404374,0.44601611,-0.27348569,0.470572,0.41878722,-0.23434373,0.434484,0.40510657,-0.22085765,0.416021,0.40795974,-0.23037556,0.417046,0.47766724,-0.28713681,0.480372,0.44599191,-0.257267,0.449052,0.43164925,-0.24502818,0.434662,0.43378803,-0.24577842,0.434898
0.47741308,-0.36658889,0.537084,0.45492507,-0.31350663,0.510315,0.45056173,-0.35433547,0.527527,0.40359999,-0.32691652,0.502445,0.36555476,-0.30374659,0.484435,0.35440915,-0.29036912,0.485074,0.4041444,-0.26633413,0.479692,0.36749334,-0.22796922,0.445118,0.34946069,-0.20952989,0.427831,0.35277377,-0.2172675,0.430672,0.43245549,-0.26772837,0.484821,0.40435201,-0.22081067,0.447785,0.39090175,-0.21094797,0.426181,0.39823847,-0.21600746,0.429207,0.45816178,-0.27376582,0.49193,0.43558392,-0.26873205,0.458131,0.41662982,-0.26950127,0.440838,0.41488421,-0.26978463,0.443675,0.49224874,-0.28947926,0.505213,0.46532563,-0.26219186,0.475131,0.45295675,-0.24996334,0.461309,0.45546763,-0.24662475,0.462746
0.47214756,-0.36102134,0.532368,0.45111274,-0.30664779,0.510121,0.44496884,-0.34801303,0.524361,0.40445006,-0.31725783,0.505817,0.3678183,-0.29508679,0.484325,0.35494154,-0.28369472,0.482124,0.40669016,-0.26033427,0.484586,0.37675253,-0.22284032,0.454197,0.36184825,-0.20439985,0.439003,0.36424941,-0.19640918,0.44461,0.43457322,-0.26176123,0.488933,0.40993679,-0.21513249,0.456557,0.3980379,-0.21007719,0.437671,0.40412091,-0.22587089,0.443488,0.45954608,-0.26757863,0.494911,0.42980135,-0.22730459,0.465229,0.41750872,-0.21549546,0.450043,0.42440495,-0.21391196,0.455655,0.49203134,-0.28258759,0.506031,0.46840983,-0.25325095,0.479272,0.45833123,-0.24263877,0.466977,0.46357554,-0.24068799,0.470505
0.48378833,-0.36580223,0.550186,0.45982253,-0.30572229,0.526614,0.45690407,-0.35162313,0.54136,0.41852481,-0.32295452,0.524203,0.38138651,-0.29913105,0.499924,0.35831505,-0.28005667,0.484778,0.41388491,-0.26236408,0.499114,0.38619606,-0.22806865,0.467493,0.37236661,-0.21110646,0.451682,0.37475915,-0.2030259,0.456445,0.44202618,-0.26374938,0.504165,0.41359189,-0.22429703,0.470228,0.39727028,-0.20264072,0.450431,0.4032338,-0.19849592,0.455346,0.46746131,-0.26965309,0.510865,0.44187882,-0.25255671,0.479761,0.43133516,-0.25728703,0.463847,0.43948331,-0.2719233,0.46855,0.50095119,-0.28500968,0.523072,0.47234719,-0.26299768,0.495203,0.4597254,-0.25410207,0.482399,0.46210708,-0.25376819,0.485252
0.47978022,-0.35211211,0.549245,0.4581571,-0.29153169,0.52569,0.45450772,-0.33808323,0.543016,0.41969476,-0.31206555,0.522251,0.37936007,-0.28645718,0.498794,0.36357282,-0.26988749,0.49378,0.41152429,-0.24961351,0.501583,0.38502943,-0.21277567,0.47083,0.37179756,-0.19462853,0.455453,0.37556927,-0.18612999,0.46085,0.43730197,-0.24866395,0.503256,0.41010413,-0.20410643,0.469724,0.39514529,-0.18422111,0.450164,0.40195404,-0.18480796,0.455566,0.46109693,-0.25273209,0.507173,0.43725843,-0.21381085,0.477119,0.42608827,-0.20149856,0.461743,0.433904,-0.19859325,0.467141,0.49331096,-0.26610909,0.516146,0.47419965,-0.24117965,0.489414,0.46533425,-0.22987258,0.477132,0.47158495,-0.22676773,0.480688
0.48087647,-0.34965021,0.54959,0.45952396,-0.2915633,0.52733,0.45595361,-0.33648006,0.543509,0.42205477,-0.31157628,0.523647,0.38223487,-0.28585791,0.500061,0.36657561,-0.26951325,0.495242,0.41282903,-0.25041884,0.504296,0.38724368,-0.2135942,0.474688,0.37461815,-0.19613925,0.459884,0.37904253,-0.18829115,0.465967,0.43860181,-0.24883976,0.50613,0.41155486,-0.20445186,0.473854,0.3971298,-0.18558817,0.455026,0.40427122,-0.1842336,0.461114,0.46239929,-0.25236625,0.51004,0.43938681,-0.21426597,0.48112,0.42689574,-0.19803895,0.466323,0.43692611,-0.19742218,0.47241,0.49464031,-0.26507538,0.518762,0.47634392,-0.24093385,0.492925,0.46786424,-0.22996826,0.481054,0.47458279,-0.22771034,0.485114
0.48346543,-0.35258164,0.551038,0.46445229,-0.29461309,0.533251,0.45723763,-0.33948675,0.544563,0.42659264,-0.31043934,0.528782,0.3908431,-0.27909963,0.50762,0.37936321,-0.26310005,0.506294,0.42010384,-0.2508927,0.51274,0.39823495,-0.21645075,0.486835,0.38730339,-0.19934137,0.473882,0.39246455,-0.19327303,0.481943,0.4470451,-0.25106705,0.516311,0.42359715,-0.21016962,0.488337,0.41282291,-0.19040745,0.472019,0.42133331,-0.18327828,0.480158,0.47147596,-0.25606467,0.521169,0.45140573,-0.22103108,0.495839,0.4414103,-0.20613869,0.48288,0.45125171,-0.20051793,0.490938,0.50389824,-0.27063085,0.53015,0.48695165,-0.24574224,0.506846,0.47911495,-0.23443356,0.496139,0.48786751,-0.23296497,0.501492
0.48405557,-0.34665187,0.554414,0.46716795,-0.29366985,0.538723,0.45923431,-0.33369374,0.54786,0.42945311,-0.30606986,0.536673,0.39387553,-0.27980725,0.511425,0.37957581,-0.26191372,0.505879,0.42469612,-0.25181224,0.519532,0.4032716,-0.21337363,0.495495,0.39304701,-0.19549427,0.483476,0.39987388,-0.18686453,0.492398,0.45232946,-0.25209897,0.523779,0.43067245,-0.20890674,0.497897,0.41920735,-0.18701771,0.482799,0.42854134,-0.17966188,0.491814,0.47562758,-0.25422587,0.528967,0.4579646,-0.22032662,0.505459,0.44911786,-0.2038581,0.493431,0.46004147,-0.2004423,0.502348,0.50734483,-0.26795513,0.537939,0.49252481,-0.24399551,0.516031,0.48567052,-0.2330874,0.505965,0.49529553,-0.23335285,0.511944
0.48448058,-0.34111709,0.554252,0.47029966,-0.28346845,0.541414,0.46068263,-0.33187684,0.54949,0.43694305,-0.30143745,0.542717,0.40055024,-0.27381979,0.517183,0.38367062,-0.2589148,0.509195,0.43075643,-0.24454391,0.526493,0.41388025,-0.20893706,0.505643,0.40544169,-0.19120345,0.495218,0.4140956,-0.18231313,0.505677,0.45710389,-0.24381347,0.529186,0.43820125,-0.20235391,0.506474,0.42804205,-0.18218982,0.493225,0.43812314,-0.17470134,0.503694,0.48055809,-0.24772419,0.532788,0.46535542,-0.21387088,0.512333,0.45795863,-0.19861823,0.501867,0.46962781,-0.19303303,0.512303,0.51085581,-0.26034779,0.539381,0.49924752,-0.23668151,0.520457,0.49388243,-0.22588265,0.511763,0.50366528,-0.22282554,0.519071
0.48686382,-0.34108878,0.557379,0.47235353,-0.28483198,0.544729,0.46300438,-0.33172098,0.552561,0.43877287,-0.30224945,0.54559,0.4029818,-0.27444505,0.520442,0.38893896,-0.25674874,0.51462,0.4330976,-0.24567321,0.529864,0.41671267,-0.20982741,0.5092,0.40851944,-0.19198721,0.498869,0.4173937,-0.18297588,0.509399,0.45950934,-0.24509481,0.532681,0.44097285,-0.20360044,0.510152,0.43111725,-0.18327794,0.49701,0.44140186,-0.17566447,0.507544,0.48295975,-0.2491384,0.536365,0.46828272,-0.21571262,0.516035,0.46116903,-0.20073421,0.505633,0.47268135,-0.19772136,0.516122,0.51317128,-0.26192576,0.543018,0.50202133,-0.23814127,0.52436,0.49686437,-0.22728977,0.515787,0.50679783,-0.2241719,0.523194
0.48620466,-0.33998385,0.556334,0.47506339,-0.28963772,0.547993,0.46310561,-0.33104442,0.552396,0.44258682,-0.3041389,0.549905,0.41147474,-0.27242881,0.529684,0.40397548,-0.25542996,0.528866,0.43920084,-0.25043813,0.537202,0.42672749,-0.21561957,0.520811,0.4204574,-0.19853866,0.512616,0.4306414,-0.18900058,0.524879,0.46558557,-0.24993253,0.540051,0.45137009,-0.21073109,0.522124,0.44371796,-0.19006312,0.511667,0.45548684,-0.18245606,0.523918,0.48863718,-0.25387352,0.543296,0.47687054,-0.2219246,0.527,0.46952028,-0.2072778,0.518663,0.4815844,-0.20026175,0.530842,0.51775765,-0.26625535,0.54863,0.50904201,-0.24264298,0.533223,0.50504068,-0.23199344,0.526145,0.51586899,-0.22899387,0.534793
0.48695238,-0.34002497,0.556972,0.47600577,-0.29020785,0.548806,0.46378539,-0.33096997,0.552993,0.44334172,-0.30429012,0.55063,0.41235877,-0.27301411,0.530822,0.40449337,-0.25575742,0.529544,0.4400888,-0.25144041,0.538077,0.42758371,-0.21605221,0.521856,0.42138343,-0.19897592,0.513745,0.43171546,-0.18980498,0.526064,0.46653742,-0.25097126,0.541028,0.45251938,-0.21205214,0.523276,0.4448381,-0.19108926,0.512921,0.4565962,-0.18340754,0.525226,0.48966012,-0.25494403,0.544338,0.47761994,-0.22285389,0.528165,0.47063192,-0.20776856,0.519891,0.48273746,-0.20074124,0.532113,0.5189153,-0.26737865,0.549714,0.51001791,-0.24344824,0.534417,0.50593659,-0.23270976,0.527388,0.51667433,-0.22963259,0.536071
0.48935209,-0.34151032,0.560818,0.47946992,-0.29110237,0.553726,0.46686487,-0.33039077,0.558351,0.44395028,-0.29962682,0.556127,0.41432594,-0.27034948,0.540177,0.40506421,-0.251161,0.535471,0.44576931,-0.24941118,0.545696,0.43368371,-0.21451385,0.530664,0.42764099,-0.19705157,0.523148,0.43945715,-0.1920989,0.536002,0.47149116,-0.25342282,0.546971,0.45743576,-0.21234846,0.530611,0.45125422,-0.19399464,0.521068,0.46320812,-0.18607241,0.533933,0.49325269,-0.2573663,0.548785,0.48182613,-0.22552459,0.534018,0.47612004,-0.20978728,0.526462,0.48880075,-0.20298664,0.539292,0.52053439,-0.26972276,0.552225,0.51175162,-0.24525882,0.538016,0.50773212,-0.2344865,0.531487,0.51844501,-0.23136455,0.5406
0.4914231,-0.34277358,0.564466,0.47890332,-0.29001774,0.558561,0.46815517,-0.32953895,0.561677,0.44498422,-0.29976698,0.55898,0.41522783,-0.27019439,0.542642,0.40620802,-0.25141393,0.538924,0.44896572,-0.25086891,0.550919,0.43793115,-0.21620626,0.536936,0.43241411,-0.19882217,0.529944,0.44337005,-0.18982416,0.543153,0.47463092,-0.25241985,0.552937,0.46257071,-0.21453088,0.537765,0.45569915,-0.1937849,0.528914,0.46766083,-0.18560576,0.542146,0.49651312,-0.25798269,0.555235,0.48628267,-0.2266137,0.541378,0.4811415,-0.21126982,0.534288,0.49541449,-0.20578904,0.547439,0.52328573,-0.27216874,0.559012,0.51436168,-0.2476016,0.54539,0.51025787,-0.23701763,0.539132,0.52418293,-0.23455785,0.548435
0.49149587,-0.34198059,0.565936,0.47966024,-0.29041394,0.559989,0.46840286,-0.32959587,0.563123,0.44547934,-0.29991509,0.56012,0.41554142,-0.27015143,0.54348,0.40678065,-0.25161692,0.540328,0.4497257,-0.25118365,0.552287,0.4387183,-0.21645923,0.538258,0.43321495,-0.1990481,0.531243,0.4441779,-0.19002012,0.544435,0.47541686,-0.25278237,0.554326,0.46338126,-0.21483995,0.539105,0.45652407,-0.19406024,0.530227,0.4684867,-0.18585272,0.543441,0.49731631,-0.2583878,0.556645,0.48709785,-0.22696379,0.54274,0.48196929,-0.21165911,0.535625,0.49614736,-0.20612687,0.548757,0.52410625,-0.2726313,0.560456,0.51513516,-0.24813483,0.546794,0.51100612,-0.23759159,0.540517,0.52443311,-0.23504877,0.549806
0.49143976,-0.34169168,0.567543,0.48282503,-0.29361681,0.561225,0.46922641,-0.33047168,0.565011,0.44571695,-0.30106599,0.563156,0.41546151,-0.27019291,0.543371,0.40846834,-0.25235842,0.541752,0.45053027,-0.25237504,0.553636,0.43849363,-0.20794436,0.539469,0.43330634,-0.19726867,0.532386,0.44462907,-0.18966014,0.545537,0.47582871,-0.25375234,0.555207,0.46350959,-0.20506005,0.539689,0.45708577,-0.18094713,0.530637,0.46944877,-0.16935963,0.543771,0.49742359,-0.25916566,0.557181,0.48632573,-0.21209782,0.543204,0.4818275,-0.19469156,0.536054,0.49550271,-0.18493529,0.549165,0.52393333,-0.27317841,0.560661,0.51698317,-0.23617563,0.547601,0.51432195,-0.2184047,0.541601,0.51198993,-0.20263804,0.536306
0.49156814,-0.34102479,0.569092,0.48317546,-0.29417504,0.562184,0.46988402,-0.33117216,0.566522,0.44611637,-0.30201447,0.56451,0.4159445,-0.27056292,0.544,0.40953878,-0.25283865,0.542682,0.45076921,-0.25295369,0.554146,0.43843998,-0.20791892,0.539403,0.43285466,-0.19629132,0.532031,0.4439011,-0.18901506,0.544976,0.47596394,-0.25427464,0.555605,0.46331721,-0.20497494,0.539465,0.45657927,-0.18074662,0.530049,0.46876588,-0.16911327,0.54298,0.49753127,-0.25965479,0.557551,0.48617174,-0.21203066,0.543032,0.48142212,-0.19452776,0.535603,0.49491623,-0.18471639,0.548515,0.52413333,-0.27366497,0.561109,0.5170181,-0.23619159,0.547638,0.51417665,-0.218343,0.541448,0.51168539,-0.20251751,0.535987
0.49191632,-0.34119407,0.570424,0.4835522,-0.29466319,0.563036,0.47020962,-0.33097064,0.567798,0.44646089,-0.30265447,0.565455,0.41629915,-0.27083081,0.544462,0.41019171,-0.25312111,0.543221,0.45102127,-0.25339151,0.5546,0.4384156,-0.20790735,0.539373,0.43253559,-0.19568284,0.531759,0.44335576,-0.18855867,0.544529,0.47616598,-0.25468263,0.556001,0.46321157,-0.2049282,0.539342,0.45621318,-0.1806017,0.529624,0.46824876,-0.16892671,0.542381,0.49773895,-0.26005186,0.55795,0.48611802,-0.21200723,0.542972,0.48115786,-0.19442098,0.535309,0.49449667,-0.1845598,0.54805,0.52444718,-0.27408378,0.561601,0.51713234,-0.23624377,0.547759,0.51413012,-0.21832324,0.541399,0.51149542,-0.20244232,0.535788
0.50144201,-0.3499465,0.582946,0.49102922,-0.31227187,0.573304,0.47572269,-0.33663846,0.578212,0.45941739,-0.32090492,0.576565,0.42870624,-0.28713308,0.552476,0.42082237,-0.26761469,0.547763,0.45880447,-0.26683163,0.560592,0.44189044,-0.22556513,0.542525,0.43463915,-0.20110191,0.533491,0.44350631,-0.18930643,0.545076,0.48514406,-0.27023195,0.564122,0.46850143,-0.22451596,0.544712,0.45868741,-0.19582187,0.533389,0.4696728,-0.18640785,0.545055,0.50784015,-0.27714933,0.568068,0.4936027,-0.23094903,0.550241,0.48721911,-0.21310475,0.541121,0.50002497,-0.19732192,0.552653,0.53619514,-0.29283834,0.574461,0.52520525,-0.25380559,0.557425,0.51980035,-0.24102557,0.549598,0.51502755,-0.22976764,0.542692
0.50206983,-0.35244111,0.584898,0.49220775,-0.31302136,0.57468,0.4762005,-0.33885874,0.580085,0.45985405,-0.32120992,0.577113,0.42896774,-0.28730822,0.552813,0.42100675,-0.26773195,0.548003,0.4595255,-0.26725097,0.561473,0.44213479,-0.22568986,0.542825,0.43440248,-0.20183103,0.533501,0.44311004,-0.18964903,0.54486,0.48585441,-0.27062763,0.564948,0.46868634,-0.22460457,0.544927,0.45859171,-0.19627563,0.533247,0.46923805,-0.18628592,0.544693,0.50859378,-0.27756062,0.568911,0.49417764,-0.23172327,0.550551,0.48743383,-0.21268393,0.541157,0.49986301,-0.19725801,0.552474,0.53710052,-0.29333281,0.575431,0.52573819,-0.25455346,0.557956,0.5202368,-0.24083548,0.549927,0.51538068,-0.22873823,0.542842
0.49680145,-0.3496972,0.57994,0.48667936,-0.30312049,0.568739,0.4754121,-0.33827383,0.577456,0.45797851,-0.3189438,0.57469,0.42609304,-0.28513049,0.550044,0.41601015,-0.26416009,0.54322,0.45457119,-0.26012106,0.557898,0.43890571,-0.21710037,0.538991,0.43084231,-0.19996903,0.529537,0.43961431,-0.18807692,0.540878,0.47753116,-0.25802621,0.558071,0.46215316,-0.21404596,0.537453,0.45239428,-0.18973902,0.525426,0.46314832,-0.17366342,0.536769,0.49848625,-0.26292683,0.559421,0.48539142,-0.22519957,0.540991,0.47782631,-0.19905016,0.531561,0.49022758,-0.18684166,0.542916,0.52524541,-0.27657421,0.563094,0.5150168,-0.24580009,0.546278,0.51458605,-0.22447124,0.538552,0.5116378,-0.20885992,0.531735
0.49698715,-0.35077959,0.581333,0.48769245,-0.30390034,0.569715,0.47579558,-0.33911683,0.57899,0.45807404,-0.31852842,0.574775,0.42604222,-0.284969,0.550451,0.41663305,-0.26489936,0.544226,0.45531864,-0.26069135,0.558775,0.43906206,-0.21750705,0.539485,0.43085043,-0.19982368,0.52984,0.43952085,-0.18797596,0.541017,0.47819397,-0.25904831,0.558651,0.46241123,-0.21403051,0.537619,0.45263462,-0.18862372,0.52535,0.4631204,-0.17358061,0.536531,0.49893044,-0.26378274,0.559801,0.48533247,-0.22458886,0.541017,0.47768787,-0.1989925,0.531407,0.48981619,-0.18642214,0.542605,0.52553478,-0.27720264,0.563319,0.51578441,-0.24485963,0.54631,0.51453159,-0.22444748,0.538495,0.5115079,-0.20880689,0.5316
