sluyters/QuantumLeap/backend/src/datasets/dynamic/HandGestureDataset_SHREC2017_csv/Gesture10/finger_2/subject_25_essai_4_skeletons_world.csv
Wrist_x,Wrist_y,Wrist_z,Palm_x,Palm_y,Palm_z,thumb_base_x,thumb_base_y,thumb_base_z,thumb_first_joint_x,thumb_first_joint_y,thumb_first_joint_z,thumb_second_joint_x,thumb_second_joint_y,thumb_second_joint_z,thumb_tip_x,thumb_tip_y,thumb_tip_z,index_base_x,index_base_y,index_base_z,index_first_joint_x,index_first_joint_y,index_first_joint_z,index_second_joint_x,index_second_joint_y,index_second_joint_z,index_tip_x,index_tip_y,index_tip_z,middle_base_x,middle_base_y,middle_base_z,middle_first_joint_x,middle_first_joint_y,middle_first_joint_z,middle_second_joint_x,middle_second_joint_y,middle_second_joint_z,middle_tip_x,middle_tip_y,middle_tip_z,ring_base_x,ring_base_y,ring_base_z,ring_first_joint_x,ring_first_joint_y,ring_first_joint_z,ring_second_joint_x,ring_second_joint_y,ring_second_joint_z,ring_tip_x,ring_tip_y,ring_tip_z,pinky_base_x,pinky_base_y,pinky_base_z,pinky_first_joint_x,pinky_first_joint_y,pinky_first_joint_z,pinky_second_joint_x,pinky_second_joint_y,pinky_second_joint_z,pinky_tip_x,pinky_tip_y,pinky_tip_z,
0.319306608,-0.170789839,0.404593,0.311181924,-0.12345285,0.392496,0.297302152,-0.159960032,0.401037,0.26315368,-0.128798684,0.384437,0.225792202,-0.105785681,0.362363,0.210278677,-0.0809378871,0.351902,0.278109335,-0.0842849995,0.380601,0.260923299,-0.0433002451,0.363406,0.252134164,-0.0233291994,0.354808,0.244107363,-0.00489014601,0.346992,0.304117958,-0.0837915441,0.382041,0.289819809,-0.0410557065,0.363327,0.282614452,-0.00900997932,0.35241,0.277471031,-0.00180187021,0.344612,0.326318801,-0.0893221578,0.384454,0.312411456,-0.0449901664,0.366542,0.3054778,-0.0207617497,0.357377,0.299893114,-0.00222038521,0.349046,0.354006699,-0.10400012,0.389405,0.354827562,-0.0695591188,0.375877,0.355340207,-0.0534154635,0.369661,0.355843024,-0.0391905522,0.364176
0.318789921,-0.170895636,0.404394,0.311530387,-0.12656236,0.392379,0.296739534,-0.160032934,0.400863,0.260700688,-0.13516981,0.384316,0.225991807,-0.108274258,0.363203,0.209484201,-0.0885997288,0.354823,0.275566509,-0.0866555331,0.380568,0.260555508,-0.0472487958,0.363443,0.251900439,-0.027541997,0.35488,0.243886374,-0.00625555265,0.347096,0.301400913,-0.0869436083,0.381995,0.289954953,-0.0424676316,0.363411,0.282015096,-0.0169171296,0.35257,0.277244922,-0.00152247129,0.344827,0.325682152,-0.0921389506,0.384391,0.312144493,-0.0489952472,0.366598,0.305663973,-0.027754908,0.357495,0.300155695,-0.00552776084,0.349219,0.353744144,-0.105154086,0.389306,0.355392824,-0.0723970317,0.376317,0.35601305,-0.0573742162,0.370349,0.357292226,-0.0424551014,0.365084
0.31988221,-0.1729731,0.405971,0.31094056,-0.140525539,0.39411,0.29984573,-0.167359801,0.403164,0.262014336,-0.149777674,0.387548,0.227018909,-0.122853796,0.367173,0.210925017,-0.103516926,0.359834,0.277054614,-0.101210369,0.383331,0.260412945,-0.0620664037,0.366568,0.252018536,-0.041927249,0.358187,0.244337861,-0.0232449572,0.350567,0.30205646,-0.101109734,0.38386,0.288621105,-0.0553081943,0.365473,0.280833674,-0.0286921295,0.354747,0.277285833,-0.0044431976,0.347086,0.323797037,-0.105561956,0.385498,0.311331379,-0.0617499883,0.367929,0.305406799,-0.0403014635,0.35894,0.301486583,-0.0141661604,0.350768,0.351333823,-0.118831128,0.389507,0.354082022,-0.085586561,0.376568,0.355525203,-0.0699451452,0.370623,0.356835024,-0.0562350661,0.365377
0.323458359,-0.196838602,0.41126,0.312941697,-0.155761092,0.399368,0.301915428,-0.187032257,0.408942,0.266918993,-0.165710783,0.394477,0.23398019,-0.140131434,0.374983,0.219016628,-0.12068329,0.366957,0.280733131,-0.115292723,0.389195,0.263876006,-0.0748132495,0.372551,0.255396436,-0.0541997814,0.364229,0.248115873,-0.0294995142,0.356664,0.305477132,-0.115607096,0.389073,0.294941622,-0.0694836701,0.370687,0.290408957,-0.0428724477,0.361979,0.284946596,-0.0185154027,0.355759,0.326784407,-0.120563001,0.39018,0.313653316,-0.0764755444,0.372642,0.308614986,-0.054183152,0.365658,0.304043872,-0.0336908388,0.359309,0.35317855,-0.134575524,0.393574,0.356938683,-0.10170027,0.380721,0.358831057,-0.0862875335,0.374815,0.360595709,-0.0725116756,0.369604
0.328013489,-0.213334458,0.418902,0.317820239,-0.171959194,0.406157,0.306944472,-0.203637435,0.417055,0.269702691,-0.183935091,0.402433,0.236007557,-0.159911142,0.385766,0.220709717,-0.141710717,0.380836,0.284547972,-0.131542472,0.396058,0.267529481,-0.0918867404,0.378632,0.258965035,-0.0716380367,0.36992,0.251141929,-0.0529549178,0.361999,0.308561599,-0.130853809,0.395082,0.29495739,-0.0845768225,0.37584,0.286782864,-0.0583149916,0.364615,0.280694589,-0.0404999073,0.356597,0.329600846,-0.135026194,0.395566,0.316468705,-0.0898218122,0.377183,0.309638607,-0.0677941472,0.367777,0.303241962,-0.0500222969,0.359227,0.356337606,-0.148320645,0.398383,0.358555493,-0.112846221,0.385083,0.359567791,-0.0965612518,0.378972,0.362436582,-0.0778113469,0.37358
0.329193964,-0.228484331,0.422143,0.317766795,-0.187101861,0.410206,0.308368681,-0.219008386,0.420751,0.270987668,-0.198529174,0.406897,0.237863299,-0.173908921,0.389796,0.223084774,-0.155400341,0.384918,0.285501221,-0.146711842,0.40116,0.269239421,-0.106625444,0.384542,0.26105753,-0.0861912025,0.376233,0.253586842,-0.0673612952,0.36868,0.309378486,-0.146171317,0.399794,0.295312471,-0.099731709,0.381385,0.287068282,-0.0729878458,0.370646,0.28117962,-0.0537920122,0.362975,0.330047483,-0.150432263,0.399873,0.318050825,-0.10520405,0.382203,0.312004616,-0.0846644604,0.373162,0.306541024,-0.0655903883,0.364943,0.35591116,-0.163679199,0.402072,0.35987689,-0.130805989,0.389121,0.361841151,-0.115446767,0.38317,0.363655517,-0.101748981,0.377919
0.330250114,-0.240591567,0.424655,0.320695428,-0.196723908,0.412447,0.309756402,-0.231364546,0.423711,0.274213508,-0.208298445,0.41038,0.242416846,-0.184160365,0.397602,0.227202906,-0.161786709,0.391826,0.288283528,-0.156399541,0.403803,0.270164974,-0.116632901,0.387178,0.261038783,-0.0963911703,0.378866,0.252698354,-0.0777576104,0.371309,0.311559068,-0.15528782,0.40177,0.29745035,-0.108950552,0.383061,0.289186485,-0.0820590383,0.372148,0.283056947,-0.0639437932,0.364352,0.331831307,-0.159083717,0.401321,0.320571137,-0.11425963,0.385753,0.314709734,-0.0934829117,0.377788,0.310317287,-0.0704055564,0.370546,0.357473511,-0.171841491,0.402947,0.361206081,-0.138739193,0.389566,0.363042392,-0.123317016,0.383418,0.364219054,-0.105743635,0.377993
0.332634661,-0.253626536,0.429136,0.321280439,-0.21150187,0.417489,0.312169085,-0.244212197,0.428268,0.274104449,-0.223956017,0.415175,0.240751987,-0.200084698,0.399376,0.223932654,-0.180795532,0.391001,0.289830237,-0.170873286,0.409269,0.272639018,-0.131722911,0.392977,0.263970959,-0.111733216,0.384831,0.256043596,-0.0932920818,0.377425,0.313076365,-0.170189601,0.407276,0.300716037,-0.123901316,0.388957,0.293308265,-0.0974972036,0.378271,0.287662045,-0.0799978316,0.370638,0.333233742,-0.174315349,0.4068,0.320915998,-0.129547506,0.389333,0.31454827,-0.107161439,0.380397,0.308762859,-0.0867377772,0.372273,0.358537624,-0.187419834,0.408292,0.363766622,-0.154837996,0.395625,0.366294548,-0.139660677,0.389804,0.368597839,-0.126152104,0.384669
0.333858703,-0.270086343,0.435395,0.324110437,-0.22930768,0.423964,0.313474318,-0.260231523,0.43435,0.276516197,-0.240418627,0.421444,0.243469637,-0.215786163,0.405043,0.227443203,-0.196409617,0.397459,0.293330478,-0.187948635,0.415626,0.276765034,-0.148413495,0.399565,0.268421648,-0.128269777,0.391535,0.260797439,-0.109714752,0.384235,0.316918466,-0.187920628,0.413908,0.304267647,-0.140896622,0.395959,0.296718785,-0.114369885,0.385488,0.291273853,-0.0956088507,0.37801,0.337194433,-0.19257636,0.413636,0.324818518,-0.147383884,0.396501,0.318459846,-0.125013383,0.387735,0.312681219,-0.104613547,0.379765,0.362345304,-0.206253949,0.415322,0.365484839,-0.17268185,0.40231,0.366938071,-0.157757167,0.396332,0.368311676,-0.144423701,0.391057
0.338027735,-0.2882873,0.441863,0.328746923,-0.247695838,0.430463,0.3177851,-0.278812967,0.441175,0.282148315,-0.260115173,0.428453,0.248678656,-0.235816082,0.412285,0.232482673,-0.216870566,0.405107,0.296644735,-0.207253932,0.42259,0.278954031,-0.167658447,0.406605,0.270044617,-0.14754484,0.398613,0.261904207,-0.12905736,0.391348,0.319868249,-0.206039892,0.420406,0.305980439,-0.158473175,0.402474,0.297788585,-0.131344385,0.392013,0.297626806,-0.114230731,0.392034,0.340031195,-0.209717587,0.419743,0.329856326,-0.164808004,0.405769,0.324496894,-0.143642662,0.39862,0.319631526,-0.124095545,0.39212,0.365397903,-0.222265182,0.420965,0.368723732,-0.188435479,0.408049,0.370311916,-0.172889413,0.402115,0.371713444,-0.159554797,0.396879
0.339270324,-0.30540976,0.448079,0.329307575,-0.26298291,0.435968,0.318863492,-0.294848857,0.446707,0.280053987,-0.272770067,0.434444,0.247696341,-0.2479859,0.419617,0.232065591,-0.228386975,0.412505,0.300563044,-0.219305985,0.426751,0.28140544,-0.180257201,0.410591,0.271748443,-0.160423602,0.402511,0.262918862,-0.142194698,0.395165,0.324223259,-0.220964425,0.425255,0.309550123,-0.173352528,0.406955,0.30084945,-0.146677673,0.396281,0.299184332,-0.129572252,0.394659,0.344304865,-0.227032994,0.425227,0.33329854,-0.183013477,0.411392,0.327665914,-0.160526532,0.404314,0.322512267,-0.141213887,0.39788,0.368817186,-0.242419225,0.427314,0.369919943,-0.208700137,0.413322,0.370503149,-0.193057369,0.406893,0.370721941,-0.181108748,0.401221
0.338564566,-0.318441881,0.447787,0.332861099,-0.277340765,0.438421,0.322590073,-0.317429936,0.448117,0.286602753,-0.289752706,0.437129,0.256054655,-0.266457512,0.426688,0.241198138,-0.24773515,0.421841,0.302240524,-0.237753238,0.433092,0.284623491,-0.201178215,0.418764,0.275689365,-0.18241524,0.411601,0.267485174,-0.165050476,0.405088,0.324499422,-0.235469458,0.430137,0.311489019,-0.189291786,0.413902,0.303166013,-0.164261338,0.404432,0.297205388,-0.146121309,0.397667,0.343890893,-0.238248178,0.428636,0.332184976,-0.192938991,0.413088,0.325579277,-0.17199699,0.405133,0.319571725,-0.152709063,0.397902,0.368469677,-0.249796589,0.428528,0.373072986,-0.216282922,0.41678,0.374927143,-0.197985179,0.411382,0.376000364,-0.186314969,0.406619
0.342472087,-0.331019565,0.451463,0.334166073,-0.282342255,0.441413,0.322371923,-0.321067175,0.450857,0.284801905,-0.297279627,0.440204,0.252858291,-0.274475713,0.427425,0.237140871,-0.255845036,0.421582,0.303710143,-0.240988298,0.434459,0.285202614,-0.204064697,0.419908,0.275823105,-0.185166788,0.412633,0.267214305,-0.167705655,0.406018,0.327377882,-0.243814534,0.432536,0.312927128,-0.197575771,0.416087,0.304120557,-0.171799537,0.406493,0.298246102,-0.15004462,0.399639,0.347247823,-0.248788505,0.431955,0.334686885,-0.202877419,0.416174,0.32777572,-0.181835991,0.408101,0.321486762,-0.162487537,0.400761,0.371807945,-0.26291767,0.43304,0.373724268,-0.22889802,0.420633,0.374677108,-0.213113752,0.414932,0.375493265,-0.199363555,0.409902
0.343892563,-0.336609724,0.452584,0.334908959,-0.297633956,0.443413,0.324140554,-0.331575606,0.453865,0.290119417,-0.312782927,0.444681,0.258528715,-0.290274909,0.434376,0.243926365,-0.272876694,0.431295,0.3046782,-0.258960233,0.439437,0.285670541,-0.221630508,0.425612,0.276043718,-0.20258546,0.418699,0.267213611,-0.185029557,0.412414,0.326045357,-0.255813841,0.435312,0.311589142,-0.210271242,0.419274,0.303150281,-0.183609354,0.409919,0.297119437,-0.16451836,0.403237,0.344721119,-0.257912059,0.432832,0.331300698,-0.213238659,0.417526,0.324216594,-0.191039495,0.409695,0.317773303,-0.170790435,0.402576,0.368479226,-0.268680652,0.431556,0.372021614,-0.234911054,0.419476,0.373713167,-0.219272459,0.413925,0.373742332,-0.20873625,0.409028
0.349935169,-0.360467523,0.461284,0.337968448,-0.319152252,0.45059,0.328925135,-0.359283932,0.461906,0.293012733,-0.332788033,0.450985,0.262023438,-0.310358549,0.440366,0.246066348,-0.291445551,0.434012,0.307191921,-0.278954636,0.444829,0.28751061,-0.242893884,0.429571,0.277535654,-0.224474385,0.421942,0.268380703,-0.207478686,0.415006,0.32893243,-0.276823089,0.441147,0.312595171,-0.230993412,0.423915,0.302795433,-0.204936713,0.413863,0.295783055,-0.18622224,0.406682,0.347955662,-0.279835848,0.439186,0.333327129,-0.234585148,0.422633,0.32555811,-0.212503323,0.414164,0.318491136,-0.192359965,0.406465,0.372141128,-0.291802168,0.438782,0.372516533,-0.256994176,0.425527,0.372093799,-0.242833052,0.419437,0.371800067,-0.230167438,0.414063
0.351060978,-0.375332253,0.465727,0.339787525,-0.330505119,0.454276,0.331402501,-0.366392135,0.466007,0.294252779,-0.347331565,0.456843,0.26112681,-0.327046424,0.445344,0.244611633,-0.30975201,0.440705,0.30828654,-0.290037247,0.447612,0.288412983,-0.253339466,0.431751,0.278361005,-0.234651244,0.42382,0.269149135,-0.217444281,0.41661,0.330346463,-0.288212194,0.444174,0.314644688,-0.240502764,0.426223,0.304470699,-0.216210418,0.415751,0.297174135,-0.198637174,0.408271,0.349666881,-0.291495018,0.442491,0.33383325,-0.245952939,0.425441,0.325462516,-0.223933757,0.416718,0.317846459,-0.203846484,0.408788,0.374229706,-0.303784416,0.442546,0.374565078,-0.269168973,0.428861,0.374644053,-0.253656445,0.422573,0.374147239,-0.242027911,0.417025
0.354632635,-0.389108172,0.470215,0.34447487,-0.345691064,0.458398,0.335376916,-0.380439023,0.471007,0.300197148,-0.359851594,0.460364,0.268529209,-0.337025791,0.448878,0.252776613,-0.318425916,0.44313,0.313592056,-0.304806401,0.452176,0.292557063,-0.268930321,0.436321,0.281908598,-0.250663103,0.428394,0.272143412,-0.233844583,0.421187,0.33492557,-0.302686688,0.447987,0.31853789,-0.255531233,0.429749,0.308082254,-0.230713833,0.419111,0.300589874,-0.212815845,0.411512,0.353674047,-0.305821449,0.445726,0.339195453,-0.261388676,0.428046,0.331548918,-0.239457874,0.419001,0.324594619,-0.219429234,0.410778,0.377647264,-0.318120063,0.445181,0.377019407,-0.284182106,0.430917,0.376792576,-0.268460736,0.424363,0.376470041,-0.254989618,0.41858
0.356062106,-0.399947852,0.471335,0.345595957,-0.350187529,0.459639,0.336583594,-0.390600056,0.471624,0.300029386,-0.367008683,0.460445,0.268758881,-0.34477818,0.449747,0.253635117,-0.322995096,0.444931,0.314951182,-0.312143645,0.452847,0.294811744,-0.27593203,0.436987,0.284626204,-0.257506025,0.429056,0.27393305,-0.237384179,0.421847,0.336889068,-0.310730222,0.449343,0.321920281,-0.262017925,0.431185,0.311505304,-0.239555673,0.420593,0.304024177,-0.223240625,0.413028,0.356084549,-0.314457944,0.447634,0.341985879,-0.267967459,0.430204,0.333853621,-0.248258721,0.421287,0.326442768,-0.230105746,0.41318,0.380468473,-0.327472835,0.44771,0.383588991,-0.293119529,0.434108,0.385048055,-0.27729253,0.427858,0.385353791,-0.266305572,0.422343
0.356712518,-0.402905012,0.470795,0.347219459,-0.356246309,0.459548,0.337749487,-0.393967969,0.471744,0.30353068,-0.373098852,0.461109,0.271065296,-0.348245449,0.451155,0.255632104,-0.329425409,0.44615,0.318816137,-0.317264204,0.453887,0.298647285,-0.28287109,0.438008,0.288423626,-0.26531421,0.430069,0.279038798,-0.249120103,0.422851,0.33849337,-0.313070098,0.449647,0.323526775,-0.269854717,0.43167,0.312697011,-0.242312697,0.421183,0.30537739,-0.225123831,0.413692,0.357085807,-0.316323918,0.447288,0.344727307,-0.273182269,0.429949,0.335381684,-0.250107076,0.421078,0.328215741,-0.231379858,0.413014,0.38074818,-0.328810168,0.446529,0.383794398,-0.29516207,0.433027,0.386382409,-0.282645993,0.426824,0.385883828,-0.26775966,0.421351
0.359573518,-0.407473828,0.473102,0.35081985,-0.362613278,0.461464,0.341080399,-0.401719346,0.47393,0.309366387,-0.379022416,0.463044,0.279399255,-0.354320229,0.452648,0.261543292,-0.333988128,0.447532,0.320151559,-0.32429206,0.455405,0.301101651,-0.289860867,0.439334,0.291455499,-0.272286597,0.431298,0.281202274,-0.252939873,0.423993,0.34145395,-0.321595243,0.451218,0.325409887,-0.276386205,0.433059,0.315742407,-0.25100768,0.422466,0.307981502,-0.23003796,0.414899,0.359941578,-0.321952738,0.448942,0.346554694,-0.280988555,0.431318,0.339406875,-0.259498414,0.422301,0.331946622,-0.236603805,0.414103,0.38391778,-0.334238859,0.448348,0.387860434,-0.305442942,0.43466,0.389652002,-0.291191212,0.428371,0.39015889,-0.28139779,0.422822
0.36185501,-0.413298332,0.473342,0.353203724,-0.367058928,0.461667,0.344454721,-0.407357658,0.47461,0.31046946,-0.385987523,0.464665,0.277150765,-0.362382392,0.452241,0.261938381,-0.344810694,0.448639,0.322500314,-0.326322361,0.456155,0.302660952,-0.292276919,0.439778,0.292610634,-0.274901682,0.431589,0.283390011,-0.258878343,0.424145,0.343243006,-0.323380695,0.451388,0.326682251,-0.278322845,0.43289,0.316619663,-0.253153942,0.4221,0.309416919,-0.235037516,0.414392,0.361533563,-0.325903181,0.448639,0.346932717,-0.282350133,0.430765,0.33913718,-0.261169492,0.421621,0.332046247,-0.241777749,0.413308,0.385081371,-0.337609214,0.4475,0.387868778,-0.306138824,0.43347,0.389257704,-0.291525808,0.427023,0.388300949,-0.283222613,0.421335
0.362391514,-0.414453053,0.472577,0.353284696,-0.367477138,0.460622,0.344852313,-0.408248778,0.473783,0.310275716,-0.386220023,0.463918,0.277183158,-0.363468512,0.451925,0.26145995,-0.345559619,0.44771,0.323714597,-0.327765056,0.454861,0.303413999,-0.294449608,0.438279,0.293122664,-0.277437276,0.429988,0.282974494,-0.259534856,0.422451,0.344315381,-0.324914617,0.450099,0.327339459,-0.280033851,0.431391,0.31686498,-0.255366098,0.420478,0.308628236,-0.23554268,0.412683,0.362571746,-0.327569492,0.447381,0.346617333,-0.282543142,0.429368,0.338729959,-0.261415438,0.420153,0.331554956,-0.242070405,0.411775,0.384977474,-0.337891889,0.446328,0.387715382,-0.30639101,0.432045,0.389080312,-0.291771536,0.425483,0.387554124,-0.284298289,0.419692
0.362714024,-0.415994368,0.4727,0.352992056,-0.368024696,0.460164,0.345088324,-0.409725393,0.474123,0.309797655,-0.387019327,0.46442,0.2765024,-0.363851721,0.452001,0.260863855,-0.345643747,0.447768,0.323264702,-0.327887124,0.454325,0.303467248,-0.294193882,0.43715,0.293447285,-0.277007106,0.428562,0.284259789,-0.261161896,0.420755,0.343644891,-0.324825557,0.449127,0.326818561,-0.279626966,0.429859,0.316349866,-0.255384078,0.418618,0.308853332,-0.237893585,0.41059,0.361645261,-0.327339025,0.446109,0.346426748,-0.283952392,0.427538,0.33825073,-0.263175465,0.418037,0.330812329,-0.244134212,0.409399,0.38492446,-0.33920555,0.444811,0.387961612,-0.309728876,0.429964,0.389356471,-0.295685607,0.423142,0.386344132,-0.287100425,0.417123
0.364200427,-0.419968815,0.472872,0.353609063,-0.370509454,0.459705,0.345901745,-0.412810126,0.473964,0.309170762,-0.388652961,0.46388,0.276130349,-0.365702223,0.451817,0.260823678,-0.346712597,0.447759,0.32278788,-0.329209041,0.453053,0.303316231,-0.295389671,0.435481,0.293471902,-0.278149974,0.426696,0.283437245,-0.261247251,0.418709,0.343449119,-0.326461121,0.448114,0.327583044,-0.281932975,0.428202,0.317355495,-0.258772471,0.416586,0.310031878,-0.242017398,0.408289,0.361816542,-0.330502118,0.445373,0.346771155,-0.287683915,0.426326,0.338798271,-0.267032507,0.416581,0.330954768,-0.246082434,0.407722,0.385260525,-0.342948043,0.444507,0.387616054,-0.313739431,0.429328,0.388854763,-0.30014303,0.422354,0.38787863,-0.288968498,0.4162
0.363758583,-0.42040307,0.472117,0.353349256,-0.371033111,0.459273,0.345478132,-0.413207183,0.473321,0.308901333,-0.389054373,0.463485,0.276099577,-0.366248251,0.451773,0.260757305,-0.347297767,0.447681,0.322876006,-0.32991649,0.452963,0.303573652,-0.296254549,0.43562,0.293810115,-0.279083825,0.426948,0.284015171,-0.262285215,0.419065,0.343507714,-0.327184676,0.447965,0.327908994,-0.282737966,0.428304,0.317800239,-0.259704542,0.416835,0.310560866,-0.24303166,0.408643,0.361816448,-0.331100402,0.445143,0.346921651,-0.288415694,0.426353,0.339033897,-0.267754292,0.416739,0.331394624,-0.247160438,0.408,0.385121807,-0.343453931,0.444126,0.387583572,-0.314343722,0.429156,0.388873988,-0.300786272,0.422277,0.388472745,-0.289246635,0.416208
0.367611829,-0.424582711,0.476272,0.354860314,-0.372693931,0.460696,0.348585479,-0.416778715,0.476758,0.311544995,-0.392719001,0.464716,0.278549129,-0.368679977,0.452597,0.262386708,-0.348235022,0.447924,0.322517915,-0.332251074,0.451781,0.301313336,-0.298137841,0.4323,0.289263448,-0.285483697,0.422559,0.280820491,-0.26489213,0.413704,0.343400304,-0.329327383,0.446985,0.325863366,-0.28357954,0.424926,0.314939511,-0.25977524,0.412059,0.307125375,-0.242621447,0.402867,0.361633158,-0.330998077,0.444603,0.345403816,-0.294672948,0.423302,0.336714945,-0.275360361,0.412404,0.328819346,-0.257622281,0.402497,0.385868508,-0.343596197,0.44458,0.386416568,-0.316308599,0.427816,0.385821743,-0.308222309,0.420113,0.385784746,-0.298357642,0.413316
0.370054671,-0.427693993,0.479117,0.356255726,-0.376077883,0.462119,0.349825756,-0.418737889,0.478213,0.312217988,-0.401235411,0.467359,0.275338327,-0.377003183,0.451968,0.259961913,-0.360657249,0.449892,0.321584634,-0.332156936,0.450532,0.299784562,-0.300870315,0.430037,0.288789272,-0.284119228,0.41979,0.278725761,-0.268722881,0.410474,0.343566501,-0.329986713,0.447156,0.3256689,-0.288030564,0.424023,0.315067921,-0.263973672,0.410529,0.307494151,-0.246659068,0.400891,0.36320855,-0.333492969,0.446086,0.345765529,-0.295900555,0.423998,0.33671726,-0.276356382,0.412697,0.328494398,-0.258431538,0.402424,0.389310837,-0.346037391,0.447842,0.388316997,-0.323875077,0.430668,0.3879331,-0.316884536,0.422778,0.387983988,-0.308483207,0.415816
0.371693589,-0.430636689,0.480259,0.357249118,-0.378114854,0.462842,0.350278677,-0.41988414,0.478644,0.311952754,-0.40129937,0.466769,0.275432788,-0.377166126,0.451498,0.259657866,-0.360605648,0.448808,0.321216042,-0.33429346,0.450078,0.299203548,-0.30167172,0.429376,0.28809358,-0.285112745,0.419026,0.277924129,-0.269894463,0.409616,0.343843367,-0.330852072,0.447509,0.32574011,-0.291612536,0.424135,0.315146011,-0.267903072,0.4105,0.307577819,-0.250828992,0.400761,0.364060137,-0.334716597,0.447148,0.346228098,-0.297790628,0.424878,0.336742943,-0.279648053,0.413484,0.328661157,-0.260736375,0.403125,0.390778215,-0.348167117,0.449802,0.389159124,-0.329074866,0.43238,0.388829739,-0.319923312,0.424375,0.388693559,-0.311779992,0.417312
0.372247632,-0.431614738,0.480819,0.357587076,-0.378789724,0.463245,0.350603905,-0.420756824,0.478938,0.311938188,-0.401415291,0.466683,0.275535903,-0.377318556,0.451459,0.259564809,-0.360599976,0.448461,0.321172773,-0.334646962,0.450039,0.299062664,-0.302221556,0.42926,0.287901317,-0.285761536,0.41887,0.277685712,-0.270635892,0.409426,0.344049965,-0.331449699,0.447773,0.325744869,-0.292301815,0.424322,0.315039753,-0.268598611,0.410642,0.307391623,-0.25153017,0.400871,0.364482123,-0.335398161,0.447677,0.346466671,-0.298742223,0.425327,0.336948176,-0.280580724,0.413892,0.328761805,-0.261903885,0.403497,0.391410931,-0.349142617,0.450666,0.389641127,-0.330090479,0.433076,0.389206365,-0.321003208,0.424993,0.388976967,-0.312920265,0.417862
0.37027483,-0.431443812,0.478497,0.35202371,-0.387011346,0.461172,0.349304937,-0.422973564,0.477518,0.307258915,-0.408059919,0.466507,0.27124537,-0.384944817,0.451303,0.258824645,-0.363953656,0.449051,0.318074894,-0.343268731,0.449289,0.296705542,-0.310273213,0.428726,0.286879235,-0.289655705,0.418445,0.276776065,-0.274716998,0.409098,0.340292467,-0.342141531,0.445921,0.323899002,-0.294179071,0.422597,0.313323934,-0.270598259,0.408991,0.305769324,-0.253616122,0.399273,0.359898753,-0.346297924,0.444891,0.342047639,-0.305718865,0.422736,0.334081163,-0.281780803,0.4114,0.326036328,-0.262653906,0.401095,0.385173287,-0.360097516,0.446751,0.384743235,-0.337332904,0.429092,0.384777707,-0.32673911,0.420978,0.384821686,-0.313317407,0.413819
0.370158339,-0.433252612,0.478973,0.352226754,-0.387234571,0.461438,0.349175156,-0.424074793,0.477996,0.307540153,-0.408433422,0.466934,0.271443709,-0.385226295,0.451633,0.25804783,-0.364939084,0.448829,0.318174008,-0.343375695,0.449429,0.296657097,-0.310222553,0.428656,0.286520973,-0.290498343,0.41827,0.276413576,-0.275386969,0.408828,0.340353517,-0.342202913,0.446001,0.323664987,-0.295055153,0.422452,0.313102242,-0.271357058,0.408715,0.305557171,-0.254297321,0.398903,0.359941628,-0.346339179,0.444944,0.341934361,-0.305617618,0.422596,0.333593733,-0.282410348,0.411161,0.325481498,-0.263105214,0.400767,0.385223293,-0.360144266,0.446809,0.384687643,-0.337284163,0.42903,0.384671682,-0.326649078,0.420862,0.38469903,-0.314186801,0.413654
0.369848669,-0.434795218,0.479373,0.352401556,-0.387426745,0.461667,0.349050936,-0.42493015,0.47835,0.307712716,-0.408662597,0.467196,0.271553096,-0.385381534,0.451815,0.257563707,-0.365504031,0.448664,0.318219317,-0.343424593,0.449493,0.296599656,-0.310162485,0.428573,0.286270938,-0.290969072,0.418114,0.276154822,-0.275748053,0.408605,0.340414567,-0.342264294,0.446081,0.323527559,-0.295584191,0.422369,0.312960477,-0.271805003,0.408538,0.305412262,-0.254691337,0.398658,0.360029804,-0.346424023,0.445053,0.34190685,-0.305593029,0.422562,0.333331601,-0.282813891,0.411055,0.325148894,-0.263435582,0.400594,0.385372447,-0.36028371,0.446982,0.384745028,-0.337334476,0.429094,0.384684479,-0.326659944,0.420876,0.384689644,-0.314761868,0.413624
