sluyters/QuantumLeap/backend/src/datasets/dynamic/HandGestureDataset_SHREC2017_csv/Gesture10/finger_2/subject_20_essai_3_skeletons_world.csv
Wrist_x,Wrist_y,Wrist_z,Palm_x,Palm_y,Palm_z,thumb_base_x,thumb_base_y,thumb_base_z,thumb_first_joint_x,thumb_first_joint_y,thumb_first_joint_z,thumb_second_joint_x,thumb_second_joint_y,thumb_second_joint_z,thumb_tip_x,thumb_tip_y,thumb_tip_z,index_base_x,index_base_y,index_base_z,index_first_joint_x,index_first_joint_y,index_first_joint_z,index_second_joint_x,index_second_joint_y,index_second_joint_z,index_tip_x,index_tip_y,index_tip_z,middle_base_x,middle_base_y,middle_base_z,middle_first_joint_x,middle_first_joint_y,middle_first_joint_z,middle_second_joint_x,middle_second_joint_y,middle_second_joint_z,middle_tip_x,middle_tip_y,middle_tip_z,ring_base_x,ring_base_y,ring_base_z,ring_first_joint_x,ring_first_joint_y,ring_first_joint_z,ring_second_joint_x,ring_second_joint_y,ring_second_joint_z,ring_tip_x,ring_tip_y,ring_tip_z,pinky_base_x,pinky_base_y,pinky_base_z,pinky_first_joint_x,pinky_first_joint_y,pinky_first_joint_z,pinky_second_joint_x,pinky_second_joint_y,pinky_second_joint_z,pinky_tip_x,pinky_tip_y,pinky_tip_z,
0.55896268,-0.37375631,0.598357,0.56102449,-0.33668392,0.602275,0.5423952,-0.36408913,0.603589,0.51268404,-0.34769124,0.602935,0.47479298,-0.32096902,0.588851,0.45847607,-0.30135576,0.584622,0.5438275,-0.29485728,0.61197,0.52864379,-0.25477609,0.610898,0.52094053,-0.23465909,0.610362,0.51409314,-0.21708412,0.609874,0.56520038,-0.29240916,0.606866,0.55621697,-0.24488289,0.604053,0.5505142,-0.21731094,0.602412,0.54645187,-0.19577649,0.60124,0.58271236,-0.2937526,0.602334,0.57852015,-0.2485326,0.601686,0.57614341,-0.22519526,0.601354,0.57330771,-0.20268001,0.601053,0.601269,-0.30315895,0.596336,0.60645356,-0.26007919,0.592994,0.60788916,-0.24100843,0.591458,0.60827417,-0.22387361,0.590103
0.556345,-0.37826545,0.599783,0.55579808,-0.33948238,0.601904,0.54049917,-0.36816683,0.605291,0.50422086,-0.34807372,0.604872,0.46518074,-0.31997177,0.587017,0.45204467,-0.3007164,0.583208,0.54114697,-0.29192313,0.610472,0.52584699,-0.25306757,0.608276,0.51747874,-0.23209545,0.607179,0.51085214,-0.21466776,0.60618,0.56021263,-0.29160064,0.604397,0.55258369,-0.24324148,0.599883,0.54640212,-0.21615011,0.59725,0.54190152,-0.1965612,0.595369,0.57657784,-0.29389918,0.599219,0.57480278,-0.24773179,0.598419,0.57264874,-0.22435242,0.59801,0.57000045,-0.20412826,0.597637,0.59362665,-0.30504112,0.592738,0.59956206,-0.26165079,0.587495,0.59978404,-0.24586359,0.585087,0.60040468,-0.22684854,0.582961
0.55635504,-0.3768859,0.599902,0.55437323,-0.33939853,0.601134,0.53968994,-0.3689461,0.60575,0.50477266,-0.34980291,0.605401,0.46457108,-0.32184769,0.586984,0.44916826,-0.30113803,0.581305,0.53981412,-0.29310287,0.609392,0.52418177,-0.25246534,0.606552,0.51596548,-0.23158573,0.605132,0.5091093,-0.21366026,0.603841,0.55802471,-0.29104494,0.602582,0.54910857,-0.24268129,0.59729,0.54221499,-0.21597475,0.594203,0.53759199,-0.19578358,0.591998,0.57376964,-0.29307695,0.596874,0.56818594,-0.24572626,0.592098,0.56421974,-0.22198149,0.589654,0.55984422,-0.20130923,0.587432,0.59088562,-0.30318372,0.589905,0.5958055,-0.26031192,0.583605,0.59665618,-0.24240486,0.580711,0.59670744,-0.22455757,0.578157
0.55413429,-0.37955735,0.598119,0.55403623,-0.34037071,0.598438,0.53804391,-0.36931479,0.603364,0.50628313,-0.35510034,0.600966,0.46664825,-0.32713342,0.584395,0.44904486,-0.30341861,0.579673,0.5332424,-0.29952214,0.605191,0.51675442,-0.25752284,0.600795,0.50839338,-0.23663603,0.598596,0.50426032,-0.21466259,0.598476,0.55355608,-0.29594412,0.598813,0.5418679,-0.24697631,0.592059,0.53460934,-0.21662056,0.58812,0.53069768,-0.19576353,0.585305,0.56987839,-0.29352519,0.593538,0.56511111,-0.24626979,0.589275,0.56200742,-0.22226355,0.587093,0.55828934,-0.20147767,0.58511,0.58914504,-0.30244659,0.587225,0.5923274,-0.25970198,0.580032,0.59342897,-0.24019981,0.576727,0.59296591,-0.22393137,0.573811
0.54580105,-0.38050488,0.593189,0.54315837,-0.34538845,0.593822,0.53069583,-0.37028898,0.599122,0.49248554,-0.35169899,0.597493,0.45813082,-0.32206957,0.582534,0.44272575,-0.30019677,0.577456,0.5284182,-0.29798586,0.601687,0.51367386,-0.25625074,0.598402,0.50622918,-0.23539296,0.596759,0.50367271,-0.21362723,0.598357,0.5479467,-0.2950856,0.594567,0.53796509,-0.24649917,0.588713,0.53175319,-0.21864285,0.585299,0.52712505,-0.19682115,0.58286,0.56217709,-0.29829079,0.588654,0.55927119,-0.25497814,0.584736,0.55581374,-0.23698683,0.582731,0.55233973,-0.22483299,0.580908,0.58083798,-0.30716091,0.581535,0.58343246,-0.26403782,0.574668,0.58444381,-0.24434001,0.571513,0.58707217,-0.22453591,0.569467
0.54278628,-0.38027596,0.591018,0.54070432,-0.34389811,0.591591,0.52645105,-0.37095141,0.596901,0.48957511,-0.35089,0.595185,0.45151493,-0.32214182,0.578939,0.43646301,-0.30061903,0.572866,0.52554647,-0.29673685,0.599346,0.50921047,-0.25519405,0.596147,0.50166163,-0.23431972,0.594547,0.49651356,-0.21593378,0.593947,0.54377383,-0.29497054,0.592264,0.53516907,-0.24575345,0.586339,0.52915115,-0.21774526,0.582883,0.52477205,-0.19632015,0.580415,0.55966022,-0.29694472,0.586388,0.55257057,-0.24836969,0.579871,0.54865706,-0.22424235,0.576537,0.54680072,-0.20072857,0.573506,0.57827287,-0.30583965,0.579323,0.58089613,-0.26311146,0.572364,0.58116762,-0.24471974,0.569167,0.58140529,-0.2283101,0.566346
0.54465099,-0.3782658,0.590243,0.54051165,-0.34311537,0.590418,0.52666844,-0.37027496,0.595564,0.48934791,-0.35066687,0.592979,0.45156734,-0.32242934,0.577581,0.43835585,-0.30191203,0.572721,0.52092663,-0.29662751,0.597148,0.50547856,-0.25430857,0.592519,0.5005392,-0.23406101,0.592461,0.49504469,-0.21555971,0.592408,0.54095476,-0.29408487,0.590623,0.53047484,-0.24505836,0.583521,0.52421868,-0.21652295,0.579378,0.52130448,-0.19545988,0.577507,0.55747044,-0.29546558,0.585239,0.54952257,-0.2464984,0.577713,0.54539792,-0.2224342,0.573863,0.54162173,-0.20031285,0.570362,0.57612516,-0.29983965,0.57882,0.58242085,-0.25812324,0.571447,0.58303749,-0.24041536,0.56806,0.58250046,-0.22532883,0.565071
0.53671038,-0.3798645,0.586315,0.53634666,-0.341426,0.587202,0.5224636,-0.37032086,0.593226,0.48696257,-0.35017307,0.593067,0.44744042,-0.32272663,0.576758,0.43184918,-0.30064216,0.569239,0.52015557,-0.2959586,0.59649,0.50615855,-0.25458297,0.593778,0.49911542,-0.23374148,0.592422,0.4933998,-0.21488006,0.59119,0.53840146,-0.29292107,0.588242,0.52922795,-0.24468018,0.582728,0.52375547,-0.21645053,0.579511,0.52052967,-0.19540958,0.577214,0.55327093,-0.2938675,0.581381,0.54664379,-0.24570405,0.574971,0.54321562,-0.22162227,0.571691,0.54106208,-0.19905145,0.568709,0.56837184,-0.3039235,0.573097,0.5748503,-0.26116788,0.566497,0.57435065,-0.24433417,0.563465,0.57409521,-0.22874078,0.560789
0.53553209,-0.38024165,0.586108,0.53525749,-0.34130632,0.586811,0.52134811,-0.37052109,0.592949,0.48618995,-0.35019737,0.592657,0.44671303,-0.32260403,0.576225,0.43080769,-0.30065156,0.568862,0.51949143,-0.29544268,0.595864,0.50526368,-0.25409217,0.593006,0.49810328,-0.23325593,0.591578,0.49222032,-0.21439091,0.590279,0.53761904,-0.29263041,0.587632,0.52823492,-0.24434018,0.581983,0.52265994,-0.21606934,0.578687,0.51937012,-0.19514628,0.576333,0.55240187,-0.29378456,0.5808,0.54578809,-0.24556935,0.574214,0.54235263,-0.22130932,0.570845,0.53999871,-0.1987284,0.567783,0.56785911,-0.30364932,0.57258,0.57388305,-0.26112711,0.565589,0.57319852,-0.24409537,0.562376,0.57274986,-0.22835984,0.559542
0.53248804,-0.37943199,0.583474,0.53211647,-0.34034813,0.583861,0.51534704,-0.37230204,0.589647,0.48212651,-0.34943096,0.58902,0.44499277,-0.32220907,0.574544,0.42870977,-0.30117871,0.56781,0.51453607,-0.29454551,0.59183,0.50048748,-0.25275956,0.588317,0.49313791,-0.23188742,0.586561,0.48653678,-0.21329872,0.584964,0.5331785,-0.29201482,0.584313,0.52336777,-0.24374132,0.578317,0.51761284,-0.21539656,0.57482,0.51334313,-0.1953224,0.572321,0.54848039,-0.29456766,0.578095,0.54197256,-0.24618035,0.571116,0.5384677,-0.22136532,0.567545,0.53551524,-0.19849285,0.564299,0.56612547,-0.3038026,0.570656,0.57135126,-0.26211055,0.563662,0.57141617,-0.24351292,0.560448,0.57118391,-0.22783374,0.557612
0.53175773,-0.37999727,0.583234,0.53143994,-0.34066332,0.583472,0.51446563,-0.37252406,0.58913,0.48126747,-0.34950723,0.5882,0.44444407,-0.32232118,0.574159,0.42833342,-0.30139774,0.56791,0.51362003,-0.29463349,0.590977,0.4994417,-0.25264707,0.587159,0.49206551,-0.23170582,0.585251,0.48532186,-0.21340294,0.583516,0.53258367,-0.2923689,0.583748,0.52261484,-0.24404028,0.57752,0.51676917,-0.21566041,0.573886,0.51234735,-0.19572964,0.571291,0.54814207,-0.29505799,0.577779,0.54137105,-0.24669806,0.570726,0.53777427,-0.22184622,0.567117,0.53481207,-0.19876092,0.563836,0.56621844,-0.30439127,0.570662,0.57070617,-0.26228581,0.563243,0.57090098,-0.24339947,0.559835,0.57062595,-0.22767018,0.556827
0.53016953,-0.38067875,0.581571,0.53005079,-0.34030555,0.582016,0.51456511,-0.37173143,0.587444,0.48002404,-0.35249796,0.587133,0.44144475,-0.32825311,0.571309,0.42540713,-0.30434852,0.567263,0.51132445,-0.29626533,0.589664,0.49802428,-0.25254872,0.585668,0.49079982,-0.23308326,0.583669,0.48403565,-0.21331954,0.582343,0.5306183,-0.29454534,0.582533,0.52039164,-0.24624799,0.57637,0.5142256,-0.21803207,0.572775,0.50939581,-0.19847612,0.570207,0.5467575,-0.29475592,0.576627,0.53969626,-0.24641734,0.569552,0.53617363,-0.22111769,0.565932,0.53308095,-0.19860426,0.562641,0.5650571,-0.3037684,0.569552,0.56868405,-0.26225329,0.562269,0.56985918,-0.24291799,0.558922,0.57092694,-0.22547612,0.555969
0.52812392,-0.38136899,0.580256,0.52849811,-0.34059143,0.581379,0.51189302,-0.37181422,0.586523,0.47968947,-0.35260639,0.586757,0.44180653,-0.32498567,0.572036,0.42636322,-0.30309711,0.567453,0.51153367,-0.29646169,0.590071,0.49859222,-0.25368333,0.587073,0.49160369,-0.23292833,0.585575,0.48500818,-0.21424051,0.584212,0.53107447,-0.29271196,0.582682,0.52181216,-0.24474059,0.577374,0.51619515,-0.2166648,0.574278,0.51199433,-0.1967716,0.572067,0.54638972,-0.29506654,0.576505,0.54006087,-0.24712304,0.570424,0.53775356,-0.22167313,0.568175,0.53591535,-0.19975355,0.566131,0.56425712,-0.30393513,0.569003,0.56801995,-0.26261382,0.562404,0.5688434,-0.24315979,0.559372,0.56986791,-0.22716467,0.556696
0.5261532,-0.38207551,0.580104,0.52814331,-0.34078876,0.581271,0.51154069,-0.37199572,0.586472,0.47978358,-0.35288797,0.586892,0.4416854,-0.32520699,0.571927,0.42604908,-0.30342938,0.567199,0.51148373,-0.29648292,0.590124,0.49843864,-0.2539788,0.587333,0.49144754,-0.23327728,0.585937,0.48493566,-0.21459121,0.584668,0.5308591,-0.29293552,0.582623,0.52176985,-0.24496291,0.577429,0.51618425,-0.21692567,0.5744,0.51202515,-0.19701092,0.572236,0.54606255,-0.29525389,0.57635,0.53976318,-0.24737137,0.570457,0.53794233,-0.22247141,0.568893,0.53664047,-0.20070682,0.567471,0.56380097,-0.30411617,0.568727,0.56731813,-0.26268936,0.562184,0.56798145,-0.24338308,0.559178,0.56914199,-0.22718463,0.556525
0.52642052,-0.38225192,0.580118,0.52874156,-0.34068258,0.581484,0.51168666,-0.37238128,0.586517,0.48021689,-0.35083216,0.586811,0.44283663,-0.32471502,0.573099,0.42624183,-0.30406265,0.567844,0.51157114,-0.29655855,0.590535,0.49823929,-0.25409872,0.587546,0.49076029,-0.23348749,0.586052,0.48450285,-0.21465049,0.584693,0.53102749,-0.29295787,0.583064,0.51994334,-0.2460702,0.578115,0.51105441,-0.21784233,0.575228,0.50897679,-0.19826712,0.573166,0.54655018,-0.29236309,0.5768,0.54027961,-0.24461764,0.570758,0.53713976,-0.22130791,0.569527,0.53673404,-0.20076605,0.568408,0.56491029,-0.29900542,0.569154,0.56656539,-0.25507168,0.562885,0.56589837,-0.24326267,0.560005,0.56562639,-0.22744116,0.557463
0.5256137,-0.38150508,0.578911,0.52685294,-0.33949971,0.579542,0.51127705,-0.37222101,0.585919,0.48012632,-0.35131976,0.586869,0.44239728,-0.32457194,0.572772,0.42516506,-0.30443113,0.567427,0.50892773,-0.29457622,0.588753,0.49613969,-0.25257227,0.585501,0.48766999,-0.2315093,0.583875,0.48226027,-0.21363291,0.582397,0.52828371,-0.28889182,0.580272,0.51474918,-0.23942313,0.574814,0.50787215,-0.2111522,0.57163,0.50271245,-0.19471814,0.569356,0.54287748,-0.28965633,0.573239,0.53815842,-0.24280577,0.572094,0.53629617,-0.21944055,0.571508,0.53818615,-0.2010995,0.570976,0.56050977,-0.29621424,0.564799,0.56095691,-0.25318895,0.557524,0.56044251,-0.23564875,0.554182,0.55992527,-0.22289495,0.551233
0.5249505,-0.38167596,0.57882,0.52542783,-0.3390273,0.578483,0.51053953,-0.37226375,0.585718,0.47941449,-0.35186157,0.585957,0.44099237,-0.32498868,0.571477,0.42465908,-0.30451502,0.567127,0.50754298,-0.29418662,0.586776,0.49312478,-0.25098372,0.582404,0.48758377,-0.23061122,0.582235,0.48150888,-0.21335424,0.58208,0.5249287,-0.29022791,0.578095,0.51362826,-0.24178831,0.571018,0.50470534,-0.21046485,0.56689,0.50257222,-0.19429848,0.563941,0.5403619,-0.28917608,0.57098,0.53325316,-0.24015583,0.566986,0.5301272,-0.21611137,0.564942,0.52992496,-0.19814896,0.563084,0.55781097,-0.2956294,0.562598,0.55795097,-0.25158038,0.554269,0.55771122,-0.23301118,0.550442,0.55631929,-0.21815021,0.547065
0.52030822,-0.37900166,0.573824,0.51466762,-0.33292605,0.567365,0.50235369,-0.3671203,0.576642,0.46190333,-0.34253216,0.569355,0.42263866,-0.31370903,0.552244,0.40466691,-0.2922242,0.545702,0.48792215,-0.28267533,0.565659,0.47489527,-0.24146554,0.563658,0.46802667,-0.22097916,0.562657,0.47287786,-0.20935496,0.57078,0.50855511,-0.28199759,0.559928,0.49481901,-0.23134992,0.548469,0.4862586,-0.20272759,0.541785,0.48012847,-0.18212215,0.537011,0.52598023,-0.28534827,0.555764,0.51817984,-0.23674683,0.548542,0.51444171,-0.21205526,0.545147,0.51353642,-0.19049585,0.546965,0.54750397,-0.2966862,0.551857,0.55212904,-0.25466768,0.543924,0.55392109,-0.23538494,0.540279,0.55200513,-0.22687175,0.537063
0.51329006,-0.37463447,0.56552,0.50413285,-0.32974513,0.554969,0.49577228,-0.3625728,0.567214,0.45657406,-0.34199142,0.557702,0.4147473,-0.31365843,0.537467,0.3943769,-0.29147974,0.528662,0.47679164,-0.27749094,0.548595,0.45998812,-0.23551287,0.542953,0.45154297,-0.21438115,0.540132,0.4438393,-0.1950853,0.537567,0.49724973,-0.27643073,0.542858,0.47585209,-0.22541169,0.525774,0.46312058,-0.19622473,0.515809,0.45401749,-0.17531628,0.508691,0.51502244,-0.27967916,0.539044,0.49902741,-0.2286643,0.522646,0.49084506,-0.20262668,0.514257,0.48405983,-0.17923697,0.507315,0.53786174,-0.2913256,0.53621,0.53441598,-0.24502197,0.521479,0.53069902,-0.22752462,0.514711,0.52747744,-0.21182632,0.508739
0.50477595,-0.36930286,0.555124,0.49471652,-0.32677097,0.541079,0.48424979,-0.35869632,0.555868,0.44672592,-0.33727817,0.544567,0.40580911,-0.3083788,0.521339,0.3841147,-0.28471802,0.506748,0.46779733,-0.27118863,0.530716,0.44308341,-0.22801668,0.513775,0.43068151,-0.2062734,0.505304,0.41938001,-0.1864091,0.497604,0.48749415,-0.27314875,0.524957,0.46789901,-0.22194699,0.505652,0.45646831,-0.19204576,0.494392,0.44830177,-0.17067064,0.486348,0.50457418,-0.2790337,0.521424,0.49706667,-0.22913811,0.511753,0.49255476,-0.20414063,0.506805,0.48653624,-0.18449612,0.502307,0.52640128,-0.29410488,0.519482,0.52002642,-0.24617959,0.499564,0.51491184,-0.22747721,0.490412,0.51044611,-0.2108245,0.482337
0.48507668,-0.36381341,0.527183,0.48677979,-0.32400732,0.513521,0.47627125,-0.36008577,0.525743,0.43428153,-0.33341759,0.512237,0.39316072,-0.30705722,0.492299,0.37225743,-0.28601285,0.481938,0.44923827,-0.26754904,0.500732,0.42404114,-0.22385529,0.482059,0.41142739,-0.202068,0.472722,0.39993541,-0.18216203,0.464234,0.47265791,-0.26745701,0.497806,0.45929923,-0.21816706,0.487276,0.45149372,-0.1892403,0.481134,0.44651248,-0.16935897,0.480915,0.49311119,-0.27156312,0.496569,0.47321262,-0.22186812,0.475025,0.46303562,-0.19633651,0.464002,0.45378746,-0.17305773,0.453982,0.51959979,-0.28429441,0.497281,0.51185464,-0.23884232,0.478404,0.50827563,-0.21801897,0.469731,0.50481827,-0.20682413,0.462078
0.49346053,-0.37222215,0.517996,0.48395152,-0.32610094,0.503472,0.47260739,-0.35898061,0.518321,0.43497731,-0.33827976,0.506868,0.39316152,-0.31215946,0.487681,0.37145991,-0.29120963,0.476694,0.44836056,-0.26987808,0.49218,0.42323745,-0.22404384,0.47355,0.41049534,-0.20696823,0.464234,0.39880412,-0.19113417,0.455766,0.46932566,-0.26914341,0.486765,0.44779818,-0.21951902,0.468124,0.43522416,-0.1903918,0.45725,0.42623005,-0.16952979,0.449482,0.48776063,-0.27274662,0.483553,0.46639911,-0.22340407,0.461463,0.45547241,-0.19805639,0.450161,0.44550608,-0.17580865,0.439887,0.51189346,-0.28492462,0.482062,0.50121754,-0.24021195,0.461779,0.49589184,-0.22320335,0.45246,0.49127786,-0.20797828,0.444237
0.49035616,-0.3749299,0.517244,0.47384492,-0.33095124,0.496747,0.46806843,-0.3591643,0.515094,0.42387917,-0.3389905,0.499115,0.38244785,-0.31482433,0.47575,0.35955169,-0.29248551,0.461119,0.43888483,-0.26981452,0.477571,0.41080263,-0.22570969,0.454116,0.39675263,-0.20361712,0.442388,0.38397521,-0.18350776,0.431727,0.46020206,-0.27362771,0.473169,0.43509814,-0.22634537,0.445231,0.42047048,-0.19850632,0.428933,0.41003148,-0.17848759,0.417292,0.47889917,-0.28104987,0.471304,0.46218725,-0.22992999,0.449289,0.4535425,-0.2043259,0.438026,0.44569122,-0.18099187,0.427786,0.50319672,-0.29788348,0.472361,0.49291619,-0.25275221,0.44714,0.48803047,-0.23287448,0.435552,0.48372097,-0.21533216,0.425327
0.48623938,-0.3774694,0.510302,0.47044353,-0.33529098,0.482966,0.46259123,-0.36013619,0.505958,0.42156965,-0.34303712,0.487698,0.37932376,-0.32285731,0.465089,0.35529066,-0.30265337,0.450341,0.42517788,-0.27564194,0.45556,0.39643602,-0.23023845,0.428768,0.38194936,-0.20829327,0.415373,0.36877626,-0.18832373,0.403195,0.44728332,-0.27860136,0.451523,0.41760034,-0.22916673,0.419047,0.40028157,-0.2003655,0.400102,0.38791059,-0.17981267,0.386571,0.46726766,-0.28525955,0.450545,0.44287571,-0.23548276,0.4206,0.43039004,-0.21004198,0.405279,0.41903683,-0.1869325,0.391352,0.49431002,-0.30104183,0.453743,0.47874442,-0.25862805,0.423556,0.47157289,-0.23916765,0.409687,0.46522622,-0.22222237,0.397449
0.47243307,-0.37028694,0.49438,0.45471643,-0.33355133,0.46392,0.45067153,-0.36129206,0.487848,0.40270068,-0.33983128,0.466424,0.36180807,-0.32430528,0.442755,0.33633548,-0.30428,0.426014,0.4055492,-0.27179925,0.431279,0.3741542,-0.22915881,0.40116,0.35843996,-0.20805427,0.386101,0.34415098,-0.18885016,0.37241,0.42918863,-0.27541157,0.428882,0.39770605,-0.22841467,0.3932,0.37934054,-0.20100034,0.372385,0.3662221,-0.18141908,0.357517,0.45065355,-0.28271144,0.429522,0.4228386,-0.23545932,0.394596,0.40860089,-0.21130286,0.376727,0.39565221,-0.18935545,0.360482,0.47987076,-0.29947077,0.435135,0.46348991,-0.25731206,0.402987,0.45591707,-0.23857321,0.388217,0.44922421,-0.22232168,0.375184
0.46383812,-0.38461193,0.482483,0.44194355,-0.34338878,0.450589,0.43858683,-0.36609432,0.475252,0.390513,-0.3526815,0.457707,0.34844448,-0.3410644,0.43587,0.32161667,-0.32284397,0.419626,0.39487422,-0.27965101,0.415924,0.36040527,-0.24408209,0.381913,0.34293742,-0.22780844,0.364908,0.3269112,-0.21393621,0.349448,0.41813728,-0.28597687,0.413902,0.38506756,-0.24125351,0.375086,0.36576721,-0.21519184,0.352443,0.35394137,-0.19768909,0.338147,0.43923059,-0.2954912,0.414973,0.41051086,-0.25019363,0.378574,0.39581772,-0.22701608,0.359951,0.38246212,-0.20594483,0.343022,0.46783635,-0.31484574,0.421326,0.4535951,-0.27572167,0.38779,0.44672637,-0.25957687,0.372381,0.4406463,-0.24560705,0.358785
0.4543003,-0.39580058,0.47075,0.43847551,-0.35543372,0.439279,0.43210138,-0.38640677,0.462461,0.38858396,-0.37303988,0.443166,0.34623526,-0.34187584,0.424093,0.3295977,-0.3188731,0.417052,0.39163221,-0.28867898,0.403642,0.35363177,-0.25876182,0.370812,0.33458582,-0.24375532,0.354397,0.31723994,-0.23007999,0.339475,0.41611656,-0.29635348,0.403079,0.39028245,-0.25783712,0.363912,0.37531338,-0.23530128,0.341064,0.36467991,-0.21916658,0.324745,0.43822982,-0.30714067,0.405314,0.40874094,-0.25183919,0.371924,0.39284047,-0.23498506,0.35484,0.37677623,-0.23212485,0.33931,0.4680032,-0.32833007,0.41298,0.45587089,-0.2903217,0.380259,0.45014164,-0.27395043,0.365225,0.44502862,-0.26008929,0.351959
0.4568136,-0.41719888,0.469998,0.43780973,-0.37514117,0.438612,0.43141089,-0.40612911,0.461722,0.38794738,-0.3930232,0.44244,0.34635364,-0.36215333,0.424238,0.33013115,-0.33943109,0.417727,0.3910685,-0.30802991,0.403061,0.35312823,-0.27833145,0.370284,0.33406508,-0.26511136,0.353895,0.31667554,-0.25410298,0.338997,0.41553019,-0.31583812,0.402511,0.38973657,-0.27750512,0.363403,0.37479178,-0.25509094,0.34059,0.36417345,-0.23904989,0.324294,0.43762002,-0.32675598,0.40475,0.4085651,-0.27140021,0.371764,0.39289361,-0.25488307,0.354888,0.37703718,-0.25238506,0.339545,0.46735386,-0.34813211,0.412407,0.45543211,-0.31030551,0.379893,0.44980886,-0.29405304,0.364955,0.4447947,-0.28031808,0.351774
0.46543678,-0.44692208,0.482858,0.44446174,-0.3975839,0.450943,0.43389163,-0.42999919,0.471481,0.38904319,-0.40729072,0.445919,0.3486091,-0.37413333,0.426603,0.33115166,-0.34916981,0.417759,0.39629272,-0.32372542,0.411111,0.36113129,-0.29433805,0.375896,0.34354681,-0.27971696,0.358288,0.32758094,-0.26700255,0.34228,0.42394013,-0.33361322,0.414232,0.39398295,-0.30942079,0.374538,0.376672,-0.29542824,0.351384,0.3644006,-0.28550172,0.334845,0.44865742,-0.34659661,0.419535,0.41325166,-0.3055219,0.380893,0.39523399,-0.28690335,0.361122,0.37894155,-0.27281589,0.343148,0.48148846,-0.37115128,0.43091,0.44855542,-0.31591949,0.397823,0.43483905,-0.30715312,0.382622,0.42123685,-0.31195346,0.369208
0.4690201,-0.48456132,0.491347,0.45674157,-0.42914223,0.465012,0.44325849,-0.46168285,0.482763,0.39760082,-0.43739377,0.45779,0.35536753,-0.40146603,0.437731,0.33808497,-0.37650059,0.429992,0.41494405,-0.3579096,0.433144,0.3862166,-0.33529675,0.402868,0.37192973,-0.32410343,0.387804,0.35896252,-0.3142808,0.37411,0.44211999,-0.36653358,0.434719,0.40857022,-0.37910691,0.400428,0.38217354,-0.37657069,0.380425,0.38269151,-0.37439788,0.384184,0.46585556,-0.37834183,0.438273,0.43428576,-0.39208605,0.405712,0.41053251,-0.38687657,0.389053,0.41162484,-0.37945611,0.393507,0.49646771,-0.40120289,0.446684,0.45142015,-0.40304071,0.415678,0.44816598,-0.41729193,0.428083,0.46245495,-0.42270514,0.444203
0.45987225,-0.47800142,0.479571,0.44978951,-0.42835928,0.453239,0.43825926,-0.45852258,0.474999,0.39402887,-0.44017639,0.457531,0.35375467,-0.41768134,0.442537,0.32984313,-0.3955265,0.430189,0.41335603,-0.36052359,0.426358,0.3797189,-0.32937584,0.39555,0.36569705,-0.33856332,0.380145,0.37052756,-0.35163595,0.383667,0.43524048,-0.36651922,0.422951,0.40890998,-0.32727531,0.38813,0.38381955,-0.33709491,0.367818,0.38262802,-0.35110107,0.371137,0.45434281,-0.3760104,0.422405,0.43738628,-0.35265258,0.387658,0.42916536,-0.34087043,0.36988,0.4313203,-0.36485225,0.373347,0.47917972,-0.39583057,0.425955,0.45504755,-0.37244752,0.395957,0.44406482,-0.36199094,0.382174,0.43440608,-0.35309786,0.370013
0.4640036,-0.48543174,0.483335,0.44297603,-0.43456655,0.448956,0.43889095,-0.46691672,0.474123,0.39000698,-0.44660499,0.454018,0.34684956,-0.41727737,0.435051,0.32388448,-0.39115845,0.422761,0.39226147,-0.36364729,0.40983,0.3551821,-0.33229666,0.374365,0.33663154,-0.31662222,0.356633,0.33454317,-0.32200602,0.355628,0.41691532,-0.36906773,0.409411,0.39138079,-0.31369897,0.367789,0.37164932,-0.30800744,0.34351,0.3702569,-0.32504704,0.341803,0.43926409,-0.37837513,0.412014,0.41909679,-0.35018533,0.371826,0.40893866,-0.33582428,0.351265,0.40838843,-0.35580977,0.349599,0.46974783,-0.39853334,0.420579,0.44051252,-0.37088233,0.384298,0.42712849,-0.35820657,0.367628,0.41532426,-0.34728555,0.352919
0.46393545,-0.49295465,0.481867,0.44265397,-0.44428705,0.448346,0.43765648,-0.47623795,0.473373,0.39169576,-0.45900736,0.459854,0.35043989,-0.43143119,0.4455,0.32865652,-0.40955872,0.436754,0.39335055,-0.3736818,0.410804,0.35752033,-0.34349725,0.376085,0.33958918,-0.32841292,0.358725,0.32360841,-0.32040132,0.342944,0.41747966,-0.37907965,0.409789,0.3926299,-0.32407555,0.368817,0.37267772,-0.3187562,0.344917,0.37140962,-0.33664021,0.343817,0.43932029,-0.38834989,0.411828,0.41963469,-0.35791885,0.371991,0.40971121,-0.34239568,0.351609,0.40977454,-0.3597139,0.350521,0.4690551,-0.40842596,0.419587,0.43705273,-0.37575238,0.384083,0.42229467,-0.36335307,0.36777,0.40921691,-0.3540534,0.353376
0.4610495,-0.49292418,0.481455,0.43847427,-0.44211658,0.446944,0.4318189,-0.47396751,0.469688,0.38045573,-0.45129295,0.453334,0.34267155,-0.42401558,0.441214,0.32470637,-0.4047546,0.433683,0.38819208,-0.3780403,0.404537,0.35697546,-0.34444333,0.367015,0.34164823,-0.32888089,0.348255,0.328298,-0.31748321,0.331199,0.41464144,-0.37903763,0.407246,0.38838228,-0.32310418,0.366274,0.37136004,-0.31844401,0.342374,0.373736,-0.33580374,0.341243,0.43867039,-0.3887317,0.412435,0.41925591,-0.35889524,0.372445,0.40946929,-0.34367979,0.351985,0.41220958,-0.3640583,0.350263,0.47080082,-0.40899482,0.424086,0.43902977,-0.37856582,0.387206,0.42442031,-0.36594393,0.370261,0.41165432,-0.3563547,0.35531
0.45895016,-0.48935123,0.482005,0.42102668,-0.43541186,0.446245,0.42283468,-0.47438603,0.470738,0.36931222,-0.44123962,0.448541,0.33083519,-0.41818409,0.433051,0.31517641,-0.39652987,0.426069,0.36340242,-0.37479233,0.403453,0.34298443,-0.34355462,0.36487,0.33278749,-0.32844576,0.345579,0.32431906,-0.31554027,0.328041,0.39045117,-0.37678313,0.405111,0.36424848,-0.34004422,0.362466,0.34901842,-0.31930346,0.33759,0.33739646,-0.31595487,0.319821,0.41506747,-0.38277281,0.409542,0.39708783,-0.35465879,0.368566,0.38801074,-0.34032728,0.347601,0.39031198,-0.36071781,0.344812,0.44870586,-0.39799053,0.420493,0.40852642,-0.36197972,0.383255,0.39497534,-0.36514383,0.366145,0.3804518,-0.35698303,0.351048
0.45234084,-0.48254122,0.478465,0.41728706,-0.43047272,0.442979,0.41828078,-0.46952553,0.468405,0.36566353,-0.43472135,0.446271,0.32735525,-0.4110613,0.430241,0.30747217,-0.38883541,0.419282,0.36219293,-0.37170406,0.401908,0.3425111,-0.3411502,0.363628,0.33269349,-0.32637494,0.344489,0.32388591,-0.31441527,0.327089,0.38780314,-0.37252825,0.402161,0.36295499,-0.31989335,0.361236,0.34897583,-0.30903713,0.337363,0.33752417,-0.31299821,0.320311,0.41099731,-0.37749954,0.405412,0.39396994,-0.3324039,0.364688,0.38322742,-0.32741994,0.343853,0.38586015,-0.35225737,0.341331,0.44262969,-0.39138106,0.414921,0.42287657,-0.36618732,0.378551,0.41396047,-0.3552817,0.36184,0.40291887,-0.34989414,0.347095
0.45141963,-0.48048385,0.477538,0.42481885,-0.4242586,0.44358,0.42470027,-0.46238593,0.468031,0.37521533,-0.43267922,0.448405,0.33723879,-0.41135392,0.434744,0.3118802,-0.39026131,0.423025,0.36668771,-0.3699069,0.404426,0.34827205,-0.33500004,0.367128,0.33811223,-0.3197678,0.348479,0.32910209,-0.31331791,0.331525,0.39438413,-0.36765911,0.404519,0.3682222,-0.31259778,0.366468,0.3548684,-0.30156699,0.344271,0.34487104,-0.29981206,0.328416,0.41775994,-0.3720005,0.407508,0.38580816,-0.33258904,0.367195,0.36946783,-0.31242337,0.34657,0.35587489,-0.30183941,0.328097,0.44976309,-0.38496421,0.416463,0.43047155,-0.35931243,0.381122,0.42152498,-0.35153002,0.364884,0.40910053,-0.35120487,0.350556
0.44917749,-0.46930775,0.475458,0.42440239,-0.41383407,0.443206,0.42359445,-0.45454351,0.467106,0.37535374,-0.42287942,0.448742,0.33755331,-0.4018113,0.435357,0.3178784,-0.37970704,0.426887,0.37099904,-0.35986986,0.406862,0.33948595,-0.32512386,0.371482,0.32373413,-0.30773422,0.353793,0.30941596,-0.29191213,0.337711,0.3960138,-0.35930461,0.406108,0.36157469,-0.29936781,0.368851,0.34541643,-0.2914648,0.347118,0.33366285,-0.29611978,0.331595,0.41859338,-0.36288957,0.408253,0.38742091,-0.31981956,0.369482,0.37148085,-0.29786551,0.349645,0.3581504,-0.28542216,0.331612,0.4492226,-0.37465626,0.415936,0.43138105,-0.34991415,0.381893,0.42315341,-0.34267323,0.366251,0.4143435,-0.34192206,0.352449
0.45040053,-0.46031276,0.47526,0.42444319,-0.40383271,0.44331,0.42404237,-0.4446082,0.466976,0.37560304,-0.41309567,0.449081,0.33787862,-0.3921041,0.435787,0.31815395,-0.36999233,0.427264,0.37138638,-0.35038357,0.407293,0.3400182,-0.31549935,0.372079,0.32435373,-0.29813727,0.354472,0.31011698,-0.28233901,0.338466,0.39641279,-0.34967337,0.406559,0.36170132,-0.28992482,0.369152,0.345608,-0.28179362,0.347331,0.33396335,-0.28647314,0.331745,0.41896134,-0.35311301,0.408695,0.38802059,-0.31036252,0.370104,0.37219419,-0.28850818,0.350359,0.35902589,-0.27600013,0.33241,0.44948103,-0.36465342,0.416319,0.43988651,-0.33457863,0.384099,0.4349634,-0.32929279,0.369295,0.42889172,-0.32956047,0.356232
0.45633704,-0.44995474,0.483142,0.43257541,-0.39416428,0.451271,0.42873826,-0.4369473,0.474379,0.38339212,-0.40297521,0.456549,0.34555134,-0.3815501,0.442833,0.3248481,-0.36040139,0.433298,0.37950211,-0.3400407,0.414721,0.34849334,-0.30484185,0.379472,0.33300798,-0.28729878,0.361847,0.31893483,-0.27133039,0.345824,0.40500134,-0.33995902,0.41461,0.36997486,-0.28343057,0.37543,0.35326946,-0.27723809,0.352575,0.33958277,-0.28625206,0.336251,0.42794801,-0.34391829,0.417251,0.39740911,-0.30093434,0.378685,0.3817885,-0.27897078,0.358954,0.36880866,-0.26623243,0.341016,0.45892572,-0.35608872,0.425462,0.44897199,-0.32721861,0.393244,0.44411195,-0.32074192,0.378441,0.4390601,-0.31849649,0.365379
0.4651024,-0.45561625,0.492244,0.44280011,-0.40124653,0.46332,0.4391375,-0.44288819,0.485915,0.39426837,-0.40365212,0.464965,0.35750869,-0.37854417,0.449122,0.33734759,-0.35658357,0.437717,0.38999301,-0.33674127,0.432169,0.36851353,-0.29371306,0.398472,0.35774736,-0.27224982,0.381624,0.35628664,-0.25883436,0.375093,0.41388901,-0.33863174,0.430051,0.38690386,-0.29691516,0.393319,0.36917469,-0.28266293,0.371892,0.35475153,-0.2847833,0.356587,0.43576701,-0.3446001,0.430788,0.40959475,-0.30617733,0.394506,0.39627309,-0.28669742,0.375944,0.38616703,-0.27557443,0.359069,0.46818527,-0.36251402,0.436271,0.45803244,-0.31172978,0.406107,0.44537096,-0.31473419,0.392248,0.43421016,-0.31743389,0.38002
0.46776533,-0.44894436,0.494836,0.44367862,-0.38971841,0.465596,0.441382,-0.43418456,0.488285,0.39592358,-0.39521711,0.466917,0.35858012,-0.36958784,0.450468,0.33799883,-0.3472202,0.438562,0.39156862,-0.32815603,0.433915,0.36986284,-0.28488185,0.399931,0.35861114,-0.26633042,0.382939,0.35276584,-0.25550321,0.371885,0.41572916,-0.33015513,0.431963,0.38774508,-0.28803151,0.39487,0.3705049,-0.2735225,0.373232,0.3559354,-0.27555091,0.357777,0.43786701,-0.33623647,0.432864,0.41144387,-0.29744987,0.396287,0.39799018,-0.27777622,0.377573,0.38568015,-0.26189147,0.36056,0.4683125,-0.35176527,0.438592,0.46044494,-0.30352072,0.408246,0.44770541,-0.3065136,0.394304,0.43647364,-0.30920002,0.382001
0.46397842,-0.43036994,0.492068,0.44383028,-0.37197802,0.467281,0.43913416,-0.40607348,0.488294,0.39809186,-0.37850506,0.470405,0.36056635,-0.35142002,0.452909,0.34076516,-0.32893314,0.441223,0.39950651,-0.31425786,0.442633,0.38071786,-0.26182716,0.412248,0.369874,-0.24585663,0.397055,0.35825632,-0.24030529,0.383243,0.42208937,-0.31583767,0.438769,0.39230817,-0.25773286,0.40667,0.37427668,-0.24163887,0.387946,0.36092092,-0.24431443,0.374571,0.4423023,-0.32131279,0.437714,0.42555891,-0.26497227,0.404356,0.41541827,-0.25100136,0.387289,0.40084351,-0.25308671,0.371773,0.4693261,-0.33558226,0.440415,0.46795465,-0.29164898,0.413378,0.46387639,-0.28722457,0.400956,0.46052657,-0.28342872,0.389995
0.4963018,-0.39699098,0.502658,0.47159412,-0.34694223,0.475399,0.47215687,-0.38297711,0.499529,0.44110017,-0.35607679,0.485188,0.40976389,-0.32197534,0.474543,0.39478186,-0.29927855,0.464935,0.42202125,-0.28990463,0.449565,0.39376771,-0.2357295,0.419649,0.37761078,-0.23027836,0.404691,0.36283676,-0.23241627,0.391094,0.44313446,-0.28989594,0.444045,0.41540996,-0.23239997,0.409813,0.39699263,-0.21834478,0.389845,0.38343273,-0.21126336,0.375581,0.46267684,-0.29412783,0.44184,0.43720027,-0.23904817,0.406794,0.42210442,-0.22734962,0.388864,0.40286067,-0.2348081,0.372563,0.4899216,-0.3070622,0.443572,0.46870544,-0.26057351,0.412581,0.45529724,-0.25931837,0.398343,0.44349856,-0.25830338,0.385779
0.49498808,-0.39380844,0.506111,0.4725688,-0.33813122,0.483044,0.47343209,-0.38036436,0.505179,0.42771326,-0.34586663,0.491277,0.39106139,-0.32236925,0.477814,0.37101891,-0.30032651,0.468184,0.43252239,-0.28051298,0.463313,0.40900836,-0.22732039,0.437636,0.39446209,-0.21975449,0.424798,0.38116591,-0.21285094,0.413127,0.45207,-0.28127383,0.456511,0.42686465,-0.22768803,0.425411,0.41044012,-0.20692697,0.40727,0.3980874,-0.19588943,0.394312,0.469622,-0.28610154,0.452891,0.4507603,-0.23248439,0.423344,0.44026907,-0.21115657,0.408227,0.42806923,-0.20390129,0.394484,0.49326342,-0.29965288,0.452277,0.47538767,-0.25435157,0.424641,0.46382054,-0.25000527,0.411944,0.4530279,-0.24820181,0.40074
0.49646494,-0.38363321,0.50796,0.48294191,-0.3287396,0.488047,0.47644088,-0.37052107,0.508485,0.43913849,-0.3447366,0.49842,0.40041614,-0.32118328,0.486553,0.37549504,-0.30222135,0.473675,0.4433949,-0.27366885,0.472666,0.4215872,-0.22166856,0.449686,0.40809382,-0.21229253,0.438196,0.39574055,-0.20365044,0.427751,0.46240407,-0.2725932,0.465142,0.43800416,-0.21996385,0.436449,0.42237735,-0.19775455,0.419711,0.41119493,-0.181908,0.407755,0.47953844,-0.27586916,0.460659,0.46068925,-0.22451298,0.433673,0.45101266,-0.1983663,0.419867,0.43997591,-0.18779767,0.407315,0.50269936,-0.28749709,0.458519,0.49332081,-0.24293507,0.432792,0.4859423,-0.23453311,0.420971,0.47959235,-0.22707339,0.410541
0.50554994,-0.37689686,0.515378,0.48695787,-0.32137362,0.495,0.48460181,-0.36329921,0.515179,0.44260975,-0.34142737,0.506106,0.40135272,-0.31814096,0.492082,0.38070963,-0.29817999,0.485081,0.44872955,-0.2651386,0.478346,0.42344883,-0.2128903,0.453796,0.40913969,-0.20494803,0.441521,0.39709612,-0.2012606,0.430361,0.46841352,-0.2652779,0.471561,0.44298225,-0.21235237,0.442884,0.42696936,-0.19129847,0.426155,0.41554626,-0.17599962,0.414206,0.48593217,-0.26954554,0.467726,0.46434947,-0.21851201,0.4384,0.45327128,-0.19253957,0.423396,0.44145445,-0.18792314,0.409756,0.50924068,-0.28232755,0.466427,0.49966805,-0.2365778,0.440629,0.49187132,-0.22954775,0.428776,0.48688627,-0.22730289,0.418318
0.51069974,-0.37765448,0.522264,0.49293559,-0.31823633,0.504764,0.4887511,-0.35879477,0.523059,0.44736867,-0.3322827,0.512979,0.40836432,-0.30830308,0.499414,0.38661627,-0.28831736,0.48913,0.45690736,-0.26148319,0.491662,0.43542562,-0.21782487,0.468882,0.42059186,-0.19822898,0.457491,0.40893908,-0.18207878,0.447137,0.4760668,-0.26080737,0.484635,0.4531164,-0.21195072,0.458458,0.43899622,-0.18695173,0.443188,0.42876191,-0.16969798,0.432281,0.49312261,-0.26448952,0.480354,0.47340032,-0.21772885,0.453658,0.46336115,-0.19359265,0.44,0.45370361,-0.17414711,0.427584,0.51584832,-0.27679532,0.478068,0.50784472,-0.23568678,0.454617,0.50298781,-0.22070686,0.443843,0.49884581,-0.20730043,0.434336
0.51090919,-0.37249368,0.5281,0.49759779,-0.31906996,0.512605,0.49012549,-0.35777044,0.527759,0.44574023,-0.32410461,0.517113,0.40966536,-0.29966179,0.504847,0.39185109,-0.27869589,0.498727,0.4624857,-0.25731394,0.499705,0.43958799,-0.21181084,0.479685,0.42785554,-0.19455855,0.469675,0.41712782,-0.17856024,0.460576,0.48354768,-0.25888899,0.494782,0.46192926,-0.21064616,0.471665,0.44925167,-0.18324336,0.45818,0.44011874,-0.16466447,0.448548,0.50176201,-0.26434264,0.49206,0.48387723,-0.21768259,0.468527,0.47478419,-0.19349859,0.456488,0.46655339,-0.17130553,0.445542,0.52505977,-0.27859674,0.491303,0.51924268,-0.23548782,0.470307,0.51533174,-0.22164624,0.46066,0.511987,-0.20941562,0.452148
0.51439448,-0.36808165,0.534482,0.50056361,-0.30772045,0.519742,0.49254925,-0.34965231,0.535693,0.45403606,-0.32036541,0.525686,0.41571066,-0.29603869,0.512248,0.39433608,-0.27737333,0.502348,0.46579253,-0.25291277,0.509378,0.44355493,-0.20565174,0.489382,0.43161356,-0.190019,0.479384,0.42067786,-0.1754898,0.470295,0.48557058,-0.25156098,0.502787,0.46408563,-0.20291294,0.479508,0.45136211,-0.17561081,0.465929,0.44224936,-0.15607152,0.45623,0.50297174,-0.25459185,0.498628,0.48527841,-0.20833719,0.474703,0.47629175,-0.18432843,0.462463,0.46803572,-0.1630905,0.451335,0.52580408,-0.26593251,0.496047,0.52047635,-0.22306995,0.475167,0.51675713,-0.20831948,0.465573,0.51349163,-0.19549118,0.457108
0.51604706,-0.36084249,0.538502,0.50443058,-0.30197796,0.524869,0.49675371,-0.34254067,0.539508,0.45686592,-0.31692779,0.531623,0.41736307,-0.29586866,0.516378,0.39821787,-0.27662116,0.510541,0.46999148,-0.247989,0.51514,0.44645072,-0.20284675,0.496637,0.43444437,-0.18373787,0.487386,0.42345737,-0.16606634,0.478976,0.49046403,-0.24677472,0.509187,0.46769839,-0.19658238,0.487788,0.45424772,-0.1697641,0.475306,0.44462029,-0.15032169,0.46639,0.50836573,-0.2498612,0.505457,0.48920683,-0.20117587,0.483493,0.47939963,-0.17648479,0.472256,0.47049723,-0.15386127,0.46204,0.5316217,-0.26115006,0.503209,0.52693404,-0.21957482,0.48357,0.52466921,-0.20156187,0.474546,0.52267114,-0.18600355,0.466584
0.51959658,-0.35441758,0.54449,0.50432583,-0.29623994,0.530929,0.49741978,-0.33587312,0.544795,0.45556924,-0.30765351,0.535855,0.41807234,-0.28421771,0.523162,0.39948779,-0.26429378,0.517189,0.47268821,-0.24046857,0.520389,0.44834727,-0.1967491,0.502565,0.43603562,-0.17616554,0.493653,0.42478395,-0.15726228,0.485551,0.49378917,-0.24121925,0.515331,0.47235687,-0.19291677,0.49413,0.45974431,-0.16534246,0.481763,0.4507904,-0.14888534,0.47293,0.51200411,-0.24592041,0.512331,0.49255399,-0.19639583,0.491151,0.48351189,-0.17127417,0.481215,0.47528585,-0.14847578,0.472182,0.53521372,-0.25913742,0.510938,0.52745165,-0.21687562,0.491583,0.52386831,-0.19784132,0.48269,0.52076988,-0.18088813,0.474844
0.5142462,-0.34339633,0.540936,0.5039984,-0.29272967,0.530509,0.49479962,-0.33073831,0.542297,0.45558879,-0.30600437,0.534945,0.41976688,-0.28522401,0.525214,0.40139184,-0.2670959,0.520031,0.47379816,-0.23989666,0.523805,0.45270629,-0.19758523,0.508286,0.44195058,-0.17738663,0.500527,0.43209646,-0.15870611,0.493473,0.49283863,-0.23654367,0.518516,0.47378337,-0.18964178,0.500179,0.46250199,-0.16266535,0.489482,0.45681616,-0.14554786,0.481842,0.51105815,-0.23949064,0.515058,0.49601426,-0.1916477,0.496552,0.48875708,-0.16692511,0.48749,0.48203939,-0.14953377,0.479252,0.53433074,-0.25036096,0.512621,0.5316641,-0.20751748,0.496018,0.5294106,-0.1975022,0.48839,0.5289254,-0.18396735,0.483127
0.52479187,-0.3441536,0.554033,0.51208181,-0.29203695,0.54,0.50358697,-0.3307391,0.553993,0.4641799,-0.30741543,0.543747,0.42784623,-0.28355879,0.534432,0.40211506,-0.26567321,0.520401,0.47455092,-0.23803597,0.528651,0.44948169,-0.19144982,0.50898,0.4388887,-0.1742018,0.499145,0.42815375,-0.15692071,0.490203,0.49612831,-0.23668295,0.523859,0.47028389,-0.18605001,0.501969,0.45621294,-0.15753957,0.4892,0.44614865,-0.13702488,0.480079,0.51339116,-0.23707763,0.521118,0.49585917,-0.19050328,0.498576,0.48596674,-0.16516685,0.487043,0.47450513,-0.14068623,0.476558,0.53854705,-0.24791331,0.520107,0.53139047,-0.20283189,0.500467,0.52665753,-0.18864465,0.491443,0.52260566,-0.17585761,0.483481
