sluyters/QuantumLeap/backend/src/datasets/dynamic/HandGestureDataset_SHREC2017_csv/Gesture7/finger_1/subject_19_essai_4_skeletons_world.csv
Wrist_x,Wrist_y,Wrist_z,Palm_x,Palm_y,Palm_z,thumb_base_x,thumb_base_y,thumb_base_z,thumb_first_joint_x,thumb_first_joint_y,thumb_first_joint_z,thumb_second_joint_x,thumb_second_joint_y,thumb_second_joint_z,thumb_tip_x,thumb_tip_y,thumb_tip_z,index_base_x,index_base_y,index_base_z,index_first_joint_x,index_first_joint_y,index_first_joint_z,index_second_joint_x,index_second_joint_y,index_second_joint_z,index_tip_x,index_tip_y,index_tip_z,middle_base_x,middle_base_y,middle_base_z,middle_first_joint_x,middle_first_joint_y,middle_first_joint_z,middle_second_joint_x,middle_second_joint_y,middle_second_joint_z,middle_tip_x,middle_tip_y,middle_tip_z,ring_base_x,ring_base_y,ring_base_z,ring_first_joint_x,ring_first_joint_y,ring_first_joint_z,ring_second_joint_x,ring_second_joint_y,ring_second_joint_z,ring_tip_x,ring_tip_y,ring_tip_z,pinky_base_x,pinky_base_y,pinky_base_z,pinky_first_joint_x,pinky_first_joint_y,pinky_first_joint_z,pinky_second_joint_x,pinky_second_joint_y,pinky_second_joint_z,pinky_tip_x,pinky_tip_y,pinky_tip_z,
0.47270246,-0.42574255,0.531717,0.44987861,-0.37687843,0.51909,0.45295971,-0.42077445,0.534291,0.41530608,-0.39970955,0.529814,0.38569893,-0.37686436,0.525735,0.37154689,-0.35663794,0.523998,0.41260882,-0.3369748,0.51387,0.4055963,-0.2967373,0.51427,0.40297072,-0.27727508,0.51447,0.40081553,-0.25777462,0.51498,0.43109509,-0.33124732,0.507065,0.39504026,-0.30301192,0.486419,0.41416087,-0.34800952,0.511055,0.43376778,-0.37400198,0.526255,0.44851556,-0.33072357,0.502821,0.42216868,-0.30554109,0.4867,0.4103435,-0.32440493,0.478452,0.42402497,-0.34498879,0.489627,0.47286469,-0.34094973,0.50027,0.4370621,-0.3243516,0.484427,0.42169619,-0.31249434,0.479834,0.41565488,-0.31873837,0.475781
0.47215065,-0.42717154,0.532125,0.4499969,-0.37747512,0.519392,0.4525146,-0.42194651,0.534681,0.4153607,-0.39990304,0.530254,0.38569894,-0.37711247,0.526329,0.37162667,-0.35696685,0.524667,0.41278572,-0.33733309,0.514077,0.40587838,-0.29695158,0.514376,0.40322957,-0.2772155,0.514526,0.40095425,-0.25768455,0.514915,0.43126755,-0.3315106,0.507265,0.39497357,-0.30586309,0.486509,0.41479401,-0.35147177,0.511113,0.43437475,-0.37525871,0.526343,0.44872284,-0.33106622,0.503029,0.42237266,-0.30621174,0.486814,0.41094565,-0.32476586,0.478518,0.42427388,-0.34544467,0.489649,0.4731695,-0.34114099,0.500505,0.43703295,-0.32348391,0.484583,0.42116186,-0.31209838,0.479226,0.41453489,-0.31787953,0.474499
0.47178657,-0.428483,0.532521,0.45013626,-0.37796535,0.519677,0.45227988,-0.42298862,0.535072,0.41546876,-0.40009162,0.530614,0.38575269,-0.3773136,0.526758,0.37172738,-0.35721453,0.525142,0.41295512,-0.33763199,0.514278,0.4060872,-0.29711031,0.514452,0.40338304,-0.2771627,0.514539,0.40099615,-0.25760399,0.514823,0.4314222,-0.33171675,0.507445,0.39512317,-0.30661992,0.486577,0.41507966,-0.352343,0.51114,0.43474101,-0.37601381,0.526399,0.44889171,-0.33131734,0.503202,0.42251485,-0.30666378,0.486897,0.41124996,-0.32494889,0.478555,0.42441733,-0.34573003,0.489638,0.47339495,-0.34128646,0.500691,0.43701925,-0.32291118,0.484693,0.42080593,-0.31183462,0.478821,0.41378444,-0.31730409,0.47364
0.47138284,-0.42994238,0.532894,0.45029424,-0.37838847,0.519956,0.45200653,-0.4241903,0.535437,0.41561834,-0.40029197,0.530953,0.38585023,-0.3775079,0.527128,0.37184598,-0.3574289,0.525531,0.41312597,-0.33789657,0.514483,0.4062543,-0.29723719,0.514517,0.40348222,-0.27711783,0.514535,0.40099394,-0.25753095,0.514723,0.4315832,-0.33190291,0.507633,0.39525541,-0.30710749,0.48667,0.41528743,-0.35289654,0.511201,0.43502354,-0.37655007,0.526483,0.4490671,-0.33153725,0.503387,0.42265872,-0.30701765,0.487005,0.41147182,-0.32508982,0.478623,0.42455077,-0.34595899,0.489666,0.47361715,-0.34143523,0.500891,0.43705864,-0.32253913,0.484826,0.42058974,-0.31167441,0.478575,0.41327687,-0.31691483,0.473059
0.47269323,-0.43285356,0.535359,0.45123803,-0.3794517,0.521148,0.45334532,-0.42684109,0.537912,0.41681267,-0.40158422,0.53262,0.3863048,-0.37818981,0.527987,0.37187953,-0.35773215,0.52585,0.41335,-0.33825643,0.514824,0.40619769,-0.29729696,0.514422,0.40314374,-0.27702924,0.51422,0.40026032,-0.25742893,0.514119,0.43151474,-0.33197281,0.507614,0.39436518,-0.30488208,0.485414,0.41294456,-0.34710684,0.50943,0.43368993,-0.37525326,0.524998,0.44887625,-0.33152291,0.503208,0.42148481,-0.30799662,0.485862,0.41019983,-0.32421117,0.476988,0.42273925,-0.34466146,0.487466,0.47349798,-0.34138309,0.500765,0.43676255,-0.32694962,0.483877,0.42003742,-0.32316439,0.476118,0.4155297,-0.3307826,0.469271
0.47218915,-0.43354538,0.535404,0.45104166,-0.38014149,0.521161,0.45281098,-0.42732286,0.537882,0.41670002,-0.40158219,0.532582,0.38611572,-0.37818254,0.527907,0.37167125,-0.35773495,0.525759,0.41327383,-0.33864099,0.514719,0.40627428,-0.29760978,0.514246,0.40290792,-0.2769792,0.51401,0.39983214,-0.25743116,0.513823,0.4314596,-0.33202577,0.507597,0.39432191,-0.30459652,0.48534,0.41296203,-0.34719315,0.509377,0.43358842,-0.37505846,0.524972,0.4489055,-0.331643,0.503268,0.42153479,-0.308113,0.485846,0.41024801,-0.32433949,0.476933,0.42276005,-0.34481733,0.487404,0.47364454,-0.34151408,0.50092,0.43677161,-0.32719208,0.48397,0.42001938,-0.32286073,0.476182,0.4147869,-0.33022357,0.469311
0.47008173,-0.43253652,0.533491,0.45008542,-0.38001047,0.520199,0.45067643,-0.42610075,0.535821,0.41615645,-0.40014787,0.531185,0.38548815,-0.37742594,0.526998,0.37137151,-0.3573322,0.525304,0.41291517,-0.33868146,0.514208,0.40670557,-0.29779427,0.514237,0.40329383,-0.27692314,0.514252,0.40029278,-0.2575414,0.514265,0.43142767,-0.3319365,0.507539,0.39513274,-0.30287259,0.486156,0.41420451,-0.34783579,0.510639,0.43453014,-0.3754895,0.526058,0.44913258,-0.33172218,0.50348,0.42256686,-0.307415,0.486681,0.41150993,-0.32430102,0.478086,0.42429429,-0.34593147,0.488988,0.47413341,-0.34106647,0.501267,0.43689629,-0.3209549,0.484855,0.41980182,-0.31128583,0.477315,0.41165033,-0.31590189,0.470662
0.46992955,-0.4328445,0.533749,0.44991473,-0.38024492,0.520264,0.45043702,-0.42629262,0.536006,0.41566387,-0.40027697,0.531115,0.38543608,-0.37726146,0.526886,0.37133465,-0.35720535,0.525227,0.41258922,-0.33867458,0.514048,0.40709505,-0.29768473,0.514431,0.40393419,-0.27686093,0.514622,0.40079956,-0.25771828,0.514796,0.43122825,-0.33207069,0.507421,0.39500428,-0.30251836,0.485826,0.41405622,-0.34742427,0.510263,0.43430741,-0.37499019,0.525745,0.44903551,-0.33198687,0.503417,0.42273369,-0.30726008,0.486421,0.41170756,-0.32418367,0.477725,0.42427995,-0.34550106,0.488548,0.4741498,-0.34150351,0.501304,0.43690541,-0.32006743,0.484728,0.41983559,-0.31144119,0.477111,0.41172539,-0.31611568,0.470391
0.46970662,-0.43253642,0.533359,0.44977829,-0.38004046,0.519943,0.45026644,-0.42603283,0.535677,0.41529081,-0.39993763,0.53077,0.38505565,-0.37698916,0.526647,0.37114229,-0.35713177,0.525226,0.41255487,-0.33855989,0.513853,0.40738967,-0.29750764,0.514348,0.40428471,-0.27674961,0.514596,0.40113035,-0.25772306,0.514821,0.43116817,-0.33193792,0.507166,0.39533298,-0.30159621,0.485659,0.41418844,-0.34591367,0.510098,0.43371627,-0.37263436,0.525549,0.44893809,-0.3318326,0.503105,0.42381489,-0.30500733,0.486204,0.41222227,-0.3177791,0.477556,0.42427599,-0.34550932,0.488406,0.47398121,-0.3413084,0.500914,0.4369542,-0.32243334,0.484415,0.42011782,-0.31185803,0.477223,0.41221916,-0.31668066,0.470878
0.46989492,-0.43260714,0.533436,0.44977888,-0.38001172,0.519848,0.45037761,-0.42607312,0.535693,0.41515961,-0.39985659,0.530644,0.38486196,-0.37693054,0.526521,0.37096301,-0.35712524,0.525132,0.41233743,-0.33843038,0.513561,0.40755671,-0.29741793,0.514314,0.40453234,-0.27676764,0.514691,0.40137937,-0.25789072,0.515033,0.43099332,-0.33182263,0.506907,0.39518976,-0.30114952,0.485211,0.4140061,-0.34533531,0.509608,0.43347965,-0.37217309,0.525114,0.44881835,-0.33173835,0.502892,0.4239435,-0.30477706,0.485817,0.41256366,-0.31710191,0.477081,0.42382621,-0.34524856,0.487859,0.47396107,-0.34125433,0.500786,0.436773,-0.32171081,0.484142,0.41966569,-0.31167791,0.476553,0.41137593,-0.3161721,0.469857
0.47268796,-0.4349898,0.536651,0.45092749,-0.38092098,0.521142,0.4526086,-0.42804079,0.538431,0.41591563,-0.40087755,0.531843,0.38454609,-0.37729475,0.526496,0.36978463,-0.35688639,0.524093,0.41179909,-0.33801081,0.512931,0.40756414,-0.29720482,0.514312,0.40471162,-0.27672388,0.515002,0.40167814,-0.25801002,0.51563,0.43061413,-0.33153017,0.506372,0.39363265,-0.29906902,0.482647,0.41196053,-0.34303651,0.506447,0.43177453,-0.36991444,0.522499,0.44874414,-0.33167731,0.502643,0.42428209,-0.31520438,0.483784,0.41378878,-0.33166177,0.474136,0.42200587,-0.34671285,0.48408,0.4745759,-0.34169118,0.501229,0.43724476,-0.3245891,0.483084,0.4205606,-0.32016885,0.474747,0.41128911,-0.32016505,0.46739
0.47334221,-0.43566214,0.537685,0.45105538,-0.38117732,0.52143,0.45286993,-0.42840851,0.539084,0.41557898,-0.40091036,0.531615,0.38384244,-0.37704099,0.525837,0.36893515,-0.35651644,0.523239,0.41107501,-0.33761186,0.512216,0.40664296,-0.29664199,0.513582,0.40080443,-0.27743934,0.514265,0.3968612,-0.25938505,0.515034,0.43023866,-0.33140467,0.505949,0.39288217,-0.29827384,0.481376,0.41123931,-0.34205241,0.505003,0.4313049,-0.37034866,0.521309,0.44871873,-0.33181971,0.50254,0.42368386,-0.31507309,0.482862,0.41294727,-0.33118612,0.472794,0.4238071,-0.35132727,0.482414,0.47506977,-0.34222439,0.501639,0.4380481,-0.32668195,0.482812,0.42103268,-0.31984907,0.474161,0.41178567,-0.32168956,0.466529
0.47279746,-0.43536083,0.537498,0.45063007,-0.38100833,0.521175,0.45209879,-0.42791866,0.538652,0.41441691,-0.40032944,0.53064,0.38116472,-0.37684368,0.524341,0.3676216,-0.35607422,0.522178,0.41038135,-0.33721636,0.511595,0.40567335,-0.29636679,0.513555,0.39713521,-0.27704767,0.514535,0.39572035,-0.2596756,0.515485,0.42990597,-0.3312907,0.505628,0.39248303,-0.29905738,0.480907,0.41170881,-0.34327885,0.504599,0.43135788,-0.36985614,0.520978,0.44867837,-0.33193707,0.502475,0.42338871,-0.3150774,0.482579,0.41246637,-0.33090361,0.472399,0.42316593,-0.35143626,0.482,0.47534302,-0.34260356,0.501882,0.43790667,-0.32493097,0.482881,0.42161035,-0.31571153,0.474247,0.41096456,-0.31725075,0.466629
0.4727388,-0.4355068,0.537863,0.45042453,-0.38102506,0.521174,0.45181066,-0.42788583,0.538795,0.41363662,-0.40011645,0.530153,0.3796562,-0.37656378,0.523376,0.36639221,-0.35571196,0.521235,0.40975415,-0.33687561,0.511057,0.40510419,-0.29608433,0.513485,0.3971226,-0.27708038,0.514699,0.39507109,-0.25987385,0.515803,0.42955029,-0.33115918,0.50528,0.39217619,-0.29821262,0.480134,0.41140835,-0.34306564,0.503748,0.43108771,-0.36908564,0.520256,0.44855946,-0.33199636,0.502322,0.42286,-0.31479561,0.482003,0.41170689,-0.3303459,0.471607,0.42218955,-0.35094613,0.481046,0.4755225,-0.34291519,0.502026,0.43793206,-0.32474002,0.482674,0.42147183,-0.31539061,0.473794,0.41108616,-0.3174051,0.465959
0.47218956,-0.43558641,0.538152,0.44995219,-0.3808845,0.521087,0.45102804,-0.42767966,0.538824,0.40742335,-0.39927624,0.528443,0.37417196,-0.37502349,0.521334,0.36018347,-0.35491451,0.518198,0.40900713,-0.33620401,0.510376,0.40276213,-0.29482003,0.513139,0.39653649,-0.27667042,0.514521,0.39124101,-0.25993834,0.515778,0.42913263,-0.33080621,0.504835,0.39185708,-0.29745597,0.479243,0.41122378,-0.34098764,0.502782,0.43098287,-0.36837307,0.519428,0.44840236,-0.33193136,0.502111,0.42241416,-0.31436318,0.481336,0.41113828,-0.32967409,0.470707,0.4214114,-0.35027746,0.479979,0.47565111,-0.34322807,0.502158,0.43824055,-0.32437005,0.48243,0.42285793,-0.3166075,0.473366,0.41091826,-0.31695893,0.465368
0.4722155,-0.43634794,0.539098,0.44978843,-0.38119261,0.521407,0.45071933,-0.42809896,0.53943,0.40633884,-0.39940065,0.528212,0.37270862,-0.37489277,0.520696,0.35744461,-0.35442308,0.51694,0.40828667,-0.33579175,0.509826,0.40156146,-0.294812,0.513234,0.39630029,-0.27709345,0.514937,0.39112567,-0.26059646,0.516486,0.42877715,-0.33071511,0.504558,0.39135416,-0.29681149,0.478255,0.41052393,-0.34039003,0.501627,0.43070906,-0.36775348,0.518477,0.44836889,-0.33214978,0.502126,0.42133996,-0.32096431,0.480656,0.41071854,-0.3363416,0.469671,0.4203696,-0.35029281,0.478656,0.47603289,-0.34388513,0.502629,0.43857503,-0.32426318,0.482326,0.42246545,-0.31636063,0.472997,0.41058768,-0.31666644,0.464767
0.471577,-0.43676132,0.53938,0.44898596,-0.38116385,0.521043,0.44972664,-0.42810442,0.539313,0.40507217,-0.39897009,0.527242,0.37138865,-0.3743396,0.519681,0.35622424,-0.35394787,0.516113,0.40677365,-0.33503152,0.508505,0.40078364,-0.2944481,0.512571,0.39565979,-0.27719764,0.514604,0.39059269,-0.26112895,0.516452,0.42780649,-0.33030102,0.503579,0.39071858,-0.29774621,0.476533,0.41134281,-0.34310094,0.499736,0.43076621,-0.36805794,0.516802,0.44774631,-0.33210432,0.501498,0.42033808,-0.32024506,0.479284,0.4093824,-0.33534491,0.467919,0.41870684,-0.34956537,0.476601,0.47586085,-0.34434933,0.50253,0.43800002,-0.32398162,0.481614,0.42159618,-0.31575223,0.472003,0.40993639,-0.31620557,0.463524
0.47060928,-0.43687026,0.539286,0.44809863,-0.38115128,0.520667,0.44861257,-0.42802613,0.539061,0.40207396,-0.39881568,0.526216,0.36814569,-0.37410167,0.518624,0.3553406,-0.35396311,0.515735,0.40586475,-0.33460227,0.507731,0.39950138,-0.29398571,0.511549,0.39259663,-0.27732582,0.513458,0.3869387,-0.26201879,0.515193,0.42697715,-0.33014708,0.502934,0.38930309,-0.29903024,0.475569,0.41026038,-0.34320782,0.498689,0.43045329,-0.3683033,0.515845,0.44709273,-0.33215715,0.500991,0.41898447,-0.32006967,0.478462,0.40798182,-0.33506345,0.466936,0.41765881,-0.34942118,0.475484,0.47538259,-0.34466754,0.502234,0.43736852,-0.32382386,0.481059,0.4207402,-0.31545764,0.47133,0.40946541,-0.31617699,0.462745
0.46965822,-0.43687399,0.539211,0.44724205,-0.3810528,0.520351,0.44752218,-0.4278657,0.538839,0.40151377,-0.39863549,0.525599,0.36765905,-0.37405119,0.51815,0.35465075,-0.35394639,0.515411,0.4048598,-0.33418184,0.507061,0.39878739,-0.2938207,0.511099,0.39186356,-0.27748872,0.513118,0.38616352,-0.26240893,0.514954,0.4261937,-0.32992896,0.502388,0.38835611,-0.29896091,0.474749,0.40938102,-0.34314618,0.497799,0.42975444,-0.36823001,0.515032,0.44647438,-0.3321212,0.500573,0.4180627,-0.31979454,0.477771,0.40698449,-0.33467802,0.466104,0.41677424,-0.34924905,0.474536,0.47492685,-0.34486527,0.502011,0.43708358,-0.32406504,0.48061,0.42004826,-0.31520859,0.470777,0.40922164,-0.31627153,0.462101
0.46813571,-0.43745236,0.539695,0.44242082,-0.38087834,0.51872,0.44471481,-0.42785682,0.538626,0.39082359,-0.39749035,0.525373,0.3560611,-0.37141674,0.516249,0.33974023,-0.34964399,0.511427,0.39824262,-0.33173448,0.503087,0.3920962,-0.29169557,0.50747,0.38602518,-0.27700969,0.509662,0.38112718,-0.26277231,0.511654,0.42114828,-0.32814444,0.498745,0.38299131,-0.30476692,0.468891,0.40357159,-0.34992564,0.491094,0.42452889,-0.36927189,0.508862,0.44187469,-0.33115504,0.497429,0.41306074,-0.31637049,0.472608,0.40116378,-0.33027489,0.459909,0.41017975,-0.34439175,0.467288,0.4699776,-0.34559265,0.499845,0.43175158,-0.33027151,0.476775,0.41580868,-0.32362342,0.466176,0.40744521,-0.32773146,0.456823
0.4659142,-0.43747138,0.5392,0.44109948,-0.38066166,0.518279,0.44320918,-0.42752256,0.538074,0.3903289,-0.39698722,0.524708,0.3557397,-0.37108148,0.515783,0.33961601,-0.34951614,0.51124,0.39721059,-0.33114969,0.502607,0.39091944,-0.29096759,0.506807,0.38479592,-0.27660224,0.508907,0.37977024,-0.26260347,0.510816,0.42029141,-0.32791585,0.498355,0.38269971,-0.30453488,0.468534,0.4033152,-0.34970332,0.490782,0.42397591,-0.37012642,0.508552,0.44106666,-0.33113225,0.497107,0.41244449,-0.31616747,0.472273,0.40059034,-0.33005944,0.459567,0.40967401,-0.34504175,0.466968,0.46904951,-0.34590441,0.499592,0.431527,-0.33009971,0.476527,0.41558836,-0.32345195,0.465929,0.4072267,-0.32755569,0.456578
0.46328649,-0.43697761,0.538112,0.43825637,-0.38043497,0.517535,0.44097065,-0.42717416,0.537367,0.3899441,-0.39513336,0.523693,0.35806371,-0.36586115,0.514527,0.33953026,-0.34617969,0.508906,0.39663726,-0.33094372,0.502593,0.39012058,-0.29053036,0.506472,0.38389288,-0.27625572,0.508412,0.37869988,-0.26235098,0.510175,0.41845089,-0.32777997,0.497938,0.38222087,-0.3014402,0.468557,0.40304858,-0.34944608,0.49087,0.42356161,-0.37069309,0.508501,0.43890756,-0.33103539,0.496322,0.41107517,-0.31567845,0.471117,0.39911436,-0.32940072,0.458222,0.40795425,-0.34542712,0.465535,0.46547191,-0.34644102,0.498314,0.43041977,-0.32927918,0.475653,0.41465507,-0.32267421,0.465241,0.40643064,-0.32681963,0.456054
0.46094182,-0.4365986,0.53711,0.43674519,-0.37967613,0.516307,0.43810267,-0.42608478,0.535656,0.38908747,-0.39350923,0.521882,0.35672035,-0.36439531,0.511484,0.34090468,-0.3410034,0.505577,0.39451099,-0.3293948,0.50029,0.38901605,-0.28984929,0.505466,0.38328254,-0.27609256,0.508054,0.37844297,-0.26261359,0.510407,0.41699383,-0.32690051,0.496496,0.38087475,-0.30322852,0.466689,0.4015682,-0.34842479,0.489085,0.4220584,-0.37015533,0.506896,0.43805727,-0.33072562,0.495613,0.40946092,-0.31490556,0.47036,0.39800332,-0.32568779,0.45744,0.40723564,-0.34488353,0.464806,0.46717484,-0.3457026,0.498499,0.43018843,-0.32926195,0.475345,0.41421674,-0.32252769,0.464707,0.40581626,-0.32655431,0.45532
0.45802161,-0.43621601,0.536066,0.43268798,-0.37914232,0.515117,0.43514365,-0.42534622,0.534446,0.38802709,-0.39065206,0.520716,0.35528112,-0.36207878,0.510448,0.33992743,-0.3387222,0.504699,0.39156495,-0.3277371,0.498784,0.38863997,-0.28934449,0.50512,0.38358216,-0.27552175,0.508288,0.38489427,-0.26104761,0.513837,0.4143685,-0.32605661,0.495166,0.37955252,-0.30250167,0.465174,0.40000441,-0.34765203,0.487535,0.42000001,-0.37040701,0.505403,0.43551781,-0.33059142,0.494445,0.40826265,-0.3145129,0.469275,0.39695034,-0.32860481,0.456397,0.40583148,-0.3457382,0.463774,0.46442939,-0.34645843,0.497546,0.42892247,-0.32878142,0.474219,0.41312796,-0.32237278,0.463502,0.40496589,-0.32673092,0.454045
0.45722733,-0.43778096,0.537211,0.43204834,-0.37933049,0.51476,0.43510778,-0.42715743,0.536383,0.39117905,-0.39274916,0.524311,0.36506373,-0.36025352,0.516222,0.35249254,-0.33472033,0.510001,0.39321001,-0.32798954,0.498439,0.39074749,-0.28939204,0.504986,0.38454522,-0.27556825,0.50826,0.37928544,-0.26352126,0.511236,0.41450588,-0.32513709,0.493379,0.3766844,-0.30107319,0.462227,0.39260562,-0.34710125,0.483543,0.41498227,-0.37017027,0.501503,0.43317318,-0.32958505,0.491632,0.40014742,-0.32143653,0.46591,0.38699625,-0.33500148,0.45275,0.39886534,-0.34673455,0.459356,0.45989655,-0.34886738,0.493824,0.42119922,-0.33449496,0.46998,0.40424063,-0.33040922,0.459024,0.39525741,-0.33693767,0.449358
0.44925248,-0.43749267,0.535725,0.43092091,-0.37887736,0.514208,0.42823416,-0.42611544,0.535451,0.39118601,-0.38539285,0.526765,0.36539212,-0.3534164,0.519023,0.35364968,-0.3312364,0.511413,0.39258777,-0.32741243,0.499242,0.39836654,-0.28406489,0.505479,0.39339697,-0.27114088,0.508598,0.38372119,-0.26059307,0.512183,0.41470301,-0.3253284,0.493716,0.3697954,-0.31569607,0.463608,0.38000988,-0.35940555,0.485253,0.3987283,-0.38063917,0.502938,0.43288681,-0.32986214,0.491484,0.39440695,-0.32037188,0.466803,0.38626145,-0.33519777,0.454175,0.39979267,-0.34892577,0.46126,0.45798967,-0.35151322,0.492939,0.42174734,-0.33026588,0.469947,0.40344091,-0.32965191,0.459383,0.39258682,-0.33692841,0.450062
0.44499999,-0.43351403,0.531968,0.42966998,-0.37761248,0.51346,0.4283601,-0.4253061,0.536253,0.39699457,-0.38840226,0.53342,0.37365904,-0.36067171,0.5304,0.36249092,-0.33790552,0.524286,0.40081269,-0.32575986,0.506474,0.39719583,-0.28189657,0.503095,0.38851529,-0.26612651,0.501405,0.37743046,-0.25098311,0.499869,0.41486636,-0.32588805,0.495833,0.362951,-0.3160011,0.470262,0.37452645,-0.35961979,0.491068,0.3993058,-0.38256465,0.506847,0.42830863,-0.32858595,0.489064,0.3824088,-0.31656102,0.46983,0.37331817,-0.3325291,0.459989,0.38994588,-0.3512174,0.468033,0.44220252,-0.34380681,0.484687,0.39630573,-0.33827239,0.466159,0.39894821,-0.35466393,0.478541,0.40161707,-0.36941492,0.489863
0.44414893,-0.43302888,0.532094,0.42636078,-0.37628523,0.513031,0.42826413,-0.42473295,0.536791,0.39800076,-0.38814801,0.534197,0.37544674,-0.36054468,0.53186,0.3654371,-0.33530306,0.526868,0.40026603,-0.324856,0.506204,0.39445647,-0.27944945,0.499985,0.3844988,-0.26340313,0.496875,0.37316536,-0.24793572,0.494049,0.41373968,-0.32486632,0.494876,0.36111664,-0.31406475,0.46899,0.37166027,-0.35718647,0.489118,0.39362595,-0.37957489,0.5048,0.4236078,-0.32666651,0.487602,0.38037767,-0.31584244,0.468301,0.37135077,-0.33179911,0.458426,0.38768492,-0.35013173,0.466042,0.4398981,-0.34262478,0.482741,0.39397567,-0.33716202,0.464156,0.39632162,-0.35326863,0.47613,0.39892128,-0.36792703,0.487315
0.44379285,-0.43295739,0.532584,0.42583629,-0.37568044,0.512949,0.42824573,-0.42431444,0.537275,0.39848569,-0.38796654,0.534557,0.37601519,-0.36013117,0.532139,0.36613802,-0.33479139,0.527081,0.39972185,-0.32417288,0.505727,0.39438711,-0.28009815,0.500421,0.38482419,-0.26369407,0.497768,0.37410375,-0.24849605,0.495357,0.41293547,-0.32414156,0.494248,0.35905969,-0.30465235,0.467845,0.3658706,-0.34649547,0.487603,0.38857633,-0.37514707,0.503356,0.42265725,-0.32624528,0.486912,0.37889324,-0.31511278,0.467178,0.36969837,-0.33087585,0.457081,0.38580275,-0.3489383,0.464355,0.4389456,-0.34221186,0.482088,0.39261853,-0.33649605,0.463169,0.3948553,-0.35244016,0.474912,0.3975527,-0.36712364,0.486124
0.44290777,-0.43315228,0.53391,0.42268007,-0.3726807,0.5143,0.42618892,-0.42258441,0.539667,0.39713343,-0.3841369,0.538737,0.37797408,-0.35533039,0.538261,0.37166683,-0.33467394,0.533666,0.39489692,-0.32133139,0.508484,0.38644422,-0.27531344,0.499283,0.37549899,-0.25738981,0.494682,0.36809516,-0.24471712,0.490915,0.40587287,-0.31851969,0.495625,0.35558566,-0.30090642,0.46923,0.36177742,-0.34190489,0.487966,0.38387682,-0.36991577,0.503394,0.41657982,-0.32202162,0.487148,0.37017829,-0.30739404,0.463047,0.35961704,-0.32143018,0.450716,0.37763121,-0.34153358,0.456031,0.43206643,-0.33652388,0.480996,0.38720471,-0.33119576,0.462831,0.38870951,-0.34716909,0.473999,0.39500127,-0.36502121,0.484723
0.43252731,-0.42488002,0.531491,0.40957315,-0.36124437,0.513606,0.42131902,-0.41567093,0.539236,0.39164985,-0.37872658,0.541316,0.37388387,-0.35182697,0.544036,0.36687687,-0.32761138,0.541025,0.38782105,-0.31605334,0.511549,0.38319958,-0.26982411,0.504088,0.37176149,-0.25247118,0.500358,0.36106386,-0.23616229,0.496966,0.39620013,-0.31006632,0.496572,0.3441494,-0.29108398,0.471777,0.34923815,-0.33059063,0.489457,0.36945545,-0.35629507,0.503975,0.40479063,-0.31086193,0.486166,0.35553787,-0.29434279,0.4618,0.34536287,-0.30814528,0.449333,0.36032206,-0.32479532,0.453851,0.41791216,-0.32205132,0.47745,0.37360359,-0.31765931,0.461731,0.37591188,-0.33455368,0.472364,0.37839107,-0.34956342,0.482018
0.42274554,-0.41634153,0.528557,0.40647876,-0.35830741,0.511776,0.41338742,-0.40911147,0.537225,0.39006915,-0.37734707,0.541075,0.3722499,-0.35101976,0.544318,0.36555151,-0.3273594,0.542053,0.38593968,-0.3147515,0.511672,0.37713204,-0.26673357,0.503723,0.36433803,-0.24938334,0.499748,0.35673569,-0.23465007,0.49657,0.3909693,-0.30619486,0.495795,0.33766559,-0.28821261,0.47178,0.34259016,-0.3273887,0.489037,0.36609969,-0.35416765,0.50314,0.39846386,-0.3059241,0.484528,0.34718808,-0.28950439,0.459539,0.33720826,-0.30302815,0.446754,0.35523953,-0.32086716,0.45079,0.41037065,-0.3157078,0.474606,0.36626742,-0.31278928,0.460232,0.36932876,-0.32978858,0.470671,0.37441103,-0.34627448,0.479778
0.4201699,-0.41489036,0.535016,0.39808092,-0.35285931,0.517349,0.39894162,-0.39944221,0.542591,0.37362716,-0.36889323,0.543244,0.35291392,-0.34203996,0.543838,0.34472582,-0.31876422,0.540843,0.37709849,-0.30720783,0.515219,0.36782546,-0.25958148,0.505976,0.35346693,-0.24444551,0.501355,0.34000433,-0.23021042,0.497154,0.38697748,-0.30246681,0.500523,0.33672446,-0.28808451,0.472535,0.34277562,-0.32800713,0.490385,0.36405496,-0.35357588,0.506112,0.39646642,-0.30419386,0.490326,0.34833615,-0.28273709,0.463906,0.33570209,-0.29554969,0.45039,0.34854377,-0.31297879,0.454513,0.41004574,-0.31623227,0.48181,0.37136471,-0.30961829,0.466079,0.37054418,-0.32698667,0.476936,0.37191215,-0.34192417,0.486683
0.41777774,-0.41335457,0.535346,0.39815863,-0.3529282,0.51745,0.39901147,-0.39951214,0.542686,0.3735178,-0.36878526,0.543085,0.3515411,-0.34212325,0.542909,0.34219666,-0.31845653,0.539256,0.376835,-0.30699317,0.514859,0.36774986,-0.25952813,0.505872,0.35348315,-0.24445673,0.501378,0.34009939,-0.23027479,0.497293,0.3868878,-0.30239671,0.500407,0.33596502,-0.28766074,0.472162,0.34234606,-0.32774291,0.490131,0.3634872,-0.35311303,0.505988,0.39655375,-0.30426087,0.490434,0.34816645,-0.28259935,0.46368,0.33540469,-0.29528786,0.449991,0.34822399,-0.31269164,0.454096,0.41039637,-0.31650269,0.482222,0.37144758,-0.30968738,0.466183,0.37067315,-0.32710048,0.477102,0.37213988,-0.34213353,0.486981
0.41277357,-0.40984983,0.53514,0.39712972,-0.3522303,0.517217,0.39791915,-0.39905451,0.542474,0.37356025,-0.36782169,0.543202,0.35382878,-0.33964537,0.543704,0.34431913,-0.31699767,0.539921,0.37577833,-0.30635189,0.514601,0.3670859,-0.25906743,0.506099,0.35302737,-0.24396146,0.501848,0.33982764,-0.22973496,0.497983,0.38586678,-0.30160925,0.500147,0.33405233,-0.2860854,0.471875,0.34144289,-0.32668982,0.489831,0.36243825,-0.35201502,0.505693,0.39556098,-0.30335881,0.490176,0.34758224,-0.28162295,0.463827,0.33180048,-0.29115678,0.450346,0.34660994,-0.31258433,0.454566,0.40944341,-0.31548132,0.481972,0.36946631,-0.30911825,0.465915,0.36929208,-0.32649614,0.476825,0.37135248,-0.3414694,0.486707
0.41025761,-0.40786552,0.533291,0.39556889,-0.3509545,0.515715,0.3959899,-0.39748916,0.540421,0.37291411,-0.36601569,0.54159,0.35579479,-0.33645663,0.543224,0.34939559,-0.31289903,0.540514,0.37421048,-0.3052508,0.513067,0.3656976,-0.2587287,0.505379,0.35248708,-0.24303877,0.501536,0.34008,-0.22825288,0.498041,0.38453429,-0.30058317,0.498976,0.33238754,-0.27676823,0.471013,0.33757619,-0.31579417,0.489462,0.35830385,-0.34603456,0.505368,0.3944161,-0.30237109,0.489266,0.34862631,-0.27429322,0.466808,0.33353215,-0.2853666,0.455318,0.34387396,-0.30840705,0.461014,0.40849542,-0.31450633,0.4813,0.36487416,-0.30801115,0.465281,0.36833828,-0.32604792,0.476485,0.37098976,-0.34098522,0.486468
0.41155899,-0.40843052,0.532377,0.39554444,-0.35041924,0.515104,0.39554159,-0.39680694,0.539374,0.37304982,-0.36514479,0.540699,0.35617871,-0.33589774,0.542183,0.34968314,-0.31230196,0.539524,0.37397187,-0.30484852,0.51249,0.36494165,-0.25822538,0.504326,0.35174943,-0.24242637,0.500244,0.3392029,-0.22785885,0.496533,0.38467047,-0.30020213,0.498653,0.33868307,-0.27055782,0.470971,0.34302296,-0.30805785,0.489781,0.35882536,-0.34009362,0.505699,0.39484485,-0.30199028,0.48912,0.3501002,-0.27324893,0.46494,0.33819835,-0.28390402,0.452568,0.34498989,-0.30649161,0.457954,0.40923456,-0.31409276,0.481302,0.3681958,-0.30869016,0.465357,0.36925238,-0.32627719,0.476778,0.37317647,-0.34256678,0.486818
0.41075129,-0.40610795,0.530011,0.40646913,-0.34779948,0.512898,0.39800417,-0.39622597,0.534878,0.38293055,-0.35960253,0.535343,0.36321125,-0.33027188,0.533944,0.35609166,-0.30651038,0.530752,0.38200189,-0.30082728,0.507618,0.36103939,-0.25709559,0.499812,0.34930119,-0.23993505,0.495909,0.33995155,-0.21970366,0.492361,0.39547242,-0.29768933,0.496599,0.35077168,-0.27125117,0.472551,0.35744399,-0.31061204,0.493725,0.37464353,-0.339249,0.50907,0.4080831,-0.3007415,0.48937,0.36655912,-0.27501689,0.468438,0.35303714,-0.28716095,0.457728,0.36508811,-0.31163851,0.465427,0.42550297,-0.31440695,0.484195,0.38135349,-0.31037893,0.466874,0.38481969,-0.32835875,0.479511,0.38987132,-0.34340261,0.490507
0.41700034,-0.40146919,0.521636,0.41788928,-0.34171141,0.510169,0.40942248,-0.38954312,0.531466,0.39815688,-0.36150712,0.538969,0.37642473,-0.33549671,0.539723,0.36372803,-0.31138597,0.537175,0.39955898,-0.30248639,0.515188,0.37476163,-0.25766399,0.501755,0.36830467,-0.23893419,0.503281,0.36138744,-0.22191919,0.504668,0.40909095,-0.29424766,0.499249,0.36464252,-0.27385432,0.477758,0.37093599,-0.31274198,0.496886,0.38760126,-0.3403955,0.510663,0.4179202,-0.29273262,0.487359,0.37432606,-0.27092507,0.46383,0.36043754,-0.28358802,0.451791,0.37040672,-0.30631182,0.457334,0.43015149,-0.30028765,0.475714,0.39046259,-0.3019632,0.465311,0.39500989,-0.32221848,0.477086,0.3982908,-0.33833953,0.485312
0.41956131,-0.40050678,0.521886,0.41899904,-0.34225882,0.509286,0.41204168,-0.38924482,0.530819,0.39780516,-0.36014659,0.536678,0.37558779,-0.33292044,0.535913,0.36686914,-0.3101257,0.533817,0.39969053,-0.30130678,0.512367,0.37755554,-0.2555135,0.496038,0.37160525,-0.2362293,0.496346,0.36523515,-0.21872532,0.496626,0.41016717,-0.29420249,0.497286,0.36991478,-0.27463996,0.474513,0.37639246,-0.31407916,0.494076,0.38913418,-0.34046469,0.508455,0.42268184,-0.29533697,0.486226,0.38060988,-0.2733727,0.461828,0.36599244,-0.28594905,0.449346,0.37172816,-0.30670234,0.454945,0.43588935,-0.30480082,0.475756,0.39592269,-0.3052831,0.463985,0.39960402,-0.3251413,0.475978,0.40010672,-0.33955923,0.484771
0.42839582,-0.39174747,0.518314,0.43101309,-0.33832136,0.50429,0.41862954,-0.38484065,0.526898,0.40634579,-0.35132113,0.530079,0.38550359,-0.32285964,0.529157,0.37579281,-0.29878958,0.525046,0.41916597,-0.29409956,0.50595,0.39439927,-0.25149246,0.495123,0.39010581,-0.23482015,0.500264,0.38579885,-0.21873473,0.504938,0.42713858,-0.29018363,0.490935,0.37752288,-0.28771454,0.470899,0.37541825,-0.32314202,0.490269,0.38725082,-0.35092974,0.503596,0.43435054,-0.29236597,0.480081,0.39413388,-0.28977161,0.467578,0.37360679,-0.30283121,0.461181,0.3803294,-0.32494251,0.470166,0.44399079,-0.30461485,0.470119,0.39929573,-0.30001825,0.457241,0.40556099,-0.32074926,0.468933,0.40998804,-0.33825093,0.477999
0.43500502,-0.39083118,0.516821,0.45175219,-0.34051892,0.504695,0.4347207,-0.38171953,0.526371,0.41818268,-0.35259419,0.527782,0.3974809,-0.32475474,0.528101,0.38542313,-0.30164703,0.523789,0.44979933,-0.29811518,0.508899,0.423687,-0.2622557,0.498731,0.41832343,-0.2502431,0.504547,0.41215278,-0.23909129,0.509834,0.45560481,-0.29510079,0.493145,0.40667346,-0.28416522,0.474587,0.40444272,-0.31655711,0.493903,0.41519919,-0.34555202,0.506678,0.46020923,-0.2977416,0.48148,0.41477683,-0.28570287,0.460271,0.39578905,-0.29571575,0.449419,0.39808613,-0.32056807,0.455671,0.46533672,-0.31006798,0.470218,0.42181904,-0.29932443,0.459202,0.42674329,-0.3213229,0.470937,0.42927632,-0.33957834,0.479364
0.44768332,-0.3854079,0.50664,0.46601438,-0.33987018,0.494868,0.46292925,-0.3824512,0.520236,0.44669111,-0.35776243,0.529566,0.43135017,-0.33370283,0.536225,0.42704028,-0.31108915,0.537187,0.47833126,-0.30280789,0.504583,0.44631782,-0.26960198,0.497761,0.43876625,-0.25775523,0.504511,0.43117401,-0.24615698,0.510647,0.47318215,-0.29595974,0.483656,0.41791925,-0.28095025,0.468545,0.40739821,-0.3067153,0.481041,0.41686089,-0.33360351,0.49043,0.46830199,-0.29526239,0.467692,0.41010905,-0.27542646,0.44354,0.38850885,-0.28535098,0.431183,0.38109028,-0.30465192,0.43218,0.46156212,-0.30335161,0.451376,0.41721367,-0.29085264,0.44432,0.40682166,-0.292161,0.451909,0.39590473,-0.29342027,0.457556
0.46686063,-0.38743271,0.512701,0.48040928,-0.33427781,0.492888,0.4730602,-0.36929545,0.52191,0.47956297,-0.33305163,0.52444,0.48559797,-0.30049159,0.5268,0.491832,-0.27680099,0.522485,0.48888413,-0.28793225,0.49143,0.43456137,-0.26094412,0.463595,0.43457483,-0.28713853,0.474151,0.44987177,-0.30748144,0.483748,0.48808638,-0.29042067,0.474018,0.43136338,-0.26953983,0.450116,0.42118956,-0.29407797,0.463951,0.4288843,-0.32115676,0.47694,0.4867926,-0.29748408,0.461815,0.42787357,-0.27354924,0.430847,0.39953091,-0.27996569,0.415003,0.39062955,-0.29755071,0.415099,0.48417973,-0.31477903,0.451374,0.44173919,-0.29146468,0.435938,0.43846838,-0.30862193,0.444197,0.44637172,-0.33080067,0.452832
0.49766294,-0.38999113,0.517154,0.50484035,-0.34088075,0.49711,0.49888525,-0.37682147,0.525176,0.4743807,-0.344918,0.523,0.44768364,-0.32228276,0.517092,0.43348766,-0.29783119,0.50905,0.51006997,-0.29382463,0.493949,0.48226694,-0.25804328,0.479356,0.4740902,-0.27576665,0.492047,0.47949565,-0.29889264,0.502875,0.51019811,-0.29600837,0.478021,0.45015856,-0.27442511,0.453139,0.44367274,-0.27981727,0.468737,0.44133643,-0.30394252,0.482633,0.51004653,-0.30303072,0.467064,0.45835015,-0.28279048,0.445223,0.43265334,-0.29036384,0.434049,0.42743429,-0.31125531,0.438045,0.50931652,-0.32067987,0.458115,0.46136247,-0.30251781,0.44149,0.46065995,-0.32139648,0.450783,0.47368939,-0.34418332,0.460238
0.50254802,-0.39099709,0.516383,0.51390597,-0.34245533,0.496185,0.50238077,-0.37720179,0.523519,0.47553351,-0.35670559,0.519717,0.45959345,-0.32597642,0.520402,0.45794392,-0.30279245,0.519697,0.51563912,-0.29417996,0.491766,0.48241444,-0.26183089,0.476059,0.48121643,-0.25352025,0.484016,0.47477801,-0.26659693,0.497837,0.51783212,-0.29676158,0.476949,0.45751303,-0.27519248,0.451374,0.45298442,-0.28165032,0.468084,0.45090826,-0.30584694,0.482581,0.51961134,-0.3042303,0.466925,0.47273862,-0.28670352,0.448948,0.44893011,-0.29635703,0.43975,0.44533792,-0.31877248,0.445636,0.52150512,-0.32263489,0.459086,0.47276269,-0.30465523,0.441647,0.47277868,-0.32410243,0.451592,0.48612466,-0.34727122,0.461586
0.51895118,-0.40717354,0.500303,0.50642369,-0.35352838,0.481288,0.51320151,-0.39612157,0.508766,0.49021366,-0.36851726,0.509691,0.47424444,-0.33983996,0.511766,0.46452203,-0.31597968,0.507996,0.49072933,-0.30505685,0.479401,0.44494701,-0.30051423,0.465925,0.4461318,-0.3283847,0.478823,0.46167679,-0.3541659,0.489293,0.49425086,-0.30372411,0.463179,0.47338471,-0.24366786,0.439444,0.44667027,-0.22440746,0.427763,0.43903514,-0.22701017,0.433906,0.49882976,-0.30835867,0.45187,0.45151932,-0.3026235,0.435909,0.43602221,-0.31826092,0.427743,0.44942032,-0.33707663,0.433642,0.50707609,-0.32400671,0.442317,0.45937126,-0.31558413,0.426593,0.45280491,-0.32916096,0.436065,0.46030277,-0.34056084,0.445273
0.53049917,-0.41126295,0.506086,0.5217294,-0.35663507,0.486048,0.52460089,-0.40147106,0.515625,0.51408734,-0.36966554,0.518244,0.49613105,-0.34077076,0.515715,0.48825257,-0.31544206,0.51074,0.50356756,-0.30982753,0.484867,0.49354458,-0.2584035,0.462975,0.49396348,-0.23572663,0.457175,0.49600075,-0.23254373,0.464959,0.50793469,-0.30658281,0.466965,0.49667518,-0.24989579,0.449068,0.47715479,-0.22778637,0.438628,0.47710465,-0.21813375,0.444231,0.51309767,-0.3094954,0.454381,0.47630328,-0.28087723,0.438922,0.46173717,-0.29559287,0.431012,0.4717245,-0.31536199,0.435267,0.52205252,-0.32279327,0.443542,0.4858162,-0.31686018,0.428328,0.47731498,-0.32972876,0.43606,0.47878759,-0.34031974,0.444412
0.55176418,-0.4149498,0.514653,0.54402827,-0.35729506,0.492917,0.54298367,-0.40428515,0.522705,0.53351661,-0.36817887,0.522895,0.51613335,-0.3343098,0.519487,0.51011671,-0.30902974,0.514681,0.52323355,-0.30797374,0.488647,0.50878743,-0.25549651,0.463187,0.49562251,-0.23412456,0.450457,0.49644403,-0.22376523,0.452514,0.52991242,-0.30637274,0.472216,0.50577569,-0.24681655,0.446816,0.48122452,-0.22690815,0.431999,0.47839336,-0.21966737,0.434987,0.53705341,-0.31074865,0.461028,0.49435432,-0.27920915,0.437881,0.4764275,-0.29211764,0.426038,0.48325708,-0.31024839,0.428622,0.54842911,-0.3259569,0.452127,0.4987204,-0.32124961,0.434718,0.49836362,-0.33186823,0.44295,0.50125162,-0.34248764,0.452268
0.55122184,-0.41125203,0.511139,0.54769309,-0.35685975,0.493944,0.54325491,-0.40116952,0.519825,0.53991016,-0.36591712,0.523499,0.52421232,-0.33429435,0.51866,0.51829004,-0.31010569,0.512793,0.53531468,-0.30850334,0.493581,0.52781997,-0.25749411,0.472343,0.51832425,-0.23556001,0.461724,0.51264093,-0.22458383,0.459254,0.54254257,-0.30629795,0.477567,0.5361437,-0.25197622,0.462168,0.51931055,-0.23349526,0.453186,0.52383631,-0.22718207,0.461502,0.54945669,-0.30999964,0.466233,0.51036053,-0.27922578,0.444853,0.49270808,-0.29015585,0.433914,0.50121372,-0.31201092,0.438845,0.55940312,-0.32416026,0.456309,0.51424981,-0.31861619,0.441726,0.51750811,-0.3358191,0.45195,0.52244167,-0.35048368,0.461047
0.56968714,-0.41586574,0.520855,0.5583219,-0.35712363,0.498205,0.55689726,-0.40265606,0.525618,0.54935321,-0.36433256,0.522798,0.53023065,-0.32744744,0.516386,0.52275016,-0.30289848,0.511466,0.53287831,-0.30437002,0.48903,0.53805326,-0.25694359,0.475419,0.53582736,-0.23717462,0.468613,0.53316723,-0.21971488,0.462427,0.54779519,-0.30306792,0.476633,0.53800695,-0.25025612,0.461827,0.52838605,-0.23027583,0.45319,0.53914972,-0.22468181,0.463629,0.55972354,-0.30891327,0.468866,0.516464,-0.2797069,0.43874,0.49625067,-0.28912723,0.423326,0.50140774,-0.3074783,0.426122,0.57686797,-0.32620629,0.464108,0.5302383,-0.32088685,0.443574,0.5325908,-0.33882761,0.45389,0.53899237,-0.3553442,0.465117
0.57222678,-0.41522249,0.520417,0.57199254,-0.35984727,0.504073,0.55723947,-0.40082037,0.523393,0.55675974,-0.36291712,0.521681,0.54675895,-0.32957076,0.52166,0.53490694,-0.30587231,0.518211,0.55179416,-0.30796151,0.496852,0.52392926,-0.30119976,0.471166,0.51177863,-0.31551874,0.458324,0.5211844,-0.33102471,0.465791,0.5696571,-0.31047205,0.488508,0.5741764,-0.26209249,0.484928,0.57631499,-0.24547809,0.482839,0.598357,-0.24091759,0.498217,0.58518426,-0.31806649,0.483398,0.55925151,-0.29429153,0.457397,0.54202125,-0.30374791,0.444094,0.54720274,-0.32755042,0.451289,0.6049098,-0.33679021,0.480539,0.56977777,-0.33161185,0.462532,0.57309695,-0.35368846,0.476147,0.57775317,-0.37151603,0.487763
0.5806661,-0.41198409,0.517507,0.57694463,-0.35504227,0.496846,0.56387358,-0.398089,0.519863,0.56204981,-0.36277091,0.516484,0.53891221,-0.32425466,0.507058,0.52611129,-0.29705335,0.501815,0.54206388,-0.30185921,0.485886,0.55740911,-0.26044815,0.482527,0.56372709,-0.24035486,0.480847,0.56885908,-0.22408275,0.47932,0.56176032,-0.30255069,0.477169,0.55550273,-0.25296436,0.468912,0.55366238,-0.23572944,0.464095,0.57335994,-0.23112777,0.478021,0.57778967,-0.30834156,0.472218,0.54650799,-0.28305618,0.442297,0.52885119,-0.29100442,0.426989,0.53343553,-0.31260142,0.431915,0.60004653,-0.32549204,0.470355,0.5654673,-0.31470227,0.449356,0.56446644,-0.33264434,0.461689,0.57130556,-0.34620566,0.473862
0.58063728,-0.40903196,0.514801,0.58552557,-0.35675376,0.501106,0.5689988,-0.39586512,0.518024,0.56543898,-0.35357074,0.517603,0.55552414,-0.3194493,0.515067,0.551388,-0.29485972,0.511574,0.57014573,-0.30441384,0.496005,0.5780263,-0.25943329,0.490402,0.58078479,-0.24027962,0.487601,0.58352985,-0.22217254,0.485054,0.58795953,-0.30850151,0.488063,0.56895658,-0.27611709,0.465563,0.54541824,-0.29430821,0.452438,0.55146517,-0.31562282,0.46197,0.60299532,-0.31716542,0.482999,0.57915306,-0.29421821,0.460275,0.56480773,-0.30578665,0.448649,0.57392818,-0.3309353,0.457401,0.6212324,-0.33672894,0.479696,0.59396891,-0.32620161,0.463515,0.59511348,-0.34610195,0.477817,0.60163734,-0.35950504,0.489058
0.60036298,-0.41231819,0.523194,0.59598457,-0.3572172,0.506107,0.58331405,-0.3979148,0.525092,0.57505358,-0.35987138,0.521745,0.55688221,-0.32567714,0.515376,0.54898325,-0.29671189,0.50959,0.57159769,-0.30470047,0.496979,0.58031954,-0.2598644,0.490972,0.58367682,-0.24094863,0.487969,0.58682205,-0.22359361,0.485239,0.59048153,-0.30896713,0.489835,0.56816795,-0.2754744,0.463967,0.54203267,-0.29235121,0.448877,0.54617821,-0.31243462,0.457089,0.6069069,-0.31795193,0.485793,0.57990657,-0.29543102,0.461289,0.56415794,-0.30613442,0.448752,0.57223575,-0.33054239,0.45656,0.62758645,-0.33816026,0.484314,0.59720635,-0.33289506,0.465231,0.5961565,-0.34988068,0.478927,0.60336619,-0.35994367,0.490954
0.61012898,-0.41608351,0.530485,0.60294011,-0.35776047,0.510308,0.59294533,-0.39774286,0.530918,0.57898434,-0.36051425,0.523849,0.56042446,-0.32589467,0.515841,0.55036228,-0.29728105,0.509047,0.57241837,-0.30434635,0.497172,0.58218894,-0.26000175,0.491894,0.58792527,-0.24143792,0.489255,0.58991999,-0.22433863,0.486856,0.59262285,-0.30904122,0.491092,0.56683034,-0.27391764,0.462158,0.53865229,-0.28955193,0.44528,0.54125707,-0.30861003,0.452215,0.61119831,-0.31761075,0.488259,0.58118046,-0.29538648,0.46197,0.5643371,-0.30537085,0.44852,0.57133219,-0.32903306,0.455343,0.63463217,-0.33837561,0.488763,0.60055751,-0.33301533,0.466964,0.59877712,-0.34967068,0.480028,0.60622329,-0.36032906,0.492766
0.6109898,-0.41420609,0.53065,0.6068295,-0.35775837,0.513184,0.59501466,-0.39691551,0.532204,0.58353781,-0.35359786,0.527814,0.56871846,-0.31872768,0.52197,0.55678313,-0.29388816,0.514177,0.58238599,-0.30094328,0.503349,0.59258521,-0.25695348,0.498585,0.59647897,-0.24378562,0.496204,0.60019407,-0.22842681,0.494942,0.60172912,-0.30511632,0.496549,0.58097933,-0.2707854,0.469791,0.55537962,-0.28769015,0.454182,0.55681908,-0.31164735,0.462154,0.61850746,-0.31402878,0.492832,0.58995741,-0.29738522,0.466768,0.57625404,-0.30817335,0.453433,0.58153754,-0.3315212,0.460769,0.63954646,-0.3367461,0.491802,0.60534651,-0.33254544,0.47229,0.60494831,-0.35012371,0.485958,0.61276889,-0.36132438,0.498125
0.61246376,-0.41357009,0.531543,0.60773405,-0.35713686,0.513741,0.59634676,-0.39647728,0.533056,0.58413703,-0.35396096,0.528356,0.56939835,-0.31910871,0.522594,0.55887081,-0.29371085,0.515308,0.58270649,-0.3011089,0.503626,0.59288472,-0.25708335,0.498837,0.59686739,-0.24336487,0.496443,0.60007054,-0.22848812,0.494605,0.60201875,-0.30526318,0.496788,0.58076044,-0.27068338,0.469614,0.55486604,-0.28742411,0.453762,0.55669296,-0.31032393,0.461544,0.61881243,-0.31418362,0.493075,0.58996104,-0.29703349,0.466271,0.57514203,-0.30757866,0.452558,0.58076274,-0.33061883,0.459593,0.63996827,-0.33608289,0.492112,0.60439296,-0.33156498,0.472369,0.60411276,-0.34917849,0.485944,0.61277761,-0.36036451,0.498156
0.61473668,-0.41417355,0.534108,0.60908031,-0.35769137,0.515876,0.59977534,-0.39808959,0.536863,0.58903004,-0.35754401,0.533705,0.57653831,-0.32369519,0.529483,0.56698772,-0.29777016,0.522669,0.5847324,-0.30287345,0.507087,0.59382414,-0.25800316,0.500409,0.59737349,-0.24240125,0.497071,0.6005492,-0.22782444,0.494036,0.60203674,-0.30612015,0.498513,0.57865323,-0.27302268,0.469713,0.54677887,-0.29091104,0.452914,0.55102174,-0.31034317,0.459716,0.61743207,-0.31569701,0.493417,0.58420614,-0.29643981,0.465665,0.56372223,-0.3000197,0.451466,0.57323265,-0.32915724,0.457676,0.63674442,-0.33475223,0.490929,0.60188024,-0.32823207,0.471627,0.60142688,-0.34582982,0.4847,0.6097495,-0.36148245,0.496563
0.61553108,-0.4140127,0.535241,0.60929375,-0.35765908,0.516721,0.60045451,-0.39806493,0.538,0.5896152,-0.35820837,0.534697,0.57740788,-0.32447661,0.53045,0.56831225,-0.29834176,0.523816,0.58450096,-0.30311229,0.507741,0.59395581,-0.25831675,0.500911,0.59762497,-0.24229528,0.497496,0.60092024,-0.2274006,0.494391,0.60169197,-0.30636897,0.499083,0.57825695,-0.27322318,0.469989,0.54589639,-0.2900936,0.453017,0.54994487,-0.30973345,0.459651,0.61717358,-0.31569243,0.49395,0.58374449,-0.29593033,0.465918,0.56385958,-0.3000928,0.451576,0.57253813,-0.32817676,0.457612,0.63644127,-0.33481031,0.491473,0.60261648,-0.32810931,0.471997,0.60200243,-0.34571599,0.48497,0.60942338,-0.36072434,0.496855
0.61748001,-0.4121053,0.536725,0.60897236,-0.35470372,0.51708,0.60087194,-0.39555285,0.538092,0.58710238,-0.35568078,0.532235,0.57431571,-0.32183234,0.526838,0.56680169,-0.29519307,0.520565,0.58191556,-0.30094303,0.505523,0.59478907,-0.25787493,0.501336,0.5996222,-0.24069155,0.499242,0.60505868,-0.2245846,0.497339,0.60074505,-0.30514673,0.498371,0.57579061,-0.27052196,0.468193,0.54518673,-0.28537947,0.450588,0.54582776,-0.30415731,0.457072,0.61737791,-0.31420032,0.494599,0.5878337,-0.28669041,0.469616,0.57183993,-0.29137481,0.456834,0.57941777,-0.31705371,0.46394,0.63877972,-0.33468631,0.493912,0.60514109,-0.3263018,0.472951,0.60443825,-0.34406989,0.485962,0.61069033,-0.35699768,0.498385
0.61873509,-0.41215582,0.538004,0.60926489,-0.35429767,0.517409,0.6009691,-0.39485835,0.538363,0.58529075,-0.35380451,0.53064,0.57133326,-0.31939276,0.523798,0.56343571,-0.29260789,0.516989,0.58163599,-0.29885189,0.503894,0.5954842,-0.25641883,0.500517,0.59995903,-0.24136154,0.498828,0.60512014,-0.22770855,0.497293,0.6000933,-0.3042704,0.497795,0.57595698,-0.27162167,0.468466,0.54545069,-0.28592129,0.451358,0.54688423,-0.30547746,0.45808,0.61785792,-0.31399554,0.494993,0.58913867,-0.28716896,0.470269,0.57330484,-0.29195407,0.457619,0.58083126,-0.31771665,0.464812,0.64087988,-0.33545071,0.495611,0.60435567,-0.3277209,0.473517,0.60369981,-0.34403724,0.486456,0.61178305,-0.3589097,0.499249
0.62052553,-0.41247667,0.54001,0.61191857,-0.35492367,0.51963,0.60316753,-0.39340139,0.541254,0.58709038,-0.34600743,0.534249,0.57515284,-0.31692136,0.525124,0.56408411,-0.29183135,0.516858,0.59016261,-0.29467184,0.507413,0.60385677,-0.25158504,0.500998,0.60380124,-0.23711248,0.497791,0.60452287,-0.2238132,0.494876,0.60453918,-0.30257202,0.500221,0.58072506,-0.27136481,0.470904,0.55022569,-0.28660245,0.453802,0.54919845,-0.30555401,0.460333,0.62160934,-0.31404921,0.496495,0.59475588,-0.29074718,0.470165,0.57722113,-0.29550432,0.456694,0.5797555,-0.31787028,0.463205,0.64145395,-0.33560906,0.496001,0.60638194,-0.32678206,0.474524,0.6049838,-0.34554596,0.487314,0.6126034,-0.35906805,0.499831
0.62048107,-0.41000109,0.539909,0.61378343,-0.35387861,0.520031,0.60366558,-0.39448268,0.541059,0.58972088,-0.35162441,0.533748,0.57646139,-0.31730605,0.525886,0.56686635,-0.29118227,0.517593,0.59114955,-0.29581084,0.508031,0.60519154,-0.25305119,0.501338,0.60814508,-0.23941601,0.497992,0.60431827,-0.22930229,0.49495,0.60910795,-0.30249835,0.501099,0.58483202,-0.272519,0.472582,0.55256387,-0.28763415,0.455947,0.55206741,-0.30676165,0.46288,0.62452874,-0.31522609,0.497533,0.59814793,-0.29036638,0.473527,0.58099188,-0.28774191,0.461244,0.58608481,-0.31794373,0.468644,0.6442851,-0.33597086,0.49713,0.60920488,-0.32772866,0.475904,0.60725888,-0.34648841,0.488895,0.61448611,-0.3601251,0.501402
0.62655917,-0.41202376,0.545102,0.62255957,-0.35257508,0.525334,0.60859301,-0.39448979,0.545513,0.60348213,-0.34836425,0.540726,0.59361246,-0.31422522,0.534797,0.58901292,-0.28806717,0.526276,0.59958915,-0.29559427,0.512448,0.62243274,-0.25719621,0.509423,0.62604106,-0.24668864,0.507911,0.62967906,-0.23649626,0.506536,0.61883887,-0.30231529,0.506508,0.58955792,-0.27658986,0.478262,0.55605895,-0.2915615,0.461785,0.55945242,-0.31155433,0.469032,0.63579636,-0.31347129,0.503747,0.60708553,-0.29440909,0.480669,0.59082612,-0.29170284,0.468862,0.5975925,-0.31727376,0.476785,0.65565455,-0.33869373,0.504258,0.62705208,-0.32263912,0.482698,0.6245514,-0.33767437,0.495904,0.63180244,-0.3491712,0.508613
0.62719101,-0.41062831,0.545629,0.62421331,-0.35223538,0.525669,0.60939924,-0.39378261,0.545667,0.6041688,-0.34864746,0.54022,0.59406666,-0.31472749,0.533892,0.58931399,-0.28860802,0.525134,0.6002193,-0.29543103,0.512165,0.62335598,-0.25717652,0.509384,0.62714852,-0.24672847,0.507993,0.63095897,-0.2365859,0.506728,0.61999487,-0.30240542,0.506659,0.5899139,-0.27662853,0.478108,0.55633234,-0.29034325,0.461453,0.55849446,-0.31040317,0.468654,0.63744711,-0.31380047,0.504276,0.60788669,-0.29440334,0.480933,0.59175457,-0.29151954,0.46899,0.59853453,-0.31688894,0.47687,0.65964659,-0.33721349,0.505261,0.62896761,-0.32309832,0.483385,0.62647329,-0.33815238,0.496606,0.63385332,-0.34973346,0.509432
0.62722094,-0.40964217,0.545859,0.62133898,-0.35348499,0.525134,0.610253,-0.39298451,0.546423,0.60540099,-0.34922399,0.540599,0.59663866,-0.31500901,0.534974,0.59188194,-0.28873994,0.526992,0.59989442,-0.29562892,0.511797,0.62281269,-0.25735103,0.508566,0.62645201,-0.24664117,0.506951,0.63012535,-0.2362603,0.505482,0.61755184,-0.30310195,0.505396,0.58965031,-0.27334674,0.476307,0.55560169,-0.28746155,0.459339,0.55555367,-0.30703751,0.466029,0.63405557,-0.3142526,0.502357,0.60500136,-0.29288633,0.478516,0.58875581,-0.2888521,0.466318,0.59509702,-0.31071504,0.473681,0.65416614,-0.33840062,0.502726,0.61261462,-0.32854366,0.480664,0.60832665,-0.33925107,0.49351,0.62748059,-0.34844487,0.506291
0.62761203,-0.40963766,0.547112,0.61931757,-0.35652722,0.525891,0.61076104,-0.39261475,0.547568,0.59115189,-0.34780749,0.537008,0.58040691,-0.31411612,0.529503,0.57288343,-0.28653801,0.520822,0.59850885,-0.29706569,0.512076,0.61563941,-0.26026893,0.506066,0.6208992,-0.24533699,0.50306,0.62178276,-0.23411137,0.500328,0.61637124,-0.30443434,0.505681,0.58588929,-0.27604748,0.476095,0.55279601,-0.28449265,0.458836,0.55054348,-0.30737448,0.465266,0.63181679,-0.31668331,0.502702,0.59945065,-0.30331205,0.476424,0.58464398,-0.29766708,0.462979,0.58857139,-0.31732323,0.469478,0.65178679,-0.33959459,0.503232,0.6078235,-0.32383873,0.480811,0.60526043,-0.33899208,0.493508,0.61824621,-0.36091922,0.506322
0.60681371,-0.40781033,0.541523,0.59755144,-0.35737247,0.520873,0.5802463,-0.3893684,0.539113,0.56663917,-0.3464841,0.526318,0.55542081,-0.30957155,0.516708,0.54871851,-0.28192005,0.508256,0.57768305,-0.29791612,0.503712,0.59502197,-0.26141569,0.49694,0.59915383,-0.24957596,0.493554,0.60340753,-0.23820157,0.490476,0.59828506,-0.30848574,0.501205,0.56827477,-0.28276305,0.471276,0.53586867,-0.28893457,0.453817,0.53209395,-0.30937512,0.460882,0.61424339,-0.32415246,0.501367,0.5867578,-0.31211576,0.475097,0.57462702,-0.3064374,0.461656,0.57821435,-0.33042063,0.468885,0.63748544,-0.35130997,0.505437,0.59595527,-0.33266878,0.48192,0.59415474,-0.34921751,0.495262,0.60224725,-0.36478395,0.508713
0.59074037,-0.41076242,0.540404,0.58640274,-0.35956969,0.520689,0.57662802,-0.39178864,0.54112,0.56687085,-0.35446142,0.532508,0.55968573,-0.31791324,0.528976,0.55954524,-0.29117647,0.523162,0.56898719,-0.30385304,0.508237,0.57730074,-0.26327933,0.493149,0.57781819,-0.24585736,0.485605,0.57863599,-0.22951966,0.478746,0.58625887,-0.31258202,0.501914,0.55860174,-0.28365654,0.473821,0.52817626,-0.29037338,0.457433,0.52613699,-0.31214117,0.464656,0.60094627,-0.32517159,0.498832,0.57237081,-0.31043411,0.473593,0.55732682,-0.30471075,0.460681,0.56144451,-0.32888824,0.467882,0.61889138,-0.3496736,0.49896,0.582566,-0.33002716,0.477597,0.58758228,-0.33978485,0.490217,0.58728475,-0.35713963,0.503167
0.53485981,-0.40267069,0.517137,0.54622597,-0.35790598,0.508958,0.52169273,-0.38496875,0.518714,0.53166506,-0.34814403,0.516317,0.52768368,-0.31247812,0.515027,0.5256913,-0.29200394,0.515532,0.53689974,-0.30764514,0.50546,0.54874235,-0.27186432,0.490024,0.56980458,-0.2600297,0.494924,0.58989681,-0.24859831,0.499379,0.55586152,-0.31757772,0.501169,0.55467889,-0.3009175,0.483903,0.53883322,-0.3109245,0.473831,0.53904001,-0.3368197,0.486118,0.57043434,-0.33019775,0.498517,0.57218169,-0.31132759,0.482796,0.56660481,-0.31418374,0.474753,0.57927973,-0.34165849,0.486963,0.5858354,-0.35291231,0.496976,0.57718595,-0.34761092,0.483544,0.59859066,-0.37598179,0.499487,0.61043662,-0.398532,0.510396
0.51172707,-0.39256272,0.502214,0.52501713,-0.35556575,0.501746,0.49347115,-0.37828559,0.5064,0.49932826,-0.34135053,0.506226,0.49894091,-0.31103899,0.512062,0.50324785,-0.29571277,0.518168,0.52569135,-0.31071465,0.506879,0.54133022,-0.27567678,0.499288,0.56167959,-0.26658989,0.508468,0.5800958,-0.25810622,0.516812,0.54453965,-0.31997001,0.501299,0.54291704,-0.30461095,0.492618,0.52658165,-0.31732417,0.487554,0.52897744,-0.34604205,0.50234,0.55807625,-0.33168586,0.496755,0.56081168,-0.31303734,0.488731,0.55444534,-0.31767495,0.484626,0.56143846,-0.34656453,0.499337,0.57031711,-0.35261104,0.491569,0.55749768,-0.34784448,0.485003,0.57203565,-0.36422326,0.501478,0.57507374,-0.38677516,0.510176
0.47021398,-0.40340105,0.493901,0.48476053,-0.36083381,0.490034,0.45750648,-0.38700601,0.496522,0.46430857,-0.34957001,0.496121,0.45624639,-0.31763942,0.498038,0.4569407,-0.30348933,0.504317,0.47831849,-0.31362451,0.490821,0.49086916,-0.27832301,0.479651,0.50801701,-0.26525666,0.483817,0.52433173,-0.25268911,0.487604,0.49755659,-0.32258018,0.486351,0.50522283,-0.29782585,0.473909,0.4948573,-0.30684148,0.466652,0.49735535,-0.3351751,0.480497,0.51195946,-0.33414372,0.483086,0.51928131,-0.31293378,0.471756,0.51457948,-0.31701598,0.465959,0.52147266,-0.34470006,0.479749,0.52649359,-0.35516799,0.480024,0.51785319,-0.34831072,0.470227,0.53519182,-0.36487662,0.486551,0.53990421,-0.38797918,0.496329
0.45933838,-0.40359329,0.49389,0.46301055,-0.3605514,0.489264,0.43564876,-0.38721569,0.496341,0.44158527,-0.34926003,0.495321,0.43408268,-0.31741399,0.497434,0.43472492,-0.30294053,0.503223,0.45643571,-0.31281453,0.489314,0.46744534,-0.27703695,0.477295,0.48398425,-0.2641361,0.481699,0.4996877,-0.25170424,0.485704,0.4757392,-0.32177314,0.484858,0.48125084,-0.296531,0.471613,0.46954752,-0.30521795,0.463887,0.47108886,-0.33333066,0.477482,0.49021177,-0.33339479,0.481686,0.49570699,-0.31179778,0.469751,0.48992634,-0.31566587,0.463645,0.49546695,-0.34317278,0.477218,0.50486353,-0.35460044,0.478875,0.49443691,-0.34729562,0.468453,0.51013831,-0.36382383,0.484702,0.51431226,-0.38707436,0.49467
0.42683021,-0.40192521,0.495434,0.44117159,-0.35716842,0.488462,0.41438453,-0.38508129,0.497837,0.42106235,-0.34803126,0.496058,0.41188695,-0.31622947,0.497261,0.4134369,-0.30255719,0.503688,0.43475707,-0.30809431,0.486857,0.43879587,-0.2757116,0.472686,0.44644298,-0.26240262,0.471298,0.45247681,-0.25173731,0.470036,0.45359433,-0.31691747,0.481822,0.45315628,-0.2883605,0.466125,0.4377078,-0.29991641,0.456968,0.43933868,-0.32800881,0.469676,0.46775228,-0.328613,0.478427,0.46200598,-0.31651935,0.464871,0.4594625,-0.31018558,0.457936,0.46079299,-0.33273022,0.470797,0.48212841,-0.35023521,0.475798,0.46796176,-0.34148337,0.463701,0.48048185,-0.36077866,0.47961,0.48508355,-0.38513419,0.490036
0.4415678,-0.4074917,0.499803,0.44128526,-0.35612491,0.487002,0.42986881,-0.39303157,0.504415,0.41472202,-0.35646675,0.50355,0.40330278,-0.32237269,0.501268,0.40106406,-0.29748609,0.495916,0.43009428,-0.30671333,0.484317,0.42272759,-0.26326611,0.46515,0.43100662,-0.24772703,0.467441,0.43893395,-0.23251517,0.469525,0.44418641,-0.30895459,0.474811,0.42623441,-0.27310024,0.453184,0.4048347,-0.28844032,0.440568,0.40689815,-0.31488935,0.450039,0.45762018,-0.31580313,0.468362,0.43102539,-0.31249214,0.450467,0.41704764,-0.31115573,0.441312,0.41380209,-0.33618894,0.451232,0.47330877,-0.33307552,0.463283,0.44349081,-0.32834048,0.448486,0.44931082,-0.34276829,0.462589,0.44979667,-0.36294646,0.473266
0.43209339,-0.40969712,0.50261,0.42195735,-0.35675544,0.487831,0.4143591,-0.39466677,0.506823,0.39323995,-0.35701821,0.504329,0.38219737,-0.32320616,0.502564,0.37985137,-0.29819633,0.4971,0.40591882,-0.30628774,0.483284,0.3986639,-0.26140177,0.461856,0.40590808,-0.2458446,0.463889,0.41284252,-0.2306393,0.465737,0.42242628,-0.30826811,0.473756,0.40180916,-0.27123572,0.45009,0.37933116,-0.28563623,0.436285,0.3802501,-0.31127614,0.444875,0.43597885,-0.31522393,0.467503,0.40682843,-0.31069891,0.447882,0.39150712,-0.30870984,0.437843,0.386858,-0.33297183,0.446914,0.45205367,-0.33288859,0.463023,0.42011544,-0.32705416,0.446729,0.42417822,-0.34114926,0.460404,0.42412203,-0.36154687,0.471441
0.41172177,-0.4072484,0.499019,0.40712923,-0.35380858,0.487171,0.39915556,-0.39597334,0.504995,0.37803681,-0.35852177,0.505414,0.36599189,-0.32700527,0.506754,0.36259515,-0.30409176,0.505364,0.39177854,-0.30750418,0.48691,0.381333,-0.26304695,0.46783,0.38551434,-0.2463766,0.469671,0.3894746,-0.23016732,0.471344,0.4075265,-0.30639905,0.475887,0.38420689,-0.27352132,0.454384,0.36225052,-0.28921195,0.441841,0.36341213,-0.31550363,0.450977,0.4204012,-0.31067198,0.468087,0.39121849,-0.30451781,0.449717,0.37578638,-0.30160848,0.440319,0.3721321,-0.32637032,0.449726,0.43565333,-0.32492536,0.46126,0.40502265,-0.31949843,0.447912,0.40682268,-0.33602454,0.461753,0.40512411,-0.35362787,0.471819
0.38083493,-0.40403565,0.495691,0.38456448,-0.3527413,0.485543,0.36815495,-0.39332424,0.501702,0.35433974,-0.35695709,0.503421,0.34174588,-0.32506925,0.503965,0.33918186,-0.30257072,0.503079,0.37128971,-0.30715577,0.486482,0.36350853,-0.26269021,0.469315,0.3685448,-0.24592281,0.472076,0.37244547,-0.2303784,0.474585,0.38739732,-0.30657663,0.475879,0.36498013,-0.27492206,0.456401,0.34354001,-0.29151471,0.445038,0.34471538,-0.31853133,0.455092,0.40031887,-0.31116692,0.468241,0.37156614,-0.30619704,0.451768,0.35622382,-0.30391174,0.44334,0.3520587,-0.32936602,0.453691,0.41511946,-0.32557099,0.461283,0.38457941,-0.32052453,0.449053,0.38517591,-0.33726507,0.463338,0.3819444,-0.35458304,0.473181
0.37458127,-0.40354228,0.499345,0.37331022,-0.34913374,0.487481,0.35435685,-0.38732425,0.505102,0.34025423,-0.34878486,0.504788,0.32795957,-0.31578448,0.504005,0.32448019,-0.29045631,0.499961,0.36435154,-0.30128232,0.486924,0.35223276,-0.25676513,0.469926,0.3474314,-0.24169044,0.467234,0.34212819,-0.22864565,0.464787,0.37963566,-0.30330001,0.476182,0.35435077,-0.27358065,0.453961,0.33073199,-0.28945735,0.440999,0.32999098,-0.31519242,0.450038,0.39149757,-0.30998123,0.468615,0.36034209,-0.30251984,0.449364,0.34382604,-0.29890423,0.439515,0.33777696,-0.32286484,0.448753,0.40438965,-0.3267798,0.462061,0.37297233,-0.31995546,0.448565,0.37270928,-0.33642854,0.462493,0.36931411,-0.35414457,0.472644
0.37544626,-0.40521658,0.505312,0.37595952,-0.3513058,0.494603,0.35728439,-0.39009185,0.511437,0.33914493,-0.3523198,0.512498,0.32343703,-0.32024492,0.511176,0.31783773,-0.29499914,0.507115,0.3606905,-0.30200143,0.49531,0.34669067,-0.25844715,0.478394,0.34361715,-0.23885208,0.475408,0.33957047,-0.22266933,0.472694,0.37711836,-0.30244672,0.484404,0.35459115,-0.27657775,0.463407,0.33597976,-0.29548281,0.451159,0.33590636,-0.32185559,0.460627,0.38999978,-0.30780712,0.476578,0.36205016,-0.30425081,0.454924,0.34519907,-0.30078492,0.443846,0.33908915,-0.32466579,0.45245,0.40429415,-0.32289538,0.469507,0.37748086,-0.32282582,0.456627,0.377722,-0.34004314,0.470722,0.37456766,-0.35817072,0.48072
0.37390495,-0.40220061,0.504542,0.37336584,-0.34643991,0.494307,0.35863287,-0.38914269,0.512323,0.34180603,-0.35402573,0.515806,0.32619461,-0.32379569,0.516657,0.32028385,-0.29913275,0.513578,0.3620622,-0.30196125,0.497493,0.34284573,-0.2571418,0.481848,0.33661243,-0.23771078,0.479163,0.32892228,-0.22226736,0.476723,0.37654018,-0.30056097,0.48456,0.34387531,-0.27127381,0.464115,0.32701594,-0.29097074,0.452188,0.33416143,-0.32076231,0.461063,0.38702611,-0.30197593,0.475013,0.35229274,-0.29701101,0.453254,0.33398322,-0.29475243,0.442122,0.33559837,-0.32205709,0.449951,0.39977197,-0.31490933,0.465856,0.36464037,-0.31108135,0.454717,0.36228901,-0.32218842,0.468172,0.35691979,-0.33027785,0.47731
0.36966824,-0.39772011,0.504881,0.37379008,-0.3459366,0.495832,0.35898254,-0.38814642,0.512858,0.34245834,-0.35441189,0.517571,0.32633781,-0.32494714,0.518675,0.32009402,-0.30062642,0.515906,0.36285545,-0.30249313,0.500078,0.34311827,-0.25792459,0.485271,0.33736623,-0.23891503,0.483818,0.33006725,-0.22375127,0.482498,0.37616101,-0.29889333,0.487214,0.34437157,-0.27159854,0.468029,0.32820303,-0.29167302,0.456839,0.33175321,-0.31907641,0.466228,0.38728552,-0.30191377,0.477596,0.35153993,-0.28950297,0.456952,0.33360857,-0.28408975,0.44639,0.33171729,-0.30867366,0.454729,0.39988164,-0.31428552,0.468133,0.36509002,-0.31072126,0.457885,0.36038792,-0.31893142,0.471573,0.35686188,-0.32940188,0.480487
0.37128177,-0.39824287,0.508122,0.37512861,-0.34511692,0.499621,0.36110015,-0.38926929,0.516837,0.34372415,-0.3536383,0.522732,0.3265693,-0.32530078,0.523902,0.32062108,-0.30203342,0.520887,0.36369267,-0.30146582,0.5052,0.34441099,-0.25808362,0.491144,0.33822173,-0.23885316,0.489679,0.33128904,-0.22221662,0.488348,0.37688465,-0.29857205,0.491526,0.34489165,-0.27091333,0.472968,0.32865813,-0.29121332,0.462144,0.33174015,-0.31839261,0.471397,0.38729501,-0.30113743,0.481181,0.35316337,-0.29069447,0.460848,0.33510107,-0.28542923,0.450446,0.33221194,-0.30975691,0.458574,0.3989125,-0.31286552,0.470771,0.36413885,-0.30928768,0.461381,0.36103197,-0.31966336,0.474827,0.35457441,-0.32668205,0.483345
0.37302929,-0.3984278,0.510954,0.37527721,-0.34324063,0.501836,0.36285768,-0.38948294,0.519688,0.34517408,-0.35111286,0.525466,0.32823413,-0.32268506,0.526365,0.32153918,-0.30132356,0.522333,0.3646153,-0.29884766,0.507021,0.34482636,-0.25569151,0.492629,0.33811964,-0.23640279,0.490667,0.33154244,-0.22083449,0.488884,0.37748991,-0.29633672,0.493152,0.34535446,-0.27027257,0.473947,0.32871873,-0.29044466,0.462744,0.33144418,-0.31729952,0.47166,0.38828825,-0.30063081,0.482714,0.35340243,-0.29015934,0.461763,0.33496946,-0.28488542,0.451044,0.33158791,-0.30891465,0.458823,0.39982812,-0.31254225,0.472312,0.3645258,-0.30885832,0.462542,0.36116393,-0.31913286,0.475801,0.35466122,-0.32622678,0.484381
0.37543393,-0.39928226,0.514274,0.37800465,-0.34412298,0.504736,0.36520454,-0.38823299,0.5227,0.35053829,-0.35069402,0.528434,0.33402747,-0.32243097,0.529383,0.32726503,-0.30015592,0.524905,0.37323719,-0.29778269,0.509235,0.35213917,-0.25707466,0.494007,0.34390383,-0.24098879,0.493351,0.33580933,-0.22259516,0.492755,0.38074326,-0.29729708,0.495653,0.34846755,-0.27117224,0.479515,0.31982408,-0.27582733,0.470102,0.31966777,-0.30200301,0.479939,0.39077011,-0.30176436,0.485496,0.3528173,-0.29049566,0.464223,0.32777711,-0.28568836,0.453339,0.33178657,-0.31044915,0.461107,0.40202033,-0.31431922,0.475499,0.35903429,-0.30630956,0.465247,0.35480349,-0.32324243,0.478558,0.35103312,-0.33688274,0.487327
0.37611575,-0.39849926,0.514929,0.37876169,-0.34350107,0.504784,0.36587673,-0.38699861,0.522709,0.35331932,-0.34907616,0.527623,0.3368139,-0.32045338,0.528203,0.32988074,-0.29589573,0.524179,0.37341639,-0.29711918,0.50803,0.35270451,-0.25651563,0.49307,0.35068463,-0.24145804,0.497692,0.34848693,-0.22658589,0.501893,0.38404473,-0.29594045,0.495123,0.34850073,-0.27037756,0.479021,0.32075133,-0.27523469,0.469628,0.32071862,-0.30151755,0.479707,0.39140527,-0.30147317,0.485587,0.35777993,-0.28820319,0.471835,0.3385195,-0.28199812,0.464799,0.33811772,-0.30671838,0.475082,0.40289962,-0.31473757,0.476426,0.36335842,-0.30756043,0.465344,0.35669842,-0.3226463,0.478825,0.35295173,-0.33656792,0.487953
0.37903194,-0.39539152,0.517787,0.3860069,-0.33405807,0.506394,0.36991404,-0.3827653,0.526032,0.35553997,-0.34782959,0.529448,0.33662579,-0.3190319,0.528405,0.3275226,-0.29502426,0.523945,0.3770829,-0.29096449,0.509398,0.35583426,-0.24790814,0.492546,0.35338923,-0.23131986,0.495779,0.35087649,-0.21513483,0.498718,0.38728525,-0.28770662,0.495544,0.34682244,-0.2690151,0.477329,0.31816184,-0.27376523,0.466703,0.31787361,-0.29936594,0.475597,0.39572739,-0.29021393,0.485364,0.35496572,-0.28481105,0.467576,0.33393932,-0.28057964,0.458475,0.33347794,-0.30995732,0.466923,0.40574818,-0.30244728,0.475689,0.3635875,-0.2956008,0.464147,0.36070563,-0.31575802,0.476991,0.35326618,-0.33436706,0.486034
0.38001677,-0.39402551,0.51727,0.38782146,-0.33504333,0.506547,0.37247411,-0.38345717,0.525946,0.35657764,-0.34916008,0.529863,0.33790877,-0.32049116,0.529905,0.32697278,-0.29805021,0.52494,0.37765095,-0.29505233,0.510567,0.35656875,-0.25000186,0.495106,0.35406939,-0.23351266,0.499379,0.35146269,-0.21740291,0.503264,0.38844858,-0.28887268,0.496335,0.347517,-0.2695309,0.478384,0.3194173,-0.27481782,0.467912,0.31971657,-0.30067628,0.476785,0.3968854,-0.29041378,0.485771,0.35498367,-0.28344166,0.4661,0.3344721,-0.2813484,0.456035,0.33341909,-0.30789914,0.463818,0.40701307,-0.30143732,0.475525,0.36579745,-0.29525588,0.464706,0.36332491,-0.31587325,0.47751,0.35947889,-0.3329437,0.486283
0.39215682,-0.38625032,0.518928,0.39473154,-0.3360527,0.509866,0.38450267,-0.38018159,0.529258,0.36587208,-0.35423946,0.535544,0.34464661,-0.32754361,0.537556,0.33692494,-0.30454406,0.536352,0.38368958,-0.29670996,0.517168,0.36091783,-0.25316367,0.502165,0.35371779,-0.23499357,0.503157,0.34769966,-0.21746058,0.504059,0.39288509,-0.2905087,0.501236,0.35173654,-0.25946909,0.482279,0.33239188,-0.27492397,0.47122,0.34242195,-0.29981187,0.479099,0.40220834,-0.28662999,0.489092,0.3598426,-0.28270843,0.467764,0.33833539,-0.28484154,0.456853,0.33619526,-0.30970397,0.463413,0.41259418,-0.29394538,0.4767,0.37222838,-0.29499655,0.468144,0.37003696,-0.31627295,0.480395,0.36615347,-0.33372496,0.488157
0.38406319,-0.38613263,0.515127,0.39263737,-0.33466598,0.508424,0.38076621,-0.37819409,0.525836,0.36482738,-0.35127217,0.532955,0.34175267,-0.32360201,0.533699,0.33370548,-0.30088336,0.532495,0.38725519,-0.29612808,0.517821,0.364393,-0.25421256,0.504062,0.35842755,-0.23587187,0.504485,0.35171109,-0.21782796,0.504869,0.39645808,-0.28892372,0.50204,0.35589019,-0.26178538,0.485592,0.33634821,-0.27733472,0.475997,0.34652238,-0.30315753,0.484902,0.40402352,-0.28789507,0.489767,0.36485755,-0.26963874,0.470663,0.34408093,-0.26871262,0.460889,0.34353792,-0.29171239,0.468468,0.41300126,-0.29540363,0.476782,0.37442972,-0.29536643,0.46999,0.37284018,-0.31725502,0.482709,0.36876544,-0.33470554,0.490031
0.38871012,-0.38353063,0.514768,0.39695202,-0.33315682,0.508467,0.38441206,-0.37725104,0.526137,0.36817611,-0.3508518,0.534075,0.3481524,-0.32376078,0.535981,0.33697027,-0.30072,0.53451,0.39176959,-0.2968256,0.518996,0.36970918,-0.25437161,0.505541,0.36281779,-0.23540782,0.504831,0.35421993,-0.21760947,0.504186,0.40002903,-0.28965719,0.502465,0.35977865,-0.26248531,0.486541,0.33838766,-0.27754258,0.477251,0.34817353,-0.30331046,0.485885,0.40654462,-0.2885814,0.489531,0.36626226,-0.2691434,0.470668,0.34555426,-0.26803545,0.461017,0.34477765,-0.29066552,0.468255,0.41314158,-0.29504647,0.475703,0.37683806,-0.29277135,0.469678,0.37516542,-0.31468605,0.48204,0.37089775,-0.33220457,0.488954
0.39142776,-0.38166358,0.513915,0.39776381,-0.3332523,0.508117,0.38509481,-0.37685364,0.525503,0.36875037,-0.35033069,0.533347,0.34904834,-0.32354703,0.535234,0.33800593,-0.3010471,0.533767,0.39510097,-0.29797315,0.519273,0.37366961,-0.25544633,0.506205,0.36737485,-0.23659742,0.506008,0.35866466,-0.21847672,0.50583,0.40313353,-0.29051791,0.502595,0.36182037,-0.26302905,0.487235,0.34132315,-0.27746258,0.478275,0.34997381,-0.30380932,0.487012,0.40939399,-0.28915645,0.489485,0.36800882,-0.26939918,0.471071,0.34749324,-0.26820411,0.461649,0.34682297,-0.29072851,0.468973,0.41489144,-0.29601685,0.475358,0.38096695,-0.29063831,0.469824,0.37899406,-0.31233647,0.482172,0.37201391,-0.33154038,0.488908
0.38980986,-0.38235868,0.513358,0.39830895,-0.33357856,0.507829,0.38550097,-0.37665996,0.524913,0.37137541,-0.35019762,0.533278,0.35125857,-0.32399343,0.535154,0.33945257,-0.3007897,0.533482,0.3959009,-0.29858403,0.519125,0.37630878,-0.25668732,0.505982,0.36850212,-0.23830055,0.504714,0.35680068,-0.22087105,0.503562,0.40399136,-0.29128052,0.502564,0.36451274,-0.26366491,0.487481,0.34385332,-0.27766599,0.478682,0.35117988,-0.30429256,0.48759,0.41025448,-0.29002159,0.489521,0.37057332,-0.26995962,0.471381,0.35169468,-0.27021038,0.4621,0.35250714,-0.29359847,0.469602,0.4170648,-0.29701311,0.475422,0.38423577,-0.28977784,0.470032,0.38040323,-0.31145396,0.482485,0.3750792,-0.32845267,0.48921
0.39099227,-0.38285203,0.513962,0.39915024,-0.33419624,0.508246,0.38653021,-0.3772226,0.525457,0.37189243,-0.35064957,0.533593,0.35190927,-0.32442137,0.535558,0.34034688,-0.3010663,0.533807,0.39651813,-0.29905332,0.519336,0.3770021,-0.25718005,0.50653,0.36959974,-0.23900603,0.505781,0.35917966,-0.22012236,0.505101,0.40462335,-0.29180821,0.502801,0.36594449,-0.26761485,0.487511,0.34573051,-0.28660243,0.478592,0.35516248,-0.3085281,0.487445,0.41090531,-0.29061017,0.489802,0.37111123,-0.27033123,0.471489,0.35202024,-0.27093514,0.462119,0.35320766,-0.29465638,0.469571,0.41774605,-0.29769632,0.475787,0.38319345,-0.29065416,0.47023,0.38084098,-0.31203565,0.482673,0.37380065,-0.33067203,0.489453
0.40464443,-0.3856398,0.520653,0.41283215,-0.33429859,0.512003,0.39870337,-0.37978255,0.530728,0.39019221,-0.35878174,0.539759,0.36190032,-0.33535789,0.533635,0.34965424,-0.31350791,0.531134,0.39647203,-0.29830628,0.519253,0.37730435,-0.24941294,0.503821,0.3668951,-0.23447758,0.50093,0.3573232,-0.21620903,0.498302,0.40569964,-0.29205697,0.503765,0.36544632,-0.2623032,0.485196,0.35145589,-0.2814253,0.474364,0.36376224,-0.30299078,0.482659,0.41420272,-0.29235313,0.491943,0.37247288,-0.27108638,0.471081,0.35132923,-0.26960002,0.460407,0.34894258,-0.29154284,0.467418,0.4276408,-0.30156552,0.479848,0.3954915,-0.30465149,0.471351,0.39061697,-0.32016517,0.483914,0.37838607,-0.33137873,0.491776
