sluyters/QuantumLeap/backend/src/datasets/dynamic/HandGestureDataset_SHREC2017_csv/Gesture7/finger_1/subject_24_essai_3_skeletons_world.csv
Wrist_x,Wrist_y,Wrist_z,Palm_x,Palm_y,Palm_z,thumb_base_x,thumb_base_y,thumb_base_z,thumb_first_joint_x,thumb_first_joint_y,thumb_first_joint_z,thumb_second_joint_x,thumb_second_joint_y,thumb_second_joint_z,thumb_tip_x,thumb_tip_y,thumb_tip_z,index_base_x,index_base_y,index_base_z,index_first_joint_x,index_first_joint_y,index_first_joint_z,index_second_joint_x,index_second_joint_y,index_second_joint_z,index_tip_x,index_tip_y,index_tip_z,middle_base_x,middle_base_y,middle_base_z,middle_first_joint_x,middle_first_joint_y,middle_first_joint_z,middle_second_joint_x,middle_second_joint_y,middle_second_joint_z,middle_tip_x,middle_tip_y,middle_tip_z,ring_base_x,ring_base_y,ring_base_z,ring_first_joint_x,ring_first_joint_y,ring_first_joint_z,ring_second_joint_x,ring_second_joint_y,ring_second_joint_z,ring_tip_x,ring_tip_y,ring_tip_z,pinky_base_x,pinky_base_y,pinky_base_z,pinky_first_joint_x,pinky_first_joint_y,pinky_first_joint_z,pinky_second_joint_x,pinky_second_joint_y,pinky_second_joint_z,pinky_tip_x,pinky_tip_y,pinky_tip_z,
0.220053472,-0.425653585,0.571697,0.205908148,-0.372808945,0.558263,0.200907449,-0.41589095,0.572935,0.180382234,-0.396218912,0.574048,0.164563738,-0.373340001,0.572194,0.163275189,-0.35397148,0.574366,0.176662191,-0.332392797,0.55183,0.142860906,-0.311206552,0.538054,0.126190984,-0.304040449,0.535239,0.110349854,-0.298179183,0.53268,0.195254513,-0.329683541,0.546615,0.161707338,-0.321058532,0.528795,0.147233481,-0.334870275,0.5184,0.148954452,-0.357366859,0.526782,0.211461498,-0.332302794,0.54363,0.180278958,-0.333378271,0.528432,0.187069593,-0.362897821,0.545444,0.20957872,-0.375061533,0.560979,0.232033173,-0.344056221,0.542454,0.199034619,-0.344792738,0.528218,0.198894338,-0.365594765,0.54063,0.203264723,-0.381650404,0.550453
0.217396907,-0.424283306,0.569938,0.203336122,-0.372275451,0.556918,0.198380541,-0.415110722,0.571484,0.168205543,-0.405766607,0.561999,0.142104453,-0.38648294,0.560226,0.131179716,-0.370979252,0.562128,0.174025546,-0.332726077,0.551129,0.139810004,-0.312465699,0.537829,0.122219786,-0.303380048,0.532271,0.105698358,-0.295372387,0.527219,0.1926328,-0.329464493,0.54563,0.159226503,-0.323428998,0.528227,0.1484838,-0.343167187,0.518076,0.152097873,-0.360416008,0.526576,0.208939498,-0.331588999,0.542369,0.178097467,-0.340397406,0.527635,0.18988193,-0.368742871,0.544678,0.208740152,-0.375698122,0.560173,0.22977998,-0.342675508,0.540802,0.197221001,-0.344687449,0.526936,0.197773409,-0.365544905,0.539379,0.201065935,-0.381867342,0.549084
0.215998076,-0.424088779,0.569731,0.20204637,-0.372107783,0.556363,0.197081742,-0.415143283,0.571292,0.168129828,-0.405742202,0.561763,0.141705881,-0.385805644,0.558947,0.130767865,-0.370430288,0.56096,0.172837054,-0.332572395,0.550386,0.138414884,-0.312507919,0.536894,0.120483929,-0.302672447,0.530148,0.103720867,-0.293857416,0.524015,0.191456759,-0.32911137,0.544774,0.156464871,-0.325678963,0.527097,0.147006754,-0.342203277,0.516786,0.151119758,-0.360981664,0.525153,0.207823658,-0.331082996,0.541454,0.177687775,-0.339848158,0.526499,0.189454642,-0.368064121,0.54345,0.207965869,-0.375449176,0.558861,0.228828337,-0.342004586,0.539877,0.196361105,-0.344304646,0.525827,0.197128548,-0.365101345,0.538197,0.199811956,-0.381718457,0.547939
0.214583241,-0.422986615,0.568468,0.200718845,-0.370363781,0.553832,0.195311989,-0.412928033,0.568511,0.16673552,-0.401909817,0.556773,0.138521071,-0.38102701,0.549047,0.124867219,-0.363132187,0.545769,0.170018001,-0.329206373,0.545139,0.13616996,-0.307643501,0.529769,0.118067339,-0.297353975,0.522084,0.103272198,-0.292880474,0.522723,0.189271943,-0.326866857,0.541143,0.157560536,-0.330513516,0.522043,0.149397618,-0.346864574,0.510901,0.155276737,-0.366744342,0.518947,0.206344363,-0.329828684,0.539278,0.177007868,-0.337755689,0.522568,0.188583383,-0.365784032,0.539513,0.206623312,-0.373268594,0.554918,0.228452075,-0.342063937,0.539614,0.196031773,-0.34381724,0.524182,0.196804628,-0.364480799,0.536522,0.199112418,-0.38147372,0.546738
0.214402834,-0.423281146,0.568857,0.198367062,-0.369470129,0.551853,0.196842334,-0.413026431,0.568185,0.166339535,-0.40072908,0.555109,0.137646849,-0.379328208,0.546687,0.12321488,-0.361213503,0.541884,0.169195396,-0.32623973,0.540821,0.135393672,-0.303799068,0.523418,0.117951364,-0.292350911,0.514717,0.10242592,-0.283685048,0.510205,0.188906452,-0.324550297,0.53711,0.155862131,-0.327392841,0.515946,0.148578955,-0.342785573,0.5036,0.154629768,-0.361796714,0.510779,0.205336506,-0.32789912,0.535711,0.175748321,-0.335408442,0.517025,0.184450315,-0.364899932,0.533451,0.196522856,-0.381276774,0.548384,0.227937622,-0.340688455,0.536996,0.196184468,-0.343295449,0.519967,0.197419553,-0.363193338,0.531882,0.198043936,-0.378957268,0.542496
0.217486335,-0.421107941,0.566616,0.207071395,-0.368173119,0.546438,0.197014569,-0.411916513,0.566586,0.174550233,-0.400739656,0.553864,0.14571415,-0.37876114,0.545783,0.127109687,-0.359986085,0.54003,0.177753002,-0.323416673,0.534337,0.143704213,-0.299437155,0.515382,0.126224212,-0.287242261,0.505905,0.110920936,-0.278237739,0.50128,0.195802686,-0.32188906,0.528944,0.159807779,-0.323920467,0.505358,0.152351485,-0.337976704,0.491599,0.155352806,-0.354210979,0.497327,0.212124765,-0.325799784,0.526467,0.178845418,-0.333713974,0.50588,0.183387479,-0.362470904,0.521134,0.199038048,-0.37503938,0.535002,0.233816124,-0.339653133,0.527042,0.198857706,-0.340907868,0.508644,0.200654768,-0.359340488,0.519654,0.202602892,-0.376470481,0.530398
0.220821537,-0.422718665,0.56741,0.211861326,-0.361506787,0.539084,0.205597616,-0.409384381,0.56269,0.180292704,-0.3922914,0.54301,0.148600615,-0.36245405,0.522749,0.133017593,-0.340465187,0.51055,0.177274738,-0.310860425,0.516063,0.14570071,-0.282697702,0.489702,0.129756145,-0.2685302,0.476521,0.116713876,-0.259047474,0.470814,0.19868251,-0.311047643,0.514526,0.166117684,-0.308110647,0.483812,0.157244951,-0.318776415,0.465896,0.160925014,-0.333223699,0.468103,0.218054852,-0.316788123,0.516017,0.187162775,-0.319449598,0.487972,0.190333147,-0.346088692,0.500689,0.202220678,-0.357057745,0.51225,0.243933644,-0.333594967,0.522615,0.210087461,-0.330933697,0.498155,0.209970953,-0.348029129,0.507128,0.211530738,-0.366158848,0.519216
0.233963678,-0.421076456,0.563726,0.228506702,-0.3612138,0.536257,0.223763098,-0.408819531,0.560879,0.184116325,-0.390955532,0.543656,0.152554045,-0.363585411,0.526387,0.141411524,-0.340429565,0.517582,0.198257534,-0.310698408,0.516163,0.165982527,-0.286700102,0.490874,0.149614467,-0.274611484,0.47823,0.135324428,-0.265015082,0.469307,0.216829947,-0.310729668,0.512441,0.180897519,-0.30880362,0.482804,0.17327716,-0.319843629,0.465515,0.179190539,-0.334689079,0.468059,0.233737643,-0.316362076,0.512051,0.197789476,-0.317307166,0.485594,0.193473542,-0.343994444,0.498455,0.203013086,-0.362315333,0.514276,0.25648584,-0.333131964,0.516308,0.220127089,-0.330375431,0.493051,0.22489359,-0.347858639,0.502152,0.230757903,-0.365978979,0.513866
0.264213105,-0.42444139,0.563797,0.249764955,-0.363091605,0.536281,0.245883312,-0.411323168,0.561694,0.210417993,-0.392397753,0.545449,0.178129212,-0.366150642,0.529314,0.163441963,-0.343599457,0.519538,0.219018904,-0.313061234,0.51712,0.187002243,-0.289137179,0.491948,0.170769375,-0.277083411,0.479361,0.155865329,-0.266066014,0.467919,0.237338536,-0.312517412,0.512425,0.201659727,-0.310720366,0.482965,0.193451232,-0.321783926,0.465779,0.199169468,-0.336536952,0.468202,0.254068744,-0.317673569,0.511238,0.218538332,-0.318889699,0.485213,0.214911537,-0.34548891,0.49787,0.22448919,-0.367585603,0.513435,0.276698879,-0.333859558,0.514574,0.240588906,-0.331279806,0.491643,0.245362477,-0.348634514,0.500595,0.25136484,-0.36662103,0.512137
0.264617147,-0.418642131,0.556082,0.262106677,-0.35907356,0.530833,0.247823724,-0.404834351,0.554625,0.218573119,-0.378305585,0.539421,0.187371639,-0.355473262,0.521483,0.171199241,-0.333225779,0.509277,0.238699623,-0.307704238,0.513859,0.206708429,-0.287245473,0.490318,0.190422932,-0.276928723,0.478548,0.175426663,-0.267491616,0.467847,0.256059848,-0.309991502,0.508943,0.223195739,-0.278030365,0.481296,0.203000495,-0.28286584,0.465169,0.200188924,-0.300944657,0.468702,0.271316395,-0.317358954,0.507352,0.235616835,-0.316502311,0.48305,0.234225671,-0.344155618,0.496633,0.245573467,-0.366157792,0.511872,0.290951263,-0.33594887,0.509829,0.252861893,-0.330719708,0.488257,0.245585098,-0.34745027,0.497933,0.250246331,-0.364929743,0.509277
0.262319969,-0.412944922,0.548718,0.269463139,-0.356995367,0.528583,0.248537064,-0.400332696,0.550151,0.22339734,-0.372552008,0.539413,0.193488561,-0.3469063,0.521837,0.177867282,-0.326396346,0.50838,0.258416953,-0.308760016,0.518396,0.228400065,-0.283655655,0.500999,0.213050956,-0.270868024,0.4923,0.198877821,-0.259091438,0.484392,0.272555573,-0.311493761,0.511127,0.239499682,-0.284976659,0.488159,0.217291225,-0.287799406,0.474761,0.209179262,-0.307530235,0.480283,0.284120922,-0.318840948,0.507101,0.24919143,-0.312915628,0.487743,0.249983428,-0.341609882,0.502562,0.258992996,-0.366382559,0.516298,0.29757831,-0.336754569,0.505863,0.260738313,-0.327343795,0.488208,0.258696249,-0.346828195,0.498891,0.26249108,-0.364780246,0.509246
0.286954389,-0.412543077,0.548394,0.289659128,-0.356571106,0.527785,0.275199102,-0.397643107,0.549594,0.244702008,-0.371878877,0.538479,0.214864548,-0.346222249,0.520898,0.199283614,-0.325707718,0.50743,0.276293708,-0.307850817,0.517014,0.253035647,-0.27935025,0.496789,0.241953156,-0.26566007,0.488139,0.231724832,-0.25301195,0.480274,0.291114195,-0.310715718,0.509918,0.257741036,-0.28842771,0.486518,0.236184328,-0.29471981,0.472868,0.233499352,-0.313855399,0.478216,0.303405901,-0.318200157,0.506081,0.269474868,-0.312196202,0.486279,0.27111069,-0.340788363,0.500996,0.27998269,-0.365315784,0.514872,0.31802723,-0.336308429,0.505144,0.281699112,-0.327177583,0.487134,0.279638524,-0.346246867,0.497734,0.283332069,-0.363816829,0.508182
0.308959729,-0.410668259,0.548576,0.310747317,-0.354692232,0.527864,0.296900729,-0.395769031,0.549748,0.266603419,-0.369943415,0.538582,0.236764075,-0.344313362,0.521043,0.221159443,-0.323815093,0.507601,0.296473046,-0.305985121,0.516994,0.273484245,-0.277360028,0.496604,0.262654603,-0.263641388,0.487939,0.252672054,-0.250968146,0.480063,0.311405113,-0.308845403,0.509907,0.278414043,-0.286466719,0.48642,0.25687905,-0.292720694,0.47272,0.254462276,-0.311796741,0.478025,0.323883241,-0.316324094,0.506087,0.290440625,-0.310218524,0.486203,0.292793917,-0.338719381,0.500889,0.30193015,-0.363234575,0.514785,0.338894422,-0.334423614,0.505187,0.302692515,-0.325234088,0.487112,0.301018482,-0.344248721,0.497687,0.304925196,-0.361808126,0.508148
0.310530921,-0.400897989,0.538412,0.324603167,-0.346745576,0.522656,0.298278242,-0.3860785,0.539494,0.279184408,-0.358229957,0.528917,0.251325242,-0.327650349,0.510871,0.239092937,-0.30385588,0.500404,0.312427261,-0.300141746,0.514633,0.29737621,-0.270385009,0.497111,0.290080147,-0.255442891,0.488863,0.283394383,-0.241624407,0.481365,0.329354201,-0.304290385,0.508995,0.305813525,-0.280416532,0.489288,0.285617141,-0.29084507,0.477793,0.284419541,-0.310510101,0.485286,0.34298829,-0.312436885,0.505887,0.315665241,-0.305726998,0.489072,0.317926234,-0.334584577,0.50549,0.32345631,-0.358961062,0.518838,0.35850975,-0.330592926,0.504966,0.326874072,-0.32069933,0.489402,0.32489038,-0.339792265,0.501337,0.326506563,-0.357023496,0.511443
0.324006961,-0.395659615,0.533626,0.345345127,-0.347679496,0.520162,0.323402099,-0.381762785,0.536392,0.298904172,-0.355639331,0.528462,0.274140019,-0.323896464,0.51513,0.265839465,-0.301354052,0.508608,0.339936575,-0.304268195,0.515682,0.324355536,-0.275954013,0.500575,0.316451485,-0.26140603,0.493021,0.305899897,-0.25145683,0.486154,0.35453972,-0.308403129,0.508489,0.325795992,-0.295077094,0.491097,0.307244735,-0.307511814,0.480951,0.30805986,-0.328133433,0.489087,0.365795883,-0.316196846,0.503877,0.339327421,-0.304790683,0.489621,0.339312408,-0.331931665,0.506195,0.342070156,-0.356090633,0.518573,0.377707423,-0.333382353,0.500811,0.347401455,-0.318987881,0.487291,0.344151425,-0.336477957,0.499385,0.343995729,-0.353233268,0.508832
0.341359387,-0.395671754,0.534989,0.361996022,-0.347526861,0.522983,0.329053601,-0.378454486,0.534323,0.348779418,-0.356285437,0.53612,0.335670158,-0.321410543,0.526325,0.334468394,-0.305962001,0.527759,0.353050503,-0.301163604,0.514948,0.345523735,-0.274723477,0.499481,0.341826371,-0.26112803,0.491747,0.335464296,-0.251797589,0.484717,0.371952496,-0.309774121,0.512574,0.352528957,-0.298342852,0.495434,0.334845032,-0.310881426,0.485435,0.334831679,-0.331626048,0.494469,0.386681656,-0.321106457,0.511789,0.368365841,-0.310642959,0.496434,0.370036581,-0.33821436,0.514068,0.371252577,-0.362195308,0.527313,0.402515283,-0.342160247,0.512933,0.378414225,-0.328076823,0.498666,0.376199508,-0.345757663,0.511555,0.375121672,-0.362315588,0.521574
0.353438498,-0.392147271,0.533275,0.375601616,-0.347070578,0.521778,0.341792014,-0.374501673,0.53314,0.359664972,-0.35606937,0.534658,0.349533985,-0.320642954,0.5252,0.34871032,-0.301783119,0.52325,0.370813007,-0.300942411,0.51473,0.365311032,-0.272017027,0.499849,0.362660002,-0.257168515,0.492409,0.356951508,-0.247400986,0.485645,0.388273358,-0.31095693,0.511809,0.367355954,-0.299864029,0.495206,0.346483566,-0.311208584,0.485522,0.344867745,-0.330770284,0.494713,0.40151064,-0.323303528,0.510523,0.381924019,-0.313216707,0.495814,0.381552537,-0.33919653,0.513497,0.380884184,-0.361481786,0.526501,0.415000436,-0.345270853,0.510997,0.39036755,-0.330686801,0.497238,0.387191523,-0.346687282,0.510173,0.384722347,-0.361682895,0.520031
0.368180834,-0.389311488,0.530651,0.395713039,-0.346207196,0.521021,0.368725375,-0.371973617,0.531844,0.382224068,-0.355748369,0.53423,0.372053203,-0.319515995,0.523387,0.371348138,-0.299883446,0.521375,0.392167481,-0.301585243,0.516803,0.390131425,-0.266891559,0.504938,0.389190909,-0.249233906,0.499005,0.385695025,-0.238303231,0.493612,0.408904893,-0.311025028,0.512672,0.390653979,-0.301681243,0.497928,0.370276871,-0.313872219,0.489328,0.369025636,-0.333683995,0.499076,0.421385283,-0.32273525,0.510208,0.404706361,-0.314562509,0.497542,0.405209728,-0.340616478,0.515405,0.403946875,-0.362168262,0.527655,0.433771621,-0.34362868,0.508987,0.411390202,-0.330635172,0.496859,0.40912288,-0.347148532,0.509961,0.40769508,-0.361720334,0.51931
0.388857361,-0.391332487,0.538973,0.415946616,-0.350926105,0.529023,0.379624885,-0.371955705,0.538459,0.392573375,-0.358178516,0.53643,0.382329847,-0.321183755,0.518462,0.386253543,-0.301136196,0.515741,0.420094473,-0.304916069,0.522413,0.419593423,-0.270731829,0.509447,0.419326885,-0.25352249,0.502964,0.41788501,-0.239625984,0.49707,0.435209313,-0.320047042,0.520397,0.423187996,-0.305014694,0.504986,0.400284624,-0.31696929,0.495995,0.398668864,-0.334938741,0.505715,0.445683437,-0.336104569,0.519706,0.432393227,-0.326419295,0.505844,0.432289882,-0.351716474,0.523849,0.430448461,-0.37162675,0.536639,0.454332552,-0.361317096,0.520607,0.429490285,-0.347254102,0.507578,0.425975375,-0.356852201,0.520775,0.422836807,-0.364603512,0.530477
0.422960589,-0.3946405,0.549452,0.441825537,-0.353911846,0.534803,0.415026884,-0.374220393,0.548694,0.423223787,-0.358620893,0.543257,0.413552569,-0.321526571,0.524946,0.416084179,-0.300495964,0.520825,0.44213099,-0.305365505,0.525068,0.443816503,-0.269511547,0.509107,0.444364001,-0.251948181,0.501126,0.444247052,-0.236793897,0.493871,0.456984959,-0.319798703,0.522102,0.443137562,-0.303956999,0.502794,0.417794031,-0.314371165,0.491531,0.414687169,-0.330826345,0.499623,0.467651449,-0.335543449,0.521087,0.452502658,-0.32566771,0.503901,0.452140279,-0.350046821,0.52096,0.45100902,-0.370156659,0.534714,0.477356088,-0.360924523,0.522415,0.450573394,-0.346679532,0.506631,0.446577165,-0.355717962,0.519052,0.443911458,-0.363727763,0.529423
0.494814943,-0.411734279,0.604215,0.500281324,-0.370200122,0.574094,0.486334068,-0.388941526,0.600065,0.481613122,-0.375339241,0.585857,0.470181496,-0.344539503,0.566484,0.468643048,-0.321628977,0.55524,0.492044701,-0.317074899,0.550734,0.480638416,-0.277610423,0.52389,0.474887268,-0.257969896,0.510468,0.468418758,-0.241208318,0.498266,0.504312454,-0.33468237,0.547978,0.4729492,-0.314790872,0.516133,0.438399097,-0.317962788,0.497557,0.432680252,-0.324967911,0.498744,0.51406088,-0.353240522,0.548642,0.466284273,-0.349975758,0.519897,0.465510573,-0.364409008,0.531616,0.469739551,-0.381394365,0.547905,0.524770627,-0.382145935,0.554582,0.479027878,-0.369389043,0.529549,0.476781946,-0.376510963,0.537757,0.484814134,-0.385022935,0.54975
0.504763602,-0.410685913,0.604705,0.519530904,-0.366318211,0.572045,0.501965217,-0.383245431,0.595548,0.490688293,-0.357977157,0.575258,0.476457237,-0.332657785,0.552407,0.471976598,-0.312921789,0.536441,0.505255375,-0.30900642,0.540708,0.515669742,-0.27634854,0.531721,0.521063111,-0.25972699,0.527228,0.526108342,-0.244407325,0.523143,0.522760314,-0.329835175,0.543728,0.489909669,-0.312195786,0.509188,0.452854244,-0.313654086,0.489039,0.444489967,-0.318464201,0.488533,0.537087239,-0.351376323,0.549395,0.488502275,-0.346379254,0.516602,0.484733907,-0.359942766,0.526805,0.488946744,-0.377536084,0.544122,0.55341688,-0.384346501,0.561602,0.507020256,-0.3710155,0.533598,0.502528723,-0.378204255,0.540623,0.509565697,-0.387590352,0.553203
0.517032126,-0.406249865,0.603905,0.528296658,-0.363011893,0.573556,0.502833431,-0.379474877,0.59278,0.49705672,-0.354609172,0.571485,0.483983724,-0.330713564,0.546929,0.480510917,-0.311964282,0.530838,0.513352762,-0.306495396,0.541062,0.528029676,-0.275019194,0.53466,0.535596011,-0.259033622,0.531459,0.542643648,-0.244275257,0.528549,0.534064695,-0.328363827,0.547244,0.507329796,-0.315780594,0.514188,0.470611357,-0.318057115,0.494906,0.461385556,-0.322449438,0.495179,0.550730032,-0.350527812,0.555288,0.50662685,-0.349597808,0.522995,0.502133023,-0.362888772,0.533731,0.505333039,-0.379812812,0.55106,0.569255204,-0.383785658,0.569871,0.526587722,-0.374422099,0.542408,0.521441357,-0.381585313,0.549858,0.527010883,-0.390058528,0.562412
0.525857119,-0.400489608,0.599898,0.545103479,-0.359128048,0.570988,0.520423699,-0.373122238,0.588174,0.524375446,-0.350028662,0.571224,0.520672637,-0.325513117,0.548585,0.522172477,-0.30661196,0.534671,0.530940657,-0.302297037,0.538582,0.551582703,-0.272116365,0.53756,0.562485149,-0.257414121,0.537049,0.572633728,-0.243747781,0.536584,0.552481919,-0.324647211,0.545924,0.528365386,-0.314751672,0.513911,0.491054872,-0.317155477,0.495236,0.480940423,-0.321820079,0.496023,0.569655141,-0.347179267,0.554783,0.530277327,-0.34673824,0.523129,0.525375357,-0.360882308,0.534211,0.528199828,-0.377845662,0.551419,0.588465896,-0.380858413,0.570068,0.549818942,-0.372427249,0.543174,0.54451141,-0.380857704,0.5509,0.549531823,-0.389802593,0.563361
0.544116306,-0.398507953,0.602375,0.564609622,-0.358019707,0.577513,0.5287063,-0.371637375,0.589625,0.54291676,-0.350697643,0.574683,0.539981367,-0.328053227,0.551916,0.541958636,-0.309719671,0.538674,0.551687462,-0.303249669,0.546202,0.573465308,-0.273612292,0.545671,0.584602295,-0.258468366,0.545406,0.595832535,-0.246039639,0.545164,0.575395046,-0.326106705,0.555957,0.552589493,-0.324878426,0.527053,0.516355897,-0.327603376,0.510192,0.507504654,-0.331118005,0.512353,0.593930016,-0.348751135,0.566409,0.559322584,-0.352767463,0.536954,0.554891895,-0.367469576,0.548868,0.556929318,-0.383728552,0.565521,0.613577501,-0.381954176,0.582857,0.579063801,-0.377810483,0.557863,0.574221226,-0.386756784,0.566265,0.578150283,-0.394944906,0.578319
0.560769364,-0.392887908,0.605803,0.581870343,-0.351111536,0.579865,0.554411343,-0.361520116,0.593952,0.566424646,-0.354406909,0.57814,0.554609663,-0.317578195,0.554869,0.550911382,-0.293926704,0.544868,0.572054801,-0.296822781,0.549071,0.597393173,-0.268741537,0.550394,0.610308662,-0.254404015,0.551055,0.622195993,-0.241194509,0.551656,0.59283808,-0.319948299,0.557377,0.567736512,-0.318364924,0.527621,0.530159116,-0.321377406,0.510264,0.520524416,-0.324366044,0.51235,0.608909654,-0.342670741,0.566742,0.57524056,-0.344826183,0.536894,0.570605236,-0.360650976,0.548999,0.572726444,-0.377088061,0.565887,0.625647981,-0.375792258,0.582106,0.5922978,-0.369827928,0.556695,0.587367116,-0.379404616,0.565226,0.591081092,-0.388383641,0.577476
0.583221567,-0.390320251,0.613731,0.60701773,-0.35296211,0.590881,0.579292942,-0.363008783,0.604474,0.585651235,-0.352823953,0.588986,0.580533065,-0.324207852,0.570093,0.581929092,-0.303163492,0.561116,0.600077353,-0.301287392,0.565279,0.616979237,-0.268608025,0.558894,0.626181692,-0.252419709,0.556287,0.634773048,-0.237662351,0.554046,0.620003495,-0.323204358,0.57107,0.595367984,-0.321513066,0.544266,0.56044299,-0.327531881,0.528631,0.553523495,-0.333236423,0.532915,0.635083556,-0.344746713,0.578063,0.602410151,-0.347823512,0.55154,0.600657594,-0.367322526,0.565705,0.603229784,-0.384460009,0.582074,0.650186669,-0.376050974,0.590133,0.616388914,-0.371122093,0.566941,0.612829207,-0.382847791,0.577044,0.616638782,-0.392283455,0.589124
0.597768351,-0.385905606,0.61734,0.620577943,-0.349889947,0.597516,0.58743542,-0.361631952,0.609263,0.599598383,-0.350003695,0.595358,0.595897745,-0.321446917,0.576609,0.601308405,-0.30237174,0.570532,0.619133626,-0.299979683,0.575244,0.638449472,-0.268680394,0.570001,0.648752465,-0.253311704,0.567379,0.65847668,-0.239488,0.564995,0.637234133,-0.322427839,0.580328,0.613356153,-0.321485963,0.55603,0.579813957,-0.327790098,0.541856,0.573186576,-0.335348469,0.547566,0.650382355,-0.344150081,0.586444,0.619101763,-0.347823095,0.562446,0.618580125,-0.368779573,0.577753,0.620388407,-0.386066519,0.593558,0.66248374,-0.375204978,0.596972,0.630127088,-0.369901933,0.57575,0.627797406,-0.382923787,0.58675,0.628736004,-0.39594907,0.598484
0.606690721,-0.387198436,0.622263,0.633027605,-0.348406827,0.602592,0.599713957,-0.359699291,0.614286,0.612368678,-0.350561396,0.600372,0.607035258,-0.320297147,0.581788,0.604723814,-0.300619732,0.571794,0.628255126,-0.296752187,0.580542,0.64747753,-0.2651834,0.576238,0.657825689,-0.249736496,0.574086,0.667191481,-0.239161524,0.57213,0.647970736,-0.318302728,0.585538,0.623532053,-0.316909509,0.561183,0.592986352,-0.324221004,0.546975,0.582070448,-0.336811617,0.552712,0.662696531,-0.339624503,0.591566,0.634533714,-0.342827714,0.5683,0.635835051,-0.365719202,0.583702,0.638218682,-0.385364267,0.59925,0.677037662,-0.370836082,0.601967,0.645185208,-0.362020797,0.580858,0.642090648,-0.370651849,0.591908,0.651343522,-0.377745584,0.604272
0.613037371,-0.381187104,0.620978,0.63787511,-0.340735672,0.600771,0.607493809,-0.355829865,0.614505,0.622688994,-0.342129663,0.6035,0.614835,-0.311121288,0.580605,0.618010049,-0.291210616,0.572385,0.633808246,-0.28997729,0.580342,0.658891207,-0.262362757,0.579191,0.671841388,-0.248194299,0.578616,0.683857358,-0.235065015,0.578093,0.65128555,-0.310365867,0.583252,0.650914702,-0.28840892,0.558417,0.617999254,-0.291642507,0.54393,0.609526821,-0.301146154,0.549671,0.664377692,-0.330775499,0.587616,0.636877596,-0.329428862,0.563888,0.640350262,-0.353360135,0.579449,0.644760279,-0.375105121,0.595246,0.677178637,-0.361065058,0.596168,0.645832875,-0.349340121,0.575213,0.643730415,-0.36033922,0.58641,0.652834137,-0.369029624,0.598126
0.635181977,-0.380903392,0.628512,0.654425313,-0.341711762,0.606214,0.624232754,-0.356791859,0.621798,0.650353025,-0.34439293,0.615611,0.649349047,-0.316804198,0.595984,0.654506018,-0.297691047,0.588882,0.645989339,-0.289511799,0.584224,0.668738347,-0.260198119,0.582388,0.68081291,-0.245912512,0.581471,0.68948377,-0.234349677,0.580637,0.664359628,-0.308772024,0.586882,0.662985179,-0.28439777,0.56036,0.631116472,-0.288861293,0.544888,0.622013183,-0.298981644,0.549768,0.678557157,-0.328472279,0.591242,0.652935311,-0.327141301,0.567025,0.656923002,-0.351284585,0.582017,0.661756221,-0.373708085,0.597785,0.693360214,-0.358356199,0.600149,0.662533912,-0.34794595,0.57799,0.659473817,-0.358990942,0.588692,0.667045353,-0.367555877,0.60064
0.648086015,-0.379409425,0.632728,0.665621723,-0.339014852,0.612135,0.637912093,-0.356115462,0.627022,0.667274158,-0.344244931,0.625317,0.668526383,-0.317221302,0.60699,0.673328539,-0.297817132,0.599378,0.66136322,-0.288658218,0.592464,0.685511238,-0.259838389,0.591382,0.698090356,-0.245224529,0.59084,0.709756104,-0.231691618,0.590349,0.677875228,-0.307995655,0.594281,0.679418101,-0.285171498,0.56925,0.648481608,-0.289815576,0.554649,0.639764036,-0.300099125,0.560334,0.690220008,-0.32747285,0.597782,0.667512107,-0.32731569,0.575348,0.672053845,-0.351469714,0.590976,0.675900465,-0.373345392,0.606278,0.702359439,-0.356599022,0.605396,0.674129399,-0.346761595,0.584483,0.671680456,-0.358071012,0.595679,0.676467447,-0.369124025,0.60738
0.654483752,-0.378733739,0.636644,0.672315342,-0.338422652,0.616612,0.646912185,-0.352261746,0.631205,0.677444568,-0.34094593,0.631014,0.67965854,-0.313883434,0.613908,0.687253065,-0.296383288,0.607056,0.669033704,-0.284979785,0.59762,0.691396159,-0.255212935,0.595729,0.702894162,-0.239955135,0.594783,0.713795521,-0.229462627,0.593924,0.685968173,-0.303755599,0.599244,0.688146482,-0.280034526,0.574699,0.658222305,-0.285161613,0.560381,0.649962442,-0.296066966,0.566314,0.698709083,-0.32283152,0.602532,0.677391459,-0.322379982,0.580444,0.682825113,-0.346841081,0.596246,0.687104008,-0.369000377,0.611477,0.711400959,-0.351600751,0.6098,0.684116674,-0.34187837,0.589281,0.682057078,-0.353611571,0.600621,0.688598287,-0.36233953,0.61224
0.659958386,-0.374252652,0.638535,0.677126709,-0.334222851,0.619428,0.648156747,-0.350436404,0.631447,0.67985635,-0.335199792,0.631906,0.681824473,-0.307867989,0.613746,0.688737965,-0.293558379,0.607344,0.668940451,-0.280201946,0.598862,0.692994935,-0.253491909,0.597414,0.704987871,-0.238407963,0.59669,0.716092047,-0.224461907,0.596031,0.688582449,-0.29919836,0.602862,0.69423557,-0.274623154,0.578833,0.668415521,-0.281385216,0.564816,0.657779426,-0.295820158,0.570871,0.703583164,-0.31852684,0.608016,0.690236469,-0.319167319,0.587686,0.69517738,-0.343244574,0.60356,0.697538538,-0.362650379,0.61811,0.718970743,-0.347715611,0.6173,0.693068362,-0.339559098,0.596761,0.690516833,-0.349200901,0.608085,0.693258933,-0.357313166,0.619705
