sluyters/QuantumLeap/backend/src/datasets/dynamic/HandGestureDataset_SHREC2017_csv/Gesture7/finger_1/subject_6_essai_4_skeletons_world.csv
Wrist_x,Wrist_y,Wrist_z,Palm_x,Palm_y,Palm_z,thumb_base_x,thumb_base_y,thumb_base_z,thumb_first_joint_x,thumb_first_joint_y,thumb_first_joint_z,thumb_second_joint_x,thumb_second_joint_y,thumb_second_joint_z,thumb_tip_x,thumb_tip_y,thumb_tip_z,index_base_x,index_base_y,index_base_z,index_first_joint_x,index_first_joint_y,index_first_joint_z,index_second_joint_x,index_second_joint_y,index_second_joint_z,index_tip_x,index_tip_y,index_tip_z,middle_base_x,middle_base_y,middle_base_z,middle_first_joint_x,middle_first_joint_y,middle_first_joint_z,middle_second_joint_x,middle_second_joint_y,middle_second_joint_z,middle_tip_x,middle_tip_y,middle_tip_z,ring_base_x,ring_base_y,ring_base_z,ring_first_joint_x,ring_first_joint_y,ring_first_joint_z,ring_second_joint_x,ring_second_joint_y,ring_second_joint_z,ring_tip_x,ring_tip_y,ring_tip_z,pinky_base_x,pinky_base_y,pinky_base_z,pinky_first_joint_x,pinky_first_joint_y,pinky_first_joint_z,pinky_second_joint_x,pinky_second_joint_y,pinky_second_joint_z,pinky_tip_x,pinky_tip_y,pinky_tip_z,
0.62668503,-0.37437253,0.620745,0.62086671,-0.3376283,0.618252,0.60724802,-0.35956999,0.621812,0.57486611,-0.33138214,0.615949,0.55551765,-0.30559191,0.614581,0.54832677,-0.28545877,0.613269,0.60112082,-0.28252825,0.617525,0.59172162,-0.24297127,0.610024,0.59302251,-0.22542538,0.612351,0.59340633,-0.20822162,0.614467,0.62298975,-0.28790653,0.615298,0.61924875,-0.24518502,0.606369,0.61842377,-0.2225255,0.60116,0.61884455,-0.21216933,0.597439,0.64064199,-0.29370532,0.613634,0.63564605,-0.2511684,0.604829,0.63719036,-0.23596743,0.600324,0.63670741,-0.22420076,0.596229,0.66175438,-0.30620911,0.611969,0.65777453,-0.27036317,0.603356,0.65619391,-0.25408322,0.599399,0.65500959,-0.24000738,0.595907
0.62622257,-0.37591219,0.621135,0.62006001,-0.33844947,0.617532,0.60615986,-0.36163421,0.621883,0.57731697,-0.33365452,0.618561,0.55636814,-0.30642313,0.615443,0.54980794,-0.28523039,0.612715,0.59856866,-0.28643438,0.615522,0.58835799,-0.24615309,0.606821,0.59114394,-0.22915567,0.610385,0.59355752,-0.21016785,0.613625,0.62040684,-0.28825283,0.613263,0.61438221,-0.24503248,0.603317,0.60669632,-0.22525994,0.597516,0.60390338,-0.22450352,0.593372,0.63824059,-0.29368226,0.611646,0.62358799,-0.25373613,0.602674,0.62026489,-0.24125487,0.598083,0.61730218,-0.22948239,0.59391,0.65986162,-0.30582479,0.610186,0.65503893,-0.26958633,0.600861,0.65300341,-0.25347621,0.596577,0.65135025,-0.23969416,0.592797
0.6182475,-0.37233721,0.614008,0.61498014,-0.33654666,0.613758,0.59863127,-0.36136384,0.61668,0.57886067,-0.33145485,0.610959,0.55238216,-0.29768898,0.598277,0.54652174,-0.28254153,0.604223,0.58942564,-0.29149897,0.616786,0.58942402,-0.25130466,0.610392,0.5932252,-0.23410887,0.613513,0.59652574,-0.21615387,0.61635,0.61026946,-0.29060787,0.613463,0.59911106,-0.24892121,0.606819,0.59828828,-0.22663892,0.608744,0.59766153,-0.21039192,0.610119,0.62771208,-0.29245719,0.610747,0.62650155,-0.25363465,0.604857,0.62343435,-0.24485786,0.601844,0.61819634,-0.24354578,0.599105,0.64923696,-0.29991245,0.60752,0.65561309,-0.26862298,0.601311,0.65504142,-0.25417564,0.598458,0.65453941,-0.24309927,0.595941
0.61225507,-0.36913759,0.607647,0.61345629,-0.33552386,0.611856,0.59198427,-0.35421419,0.607663,0.57265817,-0.33084144,0.599238,0.53967709,-0.29597124,0.577626,0.52766803,-0.27273986,0.568882,0.58792868,-0.29031262,0.61528,0.58834051,-0.25222812,0.612566,0.58860687,-0.23307107,0.61121,0.59083323,-0.21460211,0.61085,0.61377951,-0.29107542,0.616844,0.60499162,-0.25035968,0.613605,0.59985609,-0.22634578,0.611716,0.59616883,-0.20905598,0.610367,0.63539254,-0.29422241,0.617848,0.61847848,-0.25508273,0.614038,0.61868872,-0.24870362,0.612089,0.62338459,-0.26043331,0.610317,0.66180739,-0.30315186,0.618492,0.64391292,-0.26839969,0.613672,0.64343868,-0.26185973,0.611457,0.64579939,-0.26355593,0.609503
0.60308333,-0.37049633,0.599765,0.61181778,-0.34429309,0.605076,0.58368475,-0.3599001,0.598137,0.56560819,-0.33738896,0.587965,0.53206365,-0.30300683,0.566325,0.51970759,-0.2801649,0.55799,0.58291638,-0.29768761,0.607406,0.58638256,-0.26055573,0.605814,0.58816524,-0.24164075,0.605018,0.58981526,-0.22423607,0.604295,0.61094902,-0.29957064,0.611371,0.60230602,-0.25871656,0.608918,0.59738128,-0.23491371,0.607487,0.59386531,-0.21792184,0.606465,0.63437361,-0.30363856,0.614275,0.61819486,-0.2642085,0.610491,0.62217692,-0.25954787,0.608556,0.62840238,-0.27221691,0.606796,0.6630662,-0.31363129,0.617054,0.64359727,-0.28104141,0.612428,0.64545348,-0.27428985,0.610303,0.64978222,-0.27583237,0.608427
0.60686692,-0.38443748,0.594056,0.60696855,-0.35171793,0.600655,0.58295523,-0.37028764,0.592342,0.56031764,-0.34493246,0.582348,0.52872737,-0.31195642,0.562544,0.51671206,-0.28948075,0.554547,0.5787556,-0.30567942,0.603925,0.58332565,-0.26941198,0.603569,0.58567051,-0.25085222,0.603391,0.58783688,-0.23372365,0.603229,0.60721966,-0.30775623,0.608477,0.59873741,-0.26774897,0.607211,0.59392082,-0.24449824,0.606472,0.59926367,-0.23132324,0.614949,0.63094893,-0.31194963,0.611779,0.61555721,-0.27289643,0.608938,0.62031625,-0.26903866,0.607484,0.62722638,-0.28224197,0.606163,0.65986875,-0.32202229,0.614862,0.64110243,-0.28955048,0.611113,0.64358363,-0.28341323,0.609391,0.6485041,-0.28550911,0.607871
0.61257162,-0.38728358,0.602621,0.60727346,-0.35224754,0.599519,0.58953708,-0.37561912,0.598402,0.58461245,-0.33532156,0.583638,0.56722347,-0.29291422,0.560245,0.57055357,-0.27268499,0.558948,0.56932219,-0.30133477,0.591912,0.56165333,-0.26110477,0.581659,0.55838156,-0.2414408,0.576532,0.55552718,-0.22364014,0.571872,0.59865365,-0.30684927,0.595842,0.59915859,-0.28442602,0.585482,0.59993068,-0.27059657,0.579438,0.61743661,-0.26757615,0.591118,0.62194035,-0.31253179,0.599284,0.61607713,-0.27779465,0.588073,0.61320174,-0.25939865,0.582337,0.6172412,-0.25841515,0.577123,0.65167598,-0.32461078,0.603827,0.64036771,-0.29664902,0.592682,0.6351839,-0.28342735,0.587561,0.63864904,-0.28417209,0.583043
0.61382959,-0.39836968,0.601384,0.60193188,-0.35879369,0.594135,0.58818888,-0.38160561,0.597976,0.57672745,-0.344609,0.583608,0.5601265,-0.30383704,0.56339,0.56477525,-0.28389093,0.563906,0.56531111,-0.30158796,0.58415,0.55484054,-0.26299235,0.571213,0.54960237,-0.24367664,0.564745,0.55928227,-0.23009339,0.575559,0.59173629,-0.30738273,0.585542,0.58559816,-0.2872142,0.571688,0.58234029,-0.27492106,0.563607,0.59735084,-0.27373653,0.574345,0.61316952,-0.31292314,0.587174,0.60328068,-0.2798773,0.573437,0.59831858,-0.2624099,0.566409,0.59896452,-0.2630319,0.56002,0.6406837,-0.32537681,0.590096,0.62512306,-0.29884244,0.576586,0.61795961,-0.28634726,0.570379,0.61869148,-0.2882032,0.564902
0.61523676,-0.40384758,0.603578,0.59845216,-0.35943806,0.589293,0.58866248,-0.38835746,0.599834,0.57670765,-0.35529997,0.584411,0.55941596,-0.31593999,0.564555,0.56256988,-0.29499001,0.563295,0.56152037,-0.30240171,0.573209,0.54379352,-0.2607197,0.55574,0.53511008,-0.2416578,0.547005,0.54361811,-0.23163896,0.555796,0.58452134,-0.30470334,0.57236,0.5666301,-0.28725505,0.552593,0.55626923,-0.27685141,0.541063,0.56610494,-0.27774047,0.549521,0.60465173,-0.30983284,0.572621,0.58538685,-0.27890572,0.554008,0.57553876,-0.26269079,0.544486,0.57080553,-0.26499668,0.535829,0.63127551,-0.32259729,0.574835,0.60686759,-0.29796817,0.556993,0.59559516,-0.28647695,0.548795,0.5922119,-0.28938806,0.541562
0.60393563,-0.41021304,0.595014,0.5965445,-0.36991983,0.585983,0.58092486,-0.39613292,0.592619,0.57676396,-0.36214401,0.579333,0.55891356,-0.32443273,0.565508,0.55834724,-0.30690736,0.570093,0.56462925,-0.31256232,0.575781,0.55048429,-0.27291218,0.56229,0.54363637,-0.25574989,0.555545,0.55382058,-0.24890332,0.566076,0.58799024,-0.31526498,0.575279,0.5752421,-0.28078138,0.560103,0.56703888,-0.28315205,0.551251,0.57541321,-0.30481446,0.561512,0.60806545,-0.32054851,0.575472,0.58960123,-0.28220201,0.561061,0.58517985,-0.27981629,0.553688,0.5830069,-0.29164111,0.546986,0.63384179,-0.33313597,0.576905,0.61954296,-0.30216003,0.562704,0.61298879,-0.28765148,0.556179,0.60366312,-0.28781801,0.550422
0.61283468,-0.41832296,0.599823,0.60701689,-0.3688206,0.586873,0.59202896,-0.40338571,0.597925,0.5861136,-0.37129212,0.584994,0.56213054,-0.33641065,0.565225,0.557229,-0.31595557,0.563612,0.56888743,-0.31081444,0.574101,0.55509371,-0.26635974,0.557209,0.54797393,-0.24685256,0.548763,0.55809738,-0.23747133,0.557774,0.5906843,-0.31097134,0.571523,0.57521168,-0.27426946,0.553241,0.56103527,-0.27994902,0.542577,0.56857181,-0.3010768,0.551487,0.60613214,-0.3160189,0.570273,0.5868236,-0.28617136,0.553572,0.57498773,-0.27135472,0.545028,0.56982613,-0.27610528,0.53726,0.63484876,-0.3249696,0.570495,0.6140846,-0.29815321,0.554219,0.61033822,-0.28639416,0.54674,0.59899947,-0.28660544,0.540142
0.62606103,-0.42929503,0.609474,0.61512463,-0.3798407,0.591548,0.60886011,-0.41232546,0.608747,0.59672789,-0.38131541,0.597319,0.57447886,-0.34737842,0.580455,0.56941169,-0.32612609,0.578367,0.58073659,-0.31758454,0.576164,0.56795816,-0.27218826,0.556224,0.56004268,-0.25246386,0.546253,0.56867348,-0.24286114,0.553102,0.59868924,-0.31897954,0.570301,0.57931318,-0.28186032,0.548459,0.56145596,-0.28800031,0.535719,0.56442736,-0.30806116,0.542416,0.61455896,-0.32355856,0.566682,0.58740302,-0.29451783,0.547642,0.57340397,-0.27936468,0.537901,0.56348971,-0.28417686,0.529045,0.6358071,-0.33595035,0.564724,0.61515502,-0.30946383,0.546336,0.60566634,-0.29710474,0.537887,0.59474466,-0.30029422,0.530432
0.63924742,-0.43698853,0.617431,0.62011322,-0.38427835,0.594248,0.61409932,-0.41704277,0.612413,0.60393761,-0.39437213,0.603228,0.57697891,-0.36060486,0.584501,0.56755134,-0.33752357,0.577553,0.57757283,-0.32175361,0.569425,0.56004431,-0.27657587,0.544355,0.5504696,-0.25832408,0.53182,0.55859274,-0.24918898,0.536577,0.59910312,-0.32446188,0.566769,0.57794846,-0.28301635,0.539802,0.55966583,-0.28829842,0.524071,0.56160769,-0.30721739,0.528809,0.61834857,-0.33023062,0.566142,0.58931488,-0.29808982,0.541335,0.57444039,-0.28146359,0.528643,0.56265085,-0.2849326,0.517105,0.6444485,-0.34426231,0.568474,0.62044711,-0.31859477,0.545289,0.60944069,-0.30669704,0.534637,0.59811079,-0.31024043,0.525238
0.63642269,-0.43637047,0.614073,0.6186175,-0.38464151,0.588623,0.61158791,-0.4158263,0.608724,0.60090053,-0.39102958,0.598155,0.57619158,-0.35749012,0.580468,0.56604299,-0.33324213,0.571754,0.57900125,-0.31725782,0.561565,0.5624605,-0.27187,0.534432,0.55295174,-0.25311782,0.520866,0.56120591,-0.24351324,0.524351,0.59964426,-0.32198276,0.558457,0.57291875,-0.28902353,0.52975,0.55085774,-0.30093802,0.513004,0.55182225,-0.31859132,0.516617,0.61805432,-0.3295058,0.55761,0.58942356,-0.29578571,0.531316,0.57478004,-0.27839391,0.517864,0.55548481,-0.27980022,0.505634,0.64295884,-0.34584503,0.55998,0.61899392,-0.31884392,0.535537,0.60799696,-0.30642211,0.524306,0.59026753,-0.30651105,0.514397
0.63680765,-0.43594225,0.611988,0.62975508,-0.38492119,0.586987,0.61335667,-0.41654231,0.606242,0.6117877,-0.3896141,0.59603,0.58754572,-0.35511565,0.577643,0.57831856,-0.33065268,0.568863,0.5874876,-0.31626859,0.559814,0.57130267,-0.27124836,0.53321,0.56206948,-0.25265228,0.519908,0.57104112,-0.24324157,0.523766,0.60881646,-0.32134681,0.557354,0.58334716,-0.28326278,0.528868,0.56169897,-0.29369973,0.512252,0.563483,-0.31035247,0.516138,0.62781353,-0.32915066,0.557009,0.59930184,-0.29545726,0.530726,0.5847227,-0.27807888,0.517278,0.57092665,-0.28069135,0.505053,0.65343018,-0.34580921,0.559922,0.62960789,-0.31882427,0.535504,0.61868229,-0.30640984,0.524285,0.60557061,-0.30923516,0.514385
0.64194626,-0.44045039,0.614199,0.63219161,-0.38724372,0.587987,0.62056108,-0.41988014,0.608753,0.61466644,-0.39178149,0.597609,0.59148872,-0.35779234,0.579799,0.58149254,-0.33269395,0.56977,0.59355824,-0.31968392,0.560195,0.57802546,-0.27531046,0.532855,0.56874328,-0.25711559,0.519186,0.57752308,-0.2480673,0.522361,0.61361588,-0.32563834,0.556918,0.58778349,-0.28827729,0.527642,0.56382641,-0.29837235,0.510565,0.56230873,-0.31180341,0.513777,0.63147768,-0.3341524,0.555983,0.60268448,-0.30111187,0.52921,0.58796507,-0.28407793,0.515512,0.57070622,-0.28323704,0.503059,0.65556602,-0.3516306,0.558349,0.62792738,-0.33103648,0.533502,0.61521729,-0.32161149,0.522086,0.60004954,-0.32604582,0.512013
0.64234277,-0.4386675,0.614438,0.63259123,-0.3860626,0.587353,0.62146259,-0.41852569,0.608155,0.61452464,-0.39063513,0.595878,0.58996025,-0.35596951,0.577349,0.57980468,-0.33092095,0.567343,0.59372766,-0.31660789,0.557844,0.5777669,-0.27380721,0.529493,0.57251151,-0.25638638,0.515318,0.57687745,-0.24761186,0.517884,0.61427753,-0.32348721,0.555249,0.59072981,-0.28313746,0.525131,0.56646092,-0.29258825,0.507562,0.56113618,-0.30926458,0.510384,0.63253663,-0.3327615,0.554934,0.60241429,-0.29944927,0.527169,0.5870123,-0.28229285,0.512963,0.57132671,-0.28506595,0.500048,0.65706558,-0.35114689,0.55816,0.62757095,-0.33030705,0.532503,0.61401136,-0.32073699,0.520714,0.59887283,-0.3251388,0.510313
0.64416283,-0.43836388,0.615228,0.63830156,-0.38298796,0.587389,0.62764696,-0.41523865,0.607887,0.62464846,-0.38354721,0.594604,0.60235697,-0.347987,0.575293,0.59414511,-0.3229045,0.564374,0.61029793,-0.31123927,0.55599,0.59956047,-0.27077542,0.526832,0.59189163,-0.25489158,0.512252,0.59771216,-0.24944846,0.511476,0.63009163,-0.32220137,0.554391,0.60758147,-0.2844822,0.523472,0.57958898,-0.29294621,0.505437,0.5772117,-0.30792388,0.507926,0.64723957,-0.33465051,0.554945,0.61961976,-0.3019929,0.526132,0.60553643,-0.28516061,0.51139,0.5879802,-0.28787858,0.497989,0.66944454,-0.35644559,0.559314,0.64005467,-0.33583689,0.532811,0.62656857,-0.32634317,0.520635,0.60978636,-0.33023925,0.509891
0.64988954,-0.43779363,0.617386,0.64324678,-0.37764604,0.583972,0.6315822,-0.40063035,0.604408,0.62515973,-0.36813146,0.584269,0.61201656,-0.3443268,0.560563,0.60847899,-0.32778794,0.543859,0.61445113,-0.29992167,0.54125,0.62734504,-0.26827584,0.526699,0.61722631,-0.27026875,0.519424,0.61655715,-0.2875862,0.529337,0.63710635,-0.31650434,0.544365,0.61091132,-0.28286548,0.508495,0.57481997,-0.2891532,0.48757,0.56581045,-0.30164601,0.486676,0.65679148,-0.33377347,0.549172,0.62491978,-0.30280751,0.514334,0.60864195,-0.28693783,0.496511,0.58550274,-0.28901398,0.480307,0.68221818,-0.36172334,0.559386,0.64554215,-0.3413209,0.528111,0.62869311,-0.33194705,0.513742,0.60757994,-0.33458549,0.501063
0.65676601,-0.43197023,0.616671,0.65834963,-0.37559372,0.583244,0.63930867,-0.39586037,0.60311,0.63417352,-0.36703135,0.582523,0.62047074,-0.34291034,0.558257,0.61688196,-0.32638906,0.541538,0.62302545,-0.29912206,0.539807,0.63628721,-0.26826973,0.525626,0.62572912,-0.27099563,0.518536,0.62499265,-0.28844549,0.528527,0.64658548,-0.31607235,0.543622,0.62028084,-0.282406,0.507669,0.5838317,-0.28863487,0.486696,0.57478068,-0.30104356,0.485704,0.66707118,-0.33367197,0.549005,0.63487802,-0.3025414,0.513882,0.618431,-0.28659167,0.495912,0.59504093,-0.28857411,0.479576,0.69353014,-0.36206347,0.559912,0.65662178,-0.34153224,0.528438,0.63966528,-0.33209889,0.513977,0.61830256,-0.33468832,0.501217
0.6669545,-0.42695325,0.616837,0.66963887,-0.37389845,0.583291,0.65227647,-0.39631148,0.605138,0.65585181,-0.37103328,0.585086,0.63026924,-0.32876422,0.564316,0.62040421,-0.30371133,0.556269,0.63730795,-0.29802906,0.542011,0.63468012,-0.26683142,0.518213,0.63309804,-0.25179242,0.506314,0.64351668,-0.25650946,0.512191,0.65812282,-0.31398434,0.54353,0.63062445,-0.28315937,0.507773,0.59332833,-0.28952939,0.486915,0.5840378,-0.30206089,0.486062,0.67623437,-0.33069227,0.547032,0.64462872,-0.30216768,0.512779,0.62850653,-0.28753835,0.495254,0.60496514,-0.29039698,0.479322,0.69974552,-0.35792248,0.555699,0.66185203,-0.33928102,0.524839,0.64444195,-0.33071671,0.51066,0.62301909,-0.33358094,0.498149
0.67095726,-0.42208416,0.613559,0.66989847,-0.37096145,0.581071,0.65914088,-0.39102472,0.60423,0.66338927,-0.36497131,0.586674,0.64414721,-0.32315916,0.567631,0.63754113,-0.29851586,0.559542,0.65213704,-0.29715666,0.543508,0.6380019,-0.26559434,0.511344,0.63016494,-0.25045043,0.495262,0.6256952,-0.25029227,0.49504,0.66769265,-0.31424642,0.542562,0.64173185,-0.282991,0.507995,0.60156086,-0.28738198,0.487831,0.58832696,-0.30082754,0.487659,0.68101295,-0.33159677,0.543966,0.65148106,-0.30219104,0.511561,0.63644412,-0.28708172,0.494981,0.60849706,-0.28969897,0.479909,0.69520807,-0.35661402,0.549973,0.65839236,-0.3373085,0.520545,0.64147757,-0.32843797,0.507024,0.61674704,-0.33077153,0.495094
0.67500861,-0.41742352,0.610377,0.68024794,-0.36797434,0.57868,0.65964152,-0.3876257,0.600765,0.6751569,-0.36840036,0.585663,0.66246052,-0.331672,0.565343,0.65923572,-0.30659937,0.55438,0.65908202,-0.29580866,0.541417,0.64306563,-0.26235015,0.510245,0.63108849,-0.24897425,0.49466,0.63678944,-0.2404531,0.491286,0.6755741,-0.31310507,0.54111,0.65006684,-0.28196925,0.507002,0.60990298,-0.28621047,0.487105,0.59960281,-0.29757756,0.487447,0.68968584,-0.33065519,0.542987,0.65813355,-0.30444781,0.510814,0.64202421,-0.29103977,0.494353,0.61328572,-0.29087325,0.479389,0.70751412,-0.35834376,0.549457,0.67016574,-0.33735853,0.520228,0.65293278,-0.32780192,0.506798,0.62983946,-0.32929638,0.494949
0.68066019,-0.41903193,0.613429,0.68305792,-0.36910177,0.580453,0.66815042,-0.38691611,0.603433,0.67729936,-0.36915834,0.586868,0.66428288,-0.3322088,0.566258,0.66027169,-0.30673542,0.554626,0.66011459,-0.29595836,0.541691,0.64331802,-0.26216813,0.509891,0.6326201,-0.24747029,0.493992,0.63717242,-0.24032634,0.491027,0.67659985,-0.31325378,0.541367,0.64991047,-0.2815944,0.506328,0.60906443,-0.28549539,0.485888,0.59780543,-0.29634378,0.485426,0.69081358,-0.33085493,0.543315,0.65645539,-0.30651829,0.510283,0.63700929,-0.29771473,0.493383,0.60920532,-0.30105842,0.47802,0.70898582,-0.35872398,0.55004,0.66979728,-0.33804062,0.520118,0.65171909,-0.3286256,0.50637,0.62810803,-0.33006423,0.49424
0.74520462,-0.4242713,0.635847,0.72553399,-0.37845606,0.596952,0.72525657,-0.39598259,0.624719,0.70521808,-0.37410682,0.601746,0.68472346,-0.34589432,0.581317,0.67468183,-0.32250754,0.566129,0.68471869,-0.3085051,0.552032,0.68988224,-0.27794153,0.530249,0.68865984,-0.26660808,0.519358,0.68784947,-0.25617409,0.509457,0.70146457,-0.32472789,0.550849,0.67558873,-0.28858275,0.512213,0.63308766,-0.2886251,0.489675,0.61546287,-0.29563974,0.484435,0.71683938,-0.3413157,0.552488,0.68116942,-0.31459303,0.515739,0.66084895,-0.3028022,0.496937,0.63094726,-0.3012112,0.479844,0.73827483,-0.36761436,0.559631,0.6984218,-0.34518603,0.527398,0.67869679,-0.33622046,0.512588,0.65554404,-0.33365673,0.499521
0.74831011,-0.4259925,0.633301,0.73522368,-0.38003771,0.594635,0.72813391,-0.39731106,0.622245,0.71324231,-0.37376322,0.599438,0.69217369,-0.34368255,0.57879,0.6815137,-0.31934913,0.563271,0.69373175,-0.3067501,0.549988,0.69721315,-0.27576782,0.528367,0.69477211,-0.26433121,0.517557,0.68917017,-0.25455132,0.507729,0.7112776,-0.32243235,0.548804,0.68292817,-0.28775619,0.510285,0.63929359,-0.28829411,0.487815,0.62182311,-0.29549187,0.482813,0.72737968,-0.33882848,0.550428,0.68926829,-0.31436517,0.514215,0.66880916,-0.30274088,0.495688,0.63392112,-0.30124926,0.478845,0.74978168,-0.36542296,0.557521,0.70167122,-0.34746016,0.525358,0.67919485,-0.33958506,0.510581,0.65322552,-0.33548307,0.497542
0.75351927,-0.42557153,0.633262,0.74605767,-0.37647221,0.595113,0.73965324,-0.39799402,0.622625,0.72711633,-0.37346898,0.600663,0.70669518,-0.34301274,0.580331,0.69632998,-0.31844491,0.565101,0.70718,-0.30388579,0.551388,0.71369377,-0.27373082,0.531093,0.711883,-0.26286901,0.520946,0.7105517,-0.25284416,0.511721,0.72363398,-0.32008224,0.549894,0.69646937,-0.2848578,0.511728,0.65134658,-0.28494646,0.489465,0.63397059,-0.29166539,0.484929,0.73873849,-0.33684568,0.551228,0.6910508,-0.31297112,0.515671,0.66520409,-0.303068,0.49748,0.63011048,-0.30616806,0.480942,0.7597395,-0.36375528,0.557904,0.71415364,-0.34113673,0.526048,0.69321952,-0.33075323,0.511412,0.66644669,-0.33118271,0.498498
0.76502706,-0.42590161,0.634806,0.75719555,-0.37356916,0.597007,0.74999718,-0.39375865,0.62352,0.73802657,-0.37298955,0.601189,0.71712215,-0.34176074,0.579918,0.70756853,-0.3174402,0.565126,0.72040215,-0.30060972,0.552782,0.72738305,-0.27004096,0.53505,0.7296229,-0.25589798,0.526184,0.72879255,-0.24538622,0.518124,0.73742348,-0.31775789,0.552203,0.70387608,-0.28858832,0.514019,0.65587006,-0.28741111,0.491746,0.63833167,-0.29446639,0.48764,0.75286302,-0.33530394,0.554265,0.70365605,-0.31176776,0.51841,0.67607963,-0.30284019,0.500066,0.64308482,-0.30558921,0.483389,0.77397749,-0.36314315,0.561769,0.73493226,-0.32776716,0.52966,0.71696031,-0.31160772,0.514908,0.69349522,-0.30971524,0.50189
0.77171667,-0.42182202,0.635406,0.75789918,-0.37147409,0.597001,0.75206892,-0.39174969,0.623799,0.73833781,-0.37026049,0.600766,0.71757151,-0.33932247,0.579296,0.70751684,-0.31486797,0.563937,0.71992603,-0.29818682,0.551898,0.72518998,-0.26668681,0.532273,0.72471323,-0.25366986,0.52246,0.71499416,-0.25070736,0.51354,0.73723255,-0.31536637,0.551479,0.70358362,-0.28611332,0.51292,0.65551481,-0.28590325,0.490426,0.63707886,-0.29269914,0.485768,0.75296226,-0.33295379,0.553714,0.70157129,-0.31225024,0.517466,0.67116386,-0.30735428,0.498921,0.63932122,-0.30773459,0.482062,0.77453425,-0.36087768,0.561506,0.73548744,-0.32570383,0.529111,0.71750659,-0.30964364,0.514228,0.6939526,-0.30774958,0.501095
0.789604,-0.42088472,0.6551,0.77802274,-0.37586353,0.621405,0.76927254,-0.38940839,0.640176,0.74878159,-0.35659064,0.61439,0.73316881,-0.33221664,0.589577,0.72864066,-0.31147981,0.573677,0.75423303,-0.31076168,0.576106,0.7615783,-0.27775754,0.555506,0.76670787,-0.26162919,0.546154,0.77185341,-0.24699169,0.537894,0.77477424,-0.33341173,0.581466,0.72751372,-0.32368578,0.545203,0.67767847,-0.32321801,0.52405,0.66950698,-0.32178102,0.522608,0.79203908,-0.3547491,0.588137,0.75152841,-0.33659956,0.552269,0.71000521,-0.33959013,0.533918,0.69883713,-0.34218491,0.53227,0.81321884,-0.38553829,0.600627,0.74620772,-0.3741085,0.568632,0.71140977,-0.36400492,0.553932,0.6959018,-0.36237718,0.552008
0.79277521,-0.41973261,0.658535,0.78331634,-0.37618675,0.623676,0.77241301,-0.38337035,0.645109,0.76067541,-0.35441028,0.621048,0.74486876,-0.32737356,0.597775,0.74002106,-0.30643882,0.581892,0.76209598,-0.30788816,0.579244,0.76248561,-0.27592273,0.555665,0.76473405,-0.25948173,0.544879,0.76727492,-0.24456844,0.53533,0.77763774,-0.33209202,0.582356,0.73114283,-0.3118292,0.545473,0.68018691,-0.31223259,0.523957,0.67124254,-0.31373945,0.522079,0.79245325,-0.35290201,0.587258,0.75006081,-0.32774927,0.551483,0.70771661,-0.33036368,0.53318,0.69736559,-0.3382482,0.531266,0.81097132,-0.38322073,0.597778,0.74281589,-0.36645404,0.565759,0.70918563,-0.35684211,0.551048,0.69318762,-0.35785498,0.548889
0.79358187,-0.41830427,0.660082,0.78556658,-0.37579274,0.625429,0.7744288,-0.38305084,0.646639,0.76177449,-0.35518984,0.622536,0.74634564,-0.32908347,0.599134,0.74043141,-0.31078388,0.58251,0.7631624,-0.30733551,0.581143,0.76462178,-0.27346092,0.557875,0.76499759,-0.25699129,0.546365,0.76748045,-0.24356428,0.536471,0.78073936,-0.32956563,0.584354,0.7335808,-0.31166865,0.547602,0.68290763,-0.31242287,0.526163,0.67391225,-0.31395942,0.524418,0.79575623,-0.35075373,0.589323,0.75261902,-0.32741203,0.55364,0.71059387,-0.33033045,0.535384,0.70008538,-0.33496254,0.533605,0.81458624,-0.38174273,0.599897,0.74554546,-0.36622677,0.567954,0.71180826,-0.3567786,0.553277,0.69702705,-0.35546672,0.551222
0.79668409,-0.41940863,0.664218,0.79125115,-0.37809397,0.630769,0.78013783,-0.38541824,0.652159,0.76854266,-0.35756347,0.629059,0.75526459,-0.33232659,0.606879,0.75185688,-0.31223209,0.591566,0.77157001,-0.30856988,0.589132,0.78725352,-0.27775486,0.574524,0.79483795,-0.2623168,0.567221,0.79007511,-0.25490753,0.560581,0.78735276,-0.3310867,0.591122,0.74173152,-0.31213345,0.555368,0.68964031,-0.31033263,0.534511,0.68401172,-0.31781141,0.533695,0.8004272,-0.35187998,0.595006,0.75952386,-0.32822061,0.560613,0.71811394,-0.33121395,0.543016,0.70936531,-0.33884881,0.542351,0.81701688,-0.38413109,0.604117,0.74969844,-0.36571664,0.573159,0.71742766,-0.35885022,0.558935,0.70364966,-0.35842136,0.557711
0.79774332,-0.41964643,0.666234,0.79318197,-0.37876494,0.632958,0.78207923,-0.3861506,0.654376,0.76974064,-0.35743235,0.631555,0.75782367,-0.33305581,0.609537,0.7546512,-0.31307567,0.594256,0.77418282,-0.30955361,0.591703,0.78841654,-0.27805246,0.576049,0.795211,-0.26229158,0.568222,0.78968432,-0.25456361,0.561107,0.78867217,-0.33155005,0.593516,0.74244968,-0.31037831,0.557909,0.69228466,-0.31127102,0.537139,0.68630017,-0.31835421,0.536446,0.80236766,-0.3528313,0.597242,0.76152479,-0.32862107,0.563039,0.71816741,-0.32970178,0.54554,0.71144779,-0.33944428,0.545024,0.81864466,-0.38478303,0.606142,0.75128788,-0.36599576,0.575331,0.71821728,-0.35792031,0.561174,0.70559076,-0.35913518,0.560062
0.78615663,-0.41075582,0.659849,0.78355625,-0.37137115,0.626475,0.77428287,-0.38099602,0.648328,0.76533399,-0.34367083,0.626878,0.75397881,-0.31737909,0.603319,0.74632188,-0.30558067,0.58659,0.77139031,-0.301591,0.585547,0.78174149,-0.26693819,0.57049,0.78422277,-0.25096873,0.562962,0.78502347,-0.23737767,0.556118,0.78144236,-0.32554231,0.586916,0.76740724,-0.28863772,0.551304,0.72188244,-0.28587049,0.53053,0.70449161,-0.29351204,0.529796,0.79324127,-0.3476689,0.590284,0.77844092,-0.3032479,0.556209,0.74330024,-0.30091112,0.538776,0.72596965,-0.31216929,0.538255,0.80754989,-0.37776004,0.598766,0.74158487,-0.35710222,0.568045,0.70835446,-0.35118944,0.55393,0.69655262,-0.35384736,0.552809
0.78272979,-0.40784286,0.657277,0.78274578,-0.3635675,0.624943,0.77236156,-0.37853169,0.646729,0.77462621,-0.33863552,0.627862,0.77067619,-0.30896707,0.606648,0.77214393,-0.2881585,0.593138,0.77563075,-0.2955389,0.586032,0.78754393,-0.26125205,0.573282,0.79370316,-0.24391251,0.566907,0.79192073,-0.23687703,0.561112,0.78776309,-0.31665965,0.586617,0.77101231,-0.28135555,0.551883,0.72616991,-0.27965844,0.531622,0.70834788,-0.29146548,0.531573,0.79780903,-0.33688009,0.58927,0.78195798,-0.29625147,0.556247,0.75050725,-0.29323483,0.539351,0.73466709,-0.30572774,0.539639,0.80975079,-0.36675354,0.596756,0.75337903,-0.34483164,0.56686,0.7174081,-0.33975669,0.553124,0.70209456,-0.34244908,0.552612
0.78156607,-0.40319673,0.662594,0.77907204,-0.36218749,0.630568,0.774042,-0.37301771,0.652533,0.77196333,-0.34079481,0.635725,0.7696726,-0.31007054,0.615545,0.77815971,-0.29130515,0.602375,0.77053188,-0.2965354,0.592495,0.78787577,-0.26384437,0.584038,0.79382015,-0.24850696,0.579809,0.79861954,-0.23485583,0.575964,0.78228272,-0.31699047,0.592607,0.75252761,-0.28577449,0.55818,0.70428523,-0.28663325,0.538098,0.69274236,-0.29452455,0.538242,0.79203921,-0.3367421,0.59485,0.77742881,-0.2936637,0.562255,0.75249049,-0.28476107,0.545578,0.73850719,-0.29621045,0.546116,0.80364335,-0.36621169,0.601803,0.74867599,-0.34229764,0.572242,0.71366728,-0.33861462,0.558659,0.69878772,-0.3424117,0.558333
0.78837127,-0.41215473,0.659843,0.7877949,-0.36216094,0.630432,0.77937237,-0.38230285,0.653082,0.77374836,-0.35121507,0.641045,0.7616725,-0.31697668,0.623012,0.76118199,-0.29536923,0.612028,0.75815432,-0.28847251,0.598462,0.77859181,-0.25872413,0.591362,0.78930105,-0.24341127,0.587812,0.79868478,-0.22928566,0.584584,0.77412967,-0.30155797,0.59557,0.78607502,-0.26253307,0.586081,0.7932464,-0.23948263,0.580546,0.79415499,-0.22553229,0.576592,0.78827661,-0.31590661,0.595167,0.77601309,-0.27904598,0.564987,0.7465565,-0.27423517,0.549546,0.73195348,-0.28575052,0.551565,0.80693483,-0.34028807,0.598597,0.74898647,-0.32540245,0.571673,0.71706659,-0.32599264,0.559303,0.70508934,-0.33368676,0.560292
0.78824757,-0.40927254,0.662469,0.78735728,-0.35156963,0.633993,0.78413163,-0.38334069,0.658493,0.78273846,-0.34590414,0.649017,0.77584419,-0.31411747,0.63481,0.77544313,-0.29220775,0.62374,0.76866702,-0.28312168,0.606145,0.77953017,-0.25054354,0.595463,0.78397407,-0.23405087,0.590122,0.78463873,-0.22004905,0.585267,0.77996569,-0.29433088,0.600239,0.73723339,-0.26313326,0.569882,0.71230434,-0.24493018,0.552173,0.68539386,-0.24649562,0.539524,0.7900845,-0.30703058,0.597294,0.77615436,-0.26911369,0.568719,0.74761171,-0.26125108,0.554099,0.73245465,-0.27199695,0.556213,0.80360338,-0.32925305,0.597549,0.74720755,-0.31264792,0.572511,0.71850327,-0.31646992,0.561007,0.70843367,-0.32627102,0.562224
0.77677062,-0.40142959,0.652904,0.78504283,-0.3489075,0.633278,0.77861365,-0.37838825,0.655174,0.78066809,-0.3410033,0.653817,0.7770381,-0.30730128,0.647505,0.77776035,-0.28458515,0.641831,0.78459358,-0.28832588,0.62014,0.76187557,-0.259724,0.605213,0.74159539,-0.25385529,0.597749,0.72531471,-0.26403499,0.596114,0.79133022,-0.29740285,0.610016,0.76809355,-0.25255149,0.588022,0.75531832,-0.22732365,0.575192,0.73466769,-0.22177173,0.566028,0.79602431,-0.30738493,0.603007,0.79473961,-0.2622253,0.591353,0.78195614,-0.24943682,0.585391,0.78397392,-0.26107125,0.594753,0.79942936,-0.32190672,0.597206,0.75341095,-0.30363644,0.579762,0.73158588,-0.3112735,0.571746,0.7275158,-0.324617,0.576059
0.77130532,-0.39340723,0.651214,0.77494869,-0.34133774,0.632616,0.77157717,-0.37069789,0.652298,0.76452007,-0.33538921,0.64842,0.75451829,-0.30045138,0.638725,0.75281828,-0.27677701,0.632223,0.76983892,-0.2819441,0.618878,0.74918472,-0.25351719,0.603382,0.73069518,-0.24807216,0.595634,0.72666647,-0.26284188,0.603015,0.77954713,-0.28935912,0.610573,0.75909864,-0.24636929,0.588843,0.74718894,-0.22120752,0.576167,0.72880361,-0.21612729,0.567112,0.78766239,-0.29856779,0.604991,0.79143853,-0.25875346,0.596869,0.78127422,-0.25092432,0.592714,0.79242389,-0.26678247,0.604255,0.79743607,-0.31588355,0.600767,0.75451862,-0.2990602,0.583061,0.733914,-0.3074261,0.574925,0.73207729,-0.32428308,0.579917
0.75201721,-0.38038579,0.661376,0.76254097,-0.33871839,0.643892,0.77015953,-0.36855012,0.668151,0.76792627,-0.3378744,0.670752,0.76069399,-0.30621146,0.659829,0.76398221,-0.28410373,0.65391,0.77863974,-0.28537183,0.637931,0.77148056,-0.24608196,0.622476,0.76797101,-0.22624129,0.614748,0.76805266,-0.20896216,0.610288,0.77435259,-0.29001989,0.623169,0.76718016,-0.24694364,0.604831,0.75606177,-0.22258402,0.594134,0.73282931,-0.21637189,0.586493,0.7702974,-0.29670001,0.612201,0.78947162,-0.26355599,0.604686,0.78483814,-0.24365368,0.600841,0.78172668,-0.2436383,0.608968,0.7642611,-0.31040987,0.601365,0.71602348,-0.2903685,0.588119,0.69164986,-0.29175911,0.582032,0.68489044,-0.30117255,0.585826
0.74153397,-0.38427255,0.675032,0.75610322,-0.34765223,0.654141,0.74893974,-0.36461001,0.678114,0.75158421,-0.33467268,0.672694,0.73436159,-0.31699157,0.654549,0.73355544,-0.30207014,0.644318,0.7753733,-0.29569989,0.640959,0.77083757,-0.25781541,0.621523,0.76866686,-0.23872503,0.611805,0.77222911,-0.22285786,0.607276,0.77232906,-0.30493122,0.629377,0.76818098,-0.26371702,0.606896,0.75881387,-0.23951877,0.593782,0.73486525,-0.23082501,0.584415,0.76905858,-0.31511782,0.621255,0.78885517,-0.28481277,0.609722,0.78603426,-0.26484963,0.603821,0.78509992,-0.2637713,0.612262,0.76344015,-0.33248039,0.614287,0.7157085,-0.30484849,0.59686,0.68858813,-0.30232488,0.588854,0.67945386,-0.30889387,0.592325
0.74828318,-0.3923315,0.683995,0.76434674,-0.35504934,0.665634,0.75856138,-0.37507677,0.689948,0.755764,-0.35038179,0.689009,0.73680129,-0.32947206,0.673408,0.73468381,-0.31411974,0.665485,0.78152941,-0.30684198,0.65797,0.76990474,-0.26769322,0.641455,0.76413645,-0.2479479,0.633198,0.76146586,-0.23066334,0.627791,0.77525793,-0.31094162,0.643872,0.75457876,-0.26518781,0.624508,0.71854479,-0.26599017,0.613213,0.71535358,-0.28266741,0.617122,0.76935277,-0.31701886,0.633509,0.78707298,-0.28226751,0.622491,0.78030623,-0.26145563,0.616854,0.77329389,-0.26002214,0.62404,0.76061681,-0.32970318,0.623515,0.71308381,-0.30474789,0.609263,0.68916028,-0.30732847,0.602715,0.68199496,-0.31770753,0.606413
0.71785183,-0.37594814,0.65634,0.73680723,-0.33879191,0.649397,0.72181877,-0.36362283,0.665502,0.72338573,-0.33384168,0.668914,0.70459998,-0.29993571,0.652778,0.69978574,-0.27634578,0.643168,0.75640173,-0.29858598,0.654849,0.75697362,-0.2594583,0.645734,0.75234479,-0.24019179,0.641176,0.75643366,-0.22499513,0.644092,0.75838649,-0.29762845,0.641167,0.74341955,-0.25529318,0.631339,0.73137537,-0.23226382,0.625606,0.73440479,-0.2232491,0.634351,0.75909911,-0.29922772,0.63038,0.78043198,-0.26903036,0.621144,0.76560522,-0.25440923,0.616419,0.76194763,-0.25797927,0.626464,0.75795709,-0.30598065,0.618359,0.72143142,-0.28510384,0.611591,0.70411207,-0.29427598,0.608481,0.70102178,-0.30734044,0.616183
0.7125505,-0.37651437,0.655156,0.72148182,-0.33605307,0.647402,0.71179394,-0.36153291,0.662014,0.70350256,-0.32892566,0.661768,0.68669628,-0.29478887,0.646261,0.68362992,-0.27185709,0.637758,0.72945396,-0.28729921,0.649412,0.7166747,-0.2508659,0.643907,0.7102316,-0.23237126,0.641155,0.70434166,-0.21539079,0.638653,0.73696132,-0.28951482,0.63821,0.73248197,-0.24526182,0.626764,0.71930861,-0.22657916,0.620087,0.72676132,-0.22072193,0.629417,0.74256126,-0.29404699,0.629517,0.76140934,-0.26397426,0.619503,0.75097339,-0.25023197,0.61438,0.75058629,-0.25826721,0.625493,0.74798583,-0.30495403,0.620117,0.71153372,-0.28712055,0.611388,0.69240482,-0.2943032,0.607377,0.68893819,-0.30608872,0.615392
0.70523822,-0.36966989,0.650346,0.71803156,-0.32437183,0.644306,0.70084062,-0.35389957,0.657619,0.69953095,-0.31672885,0.658032,0.68336088,-0.28299079,0.643122,0.68102085,-0.26041621,0.635324,0.72810044,-0.27694958,0.648207,0.71667581,-0.24092612,0.643908,0.71089957,-0.22258607,0.641758,0.70561104,-0.20571629,0.639804,0.73573384,-0.27913155,0.637147,0.73297749,-0.23556064,0.627188,0.72080734,-0.21704393,0.621379,0.72698019,-0.21022815,0.631309,0.74130856,-0.28356699,0.628455,0.76124588,-0.25408416,0.61937,0.7513902,-0.24039369,0.614721,0.75143109,-0.24827501,0.626197,0.74643104,-0.29421128,0.618828,0.71139755,-0.27688469,0.611271,0.69288476,-0.28452072,0.607798,0.68996478,-0.29653758,0.616309
0.71258101,-0.37306756,0.655244,0.71944768,-0.32582495,0.647724,0.70454999,-0.35545837,0.661679,0.69598214,-0.32200008,0.660787,0.67593643,-0.2882614,0.645726,0.67080731,-0.26539691,0.637365,0.71491449,-0.2750007,0.649415,0.69898272,-0.23912763,0.643664,0.69094749,-0.22095118,0.640788,0.68304475,-0.20516127,0.638173,0.72501037,-0.2756908,0.638812,0.72296672,-0.23195214,0.62738,0.70948269,-0.21617593,0.620711,0.7159088,-0.20961052,0.630288,0.73314563,-0.27911385,0.630595,0.74348641,-0.24537192,0.628431,0.73679212,-0.2347794,0.627324,0.74468368,-0.24918153,0.640626,0.74246712,-0.28899021,0.621735,0.7063078,-0.27620829,0.612866,0.68636208,-0.28313821,0.608792,0.68296665,-0.29544069,0.616973
0.69938327,-0.36583413,0.646811,0.70099545,-0.32111448,0.647353,0.68447081,-0.34489028,0.647475,0.66553188,-0.31129625,0.646984,0.64783299,-0.27785438,0.629297,0.64386163,-0.25505889,0.620864,0.68771972,-0.2691743,0.648594,0.68043551,-0.23237312,0.642883,0.67677675,-0.21352064,0.640027,0.67344124,-0.19610715,0.637431,0.71141148,-0.27362295,0.647996,0.7080327,-0.23075238,0.641608,0.70607512,-0.20558901,0.637881,0.70468458,-0.18754344,0.63522,0.7307613,-0.28006521,0.647467,0.72189362,-0.24263293,0.641331,0.71823418,-0.22448487,0.638191,0.73457473,-0.21761233,0.652503,0.75340351,-0.29341375,0.646761,0.75053914,-0.26048439,0.644278,0.74966108,-0.24402404,0.643137,0.74916919,-0.23014517,0.64213
0.68742907,-0.35953245,0.639637,0.68924271,-0.315432,0.644259,0.66712471,-0.34066711,0.643266,0.64625381,-0.30910715,0.639488,0.61588556,-0.27601507,0.62119,0.60471285,-0.25286747,0.610581,0.68052253,-0.26671691,0.652384,0.68125606,-0.23158591,0.656332,0.68183874,-0.21348825,0.658306,0.68235494,-0.19687029,0.6601,0.70230331,-0.26996194,0.649737,0.70231251,-0.22940211,0.647548,0.70319007,-0.2055677,0.646271,0.7040399,-0.18905533,0.645359,0.7196805,-0.27524612,0.647249,0.72231751,-0.23737358,0.649552,0.7237185,-0.21800015,0.65073,0.72615054,-0.19981423,0.651802,0.73933049,-0.28681415,0.643649,0.74220034,-0.25516213,0.647265,0.74374055,-0.24032991,0.648927,0.74509961,-0.22726848,0.650393
0.68276646,-0.35511022,0.637425,0.68650644,-0.31385457,0.643998,0.66340333,-0.33888084,0.641181,0.63691522,-0.30886607,0.637885,0.60663809,-0.27793364,0.621392,0.59442952,-0.2552281,0.611959,0.66969513,-0.26630826,0.653854,0.66890692,-0.23282199,0.655906,0.67021945,-0.21488432,0.656932,0.67200957,-0.19958843,0.657864,0.69243311,-0.26744002,0.651788,0.69369127,-0.22805504,0.651043,0.69578107,-0.20407304,0.650609,0.69775405,-0.18716724,0.650298,0.71078003,-0.27092827,0.649647,0.71402588,-0.23288649,0.652124,0.71668624,-0.21380526,0.654305,0.71910504,-0.19645939,0.656288,0.73201855,-0.28021563,0.646203,0.73414211,-0.25016834,0.648426,0.73735523,-0.23465872,0.649448,0.74021842,-0.22074968,0.650349
0.6723363,-0.35048684,0.637726,0.67011263,-0.3089059,0.642109,0.65112505,-0.33412075,0.638565,0.63727967,-0.2997007,0.641948,0.6195524,-0.26756163,0.634772,0.61814874,-0.25203315,0.639965,0.65300869,-0.26002661,0.646671,0.65263006,-0.22725971,0.649721,0.656124,-0.21171866,0.651246,0.65968222,-0.19794769,0.652632,0.67790407,-0.26375432,0.647305,0.68173434,-0.22588361,0.648871,0.68640066,-0.20265296,0.649785,0.69384595,-0.18643806,0.650438,0.69814159,-0.26939524,0.647532,0.69857519,-0.22812455,0.644553,0.6988129,-0.20682401,0.643028,0.70105391,-0.18908306,0.641643,0.7218578,-0.2813294,0.647222,0.72052396,-0.2465919,0.644006,0.7223482,-0.2306847,0.642529,0.72496009,-0.21899962,0.641225
0.66524636,-0.34773469,0.633477,0.66618386,-0.30843066,0.639571,0.63923859,-0.33061079,0.634377,0.63545168,-0.2990793,0.640211,0.61869138,-0.26775194,0.63455,0.61766246,-0.25321571,0.64055,0.65008599,-0.261031,0.64559,0.64245617,-0.22570746,0.643529,0.64344926,-0.21239698,0.642499,0.64443146,-0.19978384,0.641562,0.67563175,-0.26479341,0.646795,0.67299627,-0.22700764,0.645404,0.67553493,-0.20499982,0.644593,0.67750051,-0.18896936,0.644014,0.69636595,-0.27038746,0.647377,0.68961499,-0.23450411,0.645532,0.69198744,-0.21836596,0.644588,0.69450367,-0.2039901,0.64373,0.72055602,-0.28212483,0.647264,0.71976381,-0.24855913,0.645123,0.72008336,-0.23509146,0.64414,0.72484374,-0.22095803,0.643272
0.6717461,-0.35002022,0.636761,0.66853893,-0.3087417,0.640839,0.64895916,-0.33328479,0.636327,0.63502826,-0.30034572,0.639925,0.61060991,-0.27522958,0.634134,0.61231019,-0.25525355,0.638346,0.6404522,-0.265042,0.643615,0.63582949,-0.22663974,0.640099,0.63731215,-0.20989293,0.638341,0.63724044,-0.19518572,0.636742,0.66968866,-0.26566091,0.645672,0.66339226,-0.2246749,0.642248,0.66471771,-0.20214446,0.640251,0.66703297,-0.1901226,0.638824,0.69154448,-0.26999626,0.647091,0.69021637,-0.22758302,0.643983,0.69151182,-0.20643688,0.642393,0.6964955,-0.18791918,0.640947,0.71590515,-0.27695891,0.64825,0.72189943,-0.24524634,0.646603,0.72495198,-0.22936565,0.645846,0.72692747,-0.21255137,0.645178
0.65422929,-0.34345989,0.628336,0.65682405,-0.30845968,0.634635,0.63486189,-0.32932418,0.629562,0.63085594,-0.29984235,0.63685,0.60584719,-0.27936046,0.635359,0.60870114,-0.2589602,0.638271,0.63804938,-0.26441764,0.641213,0.63522757,-0.22685002,0.639808,0.63470473,-0.208566,0.639106,0.63524275,-0.19334211,0.638467,0.66311503,-0.26621302,0.6421,0.66245128,-0.22576595,0.640948,0.66453817,-0.20332514,0.640276,0.66702751,-0.18995653,0.639795,0.68376084,-0.27334933,0.642407,0.68421434,-0.2329359,0.641204,0.68445001,-0.21218644,0.640589,0.68627827,-0.1942112,0.640029,0.70778899,-0.28440921,0.641937,0.7135952,-0.25286427,0.644493,0.71900313,-0.23710816,0.645667,0.72181885,-0.22582232,0.648995
0.654813,-0.34455576,0.630683,0.65679409,-0.30831348,0.635865,0.63204971,-0.32962129,0.631077,0.60894856,-0.29608263,0.630266,0.58916724,-0.26974476,0.628207,0.58627952,-0.24770484,0.62399,0.6371497,-0.26283806,0.640534,0.63324791,-0.22502097,0.637903,0.63293753,-0.20631575,0.636588,0.63239606,-0.19144197,0.635392,0.66276788,-0.26562145,0.642007,0.6619895,-0.22500476,0.639708,0.66341192,-0.20201859,0.638367,0.66509693,-0.18735904,0.637409,0.68384233,-0.27029211,0.64287,0.68443826,-0.22953773,0.640553,0.68490574,-0.20859773,0.639367,0.68514784,-0.19252446,0.638289,0.70841697,-0.28369916,0.643217,0.71084799,-0.25161981,0.643018,0.71510172,-0.23588561,0.642926,0.72016534,-0.22189947,0.642846
0.64914925,-0.34446576,0.629071,0.65224747,-0.3080025,0.634007,0.62911728,-0.32882642,0.62905,0.604225,-0.29447741,0.624331,0.57922951,-0.26434355,0.613765,0.57457339,-0.24125094,0.605268,0.63380087,-0.26185479,0.637976,0.62977416,-0.22403019,0.635018,0.62845674,-0.20544917,0.633538,0.62836097,-0.18987026,0.632194,0.65946669,-0.26561246,0.639858,0.65781703,-0.22474695,0.637273,0.6594906,-0.20157348,0.635765,0.66197584,-0.18622659,0.634688,0.68076666,-0.27135845,0.641074,0.67795766,-0.23104812,0.638059,0.67413984,-0.21464637,0.636517,0.67700114,-0.20159248,0.635115,0.70601616,-0.28314507,0.641877,0.70879531,-0.2513083,0.642374,0.71102143,-0.23532238,0.642603,0.71650592,-0.22236779,0.642804
0.6482845,-0.34442688,0.628729,0.65165791,-0.30790527,0.633676,0.62821995,-0.32884998,0.628757,0.60084234,-0.29306005,0.620486,0.57799263,-0.26449508,0.613255,0.57328228,-0.24152504,0.605383,0.63305598,-0.26178676,0.637713,0.62912646,-0.22394654,0.634735,0.62771842,-0.20522683,0.633247,0.62755132,-0.18941514,0.631894,0.65862525,-0.26557182,0.639539,0.65750633,-0.2246408,0.636972,0.65918874,-0.20148122,0.635474,0.66150939,-0.18594243,0.634404,0.67987963,-0.27126694,0.64071,0.67617161,-0.23131545,0.63767,0.6739408,-0.21507387,0.636115,0.67703406,-0.20329689,0.634701,0.70509041,-0.28297785,0.641456,0.70681244,-0.25081303,0.641184,0.70878498,-0.23481475,0.641059,0.71208399,-0.22143985,0.640949
0.64809596,-0.34249647,0.626254,0.65000241,-0.30661305,0.631828,0.62583187,-0.32757927,0.626378,0.59872162,-0.29212452,0.618344,0.57809112,-0.26336207,0.612239,0.57547636,-0.24209161,0.609317,0.62963041,-0.26122907,0.636488,0.6281009,-0.22351594,0.634051,0.6263215,-0.2040442,0.632833,0.62701308,-0.18886812,0.631725,0.65650865,-0.26429501,0.638435,0.65760144,-0.22322113,0.636451,0.65967034,-0.20011735,0.635295,0.66145267,-0.18517113,0.634468,0.67790242,-0.26973715,0.639661,0.67607683,-0.23100174,0.637538,0.67687126,-0.21354576,0.636452,0.68143451,-0.1982116,0.635464,0.70330622,-0.28107509,0.640392,0.70378623,-0.24811968,0.638857,0.70615157,-0.23206769,0.638152,0.7107107,-0.21912798,0.63753
0.65712036,-0.33872568,0.623891,0.66345449,-0.30036284,0.628643,0.6379875,-0.3258677,0.624512,0.61102995,-0.29633892,0.616931,0.58499049,-0.26977161,0.61106,0.57551913,-0.24414628,0.607001,0.62710619,-0.26073647,0.633239,0.62410599,-0.22292509,0.63063,0.62376699,-0.20389002,0.629326,0.62354143,-0.18786923,0.62814,0.65301975,-0.2628922,0.634275,0.65223662,-0.22173426,0.631623,0.65332316,-0.19829238,0.630077,0.65505187,-0.18231165,0.628972,0.67394389,-0.26538721,0.634808,0.67690571,-0.22293786,0.63231,0.67791285,-0.20179315,0.631032,0.67784191,-0.18558432,0.62987,0.70162103,-0.26890499,0.634816,0.70331363,-0.23347423,0.632827,0.70569356,-0.21775377,0.631913,0.70671783,-0.2080392,0.631106
0.65512775,-0.34374732,0.629372,0.65812156,-0.30530591,0.632257,0.63283664,-0.328836,0.628395,0.60958181,-0.29834894,0.618524,0.58587713,-0.27226625,0.61422,0.57860406,-0.24991558,0.608241,0.62830192,-0.26102109,0.633411,0.6225649,-0.22260178,0.628691,0.62103154,-0.20382047,0.626331,0.61965738,-0.18631325,0.624186,0.65468687,-0.26316219,0.635676,0.65200589,-0.22185029,0.631094,0.65183072,-0.1980238,0.628422,0.65262041,-0.18099295,0.626513,0.67654195,-0.26770253,0.637345,0.67539351,-0.22628053,0.632717,0.67667788,-0.20772431,0.630349,0.67629287,-0.19293848,0.628196,0.70446451,-0.27497124,0.638964,0.70462344,-0.239114,0.635325,0.70642966,-0.22291888,0.633652,0.70606031,-0.21253754,0.632177
0.65483186,-0.34342016,0.628256,0.65710124,-0.30530481,0.631376,0.63228985,-0.32883213,0.62731,0.60759271,-0.29827322,0.617517,0.5859125,-0.27297728,0.615001,0.57833611,-0.25017471,0.607781,0.62766317,-0.26081257,0.632756,0.62234519,-0.22267497,0.628214,0.62087585,-0.20395942,0.625944,0.61939645,-0.18632851,0.62388,0.65402897,-0.26287813,0.635073,0.651818,-0.22191634,0.630708,0.65170955,-0.19811024,0.628161,0.65248937,-0.18108537,0.626342,0.67588261,-0.26731799,0.636769,0.67475328,-0.22596228,0.632338,0.67637837,-0.20763237,0.63007,0.67701834,-0.19227282,0.628009,0.70354841,-0.274863,0.63839,0.70427715,-0.23909895,0.634976,0.70624131,-0.22294381,0.633407,0.7063701,-0.21194612,0.632023
0.65272169,-0.34192416,0.625542,0.6527357,-0.30465218,0.629521,0.63077607,-0.32801824,0.625341,0.60574557,-0.29725684,0.616611,0.58518453,-0.27179566,0.614477,0.57712142,-0.24574888,0.60887,0.62655962,-0.26044647,0.632499,0.62337729,-0.2224002,0.628956,0.6225345,-0.20363673,0.627185,0.62133253,-0.18666726,0.625575,0.65242997,-0.26216233,0.634238,0.65197289,-0.22174978,0.630759,0.65249293,-0.19804796,0.628729,0.65352355,-0.18159899,0.62728,0.67368738,-0.26630581,0.635401,0.67489599,-0.224233,0.632135,0.67744947,-0.20214662,0.630464,0.6774379,-0.18564721,0.628945,0.70014219,-0.27353666,0.636267,0.70292782,-0.23842966,0.633626,0.7054669,-0.22249756,0.632412,0.70796423,-0.20845114,0.631341
0.65164258,-0.34241619,0.625575,0.65041849,-0.30526687,0.629151,0.62960291,-0.32810068,0.625121,0.59836643,-0.29297589,0.616007,0.58298798,-0.26639819,0.612127,0.57735275,-0.24604841,0.609581,0.62608525,-0.25951085,0.631495,0.62222062,-0.22238367,0.627397,0.62122047,-0.2031564,0.625348,0.61902092,-0.18563677,0.623485,0.65205495,-0.26212746,0.633389,0.65157179,-0.22115276,0.629508,0.65140627,-0.19756092,0.627244,0.65220406,-0.18048624,0.625626,0.67342855,-0.26656889,0.634707,0.67303719,-0.22423881,0.630703,0.67310265,-0.20615337,0.628655,0.67313638,-0.19550011,0.626793,0.69926682,-0.27815392,0.635813,0.70184537,-0.23989712,0.632611,0.70420049,-0.22383347,0.63114,0.70670157,-0.2099366,0.629841
