sluyters/QuantumLeap/backend/src/datasets/dynamic/HandGestureDataset_SHREC2017_csv/Gesture7/finger_1/subject_6_essai_2_skeletons_world.csv
Wrist_x,Wrist_y,Wrist_z,Palm_x,Palm_y,Palm_z,thumb_base_x,thumb_base_y,thumb_base_z,thumb_first_joint_x,thumb_first_joint_y,thumb_first_joint_z,thumb_second_joint_x,thumb_second_joint_y,thumb_second_joint_z,thumb_tip_x,thumb_tip_y,thumb_tip_z,index_base_x,index_base_y,index_base_z,index_first_joint_x,index_first_joint_y,index_first_joint_z,index_second_joint_x,index_second_joint_y,index_second_joint_z,index_tip_x,index_tip_y,index_tip_z,middle_base_x,middle_base_y,middle_base_z,middle_first_joint_x,middle_first_joint_y,middle_first_joint_z,middle_second_joint_x,middle_second_joint_y,middle_second_joint_z,middle_tip_x,middle_tip_y,middle_tip_z,ring_base_x,ring_base_y,ring_base_z,ring_first_joint_x,ring_first_joint_y,ring_first_joint_z,ring_second_joint_x,ring_second_joint_y,ring_second_joint_z,ring_tip_x,ring_tip_y,ring_tip_z,pinky_base_x,pinky_base_y,pinky_base_z,pinky_first_joint_x,pinky_first_joint_y,pinky_first_joint_z,pinky_second_joint_x,pinky_second_joint_y,pinky_second_joint_z,pinky_tip_x,pinky_tip_y,pinky_tip_z,
0.58652363,-0.38912457,0.588265,0.58446445,-0.34366209,0.582688,0.56734363,-0.37444613,0.588406,0.5345865,-0.34282094,0.578647,0.50962449,-0.31560862,0.569155,0.49904066,-0.29634539,0.566226,0.56373238,-0.29570588,0.578879,0.55605233,-0.2591266,0.569127,0.55175825,-0.23989871,0.564251,0.55106736,-0.22245359,0.566676,0.58696502,-0.30185419,0.576871,0.58019621,-0.25716,0.565198,0.57933138,-0.24328154,0.558389,0.57843692,-0.23696486,0.553525,0.60513202,-0.30906472,0.57567,0.59863396,-0.26627033,0.56461,0.59758005,-0.25899456,0.558951,0.59712042,-0.25035706,0.553806,0.62664065,-0.32432937,0.575085,0.62546267,-0.28759749,0.565131,0.62464085,-0.28293481,0.560558,0.62476544,-0.2774807,0.556523
0.58627873,-0.39537596,0.592832,0.58000377,-0.35984836,0.58246,0.56343348,-0.37670722,0.588302,0.54136957,-0.34640603,0.580982,0.5261836,-0.3149065,0.571472,0.52499864,-0.2981579,0.574379,0.55719564,-0.3022496,0.569429,0.54500937,-0.26305741,0.554114,0.53895196,-0.24343594,0.546456,0.53801424,-0.22880231,0.543382,0.58236234,-0.31159147,0.571642,0.57821075,-0.26882531,0.555065,0.57628446,-0.2523247,0.545395,0.57343862,-0.24948112,0.538487,0.6031615,-0.3230486,0.574301,0.59107341,-0.27785855,0.558053,0.58819997,-0.26633447,0.54974,0.58589476,-0.25861883,0.542183,0.62797895,-0.34382705,0.579016,0.62059301,-0.30472985,0.565661,0.6188903,-0.30066111,0.559524,0.61752282,-0.29705129,0.55411
0.58597343,-0.39846632,0.593396,0.58054297,-0.35971531,0.580963,0.56137099,-0.37928178,0.586869,0.53985461,-0.3514358,0.570779,0.51423236,-0.31532297,0.552364,0.50724793,-0.29328419,0.547644,0.55337616,-0.30041007,0.563983,0.5381433,-0.2593876,0.546264,0.53110441,-0.2396117,0.537404,0.53738899,-0.22776264,0.541642,0.5799214,-0.31000304,0.567996,0.57381494,-0.26610206,0.549412,0.57447871,-0.25797023,0.538571,0.57271056,-0.25883033,0.530828,0.60207164,-0.32176781,0.572303,0.59403639,-0.28282175,0.55369,0.59272862,-0.27400366,0.544166,0.5918356,-0.26585708,0.535509,0.62889921,-0.34309453,0.579282,0.62176279,-0.30404429,0.566322,0.62124862,-0.30129048,0.560367,0.62095816,-0.29887288,0.555113
0.58157701,-0.41391542,0.593616,0.57748606,-0.37035427,0.578027,0.5578953,-0.39383742,0.584,0.54117086,-0.36315968,0.571456,0.51824374,-0.3264139,0.554124,0.51399435,-0.30508837,0.551154,0.5413701,-0.30845144,0.554959,0.56312023,-0.2803681,0.565834,0.57412925,-0.26591787,0.571272,0.58421353,-0.25254601,0.576215,0.57104101,-0.31790396,0.561768,0.56213655,-0.28019629,0.540236,0.55710738,-0.25787381,0.527675,0.55309613,-0.25794825,0.518703,0.59635381,-0.32979325,0.568632,0.58876498,-0.29512278,0.546782,0.58506392,-0.27712595,0.535604,0.58126171,-0.26072707,0.525441,0.62792185,-0.35173714,0.579117,0.62369021,-0.31317388,0.565688,0.62351769,-0.31005821,0.559518,0.62282199,-0.30344957,0.554073
0.59064137,-0.41543051,0.599215,0.58560016,-0.36579756,0.578219,0.56613616,-0.39836671,0.589889,0.54587237,-0.36455852,0.573639,0.52030368,-0.32844924,0.554219,0.51334471,-0.30620538,0.548544,0.54388468,-0.30352842,0.551649,0.55375723,-0.27288319,0.55498,0.5613741,-0.25417277,0.556646,0.56807223,-0.24078837,0.55816,0.57211611,-0.3107002,0.556322,0.55382844,-0.27601713,0.530374,0.54644963,-0.25702151,0.515237,0.53875136,-0.25937752,0.504425,0.59440445,-0.31829652,0.561864,0.57980356,-0.29007885,0.53638,0.57473069,-0.27498749,0.523341,0.5665894,-0.25602875,0.511488,0.62483252,-0.3393881,0.571595,0.61350482,-0.31537399,0.548635,0.60667974,-0.3034315,0.538086,0.60070968,-0.29283234,0.528778
0.58824197,-0.41447618,0.596455,0.57518204,-0.3631163,0.57029,0.56122636,-0.39358098,0.586043,0.55630099,-0.36362193,0.571339,0.53862011,-0.32889369,0.548809,0.5336846,-0.30541369,0.541296,0.5378637,-0.29669403,0.538679,0.54253507,-0.26177312,0.532875,0.54509591,-0.24564686,0.529973,0.54752879,-0.23161373,0.527335,0.56536396,-0.30684685,0.543001,0.54410494,-0.2741422,0.512886,0.52316259,-0.28432316,0.495319,0.5216696,-0.29934292,0.498294,0.58947488,-0.31966875,0.548672,0.56315675,-0.27503338,0.519325,0.54895056,-0.27946317,0.50431,0.53289342,-0.28863558,0.49066,0.62066045,-0.34340059,0.559335,0.59942629,-0.31739218,0.533273,0.58971452,-0.30538329,0.521298,0.58117171,-0.29475319,0.510732
0.58748841,-0.41920168,0.594047,0.57822802,-0.37190001,0.568942,0.56327654,-0.39903849,0.585241,0.55722527,-0.3731874,0.57193,0.54038736,-0.33918168,0.550135,0.53598589,-0.31581491,0.542697,0.53987598,-0.30623501,0.540082,0.54299072,-0.27108138,0.532792,0.54449826,-0.25486003,0.529147,0.54585926,-0.24067782,0.525834,0.5659046,-0.31568042,0.542759,0.54493921,-0.2738498,0.513656,0.52479706,-0.28300309,0.496678,0.52430442,-0.29916245,0.500372,0.58874281,-0.32790933,0.546991,0.56348108,-0.28245591,0.51904,0.5488534,-0.28946777,0.50474,0.53304208,-0.29868857,0.491739,0.61831941,-0.350913,0.555787,0.59912467,-0.32553215,0.530784,0.59036886,-0.31379988,0.519296,0.58267949,-0.30340639,0.509159
0.58803693,-0.42100002,0.593862,0.57881921,-0.37112125,0.567399,0.56019041,-0.39600522,0.581854,0.57145483,-0.37405768,0.572029,0.56280289,-0.33935966,0.54798,0.56622652,-0.31928091,0.536175,0.53934396,-0.30073188,0.533594,0.54038456,-0.27001658,0.521179,0.53123374,-0.27873608,0.514972,0.53539301,-0.29967884,0.525391,0.56817615,-0.31315343,0.539798,0.54860413,-0.27504401,0.509317,0.52892084,-0.28029745,0.491536,0.52070911,-0.29599641,0.49402,0.59357213,-0.32803231,0.547042,0.5794463,-0.29279007,0.516828,0.56143981,-0.29284163,0.501369,0.53932313,-0.29863768,0.487316,0.62461134,-0.3540161,0.559615,0.6028156,-0.33311404,0.532955,0.59191072,-0.32316408,0.520706,0.58231274,-0.31436596,0.509898
0.58731732,-0.42135012,0.59444,0.58069592,-0.37043076,0.566742,0.55858942,-0.39418642,0.580929,0.57863593,-0.36842474,0.568558,0.57365394,-0.33304315,0.544194,0.57791353,-0.31163677,0.534183,0.545011,-0.29759026,0.530191,0.55572883,-0.27040438,0.520762,0.54520326,-0.27734582,0.516048,0.54825086,-0.29591297,0.527386,0.57422387,-0.31303933,0.537854,0.55669517,-0.27760044,0.506358,0.53304624,-0.28305341,0.487986,0.52515464,-0.29656857,0.489475,0.59995142,-0.33039711,0.546398,0.57723705,-0.31243339,0.514842,0.56108078,-0.31647359,0.498697,0.53980132,-0.32328911,0.484019,0.63343886,-0.36006785,0.560698,0.60541915,-0.33919283,0.533045,0.59256236,-0.32958581,0.52034,0.58133089,-0.31749193,0.509129
0.57984454,-0.41788231,0.583001,0.5783473,-0.36406324,0.555436,0.5598253,-0.39482732,0.572082,0.57124886,-0.36270629,0.557665,0.54995289,-0.32325157,0.540979,0.53679216,-0.30189116,0.53501,0.54640223,-0.29454309,0.522196,0.5520235,-0.26685001,0.508388,0.53800951,-0.27354745,0.501483,0.53528253,-0.28937249,0.511474,0.57256705,-0.30857741,0.526686,0.553599,-0.27594878,0.495456,0.52825894,-0.28261711,0.477238,0.52048803,-0.29553615,0.479479,0.59550163,-0.3247223,0.532609,0.57121722,-0.3104619,0.502187,0.55398285,-0.31602864,0.486622,0.52979478,-0.31890072,0.472473,0.62520808,-0.35281321,0.54378,0.59573628,-0.33487882,0.516852,0.58208838,-0.32680998,0.504479,0.56670468,-0.31542397,0.493562
0.58057428,-0.41887972,0.580992,0.58528142,-0.36766406,0.555203,0.5619363,-0.39564202,0.570939,0.58101764,-0.36988277,0.556272,0.55145231,-0.32992722,0.536482,0.53666033,-0.30355745,0.532167,0.55283448,-0.29994349,0.524307,0.54224897,-0.2694153,0.497032,0.53583676,-0.25667113,0.483394,0.54714442,-0.25389764,0.486507,0.57858367,-0.31298885,0.528306,0.56412736,-0.28103372,0.498519,0.5396379,-0.29005634,0.481143,0.5363584,-0.30686199,0.48435,0.60097945,-0.32820791,0.533681,0.58133391,-0.31554908,0.504727,0.56530228,-0.32311726,0.489913,0.54423122,-0.32905607,0.476445,0.62977665,-0.3549425,0.543935,0.60365078,-0.33936862,0.518177,0.59167663,-0.33222289,0.506342,0.58112844,-0.32592348,0.495899
0.58404268,-0.42418432,0.578458,0.58578088,-0.37918773,0.553196,0.56932044,-0.40442847,0.568764,0.57953356,-0.38073537,0.555698,0.55168955,-0.33855509,0.536607,0.53987961,-0.31744991,0.53258,0.55148188,-0.30932951,0.523121,0.5418709,-0.278358,0.496345,0.53564737,-0.2660297,0.482958,0.54729491,-0.26388829,0.486387,0.57694632,-0.32230945,0.526849,0.56552006,-0.28941505,0.497507,0.54079503,-0.29204467,0.480392,0.5370893,-0.30873668,0.483889,0.59902775,-0.33747556,0.531958,0.57294649,-0.33030672,0.503491,0.55054578,-0.33379723,0.488926,0.5228215,-0.3362894,0.475686,0.627301,-0.36413428,0.541818,0.6034679,-0.33813296,0.516444,0.59549357,-0.33609862,0.504786,0.58633389,-0.33866552,0.4945
0.58667542,-0.42887582,0.568843,0.57878558,-0.3742417,0.542847,0.56019058,-0.40002922,0.556349,0.57415923,-0.37610588,0.53921,0.54196278,-0.33317256,0.51763,0.52658094,-0.31158749,0.51234,0.54035194,-0.30409121,0.508774,0.53234429,-0.27263773,0.481012,0.52753997,-0.26033196,0.46713,0.54034019,-0.25806632,0.469543,0.56905022,-0.31714985,0.515735,0.56004887,-0.28403213,0.485589,0.54168218,-0.28911948,0.468003,0.53878063,-0.30580558,0.470551,0.5918534,-0.33233319,0.523564,0.57281677,-0.32605984,0.493445,0.55269062,-0.33027402,0.478036,0.52410456,-0.33285579,0.464027,0.6241071,-0.36021878,0.536759,0.60271926,-0.33408987,0.510227,0.599751,-0.3325671,0.498036,0.59232129,-0.33525132,0.48728
0.58535582,-0.42798437,0.565391,0.58262534,-0.37459383,0.539287,0.56036948,-0.39977054,0.553965,0.57568908,-0.37535131,0.538026,0.55152664,-0.33280325,0.518194,0.54002848,-0.30774457,0.512717,0.55135966,-0.30362031,0.50646,0.54375382,-0.27461233,0.478878,0.53857412,-0.26334174,0.465087,0.55160567,-0.26226601,0.467793,0.57790163,-0.31846604,0.51206,0.56888079,-0.28782954,0.481897,0.54684566,-0.29245738,0.464302,0.53831319,-0.30592499,0.467088,0.60081971,-0.33517324,0.518778,0.57555679,-0.32943948,0.489026,0.55252851,-0.33278313,0.473805,0.5209555,-0.33173555,0.459967,0.62996257,-0.36366295,0.530673,0.61003523,-0.33903598,0.504354,0.60052817,-0.33774645,0.492261,0.591063,-0.3406395,0.481591
0.58566424,-0.42847289,0.564954,0.58326807,-0.37483517,0.539385,0.56089205,-0.40002099,0.553422,0.5782666,-0.37739524,0.540378,0.56417642,-0.33826684,0.520064,0.5587474,-0.31243228,0.510355,0.55134896,-0.30400102,0.506812,0.5436448,-0.27515111,0.479372,0.5382604,-0.2640414,0.465652,0.55115076,-0.26312463,0.468494,0.57816639,-0.31925388,0.512719,0.56924153,-0.28883326,0.482962,0.54680455,-0.29360769,0.465605,0.540017,-0.30781567,0.468595,0.60125184,-0.33626961,0.519645,0.5754645,-0.33064321,0.490182,0.55202036,-0.33399387,0.475108,0.52174411,-0.33336781,0.461404,0.63044001,-0.36506481,0.531707,0.60714028,-0.34978364,0.505642,0.59685087,-0.34246273,0.493666,0.58568914,-0.34745353,0.4831
0.58710702,-0.4294008,0.562034,0.59498259,-0.37395989,0.538153,0.56482139,-0.40124165,0.549602,0.57293741,-0.36260255,0.535272,0.56708444,-0.32867582,0.514487,0.56446941,-0.30376508,0.503629,0.56117774,-0.30285883,0.505667,0.55470807,-0.27630537,0.478783,0.55007248,-0.26627803,0.465341,0.56445125,-0.26581941,0.46843,0.58926821,-0.31933262,0.513246,0.58267056,-0.29170374,0.484764,0.56122018,-0.29792035,0.46815,0.55712797,-0.31428369,0.471571,0.61330758,-0.33727683,0.521412,0.59128634,-0.33188977,0.492655,0.56820959,-0.33617554,0.477942,0.53864915,-0.33825249,0.464566,0.6434142,-0.36702457,0.53469,0.62420379,-0.35360763,0.509314,0.61549704,-0.34748546,0.497655,0.60429664,-0.35303152,0.487368
0.59777927,-0.42921205,0.560952,0.60488842,-0.37346165,0.537436,0.57852188,-0.3991945,0.548589,0.58260744,-0.36176052,0.534029,0.57656452,-0.32782747,0.513159,0.57395112,-0.30305396,0.50245,0.57084935,-0.30263726,0.505297,0.56463151,-0.27618937,0.478582,0.56016674,-0.26621165,0.465225,0.57512439,-0.26582849,0.468446,0.59909009,-0.31912298,0.512909,0.59296567,-0.29167847,0.484722,0.57169088,-0.29800244,0.468279,0.56790312,-0.31447763,0.471862,0.62326043,-0.3370582,0.521074,0.60446154,-0.329404,0.492578,0.58294069,-0.33331617,0.477999,0.55346734,-0.33624958,0.464745,0.65352689,-0.36675347,0.534295,0.63473152,-0.35348408,0.509136,0.62622614,-0.347431,0.497577,0.61506772,-0.35303879,0.487378
0.63592631,-0.4284163,0.571269,0.63518347,-0.37699288,0.546626,0.61715883,-0.40194506,0.563826,0.61235246,-0.368078,0.548748,0.60615021,-0.33567434,0.536582,0.6105508,-0.32384521,0.524453,0.61039357,-0.31030873,0.519786,0.58695206,-0.29520425,0.494856,0.56971072,-0.30341522,0.48239,0.57070428,-0.32239745,0.486677,0.63313833,-0.32492764,0.520924,0.61844113,-0.29207452,0.492386,0.59034782,-0.29996037,0.475739,0.58262802,-0.31835258,0.479768,0.65238922,-0.34117843,0.523851,0.61596701,-0.34053955,0.496859,0.59315967,-0.33857668,0.483049,0.58421997,-0.35427004,0.48755,0.67602977,-0.36844842,0.531032,0.6395992,-0.36532114,0.506745,0.62284419,-0.36392525,0.495586,0.60811863,-0.36275776,0.485794
0.63289209,-0.42230719,0.564231,0.64008839,-0.37312283,0.539893,0.61425659,-0.39540836,0.556033,0.61353408,-0.36089839,0.540097,0.60171182,-0.32582247,0.523768,0.59699127,-0.31369321,0.508809,0.61859766,-0.30736932,0.512336,0.60799429,-0.28796317,0.486563,0.60302231,-0.27819707,0.473677,0.60740125,-0.27496473,0.469611,0.64140939,-0.32386477,0.51451,0.62952775,-0.29071883,0.486083,0.59982825,-0.29874091,0.469501,0.59595202,-0.31557691,0.473601,0.66042957,-0.34147689,0.518266,0.62292099,-0.34148881,0.491081,0.60371156,-0.34161897,0.477173,0.59331032,-0.35599648,0.481661,0.68321682,-0.36996563,0.526382,0.64447285,-0.36600541,0.501984,0.62505099,-0.36577101,0.490774,0.60706634,-0.36633184,0.480883
0.64225684,-0.4244955,0.572261,0.6468649,-0.37569922,0.545655,0.62837533,-0.39522014,0.563919,0.63525263,-0.38077084,0.549394,0.61584444,-0.34202517,0.530771,0.61120857,-0.31748834,0.520365,0.63027912,-0.31191412,0.516299,0.62257802,-0.29161286,0.48889,0.61905038,-0.28141573,0.475186,0.62459121,-0.27588341,0.469137,0.65023847,-0.33015837,0.517906,0.60871695,-0.32953573,0.487738,0.56684596,-0.32707766,0.470141,0.55694859,-0.33563006,0.473191,0.66660188,-0.34877732,0.521379,0.63743088,-0.34358505,0.492751,0.61579392,-0.34414449,0.478105,0.60335576,-0.3572714,0.481534,0.68570483,-0.37756486,0.529501,0.64462216,-0.36850142,0.503895,0.62460044,-0.36634163,0.49213,0.6053721,-0.36312578,0.481749
0.64094603,-0.42164586,0.57094,0.64400481,-0.37362135,0.543296,0.62637485,-0.39251836,0.562255,0.63196695,-0.37876936,0.54654,0.61011264,-0.33884647,0.525877,0.60736334,-0.31551042,0.517121,0.62581608,-0.30980778,0.512771,0.61706867,-0.28899291,0.484611,0.61294374,-0.27857228,0.470531,0.62116457,-0.2742768,0.466584,0.64579621,-0.32795865,0.514464,0.62823395,-0.30354384,0.483469,0.59594778,-0.30791157,0.465389,0.5866288,-0.32191444,0.467908,0.66230862,-0.3465472,0.51809,0.63218655,-0.3407199,0.488667,0.60999816,-0.34094226,0.473613,0.59697101,-0.35352014,0.476469,0.68184211,-0.37540303,0.526551,0.6408925,-0.36648034,0.500309,0.62130939,-0.36369242,0.488252,0.6037628,-0.36148038,0.477618
0.65067022,-0.42736863,0.578991,0.65968533,-0.38398027,0.552806,0.63570382,-0.39788139,0.569687,0.64619151,-0.38396963,0.552922,0.63358262,-0.34665552,0.537139,0.63404069,-0.32405827,0.529027,0.64484791,-0.32030623,0.522555,0.60488057,-0.31900962,0.495688,0.58489285,-0.31837207,0.482255,0.58533336,-0.32823746,0.485482,0.66528928,-0.34028209,0.525495,0.6542241,-0.31161449,0.495499,0.62343905,-0.31461288,0.478001,0.6145759,-0.32865288,0.481144,0.68194676,-0.36037324,0.53003,0.65937381,-0.34920615,0.501183,0.63763573,-0.34877362,0.486424,0.62514561,-0.3617941,0.489835,0.70114504,-0.39100038,0.539349,0.67252894,-0.37911649,0.513624,0.65941936,-0.37370942,0.501805,0.64790104,-0.36898474,0.491397
0.68292999,-0.42721287,0.587741,0.67669362,-0.38186559,0.555224,0.66395784,-0.40159702,0.577876,0.65896031,-0.38506267,0.555726,0.63744056,-0.34867119,0.538059,0.63279431,-0.32436419,0.527173,0.64468617,-0.31862262,0.519755,0.60688612,-0.32142016,0.489564,0.58063333,-0.32706451,0.474469,0.57564224,-0.33246944,0.474636,0.66954477,-0.3350137,0.52131,0.6505552,-0.3014094,0.486655,0.63905019,-0.28291158,0.46644,0.63799951,-0.27374564,0.45739,0.68797598,-0.352226,0.525217,0.6472192,-0.35199633,0.49248,0.61216051,-0.35336245,0.475731,0.59516352,-0.35675944,0.475708,0.71106806,-0.37964485,0.534743,0.67226807,-0.37317868,0.505827,0.65444247,-0.37018938,0.492542,0.63874365,-0.36755761,0.480842
0.68192693,-0.42661879,0.582118,0.68390893,-0.38193139,0.552,0.66111854,-0.39962892,0.570777,0.66970433,-0.38490949,0.552052,0.6675213,-0.36814952,0.53022,0.6743265,-0.35285187,0.521692,0.65406913,-0.31516848,0.516413,0.64083101,-0.29304441,0.486418,0.61268681,-0.29738244,0.47142,0.59986832,-0.30588126,0.472361,0.67903262,-0.33250375,0.520588,0.67941684,-0.2902508,0.498804,0.67077117,-0.28875577,0.486096,0.66482031,-0.28784045,0.47702,0.7002747,-0.35080731,0.526457,0.65870988,-0.35139488,0.494347,0.62587661,-0.35344632,0.477919,0.60969942,-0.35931349,0.478863,0.72652776,-0.38008235,0.537949,0.68837207,-0.37403522,0.509642,0.67041603,-0.37132058,0.496635,0.65459953,-0.36893197,0.485178
0.69110043,-0.42822067,0.586737,0.69145987,-0.37704224,0.551164,0.67564975,-0.40024555,0.575009,0.67072448,-0.36643553,0.553462,0.65592996,-0.33391607,0.530666,0.64834814,-0.30823997,0.515132,0.66111343,-0.30844865,0.511201,0.64609122,-0.28089523,0.477652,0.63784859,-0.26770527,0.460877,0.64857028,-0.26310363,0.458504,0.68243484,-0.32834714,0.514063,0.63132481,-0.31815341,0.47713,0.62272181,-0.33548984,0.48718,0.63458292,-0.34757261,0.503694,0.70109095,-0.34887364,0.519293,0.64750437,-0.34238809,0.484101,0.6124743,-0.34406666,0.466095,0.60160878,-0.35001456,0.463649,0.72090436,-0.37799136,0.530849,0.66506531,-0.36646582,0.500065,0.62946197,-0.35212863,0.48592,0.61540945,-0.3465064,0.483435
0.67980845,-0.3949278,0.586606,0.68598178,-0.36513327,0.552544,0.67095488,-0.36524894,0.57281,0.66950379,-0.33627102,0.549276,0.65650452,-0.32428795,0.523493,0.65423416,-0.31483291,0.506132,0.67674287,-0.30825175,0.511094,0.66031508,-0.28150866,0.47788,0.65049756,-0.26909253,0.461273,0.65551443,-0.26441809,0.456594,0.69060649,-0.3343308,0.517018,0.63391913,-0.32159248,0.480905,0.62056082,-0.33294296,0.491444,0.63729447,-0.34077269,0.507816,0.70179978,-0.35856759,0.524646,0.65501601,-0.34592053,0.489339,0.61447046,-0.33687924,0.471275,0.59283643,-0.33370644,0.469087,0.71439649,-0.39239172,0.538818,0.70365332,-0.36833547,0.508077,0.67536732,-0.36382338,0.493953,0.65838104,-0.36684697,0.491704
0.67793306,-0.39376577,0.584709,0.68472749,-0.36436845,0.551229,0.66903875,-0.36411476,0.570894,0.66745489,-0.33512761,0.547295,0.65414638,-0.32300347,0.521298,0.65195902,-0.3136114,0.504044,0.67594779,-0.30775581,0.510172,0.65996155,-0.28120895,0.477286,0.65037953,-0.26888796,0.460843,0.65526546,-0.26415258,0.456059,0.69010249,-0.33396637,0.516312,0.63299825,-0.32175766,0.480592,0.62329742,-0.33502345,0.491538,0.63774315,-0.34436376,0.507894,0.70147313,-0.35829303,0.524069,0.65512125,-0.34570794,0.489063,0.61471816,-0.33692987,0.471153,0.59348646,-0.33399705,0.469311,0.71416216,-0.3921742,0.538307,0.70377155,-0.36829476,0.507811,0.67479628,-0.36391253,0.4938,0.65775547,-0.36686109,0.491811
0.67946591,-0.39423066,0.583817,0.69662544,-0.36829087,0.554733,0.67075613,-0.3645764,0.570277,0.67717523,-0.33968202,0.549244,0.66536775,-0.32798918,0.523973,0.66389795,-0.32214617,0.507943,0.69156636,-0.31198477,0.517155,0.71103579,-0.28716809,0.503542,0.70175154,-0.28572262,0.496736,0.71626189,-0.29389639,0.50678,0.70794221,-0.3392345,0.524399,0.65714398,-0.3273128,0.491852,0.64924315,-0.34246164,0.505475,0.65898262,-0.35100577,0.521582,0.72070395,-0.36448517,0.53271,0.6811117,-0.35053431,0.500305,0.64206769,-0.34394519,0.483725,0.62311422,-0.34530518,0.484329,0.73411913,-0.39945052,0.546943,0.72108271,-0.36917753,0.518576,0.6951621,-0.36699572,0.505543,0.67931949,-0.37551188,0.505403
0.67883233,-0.39257306,0.580791,0.70168827,-0.36855513,0.556297,0.67384339,-0.36491605,0.57052,0.69076209,-0.34539208,0.555017,0.68387234,-0.33240242,0.531863,0.68576215,-0.32788439,0.517903,0.7086539,-0.31494475,0.526054,0.72471505,-0.28764127,0.510605,0.71203569,-0.28486454,0.502881,0.72374261,-0.29433878,0.512205,0.7221399,-0.34086348,0.530751,0.67886042,-0.32687595,0.501939,0.67480879,-0.34525158,0.518794,0.68818583,-0.35686001,0.535016,0.73203394,-0.36482633,0.536594,0.68720172,-0.35288131,0.508343,0.63983589,-0.33901147,0.493888,0.63397877,-0.33951044,0.497757,0.74116167,-0.39788841,0.54721,0.72366809,-0.37140307,0.522066,0.69951743,-0.36975785,0.510514,0.6877933,-0.38079168,0.512788
0.68826831,-0.39750427,0.58761,0.70540197,-0.37031174,0.559334,0.68695154,-0.37020199,0.577013,0.69297384,-0.34777996,0.559299,0.68347514,-0.3270722,0.53712,0.6843741,-0.31876288,0.522794,0.7050125,-0.31560727,0.525986,0.71947538,-0.28637347,0.511935,0.70757738,-0.28377558,0.504909,0.72462521,-0.29403877,0.514723,0.71745045,-0.34092069,0.529843,0.67333186,-0.32370764,0.498116,0.66732377,-0.34101911,0.513234,0.68083364,-0.35265032,0.529493,0.72689155,-0.36447168,0.535302,0.68048637,-0.34968558,0.504602,0.63328394,-0.33658645,0.488895,0.62525448,-0.33569869,0.490981,0.73630413,-0.39729469,0.546031,0.71868928,-0.36802565,0.518843,0.69507086,-0.36110782,0.506352,0.6828397,-0.3733076,0.507267
0.68843574,-0.39769096,0.587218,0.70493758,-0.37031676,0.559546,0.68236246,-0.36940477,0.576505,0.68964735,-0.34809617,0.56018,0.6828276,-0.32716574,0.537512,0.68438898,-0.31890476,0.523578,0.70158903,-0.31439818,0.526486,0.71824729,-0.2856203,0.513547,0.71017445,-0.27785325,0.507078,0.72890706,-0.2809666,0.51735,0.71739321,-0.34079247,0.530685,0.69510016,-0.31502958,0.499397,0.69272944,-0.33376061,0.514779,0.69822413,-0.34835271,0.530926,0.72750944,-0.36445345,0.536377,0.67891249,-0.34871463,0.505984,0.63510871,-0.33797813,0.490434,0.62731233,-0.33723163,0.492772,0.73867666,-0.39670435,0.547292,0.72018191,-0.36818021,0.52037,0.69704751,-0.36157124,0.508001,0.68553374,-0.37351263,0.509111
0.69919479,-0.40657666,0.591186,0.71050803,-0.37134648,0.563325,0.6928097,-0.37473932,0.582371,0.6954648,-0.35200738,0.566092,0.68280654,-0.3255974,0.544396,0.68341918,-0.31448588,0.530842,0.70096108,-0.3071877,0.532485,0.70977436,-0.2779468,0.514424,0.70945047,-0.26593257,0.505394,0.73273548,-0.26317289,0.513482,0.71700206,-0.3290035,0.534267,0.70199278,-0.29509052,0.503092,0.7098092,-0.31292742,0.518705,0.71448412,-0.33272089,0.534883,0.73002471,-0.35048035,0.537984,0.68104702,-0.33732321,0.50838,0.6389053,-0.33185329,0.493233,0.63125455,-0.33813156,0.495961,0.74472936,-0.38238001,0.546585,0.72021438,-0.35292795,0.520191,0.69612878,-0.35024923,0.508064,0.68677048,-0.36062517,0.509432
0.69560814,-0.4042273,0.590682,0.71003638,-0.37045393,0.56367,0.68938055,-0.37397857,0.582069,0.69364405,-0.35220348,0.567365,0.68312004,-0.32559972,0.546199,0.68496212,-0.31309893,0.533494,0.69953667,-0.30626496,0.533687,0.71132724,-0.27745846,0.518082,0.70754971,-0.26336298,0.51028,0.7357732,-0.26343181,0.519436,0.71590959,-0.32785899,0.535497,0.69666519,-0.29161797,0.504983,0.70859998,-0.30575316,0.520325,0.71397206,-0.32569037,0.536558,0.72917171,-0.34919652,0.539169,0.68066929,-0.33236376,0.510165,0.64071458,-0.33095758,0.495326,0.63361001,-0.3364676,0.498507,0.7440695,-0.38101277,0.547589,0.72109527,-0.35240832,0.521684,0.69716012,-0.34918408,0.509782,0.68751323,-0.35912469,0.511493
0.7035435,-0.40858652,0.594137,0.71177884,-0.3673503,0.566659,0.69766095,-0.37886627,0.587333,0.69333086,-0.35260909,0.572572,0.68083833,-0.32232885,0.554744,0.68065786,-0.30438309,0.5428,0.69254729,-0.29957445,0.538588,0.70168727,-0.26667814,0.525648,0.70082705,-0.25433553,0.519178,0.72187114,-0.25030557,0.529111,0.71015516,-0.3168832,0.538,0.68851475,-0.27950098,0.507477,0.69933713,-0.29415075,0.52176,0.70720108,-0.31631778,0.538041,0.72511723,-0.33518791,0.539737,0.67979514,-0.32271861,0.511407,0.64130252,-0.32298915,0.496913,0.63427786,-0.33207333,0.50014,0.74333519,-0.36447736,0.545932,0.71781093,-0.33537105,0.520487,0.69471227,-0.3331664,0.508796,0.68656513,-0.34440196,0.510515
0.71498872,-0.41334915,0.603865,0.70217765,-0.36392947,0.569602,0.70418878,-0.38543859,0.594682,0.67252975,-0.35481396,0.57394,0.65240157,-0.32665532,0.552629,0.64328227,-0.30305487,0.538744,0.66121861,-0.29347627,0.533733,0.68738454,-0.26650482,0.532892,0.70045513,-0.25335543,0.532471,0.71279561,-0.24096726,0.532089,0.68356766,-0.30661383,0.533867,0.65089112,-0.26722344,0.498185,0.66133654,-0.28156835,0.509536,0.67321587,-0.30594179,0.526007,0.70403453,-0.32216137,0.536746,0.65754855,-0.31059262,0.503474,0.619931,-0.31299986,0.486451,0.61267654,-0.31876287,0.485406,0.73187261,-0.3496434,0.545316,0.71418531,-0.30732248,0.523094,0.70431702,-0.29341624,0.512883,0.69110002,-0.2926246,0.503874
0.71484893,-0.41462831,0.605632,0.69033928,-0.36286928,0.571133,0.68981358,-0.39424789,0.595131,0.66044016,-0.35504944,0.574616,0.64192818,-0.32730172,0.55345,0.63269445,-0.30350259,0.539259,0.64415982,-0.29174692,0.533459,0.66019055,-0.26115307,0.526677,0.66590652,-0.24984942,0.523286,0.66994301,-0.24127914,0.520203,0.66910756,-0.30412603,0.535152,0.64020286,-0.26795819,0.499078,0.65123013,-0.28303496,0.510217,0.6619553,-0.30705921,0.526762,0.69195867,-0.31912278,0.539332,0.64666218,-0.31000957,0.505257,0.61117968,-0.31362914,0.487823,0.59988591,-0.31893773,0.486408,0.72309666,-0.34611901,0.549481,0.71389153,-0.30598867,0.535707,0.70957451,-0.28786249,0.529379,0.70501861,-0.27969083,0.523795
0.67662936,-0.40284621,0.583929,0.67342491,-0.36344171,0.570386,0.64824399,-0.38224336,0.580551,0.63414902,-0.34971681,0.565276,0.61313544,-0.32153428,0.540988,0.60661941,-0.29938465,0.528573,0.66831559,-0.30505475,0.556521,0.66184768,-0.26542848,0.543514,0.65961612,-0.25047361,0.537011,0.65663387,-0.24035175,0.531099,0.68548014,-0.31996748,0.556261,0.68983322,-0.27940222,0.537092,0.68911024,-0.26405333,0.52591,0.69828505,-0.27420195,0.534478,0.70196179,-0.33526135,0.557141,0.69384306,-0.28942038,0.539341,0.69043328,-0.26988392,0.530234,0.70565634,-0.27609109,0.53967,0.72004867,-0.36007249,0.560223,0.720691,-0.32320381,0.550165,0.72084747,-0.30657573,0.545544,0.72117273,-0.29776925,0.541466
0.6737453,-0.40936409,0.589596,0.67472927,-0.36626211,0.575026,0.65296582,-0.38713124,0.587652,0.63530454,-0.36230775,0.573913,0.60843886,-0.33246493,0.549042,0.59903673,-0.31170532,0.535353,0.65928466,-0.3100924,0.562207,0.6537069,-0.26868805,0.54585,0.64961507,-0.2520058,0.537672,0.6445045,-0.24059666,0.530237,0.67859769,-0.32194059,0.55983,0.6748931,-0.27610522,0.540286,0.67234245,-0.25224939,0.528886,0.68552382,-0.2553453,0.53712,0.6940592,-0.33526,0.559051,0.68733373,-0.28955653,0.541178,0.68325909,-0.27111532,0.532034,0.69597666,-0.27909377,0.541198,0.71137985,-0.35766285,0.56032,0.71076538,-0.3204586,0.550163,0.71039074,-0.30359446,0.545496,0.70921945,-0.29543002,0.541378
0.66557253,-0.40929175,0.591696,0.66526854,-0.36232818,0.578935,0.65212177,-0.38838767,0.590069,0.63167596,-0.35800571,0.57696,0.60890737,-0.32723838,0.553558,0.6020782,-0.30653446,0.540599,0.64868951,-0.30638309,0.567802,0.64337857,-0.26503405,0.552086,0.64016113,-0.24765763,0.544228,0.63718917,-0.23218549,0.537084,0.66977401,-0.31549598,0.565627,0.66996811,-0.27202028,0.547355,0.66699353,-0.25609657,0.536696,0.67809344,-0.2650438,0.545513,0.68700758,-0.3267367,0.564868,0.68406279,-0.28456067,0.557041,0.68251822,-0.26319549,0.553036,0.6814994,-0.25267581,0.549395,0.70704596,-0.34706355,0.565889,0.70593911,-0.30961402,0.552676,0.70532975,-0.29259898,0.546605,0.70398981,-0.28421238,0.541249
0.66309663,-0.40811365,0.591756,0.66394491,-0.36141459,0.580337,0.64992271,-0.38807544,0.590951,0.62033041,-0.35112839,0.579079,0.5987191,-0.32239046,0.560177,0.58927309,-0.30093183,0.54695,0.64614667,-0.30453126,0.571181,0.64611096,-0.26641477,0.565914,0.64648335,-0.24954409,0.56328,0.64689711,-0.23385632,0.560885,0.66668548,-0.31305413,0.568428,0.66669915,-0.26894222,0.551012,0.6656182,-0.25047245,0.540853,0.68552344,-0.24428782,0.550001,0.68331846,-0.32375412,0.567085,0.67912064,-0.28120244,0.558677,0.67692986,-0.25970419,0.554375,0.67933686,-0.25101271,0.550464,0.70241545,-0.34333525,0.56721,0.69443405,-0.30433471,0.553015,0.69070899,-0.28659487,0.546492,0.68758194,-0.27729214,0.540737
0.65040651,-0.40070119,0.586222,0.65212539,-0.35226986,0.578749,0.63572451,-0.38257763,0.586269,0.60932508,-0.34337233,0.576077,0.59015018,-0.31242316,0.559932,0.58290855,-0.29012158,0.54908,0.63557002,-0.29918523,0.57347,0.63732853,-0.26180865,0.57019,0.6382228,-0.24302124,0.56855,0.63904451,-0.22588335,0.567059,0.65718398,-0.30560846,0.570955,0.65456546,-0.2624085,0.557339,0.65448497,-0.24406334,0.549397,0.6714279,-0.24623759,0.559925,0.6747413,-0.314543,0.569489,0.6849586,-0.27790616,0.568274,0.69010483,-0.259415,0.567653,0.69699074,-0.24717649,0.567088,0.69508335,-0.33200518,0.568875,0.68750916,-0.2938686,0.557105,0.6840018,-0.27647059,0.551697,0.68223247,-0.26619295,0.546925
0.63545823,-0.39455223,0.583889,0.63775677,-0.35149912,0.58214,0.60986039,-0.37484939,0.583474,0.61760198,-0.34637474,0.584604,0.60265909,-0.31551864,0.582544,0.60610524,-0.30569017,0.592315,0.62516308,-0.30145438,0.580375,0.62380847,-0.26574211,0.572745,0.62286311,-0.24986195,0.56893,0.62203682,-0.23537193,0.565462,0.64925124,-0.30917356,0.580315,0.65202859,-0.27146349,0.574662,0.6533141,-0.25585346,0.571364,0.67208293,-0.25083146,0.584383,0.66864494,-0.31895192,0.580408,0.66807709,-0.27821907,0.572235,0.66777399,-0.26464259,0.568054,0.66723059,-0.25405913,0.564252,0.69058042,-0.33705536,0.58078,0.69797825,-0.30419989,0.575033,0.70123747,-0.28939567,0.572393,0.70453951,-0.27751015,0.570063
0.62925551,-0.39264017,0.580816,0.63371648,-0.35090003,0.580525,0.6061456,-0.374956,0.580491,0.5956283,-0.35410051,0.571172,0.56093252,-0.3196901,0.5532,0.55483955,-0.30289676,0.555714,0.61468131,-0.30231998,0.579914,0.61208805,-0.26455986,0.573322,0.61081876,-0.2454577,0.570025,0.60968327,-0.22795933,0.567029,0.63962087,-0.30796036,0.580221,0.65235011,-0.27193847,0.582858,0.6617364,-0.25023822,0.584395,0.66853627,-0.23446342,0.585494,0.65974015,-0.31602081,0.580498,0.66725783,-0.27729603,0.577663,0.67108029,-0.25756796,0.576213,0.67572763,-0.23978033,0.574895,0.68268866,-0.33200292,0.580869,0.6908223,-0.29925859,0.576314,0.69453396,-0.28438992,0.574221,0.69923181,-0.27619543,0.572374
0.63170168,-0.39217772,0.578885,0.63456841,-0.35111613,0.581379,0.6124858,-0.37591226,0.579837,0.58677929,-0.34698978,0.572696,0.55712814,-0.31402849,0.55686,0.5475029,-0.29137014,0.549371,0.60929818,-0.30830823,0.584341,0.60578558,-0.27044977,0.58024,0.60663537,-0.25332826,0.578189,0.60762798,-0.23764002,0.576325,0.63320674,-0.31002992,0.58398,0.6369443,-0.26958117,0.58128,0.63988417,-0.24602197,0.579705,0.64202177,-0.2290096,0.57858,0.65299714,-0.31451995,0.583481,0.65424189,-0.27453247,0.579083,0.6580363,-0.25668513,0.576833,0.66165612,-0.24001079,0.574788,0.67685451,-0.32564627,0.582514,0.68392377,-0.29319338,0.578919,0.68785791,-0.2789095,0.577267,0.69142497,-0.26608933,0.57581
0.632917,-0.39317671,0.58256,0.6352372,-0.35106768,0.582813,0.61382382,-0.37690744,0.581658,0.58332693,-0.34461534,0.571756,0.55671361,-0.31595379,0.565316,0.54921163,-0.29352356,0.555495,0.60883875,-0.30122709,0.581874,0.60586084,-0.26934602,0.582346,0.60896285,-0.25310092,0.582582,0.61193636,-0.23800168,0.582796,0.63288562,-0.30741151,0.583076,0.63044542,-0.26498647,0.576241,0.63276542,-0.24269764,0.572254,0.63631185,-0.23004305,0.569406,0.6537148,-0.31335412,0.584045,0.65012308,-0.2722196,0.577481,0.65278798,-0.25440424,0.574122,0.65612276,-0.23928797,0.571069,0.67885624,-0.32651764,0.585156,0.68042166,-0.29300219,0.57845,0.67739704,-0.27767687,0.575369,0.68065412,-0.27057236,0.57265
0.61317198,-0.38894727,0.580642,0.61389465,-0.34778888,0.583755,0.5874382,-0.37257313,0.582791,0.5724721,-0.34126674,0.577281,0.54783834,-0.30883718,0.565249,0.54075557,-0.28633698,0.556208,0.6018907,-0.30320973,0.588644,0.59925255,-0.26687797,0.585607,0.59831262,-0.24921587,0.584088,0.59746917,-0.23285241,0.582707,0.62473038,-0.30767644,0.587002,0.6261876,-0.26659426,0.583252,0.62776393,-0.24345228,0.581065,0.62926562,-0.22863791,0.579503,0.64292192,-0.31449456,0.585398,0.64549309,-0.27484173,0.581748,0.65195782,-0.25671052,0.584516,0.65786997,-0.24003078,0.587033,0.66329417,-0.32853028,0.583028,0.6688867,-0.29505018,0.57961,0.67228137,-0.28194445,0.57804,0.68033104,-0.27176196,0.576654
0.62141088,-0.38940865,0.579526,0.61508906,-0.34702845,0.582438,0.60281144,-0.37486143,0.579861,0.56915148,-0.34372976,0.572059,0.54767908,-0.31769137,0.567413,0.53938715,-0.29768501,0.564912,0.59204065,-0.3050915,0.584934,0.58809157,-0.27156449,0.580852,0.58612035,-0.25423542,0.578811,0.584859,-0.23932096,0.576956,0.61747974,-0.30591855,0.585475,0.61606857,-0.26448289,0.581284,0.61570946,-0.24044684,0.578838,0.61546171,-0.22320146,0.577092,0.63867047,-0.30976585,0.585686,0.64095831,-0.2699121,0.581737,0.64564725,-0.25086861,0.58289,0.65238475,-0.23614791,0.584118,0.66424596,-0.32034421,0.585497,0.66993963,-0.28676783,0.582613,0.67365801,-0.27290368,0.581289,0.67703802,-0.26041814,0.58012
0.62143672,-0.38988669,0.580836,0.61560769,-0.34714993,0.583178,0.59623248,-0.3752137,0.581579,0.56871687,-0.34658356,0.580692,0.54884338,-0.31888304,0.572135,0.54096829,-0.29965933,0.570983,0.59274985,-0.30416079,0.585778,0.586282,-0.26995972,0.581437,0.57947353,-0.2503114,0.579266,0.57542571,-0.23389153,0.577293,0.61738588,-0.30545812,0.585627,0.61418355,-0.26373415,0.580921,0.613909,-0.24060056,0.578177,0.61374062,-0.22383591,0.576216,0.63778054,-0.30971475,0.585313,0.63099441,-0.26945052,0.580762,0.62995017,-0.25007585,0.578434,0.62902849,-0.23212745,0.576318,0.66221441,-0.32080287,0.584589,0.66068317,-0.28737145,0.580072,0.66126301,-0.27232074,0.577996,0.66181351,-0.25885991,0.576165
0.61815881,-0.38919869,0.581111,0.61550553,-0.34683209,0.583437,0.59269939,-0.37416167,0.581593,0.56606377,-0.34596436,0.57918,0.54552026,-0.31986221,0.574591,0.5375449,-0.301117,0.574004,0.5921955,-0.30328574,0.585702,0.58152848,-0.26713249,0.581172,0.57716634,-0.25000129,0.578907,0.57316084,-0.23412058,0.576848,0.61713284,-0.30495925,0.585869,0.61070907,-0.26275243,0.581102,0.61039261,-0.24074865,0.578322,0.61072361,-0.22569431,0.576335,0.63775864,-0.30953334,0.585819,0.62983238,-0.26895761,0.581178,0.62771838,-0.24903886,0.578803,0.62695014,-0.23166059,0.576644,0.66242312,-0.32101436,0.58541,0.65862962,-0.28645639,0.580658,0.65918084,-0.27252412,0.578474,0.65972257,-0.26000156,0.576548
0.6060187,-0.38353775,0.576308,0.61029498,-0.34415261,0.58079,0.58749665,-0.3709011,0.577844,0.55328078,-0.34044918,0.572849,0.52515092,-0.31478814,0.564195,0.51279149,-0.29618364,0.561825,0.59060222,-0.30159145,0.585908,0.58022152,-0.2665323,0.5834,0.57634821,-0.24968026,0.582146,0.57488305,-0.2344906,0.581006,0.61489279,-0.3036655,0.585478,0.61092966,-0.26327925,0.582822,0.60934382,-0.24115952,0.581272,0.61247759,-0.22644883,0.580165,0.63467675,-0.30843883,0.584763,0.62642033,-0.26863689,0.582167,0.6218584,-0.2499142,0.580839,0.62032127,-0.23259105,0.579631,0.65678978,-0.31934268,0.58324,0.65755305,-0.28588727,0.580358,0.65922703,-0.27275139,0.579034,0.66077977,-0.26093178,0.577865
0.5869914,-0.39585534,0.592859,0.59426783,-0.35340833,0.59119,0.57383843,-0.38185964,0.596615,0.55635052,-0.35477798,0.592231,0.52780518,-0.32261879,0.574722,0.51660638,-0.29934062,0.565547,0.58316914,-0.30646443,0.594644,0.57418204,-0.27045665,0.589286,0.56965212,-0.25212864,0.586607,0.56937999,-0.23422113,0.584171,0.60186116,-0.30904288,0.589435,0.60442109,-0.26873592,0.587455,0.60422854,-0.24543276,0.5863,0.60392678,-0.22867748,0.585475,0.61699053,-0.3146556,0.585282,0.61974719,-0.27575182,0.583591,0.62232143,-0.25325607,0.582726,0.62487479,-0.23476926,0.581939,0.63425951,-0.3279214,0.580608,0.6356517,-0.29216762,0.573904,0.63622687,-0.27597768,0.570824,0.64428261,-0.25873904,0.568106
0.59997106,-0.38625074,0.580588,0.59048728,-0.34767369,0.584291,0.57858834,-0.37405409,0.584517,0.54794459,-0.34836329,0.581384,0.52446915,-0.32035644,0.571152,0.51372579,-0.29782897,0.562728,0.57353535,-0.30650196,0.591836,0.57140169,-0.269969,0.589283,0.56870174,-0.25282627,0.588006,0.56621853,-0.23691731,0.586845,0.59505845,-0.30467333,0.588192,0.59341174,-0.26373203,0.584928,0.59265063,-0.24152104,0.583024,0.59212856,-0.22526324,0.581664,0.6127952,-0.30630621,0.584895,0.61494284,-0.26685988,0.58245,0.6160448,-0.24665122,0.581199,0.61890321,-0.23049892,0.580062,0.63390197,-0.31417294,0.580427,0.63994596,-0.28081529,0.577778,0.64280552,-0.26552733,0.576561,0.64535602,-0.2519415,0.575487
0.59242827,-0.38575323,0.580158,0.59070762,-0.34694519,0.584014,0.57429919,-0.37455631,0.584451,0.54752501,-0.34857897,0.581816,0.52050788,-0.31949809,0.569816,0.51191364,-0.29786593,0.562578,0.57372868,-0.30628672,0.592125,0.56836651,-0.26954792,0.590043,0.56605059,-0.25320489,0.589003,0.56569583,-0.23758478,0.588056,0.59485257,-0.30463111,0.588086,0.59392402,-0.2637283,0.584854,0.59353535,-0.24094435,0.582969,0.59551176,-0.22529315,0.581622,0.61216997,-0.30638513,0.584453,0.61215745,-0.26678589,0.581617,0.60981049,-0.2486938,0.580166,0.60944607,-0.23150011,0.578847,0.63262686,-0.31435119,0.579563,0.63774241,-0.28087287,0.576947,0.64013261,-0.2654978,0.575744,0.64225696,-0.2518775,0.574684
0.57798049,-0.39427522,0.589431,0.58188669,-0.35306401,0.588242,0.56580206,-0.38045464,0.593895,0.5415285,-0.35088393,0.590524,0.51749608,-0.32021389,0.572701,0.50662956,-0.29824606,0.56396,0.5743122,-0.30644827,0.592912,0.56630137,-0.26930644,0.588798,0.56117484,-0.25191556,0.58674,0.55889633,-0.23645008,0.58487,0.59193201,-0.30903483,0.586984,0.59312284,-0.2677325,0.58337,0.59259776,-0.24137848,0.581386,0.59400462,-0.2250537,0.579969,0.60620745,-0.31498459,0.582202,0.60406699,-0.27413007,0.577351,0.60257273,-0.25338012,0.574869,0.60153118,-0.23240012,0.572613,0.62202858,-0.32849679,0.576706,0.62626977,-0.29453497,0.572455,0.62770734,-0.27884717,0.570501,0.62898432,-0.26497527,0.568778
0.57858846,-0.39130595,0.586007,0.57974773,-0.35082246,0.585871,0.56507534,-0.37841492,0.590294,0.53839644,-0.34873029,0.586865,0.51335013,-0.31857332,0.571581,0.50466031,-0.29719937,0.563213,0.57214082,-0.30512005,0.591085,0.5625483,-0.26921287,0.587596,0.55796832,-0.25125517,0.585851,0.555185,-0.23587778,0.584266,0.59130953,-0.30541535,0.585727,0.59205662,-0.26480873,0.583206,0.59238875,-0.24164116,0.581735,0.59264662,-0.22484818,0.580685,0.60492418,-0.31323397,0.581329,0.60264639,-0.27227052,0.576073,0.60164332,-0.24958893,0.573384,0.59980824,-0.23159861,0.570939,0.62133088,-0.32649632,0.576131,0.62447412,-0.29195954,0.571199,0.62553764,-0.27608567,0.568933,0.62632436,-0.2621449,0.566933
0.5799367,-0.38923118,0.583121,0.58092919,-0.34875928,0.583565,0.56450039,-0.37681675,0.586507,0.53826602,-0.35004704,0.586484,0.51219059,-0.32506682,0.572277,0.50277184,-0.29918542,0.563595,0.5611406,-0.3040403,0.588085,0.55715923,-0.26692741,0.583008,0.55260747,-0.24879763,0.580469,0.54938385,-0.23301641,0.578162,0.5823758,-0.30304265,0.584035,0.5796154,-0.26042143,0.577599,0.57793322,-0.23714966,0.573844,0.57888254,-0.22070628,0.571162,0.59994289,-0.30557092,0.580666,0.60079157,-0.26430457,0.574675,0.59932965,-0.24862558,0.571609,0.59755065,-0.23115551,0.568823,0.62098206,-0.31489087,0.576602,0.62424568,-0.28024581,0.571351,0.62583576,-0.26455476,0.568938,0.62725859,-0.25064215,0.566809
0.58575873,-0.38968581,0.584724,0.5833108,-0.34783833,0.583665,0.56671496,-0.37820306,0.588241,0.54076786,-0.35388507,0.58712,0.5130856,-0.32579479,0.57313,0.50082858,-0.30451696,0.564689,0.56027689,-0.30358297,0.587253,0.55314396,-0.26591708,0.581099,0.54838181,-0.24744995,0.578022,0.54441909,-0.23122046,0.575224,0.58081033,-0.3016731,0.582543,0.57579299,-0.25866394,0.574876,0.57284503,-0.23512567,0.570403,0.57074083,-0.21979601,0.567208,0.59796678,-0.30349244,0.578752,0.59475082,-0.26202829,0.570887,0.59402486,-0.24347938,0.566862,0.59201711,-0.22764935,0.563204,0.61888641,-0.31204342,0.574413,0.62045489,-0.27700482,0.567917,0.62123087,-0.26154482,0.564932,0.62041465,-0.25364825,0.562298
0.5825115,-0.38984679,0.584447,0.58032549,-0.34710313,0.582998,0.56614417,-0.37773652,0.587536,0.53925527,-0.35061446,0.58587,0.5129484,-0.32170132,0.571798,0.50201208,-0.3005483,0.56476,0.55896554,-0.3021369,0.585771,0.54998107,-0.26446865,0.579429,0.54607856,-0.24609077,0.576258,0.54205966,-0.22977458,0.573375,0.57984302,-0.30049605,0.581462,0.57461811,-0.25788693,0.573548,0.57155001,-0.23414634,0.568932,0.56930546,-0.21885528,0.565635,0.59733414,-0.30255239,0.578032,0.59389149,-0.26076405,0.570033,0.59209314,-0.24227077,0.56594,0.59080777,-0.225903,0.56222,0.61873002,-0.31142747,0.57418,0.61905949,-0.27620009,0.567427,0.61925149,-0.26205277,0.564324,0.61783563,-0.25330079,0.561586
0.58264234,-0.38960927,0.584317,0.58043273,-0.34653264,0.582739,0.56583258,-0.37746194,0.587125,0.53900331,-0.35012888,0.585085,0.51240498,-0.32114847,0.57102,0.50166,-0.30036707,0.564927,0.5583498,-0.30143663,0.585072,0.54899113,-0.26377397,0.578593,0.54518257,-0.24549495,0.575711,0.54138618,-0.22919316,0.573092,0.57950536,-0.29998378,0.581068,0.57417725,-0.25756371,0.57303,0.57104793,-0.23371558,0.568341,0.56873248,-0.2184398,0.564992,0.59725343,-0.30220186,0.5779,0.59366294,-0.26069335,0.569827,0.59181026,-0.24163463,0.565697,0.59041032,-0.22497959,0.561942,0.61899075,-0.31128981,0.574378,0.61876279,-0.27597723,0.567547,0.61868965,-0.26248678,0.564409,0.61730081,-0.25331644,0.56164
0.58100069,-0.38941217,0.583279,0.57902559,-0.34637643,0.581467,0.56217811,-0.37664983,0.585345,0.53128287,-0.35081517,0.578675,0.50105929,-0.32076595,0.564197,0.49771244,-0.30127362,0.564798,0.55670248,-0.30076104,0.58271,0.54680348,-0.26357412,0.576679,0.53866475,-0.24896219,0.573664,0.53269999,-0.23351925,0.570923,0.58088244,-0.3026577,0.579547,0.57278559,-0.25781833,0.571514,0.56888036,-0.23886655,0.566828,0.56638689,-0.21935267,0.563482,0.59995692,-0.31047937,0.57709,0.59355873,-0.2675815,0.569211,0.59096926,-0.24306725,0.56518,0.58914734,-0.22623491,0.561515,0.61971102,-0.32431638,0.574447,0.61460681,-0.28522118,0.567243,0.61250236,-0.27028063,0.563933,0.61511677,-0.25401542,0.561013
