sluyters/QuantumLeap/backend/src/datasets/dynamic/HandGestureDataset_SHREC2017_csv/Gesture7/finger_1/subject_26_essai_4_skeletons_world.csv
Wrist_x,Wrist_y,Wrist_z,Palm_x,Palm_y,Palm_z,thumb_base_x,thumb_base_y,thumb_base_z,thumb_first_joint_x,thumb_first_joint_y,thumb_first_joint_z,thumb_second_joint_x,thumb_second_joint_y,thumb_second_joint_z,thumb_tip_x,thumb_tip_y,thumb_tip_z,index_base_x,index_base_y,index_base_z,index_first_joint_x,index_first_joint_y,index_first_joint_z,index_second_joint_x,index_second_joint_y,index_second_joint_z,index_tip_x,index_tip_y,index_tip_z,middle_base_x,middle_base_y,middle_base_z,middle_first_joint_x,middle_first_joint_y,middle_first_joint_z,middle_second_joint_x,middle_second_joint_y,middle_second_joint_z,middle_tip_x,middle_tip_y,middle_tip_z,ring_base_x,ring_base_y,ring_base_z,ring_first_joint_x,ring_first_joint_y,ring_first_joint_z,ring_second_joint_x,ring_second_joint_y,ring_second_joint_z,ring_tip_x,ring_tip_y,ring_tip_z,pinky_base_x,pinky_base_y,pinky_base_z,pinky_first_joint_x,pinky_first_joint_y,pinky_first_joint_z,pinky_second_joint_x,pinky_second_joint_y,pinky_second_joint_z,pinky_tip_x,pinky_tip_y,pinky_tip_z,
0.250382727,-0.351871383,0.502539,0.236986398,-0.297979209,0.48494,0.225533933,-0.338301941,0.503877,0.188764983,-0.307918242,0.491086,0.153790607,-0.284762705,0.475126,0.135632595,-0.268737725,0.457496,0.217879653,-0.250430384,0.474734,0.178156382,-0.214156426,0.454959,0.157522358,-0.195368201,0.445072,0.146093331,-0.208316286,0.454481,0.233983655,-0.251688967,0.46818,0.199164612,-0.216612235,0.4423,0.173716395,-0.208032767,0.427203,0.16658674,-0.229187783,0.43544,0.24785372,-0.257542057,0.46468,0.218743715,-0.228471984,0.443956,0.1953175,-0.237300457,0.433354,0.193487611,-0.262621182,0.442338,0.265321663,-0.273262036,0.463925,0.242041461,-0.242138018,0.444213,0.224332005,-0.24076678,0.435156,0.208238184,-0.240537134,0.427165
0.248572609,-0.346646172,0.496327,0.23331401,-0.293891214,0.478742,0.23613613,-0.337190239,0.50173,0.199540376,-0.317546264,0.495261,0.163548913,-0.300497681,0.484604,0.141129308,-0.285955743,0.470955,0.204516156,-0.254402295,0.473839,0.17187792,-0.21103804,0.448095,0.151902152,-0.19007663,0.435223,0.137090971,-0.200228044,0.441196,0.216041322,-0.248664931,0.461994,0.179274636,-0.205956879,0.437423,0.151144466,-0.204305754,0.423089,0.146806538,-0.226479428,0.430018,0.227365369,-0.248599279,0.454135,0.196446136,-0.20734031,0.431567,0.176819084,-0.220571957,0.42002,0.176057414,-0.245833719,0.426781,0.244086708,-0.256975301,0.448318,0.200537499,-0.235260706,0.431069,0.18016044,-0.225962327,0.423144,0.161884507,-0.219178253,0.416151
0.250655712,-0.353861238,0.504869,0.227314618,-0.300896572,0.48163,0.234300318,-0.345081029,0.510404,0.193372169,-0.329880524,0.503584,0.155800839,-0.312333841,0.490452,0.132741588,-0.296131796,0.477892,0.203668581,-0.255714656,0.47306,0.164858123,-0.211318153,0.453788,0.146072551,-0.188703633,0.444152,0.126798047,-0.191119746,0.449517,0.212027876,-0.252095965,0.459497,0.167574741,-0.215160823,0.430432,0.140167791,-0.221074109,0.413478,0.140985443,-0.241381026,0.416656,0.221040122,-0.252749505,0.450832,0.178710545,-0.225666755,0.428336,0.155578724,-0.235767392,0.416826,0.1575896,-0.258058024,0.421079,0.234936092,-0.262734739,0.445144,0.192562167,-0.235376858,0.424885,0.172205857,-0.22576827,0.415576,0.156191183,-0.216638458,0.407363
0.240081104,-0.350170993,0.497881,0.223311458,-0.298863091,0.479777,0.229744503,-0.342844807,0.505586,0.193686494,-0.327109286,0.505056,0.163853259,-0.304273594,0.495946,0.150991083,-0.289778442,0.491608,0.205273415,-0.257841133,0.477521,0.166203319,-0.21610887,0.463716,0.143630619,-0.195832475,0.456814,0.12732045,-0.180268544,0.458137,0.212080095,-0.252165591,0.462535,0.157297589,-0.237899377,0.439094,0.126125821,-0.239207421,0.425419,0.120984153,-0.261430379,0.430895,0.219279278,-0.251701048,0.452146,0.167534799,-0.232399232,0.436061,0.15226937,-0.250057835,0.427832,0.15888005,-0.274709104,0.434799,0.226238379,-0.258072025,0.443489,0.180045661,-0.260477153,0.427621,0.158779466,-0.261594984,0.42033,0.150131977,-0.271308374,0.413897
0.236214279,-0.348966424,0.493866,0.222233184,-0.298130758,0.476977,0.226054756,-0.340868701,0.500523,0.189435023,-0.324802966,0.49624,0.159070488,-0.301678848,0.48695,0.142933195,-0.2906763,0.472559,0.207083873,-0.256499638,0.474181,0.167815962,-0.218367727,0.460006,0.146802971,-0.198189957,0.452918,0.129694308,-0.182709608,0.453832,0.216322433,-0.250569936,0.460893,0.170022191,-0.221052361,0.437941,0.149033517,-0.238869537,0.424552,0.159005819,-0.259247196,0.431412,0.222833565,-0.25339855,0.45177,0.1743736,-0.241872042,0.435595,0.155173334,-0.257582827,0.427319,0.159965362,-0.278796232,0.43551,0.234081142,-0.263016392,0.444356,0.186110922,-0.259803853,0.428385,0.164052763,-0.258329994,0.421046,0.151966614,-0.268434125,0.414571
0.240513891,-0.350980282,0.496069,0.229711185,-0.296620145,0.476998,0.230157792,-0.34193269,0.502022,0.200540211,-0.329249468,0.496268,0.170433164,-0.306050909,0.487396,0.155987744,-0.291046572,0.473251,0.216117843,-0.256969663,0.471803,0.173842256,-0.21810917,0.455495,0.152253101,-0.198290163,0.447341,0.131469608,-0.188635123,0.448152,0.223312742,-0.252766603,0.458836,0.170012219,-0.232644089,0.433566,0.1462926,-0.244404882,0.418826,0.139215266,-0.265810848,0.424677,0.230291035,-0.254281263,0.450212,0.180179912,-0.23845045,0.431938,0.163223931,-0.254818998,0.422589,0.16952448,-0.27893824,0.429764,0.240515123,-0.265273906,0.443788,0.191386197,-0.261113655,0.426066,0.169039457,-0.259165119,0.417923,0.155322712,-0.263196971,0.410878
0.243004044,-0.351124686,0.49477,0.240629917,-0.302545522,0.474337,0.239736244,-0.342362659,0.501473,0.213348975,-0.33246357,0.496883,0.181857473,-0.31100678,0.486539,0.164981094,-0.295527343,0.471793,0.226259748,-0.257846369,0.469195,0.180526215,-0.220314969,0.452861,0.157082731,-0.201985282,0.444695,0.133487131,-0.186732285,0.442201,0.230828244,-0.254082654,0.454878,0.176381192,-0.228475016,0.428844,0.153647494,-0.241527266,0.413657,0.141641447,-0.261761103,0.418161,0.235841918,-0.256039232,0.44529,0.185320062,-0.234240206,0.426765,0.171998918,-0.251615372,0.417287,0.178608881,-0.274828119,0.423246,0.244094316,-0.267695871,0.438002,0.196322087,-0.269158411,0.420098,0.174553211,-0.269770464,0.411871,0.166604121,-0.279584381,0.404612
0.259992195,-0.350111985,0.493836,0.251739969,-0.302151291,0.473679,0.253124429,-0.342494254,0.500867,0.225303022,-0.331949824,0.49688,0.194728477,-0.310774738,0.487464,0.178309441,-0.295512015,0.473192,0.23792616,-0.257644322,0.469151,0.192944584,-0.219893417,0.453349,0.169846649,-0.201420394,0.445448,0.1512657,-0.187697162,0.445809,0.242316379,-0.253908029,0.454482,0.18836937,-0.228034983,0.428877,0.16525023,-0.241043869,0.413941,0.157744029,-0.261184196,0.418429,0.247139242,-0.255859797,0.444575,0.197491264,-0.233854005,0.426527,0.183660715,-0.251234049,0.417293,0.189897506,-0.27447906,0.423265,0.255095721,-0.267452658,0.436865,0.207375165,-0.26862587,0.419364,0.185605911,-0.269114538,0.411322,0.177305747,-0.278954932,0.404227
0.274863765,-0.349943237,0.474521,0.26934643,-0.297859406,0.462787,0.269598459,-0.344007661,0.483848,0.241264316,-0.321477477,0.484929,0.21231108,-0.303083925,0.478312,0.198687201,-0.290603646,0.465341,0.259566361,-0.261551836,0.466967,0.229039609,-0.217593425,0.453592,0.204141347,-0.22319586,0.446904,0.204068826,-0.24969434,0.455928,0.263934433,-0.253582536,0.451611,0.215137396,-0.231900952,0.434824,0.193202133,-0.247765207,0.425032,0.187623783,-0.270895138,0.433459,0.268270612,-0.251548195,0.44023,0.221360435,-0.252207314,0.43001,0.195673321,-0.25316095,0.42478,0.194189599,-0.281540716,0.434669,0.274868518,-0.257534835,0.429226,0.230083515,-0.259590828,0.418272,0.209249049,-0.260594264,0.413239,0.200919844,-0.272069165,0.408799
0.28586201,-0.349891615,0.474451,0.290459546,-0.297824429,0.462717,0.29126892,-0.343897374,0.483685,0.263270134,-0.321482375,0.484606,0.234424843,-0.302749299,0.477092,0.220957256,-0.290096083,0.463631,0.279684455,-0.261432718,0.466777,0.249438047,-0.21776432,0.453614,0.224933255,-0.22359586,0.447033,0.225457667,-0.250221247,0.456189,0.284214574,-0.253531096,0.451541,0.235863826,-0.232137933,0.434702,0.214077757,-0.248120943,0.424879,0.209318219,-0.271365954,0.433361,0.288787154,-0.251557265,0.44026,0.242913806,-0.252524355,0.429957,0.217836182,-0.253650825,0.424686,0.217627246,-0.282157777,0.43462,0.295851614,-0.257623026,0.42937,0.251237977,-0.259904202,0.418346,0.230492704,-0.261011784,0.413281,0.221966309,-0.272491223,0.408812
0.381790733,-0.346130451,0.466937,0.349939756,-0.303067081,0.457101,0.377656648,-0.348326149,0.48045,0.385906673,-0.384036979,0.506679,0.367300528,-0.407966499,0.506398,0.344152714,-0.411886848,0.497509,0.326449242,-0.280976014,0.468023,0.293915568,-0.237819764,0.459176,0.268273511,-0.235245745,0.454753,0.262550925,-0.258902007,0.463023,0.322041172,-0.265713562,0.447734,0.271482879,-0.269850654,0.435548,0.258866048,-0.291400334,0.42844,0.265645033,-0.315433909,0.434603,0.321321291,-0.25698066,0.432086,0.274352576,-0.230691867,0.419391,0.261937726,-0.24984991,0.412896,0.278251629,-0.269810458,0.418519,0.325938087,-0.25373549,0.415772,0.289097483,-0.269806657,0.409601,0.271802853,-0.277419103,0.406766,0.261893129,-0.288411078,0.404264
0.392853908,-0.352313636,0.474477,0.361548141,-0.299909055,0.451717,0.380790351,-0.348377626,0.480684,0.357788788,-0.346771225,0.478,0.324924677,-0.334613011,0.475452,0.311822309,-0.327061231,0.467899,0.322695214,-0.263404168,0.444347,0.278165422,-0.275275094,0.426102,0.270217602,-0.29319401,0.41698,0.286617893,-0.306549421,0.42236,0.329142218,-0.253862095,0.43004,0.278763935,-0.25835835,0.401772,0.263158969,-0.27371964,0.385282,0.275615495,-0.287133573,0.388387,0.338091682,-0.250781027,0.420712,0.293399256,-0.262266049,0.400257,0.279042338,-0.278985854,0.389791,0.290914747,-0.295399134,0.394375,0.355398741,-0.255913712,0.414162,0.309759961,-0.267202744,0.394674,0.289249487,-0.272019415,0.38572,0.273151404,-0.277336733,0.37782
0.425454931,-0.37041001,0.480473,0.391902767,-0.319520821,0.454812,0.404339907,-0.36389059,0.480936,0.380796699,-0.360467268,0.467517,0.342051794,-0.338344768,0.456312,0.324661592,-0.3252601,0.445228,0.344160152,-0.280286709,0.437991,0.294162796,-0.264461419,0.40967,0.292214493,-0.277731191,0.39551,0.309717194,-0.29242546,0.399927,0.361032088,-0.274169556,0.430372,0.314034497,-0.243050591,0.396798,0.300360365,-0.25679564,0.377212,0.310967843,-0.270710376,0.380901,0.378442948,-0.273906502,0.426865,0.330228346,-0.245391644,0.399816,0.319505572,-0.258145237,0.385977,0.333486586,-0.280770275,0.390585,0.405270662,-0.28219215,0.427617,0.363770195,-0.259097586,0.402639,0.34635146,-0.255701971,0.391163,0.338727665,-0.264070037,0.381037
0.429549038,-0.37019361,0.479111,0.401891216,-0.318971501,0.454119,0.408695288,-0.363678192,0.479866,0.395967807,-0.346938069,0.465044,0.368529151,-0.330245395,0.463613,0.356724676,-0.315687773,0.465923,0.354898665,-0.279001686,0.438134,0.307050445,-0.265431635,0.41156,0.305575684,-0.279404903,0.398272,0.323664245,-0.294685258,0.403381,0.371542935,-0.272804057,0.430318,0.325237306,-0.243393169,0.397444,0.311595326,-0.257531612,0.378268,0.322343866,-0.271690607,0.38232,0.388720339,-0.272544395,0.426575,0.340975059,-0.224647692,0.40019,0.324089116,-0.229243477,0.38669,0.334229582,-0.253624063,0.391673,0.415220635,-0.280979508,0.426928,0.373856204,-0.258252002,0.402494,0.356899122,-0.255857133,0.391267,0.349850583,-0.264563474,0.381361
0.445306744,-0.381845416,0.494378,0.423631789,-0.33026503,0.466016,0.421336391,-0.371360969,0.491311,0.407831156,-0.34943137,0.470443,0.382146079,-0.325881732,0.458206,0.373146437,-0.308792405,0.457734,0.378194165,-0.283333161,0.442763,0.348934144,-0.239846927,0.408469,0.329308785,-0.250670357,0.391322,0.329575752,-0.268918925,0.393826,0.399173384,-0.284152983,0.439004,0.359536663,-0.270461769,0.401838,0.338045517,-0.280300661,0.380158,0.341901832,-0.284812311,0.382729,0.419467549,-0.28975851,0.438965,0.381849764,-0.235256475,0.41048,0.363332273,-0.234776955,0.395907,0.369030847,-0.259990257,0.400969,0.448589998,-0.305199775,0.444252,0.409911557,-0.270034065,0.415855,0.396207393,-0.276158638,0.402808,0.388080568,-0.28201561,0.391299
0.474215749,-0.389044323,0.497432,0.447780507,-0.330309055,0.468791,0.451956508,-0.375473925,0.49472,0.433791127,-0.357781421,0.474338,0.396055063,-0.324813211,0.455621,0.380647588,-0.303096152,0.450941,0.402663008,-0.278914982,0.445811,0.405831948,-0.230802004,0.438238,0.406144773,-0.208948042,0.434451,0.405929348,-0.189903783,0.431009,0.422492437,-0.279045122,0.441514,0.412497873,-0.230282008,0.433166,0.405315437,-0.204563854,0.428296,0.399655977,-0.187494261,0.424818,0.442012882,-0.2845534,0.441061,0.402393462,-0.234198091,0.409815,0.384069178,-0.235865285,0.393828,0.388919757,-0.259493832,0.396822,0.470710603,-0.300867977,0.44592,0.43040253,-0.298697077,0.417553,0.404470488,-0.298819351,0.40452,0.395263499,-0.307934007,0.405963
0.490874014,-0.392338288,0.504871,0.472804139,-0.3324768,0.47418,0.477963265,-0.375439953,0.501662,0.458537791,-0.359703372,0.480408,0.422129059,-0.328571078,0.459356,0.405335985,-0.305359308,0.451293,0.426527768,-0.280343237,0.449163,0.428522355,-0.232144607,0.438223,0.428170888,-0.211001122,0.432753,0.42804657,-0.191066068,0.42778,0.446323597,-0.281934313,0.444951,0.435613203,-0.232606073,0.433808,0.428164443,-0.206447257,0.427308,0.42237916,-0.188806935,0.422666,0.466014882,-0.288629683,0.444791,0.427124707,-0.238109393,0.411886,0.406358973,-0.236904116,0.395051,0.407340194,-0.259545623,0.39667,0.495170124,-0.306285856,0.450373,0.458133035,-0.303394896,0.42067,0.42871148,-0.302640749,0.407022,0.416864389,-0.309803238,0.407427
0.525840794,-0.392759908,0.508761,0.496208669,-0.334336708,0.477461,0.502775109,-0.378294213,0.505289,0.482058761,-0.359380006,0.483619,0.447581713,-0.329325793,0.462511,0.431209551,-0.306344629,0.45424,0.447558594,-0.28178548,0.451685,0.449313378,-0.233657412,0.441412,0.448706021,-0.213535234,0.436275,0.448358003,-0.194473628,0.431605,0.467641483,-0.283050733,0.447651,0.458952799,-0.235222814,0.439474,0.453883609,-0.207130487,0.434704,0.448233279,-0.196915641,0.431297,0.487849277,-0.289551229,0.447702,0.450592453,-0.239994654,0.414237,0.4298403,-0.236555443,0.397115,0.429418176,-0.258592672,0.398306,0.518112921,-0.307134821,0.453645,0.482627994,-0.302690313,0.423494,0.452352055,-0.303004037,0.409641,0.439962751,-0.310343695,0.409725
0.541699266,-0.403614236,0.52119,0.515447267,-0.340738405,0.486714,0.513641301,-0.385258407,0.512781,0.502415115,-0.364562472,0.489798,0.45991433,-0.325517549,0.464798,0.437782519,-0.298578907,0.45279,0.460885546,-0.281061901,0.452353,0.463834756,-0.236655568,0.443359,0.465657348,-0.214026017,0.438862,0.467654521,-0.193791963,0.434774,0.486548478,-0.285347083,0.45388,0.44565015,-0.276367438,0.410268,0.455547279,-0.310471266,0.423697,0.472721792,-0.327736024,0.443688,0.511530939,-0.294736219,0.458853,0.473558268,-0.247426566,0.424749,0.458889589,-0.256757813,0.4073,0.463193758,-0.276320591,0.409541,0.547666692,-0.316478123,0.471106,0.511780376,-0.30785029,0.437159,0.482029755,-0.30889335,0.421561,0.466999782,-0.316293205,0.419559
0.535185654,-0.398606004,0.514193,0.516050584,-0.341581908,0.487764,0.509695445,-0.382195938,0.507942,0.501776663,-0.364325213,0.489462,0.462904353,-0.328018766,0.468114,0.447234332,-0.305576945,0.46298,0.469793657,-0.287218631,0.461677,0.471271478,-0.239809918,0.449426,0.474197528,-0.215417571,0.4434,0.475984675,-0.193040315,0.437922,0.495252461,-0.291016646,0.462593,0.463353001,-0.285695435,0.426363,0.480068191,-0.325650986,0.446146,0.496071335,-0.343204824,0.465461,0.519040279,-0.299489558,0.466196,0.483591333,-0.252963534,0.434325,0.470559862,-0.263367674,0.418019,0.476964253,-0.284577871,0.422002,0.551873789,-0.31914931,0.475346,0.522651068,-0.314530259,0.446626,0.495424511,-0.317525353,0.433431,0.484644509,-0.328214199,0.435672
0.533781267,-0.39563848,0.510096,0.524586265,-0.340978537,0.487177,0.508676317,-0.379521334,0.504037,0.516337352,-0.366033557,0.491176,0.476746996,-0.328779298,0.46789,0.459267534,-0.305168636,0.460838,0.480641268,-0.288355179,0.463724,0.485267056,-0.240826009,0.452849,0.48818794,-0.217840564,0.447412,0.491274209,-0.19732532,0.442469,0.506951129,-0.292457455,0.46535,0.47988838,-0.28687811,0.432441,0.499223733,-0.328820345,0.454112,0.514269859,-0.346995484,0.472818,0.531105455,-0.300971665,0.469159,0.498667473,-0.255091172,0.439946,0.487527952,-0.266187354,0.425,0.496154134,-0.289111561,0.430832,0.563691407,-0.320289534,0.477888,0.527036464,-0.319206355,0.451395,0.501080331,-0.322955395,0.439223,0.492104686,-0.335266566,0.442882
0.536412924,-0.396744768,0.51097,0.525443023,-0.342249592,0.487925,0.511141199,-0.380518777,0.504745,0.518307143,-0.366528491,0.492573,0.477641977,-0.328773282,0.469615,0.45948571,-0.305384449,0.462689,0.481212188,-0.28936811,0.464171,0.485650176,-0.241673271,0.453045,0.488482715,-0.218628855,0.447481,0.491494774,-0.198075229,0.442424,0.507729937,-0.293587162,0.465978,0.480530502,-0.288747559,0.432919,0.499652298,-0.330547104,0.454509,0.514673953,-0.348371909,0.473244,0.532072638,-0.302213875,0.469949,0.499579033,-0.256203779,0.440554,0.488395159,-0.267274027,0.425514,0.496870084,-0.290145169,0.431247,0.56490555,-0.32169567,0.478891,0.525868332,-0.323162795,0.452256,0.500023489,-0.32663969,0.440018,0.492522537,-0.336904136,0.443604
0.537917192,-0.397356564,0.511566,0.525603279,-0.342535179,0.48823,0.512627944,-0.381037895,0.505269,0.51853213,-0.366480422,0.492774,0.478659188,-0.328831132,0.47008,0.460985732,-0.305530117,0.463445,0.48139743,-0.289355149,0.464182,0.486285509,-0.241748584,0.453122,0.48937307,-0.218822264,0.447592,0.492559363,-0.19806358,0.442565,0.507903598,-0.293738219,0.466004,0.480323325,-0.289096715,0.432655,0.499197368,-0.330725805,0.454095,0.51426454,-0.348464529,0.472888,0.532237438,-0.302517453,0.47002,0.500145424,-0.257617887,0.440369,0.48908597,-0.270427669,0.425199,0.496576555,-0.291425774,0.430773,0.565057795,-0.32220626,0.479067,0.525937617,-0.323457363,0.452221,0.499857526,-0.326829749,0.439887,0.491990666,-0.33735812,0.443352
0.539603432,-0.398171829,0.513089,0.524456784,-0.342991347,0.489268,0.51400531,-0.381572581,0.506386,0.517569447,-0.366714187,0.492808,0.478849398,-0.32968414,0.469565,0.46177248,-0.30632605,0.462644,0.481440981,-0.289648488,0.464365,0.486549322,-0.242103161,0.453091,0.489828273,-0.219503954,0.447454,0.493210893,-0.199070352,0.44233,0.508315177,-0.294417343,0.466583,0.480524572,-0.288673473,0.432704,0.499074984,-0.330125872,0.453849,0.514138868,-0.348177698,0.47274,0.53297342,-0.303514755,0.470976,0.50124818,-0.259703917,0.440752,0.489046133,-0.271296795,0.425289,0.495961451,-0.292097313,0.430526,0.566184813,-0.323573703,0.480553,0.527071483,-0.32483673,0.453252,0.500262126,-0.327860386,0.440709,0.491053736,-0.339435808,0.443922
0.542594395,-0.400175738,0.516027,0.525065854,-0.344178099,0.491094,0.516338529,-0.383059004,0.508678,0.513898531,-0.367498007,0.491987,0.477569049,-0.333920727,0.467898,0.460339631,-0.307564285,0.460802,0.481212856,-0.289875345,0.464594,0.486736416,-0.242541988,0.453518,0.490244456,-0.220096364,0.447981,0.493860073,-0.199927048,0.442947,0.508650814,-0.295071397,0.467349,0.475781395,-0.295609595,0.432314,0.490833707,-0.335793015,0.452779,0.504726516,-0.356922195,0.471875,0.533920886,-0.304588943,0.472304,0.500803048,-0.268102666,0.440925,0.486686309,-0.281151026,0.424871,0.493535542,-0.295805749,0.42938,0.568082107,-0.325272343,0.482743,0.528061334,-0.326111047,0.454516,0.500448206,-0.328714207,0.441547,0.490487751,-0.33930235,0.444214
0.542530429,-0.400786962,0.516794,0.523016706,-0.344520357,0.491391,0.515799218,-0.383291795,0.508847,0.507588365,-0.368981562,0.490222,0.470994363,-0.334031123,0.465218,0.455611359,-0.31091402,0.457709,0.474178547,-0.289614381,0.463792,0.485211727,-0.242907051,0.453121,0.489517968,-0.220457167,0.447785,0.493594931,-0.200530451,0.442934,0.502140953,-0.295153788,0.467198,0.478292705,-0.289561847,0.431633,0.49492409,-0.330090473,0.451717,0.503165921,-0.350978372,0.470885,0.527872111,-0.304976921,0.47274,0.499973823,-0.268492882,0.440713,0.486182648,-0.28123365,0.424327,0.490787988,-0.297488387,0.428423,0.562602253,-0.326371459,0.483948,0.528148797,-0.326959964,0.455222,0.499809478,-0.329784101,0.442023,0.489789963,-0.339429461,0.444387
0.542471014,-0.401270014,0.5174,0.522853244,-0.344993661,0.49181,0.515555273,-0.383617198,0.509167,0.506444235,-0.368877404,0.48956,0.469568653,-0.333608864,0.464507,0.454286791,-0.310648091,0.457307,0.474113693,-0.289975784,0.463711,0.484694452,-0.243224265,0.453154,0.489251637,-0.22082857,0.447876,0.493575091,-0.201030784,0.443077,0.502305237,-0.295698519,0.467438,0.478193413,-0.289689838,0.431657,0.494483716,-0.330136071,0.451566,0.503454511,-0.351345519,0.470758,0.528205645,-0.30567249,0.473265,0.500055981,-0.268814909,0.440958,0.486338159,-0.281447833,0.424428,0.490349265,-0.298068688,0.428339,0.562960141,-0.327223248,0.484839,0.528412558,-0.32769119,0.4559,0.499908323,-0.330411859,0.442603,0.489646865,-0.339765003,0.444831
0.542885728,-0.401669275,0.517665,0.522830194,-0.345414427,0.492218,0.516262752,-0.38417921,0.509492,0.505851649,-0.368810075,0.489209,0.468808563,-0.333363482,0.464104,0.453598734,-0.310496781,0.457079,0.474722795,-0.290615983,0.464295,0.484259037,-0.243417811,0.453116,0.488596218,-0.220901256,0.447527,0.492737899,-0.20107085,0.442446,0.502829545,-0.296305923,0.467984,0.47886212,-0.290236258,0.432346,0.49513224,-0.330824338,0.452347,0.504549066,-0.352220205,0.471516,0.528593255,-0.306231691,0.473763,0.500674711,-0.26928662,0.44159,0.487162441,-0.281987018,0.42513,0.491053834,-0.299005186,0.429134,0.563037547,-0.327654143,0.485255,0.528628132,-0.328250857,0.456424,0.500159107,-0.33097953,0.443177,0.489882412,-0.34025424,0.445475
0.54323717,-0.40221148,0.518433,0.523176632,-0.34599948,0.492739,0.516578549,-0.384685547,0.5101,0.505657039,-0.368886987,0.489154,0.468633319,-0.333415794,0.46414,0.453611567,-0.310697258,0.457371,0.475159574,-0.291291148,0.464441,0.484069784,-0.243632032,0.453216,0.488466971,-0.221129686,0.447604,0.492695775,-0.201350251,0.442502,0.503277103,-0.297051109,0.46827,0.478826259,-0.290324424,0.43238,0.494817104,-0.330812454,0.452206,0.505039212,-0.353057838,0.471412,0.529004747,-0.307022503,0.474192,0.500808688,-0.269442163,0.44176,0.487216771,-0.282055773,0.425167,0.490756782,-0.299162811,0.428994,0.563509991,-0.328186279,0.485895,0.528827425,-0.328705954,0.456859,0.500246018,-0.331338538,0.443518,0.489744919,-0.340411781,0.445684
0.543849068,-0.403086106,0.519623,0.520127722,-0.347083903,0.493215,0.516564276,-0.38505107,0.510582,0.503892963,-0.368732155,0.488671,0.46758054,-0.333522995,0.464396,0.454971259,-0.310360059,0.458595,0.47331512,-0.291516319,0.463507,0.473954288,-0.245952448,0.448286,0.476063399,-0.223034817,0.440675,0.483213692,-0.200683142,0.435397,0.501977584,-0.29770473,0.468064,0.476227356,-0.290275782,0.431418,0.490597907,-0.331213024,0.450637,0.503433017,-0.353765362,0.469925,0.528178728,-0.308057809,0.474663,0.49958779,-0.269301531,0.441367,0.485484364,-0.281606978,0.424331,0.487889847,-0.299365511,0.427548,0.563269308,-0.329714905,0.487286,0.529423549,-0.329288026,0.457582,0.500430454,-0.331672416,0.443934,0.489388735,-0.340210741,0.445648
