sluyters/QuantumLeap/backend/src/datasets/dynamic/HandGestureDataset_SHREC2017_csv/Gesture7/finger_1/subject_2_essai_1_skeletons_world.csv
Wrist_x,Wrist_y,Wrist_z,Palm_x,Palm_y,Palm_z,thumb_base_x,thumb_base_y,thumb_base_z,thumb_first_joint_x,thumb_first_joint_y,thumb_first_joint_z,thumb_second_joint_x,thumb_second_joint_y,thumb_second_joint_z,thumb_tip_x,thumb_tip_y,thumb_tip_z,index_base_x,index_base_y,index_base_z,index_first_joint_x,index_first_joint_y,index_first_joint_z,index_second_joint_x,index_second_joint_y,index_second_joint_z,index_tip_x,index_tip_y,index_tip_z,middle_base_x,middle_base_y,middle_base_z,middle_first_joint_x,middle_first_joint_y,middle_first_joint_z,middle_second_joint_x,middle_second_joint_y,middle_second_joint_z,middle_tip_x,middle_tip_y,middle_tip_z,ring_base_x,ring_base_y,ring_base_z,ring_first_joint_x,ring_first_joint_y,ring_first_joint_z,ring_second_joint_x,ring_second_joint_y,ring_second_joint_z,ring_tip_x,ring_tip_y,ring_tip_z,pinky_base_x,pinky_base_y,pinky_base_z,pinky_first_joint_x,pinky_first_joint_y,pinky_first_joint_z,pinky_second_joint_x,pinky_second_joint_y,pinky_second_joint_z,pinky_tip_x,pinky_tip_y,pinky_tip_z,
0.37058806,-0.31858196,0.416813,0.36041991,-0.27689283,0.417034,0.35244135,-0.31487663,0.417625,0.34406625,-0.31453605,0.427318,0.30962547,-0.29137733,0.406843,0.29854662,-0.28244985,0.405209,0.33408803,-0.25951411,0.418241,0.32846808,-0.22780895,0.427477,0.32501631,-0.21107702,0.432095,0.32175657,-0.19553254,0.436293,0.35473878,-0.25405741,0.417243,0.34048887,-0.20776077,0.408999,0.3324376,-0.18128624,0.40419,0.33655751,-0.16724696,0.412861,0.37278243,-0.25316291,0.416398,0.36158839,-0.20545753,0.408939,0.35999555,-0.18251925,0.405123,0.35659109,-0.16182436,0.401654,0.39423432,-0.25497826,0.415376,0.39512059,-0.22009326,0.40979,0.39553439,-0.2048809,0.407223,0.39304825,-0.18929075,0.404959
0.37400519,-0.32099994,0.419923,0.36104739,-0.27695798,0.417113,0.35499241,-0.31665106,0.419892,0.3511437,-0.31095146,0.433222,0.32218406,-0.28909535,0.418107,0.3137337,-0.28483837,0.418023,0.33090093,-0.25146099,0.415163,0.32651039,-0.21873678,0.421606,0.32361195,-0.20157078,0.424827,0.32561526,-0.19562968,0.427755,0.35180535,-0.24674988,0.414436,0.34841639,-0.20368872,0.41258,0.34541376,-0.17868097,0.411497,0.34323107,-0.16037736,0.410723,0.37031247,-0.24730637,0.41414,0.36124285,-0.20124026,0.403759,0.35692344,-0.17918415,0.398448,0.35354008,-0.15987753,0.39362,0.39370316,-0.25418302,0.414324,0.39134637,-0.21708688,0.405434,0.39069777,-0.20437246,0.401349,0.39161048,-0.1980838,0.397745
0.37625614,-0.32260322,0.422651,0.3633219,-0.27673035,0.419505,0.35772475,-0.31845184,0.423259,0.35252061,-0.30420291,0.439018,0.32919642,-0.28480004,0.428167,0.32427924,-0.27753275,0.429371,0.33998315,-0.24454425,0.41816,0.32580603,-0.20454077,0.414165,0.31951387,-0.18523927,0.412168,0.31484644,-0.16920362,0.410352,0.36038175,-0.24217767,0.416509,0.35805793,-0.19998546,0.417077,0.35667244,-0.1749124,0.417409,0.35632906,-0.15714223,0.417646,0.3760643,-0.24592921,0.415488,0.36650496,-0.19861034,0.404793,0.36356717,-0.17822458,0.399321,0.36123339,-0.15961405,0.394347,0.39813033,-0.25349029,0.414895,0.39248904,-0.21835394,0.405211,0.39228155,-0.20640348,0.400761,0.39027953,-0.1924111,0.396835
0.3754225,-0.32187803,0.422695,0.36311027,-0.27536659,0.418795,0.35859877,-0.31747404,0.425834,0.35543719,-0.30337854,0.442643,0.34076685,-0.28501776,0.437404,0.33868526,-0.27377087,0.439283,0.3434633,-0.24358834,0.420237,0.3322717,-0.19881624,0.41313,0.32426888,-0.18281724,0.409577,0.31432255,-0.17048961,0.406346,0.36092631,-0.24056148,0.415082,0.34995827,-0.19291706,0.401865,0.34250434,-0.16537687,0.394155,0.33645906,-0.14779769,0.388647,0.37564186,-0.24195966,0.411257,0.36740279,-0.19543689,0.39967,0.36346717,-0.17478207,0.393742,0.35752845,-0.15680151,0.388353,0.3913749,-0.25200783,0.407551,0.38899926,-0.21784808,0.397848,0.38680482,-0.20317501,0.393391,0.38441834,-0.19128425,0.389457
0.37571492,-0.32244242,0.424357,0.36319445,-0.27455822,0.418761,0.35880875,-0.31720982,0.427509,0.35439837,-0.30265068,0.442791,0.33856132,-0.28527286,0.436807,0.33569632,-0.2734426,0.437729,0.3424063,-0.24240788,0.419067,0.3382089,-0.20126411,0.418389,0.3387906,-0.18087451,0.41805,0.33739886,-0.16253041,0.417742,0.3594897,-0.2396406,0.413432,0.34851426,-0.19155603,0.398184,0.34477128,-0.16472326,0.38929,0.34062761,-0.1462285,0.382937,0.37265382,-0.24205787,0.409394,0.36710339,-0.19598814,0.396006,0.36276433,-0.17376235,0.389157,0.3570072,-0.15328906,0.38293,0.38936201,-0.25072483,0.405759,0.38669681,-0.21971483,0.394767,0.38445577,-0.20820037,0.389717,0.38095359,-0.19190992,0.385261
0.36895281,-0.32020911,0.438327,0.3672659,-0.26760168,0.428173,0.35656083,-0.30526459,0.447263,0.35320842,-0.29193377,0.457569,0.33937684,-0.27147249,0.451746,0.33540973,-0.25794881,0.449819,0.36281558,-0.23583047,0.432918,0.35219047,-0.18813399,0.414992,0.33954779,-0.17045158,0.40603,0.32793945,-0.15406698,0.397882,0.36889622,-0.23566252,0.418503,0.35653577,-0.18835925,0.398235,0.34552088,-0.16216377,0.386413,0.33979242,-0.14265477,0.377968,0.37330017,-0.24038414,0.407726,0.36353726,-0.19384701,0.389404,0.35820195,-0.16994303,0.38003,0.35341471,-0.14785629,0.371508,0.3778903,-0.25114651,0.397126,0.3746869,-0.21365606,0.382661,0.3706926,-0.19836783,0.376015,0.36721269,-0.1846581,0.370151
0.36275668,-0.31439136,0.442701,0.36946307,-0.26814622,0.430161,0.35980995,-0.30513346,0.451795,0.35587137,-0.2866298,0.460139,0.34314067,-0.2657216,0.454306,0.33778154,-0.25512156,0.45131,0.36895845,-0.23374673,0.433492,0.35402843,-0.18699999,0.4152,0.34348122,-0.16574187,0.406054,0.33231879,-0.14734009,0.397739,0.37056279,-0.23573106,0.418219,0.35574695,-0.18812658,0.396203,0.34674824,-0.16040316,0.38336,0.33778879,-0.1413032,0.374187,0.37313748,-0.24037637,0.406994,0.36311974,-0.19356999,0.387695,0.35741717,-0.16954526,0.377821,0.35229233,-0.14738157,0.368844,0.37666721,-0.25290246,0.396321,0.37255397,-0.2152148,0.380005,0.3677052,-0.20121338,0.372509,0.36335392,-0.18626505,0.365895
0.36443951,-0.31592798,0.445264,0.37216527,-0.27284465,0.431053,0.36226893,-0.30637266,0.454538,0.3580502,-0.28811525,0.461603,0.34617339,-0.2674419,0.456445,0.34157572,-0.25277563,0.452833,0.36994557,-0.2349603,0.433484,0.35484837,-0.18716651,0.414602,0.34372082,-0.16666599,0.405161,0.3304179,-0.14999504,0.396578,0.37093691,-0.23640272,0.417519,0.35391441,-0.18820677,0.393575,0.34408395,-0.16141572,0.379608,0.33629702,-0.1402415,0.369631,0.37270388,-0.24120656,0.405905,0.36350221,-0.19436815,0.3843,0.35606896,-0.17051548,0.373246,0.34853234,-0.14906736,0.363197,0.37471938,-0.2562811,0.395094,0.37046593,-0.21829483,0.377027,0.36345004,-0.20362858,0.368725,0.3572871,-0.19045234,0.3614
0.36438439,-0.31438131,0.446546,0.37115812,-0.26802439,0.431023,0.36331024,-0.30448255,0.45597,0.36099559,-0.27864141,0.462646,0.3500371,-0.25785341,0.457748,0.34770348,-0.24340913,0.453959,0.37713634,-0.22950011,0.432757,0.36645695,-0.18130114,0.413695,0.35293645,-0.16178556,0.404164,0.3405839,-0.14386031,0.395499,0.37357262,-0.23409431,0.416238,0.36017814,-0.18604238,0.39201,0.35072269,-0.15827916,0.377877,0.33762791,-0.13817434,0.367783,0.37168945,-0.2397989,0.404308,0.36436927,-0.19342417,0.383412,0.36209562,-0.16837773,0.372721,0.35151978,-0.14547138,0.363001,0.37273511,-0.2550885,0.393379,0.37020904,-0.21768033,0.375037,0.36261878,-0.20343266,0.36661,0.3559387,-0.19063369,0.359174
0.36433635,-0.31222301,0.445871,0.37308791,-0.26186731,0.427557,0.36214701,-0.29845354,0.453137,0.35974803,-0.2751519,0.458522,0.34734662,-0.25119037,0.450081,0.34237166,-0.23734879,0.445298,0.37294969,-0.22459474,0.424585,0.36272736,-0.17512186,0.401891,0.34884749,-0.15614107,0.390545,0.3361808,-0.13870274,0.380229,0.37802298,-0.22986278,0.410115,0.36010318,-0.18313699,0.381455,0.34966737,-0.15581872,0.364737,0.34222168,-0.13627294,0.352795,0.37906285,-0.23847661,0.400172,0.37022416,-0.19105593,0.375201,0.36390483,-0.16751502,0.362425,0.35825019,-0.14587148,0.350811,0.37936851,-0.25533002,0.392074,0.37897735,-0.21897095,0.369866,0.37031483,-0.2063194,0.359662,0.3627135,-0.1949992,0.350658
0.36923502,-0.30940935,0.452547,0.38025835,-0.26114552,0.430796,0.36936319,-0.29235783,0.45872,0.37697187,-0.26912734,0.470922,0.37116171,-0.24942144,0.466279,0.37049728,-0.23645323,0.465499,0.38492271,-0.22043004,0.424069,0.36935753,-0.17369054,0.398422,0.35213532,-0.15622209,0.385598,0.3334976,-0.13829835,0.37394,0.38042753,-0.22954839,0.410081,0.36248699,-0.18430338,0.378001,0.35061762,-0.15805427,0.359287,0.3421448,-0.13929041,0.34592,0.38012902,-0.23945468,0.400907,0.3700689,-0.19241051,0.373371,0.36292401,-0.17267659,0.359283,0.35147077,-0.15393218,0.346476,0.37585282,-0.25654227,0.394346,0.37458606,-0.22364171,0.370535,0.37058823,-0.2071137,0.359594,0.36315326,-0.19480545,0.349941
0.37486326,-0.30146749,0.454945,0.3954921,-0.2582912,0.434256,0.38123504,-0.28297602,0.4624,0.38228885,-0.25860568,0.463012,0.37098078,-0.23470966,0.453988,0.36663035,-0.21838304,0.446709,0.40787983,-0.22359088,0.429918,0.37418121,-0.18674875,0.401892,0.35745547,-0.16826124,0.388064,0.34226712,-0.15136771,0.37555,0.40065222,-0.23158071,0.414552,0.37732959,-0.18947475,0.384211,0.36339609,-0.16472361,0.366595,0.35165729,-0.14474279,0.354039,0.39365094,-0.24136363,0.404128,0.38476511,-0.19974972,0.37786,0.37509273,-0.17842008,0.364421,0.36181011,-0.15755309,0.352204,0.38169703,-0.2587222,0.395917,0.38931467,-0.22931034,0.373657,0.37712299,-0.21271241,0.36343,0.36708839,-0.19945251,0.354406
0.3800784,-0.30150118,0.458943,0.40291601,-0.26215757,0.438932,0.39421925,-0.28277233,0.467587,0.39908794,-0.26085884,0.469535,0.38862488,-0.23829038,0.462372,0.38296264,-0.22282045,0.455939,0.42496648,-0.23233924,0.436603,0.3950024,-0.19145281,0.412112,0.38026429,-0.1710033,0.400153,0.36690511,-0.15233424,0.389347,0.41379,-0.2396698,0.419874,0.39071202,-0.19696568,0.389932,0.37751298,-0.17186203,0.372656,0.36816565,-0.15378523,0.360355,0.40320176,-0.24844381,0.408255,0.39066132,-0.20926399,0.378841,0.38168192,-0.18849921,0.363792,0.37367338,-0.16933259,0.350113,0.38742261,-0.26194574,0.39853,0.39576456,-0.23753852,0.373768,0.38965024,-0.22277075,0.36239,0.37897859,-0.20941276,0.352352
0.38477677,-0.29693329,0.461148,0.40430379,-0.26216293,0.438761,0.39792887,-0.28215467,0.468982,0.39804274,-0.25850044,0.468623,0.38817598,-0.23537754,0.460615,0.38255735,-0.21919364,0.452957,0.42403731,-0.23074927,0.433764,0.39250453,-0.1889911,0.406162,0.37693967,-0.16818534,0.392574,0.36283659,-0.14926568,0.380275,0.41195538,-0.23873099,0.417441,0.3880352,-0.19589817,0.385173,0.37402041,-0.17077476,0.366458,0.36407271,-0.1527427,0.353121,0.40091305,-0.24806916,0.406411,0.38710541,-0.20867623,0.375084,0.37847426,-0.18797495,0.359056,0.37079244,-0.16893318,0.344496,0.38453634,-0.26219361,0.397817,0.38928055,-0.24063609,0.37067,0.38391615,-0.22672582,0.358197,0.3745977,-0.21000514,0.347191
0.41435356,-0.30319607,0.459386,0.42030165,-0.26561634,0.431638,0.42302574,-0.28888972,0.465339,0.41099777,-0.26462549,0.459974,0.39811683,-0.24196067,0.451921,0.39126841,-0.22428944,0.441891,0.42708196,-0.22732081,0.42055,0.39374332,-0.18477741,0.395421,0.37428736,-0.16400901,0.382857,0.36082467,-0.1454632,0.371831,0.41604343,-0.23599627,0.40521,0.38550032,-0.19235545,0.369489,0.36777746,-0.1669725,0.348748,0.35125824,-0.14762563,0.333933,0.40701785,-0.24662265,0.395569,0.388489,-0.20577667,0.362803,0.37755615,-0.18453565,0.346039,0.36220199,-0.1647462,0.330799,0.39667543,-0.26528829,0.389593,0.39461249,-0.23613335,0.361954,0.37769784,-0.22117618,0.349255,0.36764474,-0.20816295,0.338118
0.41279171,-0.30408259,0.458867,0.41983095,-0.26633303,0.430592,0.41981107,-0.28880643,0.463777,0.41122117,-0.2641932,0.459319,0.40379753,-0.24083666,0.451435,0.39414199,-0.22381831,0.441843,0.42458843,-0.22688221,0.417788,0.39425873,-0.18350708,0.384387,0.37890967,-0.16149857,0.367686,0.36493774,-0.14163239,0.352503,0.4159498,-0.23657754,0.403663,0.3896526,-0.19147023,0.366309,0.37333305,-0.16452655,0.34452,0.36161903,-0.14540949,0.328956,0.40885008,-0.24808226,0.395078,0.40975562,-0.21027065,0.359476,0.38020244,-0.19321843,0.34126,0.35346302,-0.17780867,0.324701,0.40377429,-0.26989488,0.390429,0.39523507,-0.23629342,0.360797,0.38973441,-0.22200931,0.347183,0.3832703,-0.2085546,0.33517
0.41575105,-0.30496701,0.457235,0.43045817,-0.27021099,0.42911,0.42144484,-0.28912821,0.461344,0.42008657,-0.2659804,0.454078,0.40836552,-0.24222417,0.444827,0.40138922,-0.2242162,0.433792,0.43138576,-0.22924724,0.415365,0.40369906,-0.18504012,0.3835,0.38982284,-0.16310125,0.367568,0.3771853,-0.1432668,0.353084,0.42564141,-0.2397698,0.402325,0.39795252,-0.19674559,0.364249,0.38174437,-0.17174128,0.342039,0.37013472,-0.15393174,0.326174,0.42102965,-0.252053,0.394617,0.41308726,-0.21004956,0.36171,0.39791028,-0.18779192,0.344874,0.38343571,-0.16882171,0.329568,0.41592455,-0.27291717,0.390958,0.40876458,-0.23940159,0.362524,0.40172594,-0.2240867,0.349459,0.39558175,-0.21051741,0.337932
0.42980379,-0.30953761,0.457425,0.44151383,-0.27386919,0.428991,0.4360017,-0.29398345,0.462036,0.43471937,-0.26813805,0.454773,0.4249767,-0.24496179,0.446441,0.41870497,-0.22730859,0.435518,0.44626991,-0.23469802,0.415692,0.42033113,-0.18990248,0.384404,0.40731296,-0.16767778,0.36876,0.39544546,-0.14758896,0.354538,0.43699185,-0.24487857,0.401912,0.40937606,-0.20116288,0.363714,0.39318183,-0.17578731,0.341432,0.38156734,-0.15773059,0.325516,0.42941559,-0.25666202,0.393629,0.42373099,-0.21465323,0.361008,0.40804635,-0.1931688,0.344318,0.39382586,-0.1735272,0.329146,0.42074941,-0.27655186,0.38936,0.41424656,-0.2441811,0.361155,0.4074204,-0.22888043,0.348197,0.40146564,-0.21532183,0.336762
0.43792698,-0.30927549,0.463258,0.45373132,-0.27095935,0.432708,0.44902347,-0.29106405,0.466074,0.43854696,-0.25655097,0.455871,0.42497495,-0.23147505,0.444462,0.41425082,-0.21308453,0.431876,0.46067501,-0.23353359,0.415633,0.42599091,-0.19131656,0.382526,0.40642622,-0.16837658,0.365972,0.39212769,-0.14873155,0.350923,0.45048977,-0.24583254,0.403613,0.41661062,-0.20241159,0.364621,0.3952362,-0.17662814,0.341876,0.38213191,-0.15856544,0.32563,0.44198342,-0.25882916,0.397007,0.43262843,-0.21838335,0.361761,0.41947761,-0.19717195,0.343728,0.40759188,-0.17780477,0.327335,0.43185555,-0.27927725,0.395082,0.42452756,-0.24771938,0.365359,0.41894268,-0.23280214,0.351703,0.41300983,-0.21947466,0.339653
0.4386148,-0.30855317,0.461035,0.4539644,-0.27273276,0.431489,0.4493186,-0.29148652,0.464352,0.44174079,-0.26710779,0.45533,0.42955548,-0.2419206,0.44423,0.41772026,-0.2246986,0.4322,0.45969378,-0.23443183,0.415749,0.42655404,-0.19237482,0.38232,0.40996232,-0.17148284,0.365606,0.39486321,-0.15258209,0.350411,0.45070062,-0.24613588,0.40335,0.42331674,-0.2040909,0.363953,0.40693745,-0.1794212,0.340971,0.39517621,-0.16186984,0.324555,0.4431854,-0.25885383,0.396325,0.43312267,-0.2187274,0.361797,0.42020686,-0.1979054,0.344131,0.40855672,-0.17886563,0.328072,0.43813969,-0.2803427,0.393723,0.42538487,-0.24787399,0.365077,0.42002438,-0.23314447,0.351916,0.41449905,-0.2200129,0.340303
0.4448802,-0.30759836,0.459838,0.4657122,-0.27495911,0.431005,0.45760961,-0.29381119,0.463291,0.45211718,-0.26689367,0.454965,0.43968941,-0.2417006,0.443826,0.43019386,-0.22376847,0.432104,0.46927063,-0.23536051,0.415925,0.43779859,-0.19354648,0.382345,0.42203051,-0.17275346,0.365555,0.40767373,-0.15392786,0.350291,0.46187927,-0.24671761,0.403545,0.43465614,-0.20453951,0.364753,0.41868955,-0.18002792,0.342124,0.40723798,-0.16257108,0.325961,0.45575433,-0.25941029,0.396458,0.44444529,-0.21922629,0.362087,0.43148789,-0.19862353,0.344502,0.41981439,-0.17977217,0.328516,0.4485648,-0.28029144,0.393651,0.43967513,-0.24871062,0.364418,0.43520216,-0.23409501,0.350987,0.4306892,-0.22110268,0.339136
0.45217219,-0.30697232,0.4553,0.4758736,-0.27462035,0.430474,0.46548469,-0.29195684,0.460367,0.46398915,-0.26755186,0.456087,0.45082563,-0.24202899,0.444429,0.44302649,-0.22502635,0.434533,0.48470735,-0.23778867,0.420216,0.45732473,-0.19747618,0.390108,0.44387788,-0.17733039,0.37524,0.43174584,-0.15897822,0.361784,0.47618025,-0.24872536,0.406829,0.45362469,-0.20847325,0.371768,0.44084927,-0.18497216,0.35152,0.43188485,-0.16813707,0.337121,0.46859105,-0.26073398,0.398481,0.4614213,-0.22233589,0.367223,0.45071091,-0.20250257,0.35123,0.44118508,-0.18424628,0.336692,0.45884491,-0.28015401,0.393458,0.45331128,-0.25058033,0.367481,0.45054083,-0.23681215,0.355546,0.44761316,-0.22452332,0.345015
0.46546867,-0.31217762,0.460545,0.48507958,-0.2850213,0.436322,0.47308873,-0.29673559,0.465103,0.472742,-0.27607259,0.46093,0.45912778,-0.24993706,0.44821,0.45171918,-0.23305061,0.438281,0.49468339,-0.24865994,0.425811,0.46937403,-0.20943864,0.396156,0.4569968,-0.18979455,0.381516,0.44586291,-0.17186908,0.368271,0.48655901,-0.26035178,0.413252,0.46607974,-0.22161243,0.37866,0.4546501,-0.19899348,0.358736,0.44670365,-0.18277683,0.34458,0.47915934,-0.27283956,0.405521,0.47400696,-0.2362817,0.374701,0.4644833,-0.21726332,0.358932,0.45608728,-0.19974672,0.344597,0.46936682,-0.29254626,0.401101,0.46549206,-0.26461658,0.375535,0.46353783,-0.25160784,0.363788,0.46136953,-0.2399876,0.353423
0.47381482,-0.31405535,0.460876,0.49618072,-0.28524667,0.436667,0.48162889,-0.29872074,0.465456,0.48385378,-0.2762888,0.461291,0.46999291,-0.25012833,0.448553,0.46247294,-0.23323459,0.438627,0.50571956,-0.24888477,0.426196,0.48045992,-0.2096279,0.396514,0.46807899,-0.18995026,0.381829,0.45694869,-0.17199696,0.368545,0.49752601,-0.26057859,0.413612,0.4771812,-0.22183249,0.379036,0.46583264,-0.19919983,0.359108,0.4579676,-0.1829784,0.34496,0.49007388,-0.2730663,0.405858,0.48297478,-0.23657159,0.375433,0.46892976,-0.21778813,0.359866,0.46095464,-0.20077751,0.346372,0.48023274,-0.29277018,0.401408,0.47638811,-0.26473707,0.375706,0.47445711,-0.25168323,0.363897,0.47231683,-0.24002426,0.353477
0.47803556,-0.31565648,0.462337,0.50329033,-0.28885227,0.440399,0.49003429,-0.3025959,0.467887,0.48399938,-0.28618528,0.462562,0.46666278,-0.25716121,0.444642,0.45614324,-0.2428108,0.43391,0.52091374,-0.25749141,0.432733,0.49597373,-0.21929458,0.408581,0.48382399,-0.20005272,0.396731,0.47561788,-0.18127226,0.385959,0.51149117,-0.26778919,0.419506,0.49180935,-0.22751169,0.389623,0.48080749,-0.20380205,0.372371,0.47549791,-0.18879433,0.360048,0.50257355,-0.27890819,0.410979,0.50079416,-0.24349301,0.383112,0.49263325,-0.22409118,0.368855,0.48551725,-0.20615383,0.355894,0.49016958,-0.29665053,0.405204,0.48986421,-0.27036283,0.382004,0.48978395,-0.25800006,0.371345,0.48655335,-0.24630527,0.36194
0.4805274,-0.31722718,0.463499,0.50430836,-0.29009569,0.441253,0.49252265,-0.3043133,0.469271,0.49273274,-0.28780592,0.463473,0.46995617,-0.27415063,0.4453,0.45664901,-0.27625637,0.434328,0.52021685,-0.25830097,0.433666,0.50033897,-0.22031263,0.410934,0.49381629,-0.20129829,0.400706,0.48241573,-0.184591,0.391408,0.5105215,-0.26819663,0.420066,0.49271691,-0.2286013,0.390961,0.48243414,-0.20523365,0.374157,0.47526597,-0.18837159,0.362215,0.50144855,-0.2790462,0.411264,0.50093454,-0.24396391,0.383843,0.49240241,-0.2245848,0.369813,0.48493161,-0.20666282,0.357059,0.48760935,-0.29625012,0.405228,0.48919557,-0.27075236,0.382268,0.48727271,-0.25794899,0.371719,0.48663656,-0.24693889,0.362674
0.48877986,-0.31945318,0.464018,0.51175051,-0.29166276,0.442243,0.49847727,-0.30548675,0.469602,0.50317298,-0.2880984,0.463944,0.48005478,-0.27426083,0.445479,0.46678424,-0.27641283,0.434574,0.52921777,-0.25918845,0.434731,0.51275957,-0.22060719,0.411938,0.50342011,-0.20122344,0.400557,0.49371616,-0.18367119,0.390211,0.52014626,-0.26916457,0.421504,0.50385854,-0.22994458,0.392732,0.49400196,-0.20672654,0.376052,0.48707884,-0.18995758,0.364189,0.51157691,-0.28014162,0.41296,0.51284854,-0.24541103,0.38611,0.50422783,-0.22605128,0.372373,0.49383545,-0.20829849,0.359885,0.49966638,-0.29791392,0.407134,0.500903,-0.27256504,0.384541,0.49999887,-0.26018085,0.37416,0.49581149,-0.24885547,0.365
0.50440727,-0.32582801,0.46665,0.52460824,-0.29552906,0.44322,0.51475214,-0.31270233,0.473491,0.50093862,-0.29966096,0.469831,0.4876559,-0.27172093,0.45559,0.47372358,-0.25650756,0.445814,0.5335087,-0.26038254,0.436222,0.51418771,-0.21803567,0.40678,0.50329412,-0.1967061,0.39206,0.49339092,-0.17731215,0.378677,0.52569442,-0.26895012,0.420906,0.51214691,-0.22422589,0.387531,0.504109,-0.19824871,0.368062,0.5009081,-0.18069535,0.356012,0.51655182,-0.27886821,0.410819,0.51605801,-0.24290564,0.377785,0.50320982,-0.22242923,0.360884,0.49166299,-0.20369015,0.34552,0.50483055,-0.29607661,0.403515,0.49965542,-0.2666474,0.37726,0.49523358,-0.25257633,0.365197,0.48686849,-0.24077098,0.354553
0.5565595,-0.36435237,0.491574,0.55242213,-0.31847873,0.464835,0.56470861,-0.3520808,0.500461,0.54173212,-0.34971058,0.501637,0.52983765,-0.33075394,0.499661,0.51167165,-0.32356647,0.493508,0.55329886,-0.2788764,0.458256,0.52844453,-0.23487985,0.424275,0.51593437,-0.21300243,0.407285,0.51062327,-0.19553708,0.396591,0.54020576,-0.28304102,0.43937,0.53908707,-0.23950304,0.409027,0.52434233,-0.21270756,0.391327,0.49432752,-0.20137205,0.378683,0.53039336,-0.29066242,0.426701,0.53287094,-0.25124171,0.396247,0.50476412,-0.23264624,0.380667,0.46366862,-0.22624388,0.366502,0.52126699,-0.3065262,0.41702,0.4618348,-0.28121334,0.399471,0.43608359,-0.26981099,0.391409,0.42197778,-0.26571225,0.388383
0.5367245,-0.34110549,0.451227,0.54564721,-0.29446211,0.439338,0.52802942,-0.32695406,0.454723,0.53992611,-0.31132031,0.463567,0.51883415,-0.28829032,0.454114,0.51823105,-0.27343964,0.451152,0.53264237,-0.25786571,0.435817,0.52544008,-0.20786398,0.419084,0.52055715,-0.19987953,0.410717,0.52272522,-0.19458442,0.405127,0.54661402,-0.26233208,0.428014,0.54778754,-0.21736983,0.405837,0.54579292,-0.19850717,0.3929,0.53616108,-0.19768041,0.38366,0.55588077,-0.27164915,0.422869,0.53943091,-0.26185841,0.401089,0.50908143,-0.27370505,0.389946,0.5109009,-0.28500167,0.399278,0.56613442,-0.28972348,0.419133,0.54180785,-0.28272222,0.404282,0.51872137,-0.29004993,0.397458,0.52498989,-0.29943691,0.405334
0.52779791,-0.33446695,0.444684,0.53955338,-0.2906667,0.434112,0.51571925,-0.31811292,0.444082,0.52601099,-0.30329611,0.452111,0.49766918,-0.27664091,0.436392,0.49543357,-0.2619168,0.432947,0.52491531,-0.25179745,0.426148,0.54024647,-0.22033801,0.407393,0.54701886,-0.20554935,0.398109,0.55405092,-0.19190832,0.389875,0.54309402,-0.26024263,0.424043,0.54690199,-0.21730112,0.403799,0.55219,-0.20236126,0.39199,0.5451729,-0.20773413,0.383555,0.55690689,-0.27233712,0.423448,0.56514509,-0.23163573,0.405244,0.56691679,-0.22828362,0.395931,0.5810218,-0.25402192,0.407358,0.57024915,-0.29334987,0.424745,0.56699831,-0.2620713,0.408718,0.56589905,-0.24726322,0.401354,0.56600779,-0.24026606,0.394856
0.53103455,-0.33619888,0.447729,0.54139912,-0.29149088,0.435534,0.51857788,-0.31948288,0.446593,0.52659398,-0.30366071,0.452953,0.49709739,-0.27640487,0.436282,0.49343139,-0.26108607,0.431883,0.52515434,-0.2512049,0.425774,0.53653502,-0.22094441,0.40552,0.53944581,-0.21013043,0.395393,0.54466914,-0.19955989,0.386947,0.54336503,-0.2602314,0.42392,0.54473824,-0.21648929,0.401982,0.54742469,-0.20047511,0.389184,0.53916624,-0.20527379,0.380043,0.55734325,-0.27257813,0.423708,0.56314176,-0.23069328,0.40407,0.56452978,-0.2244964,0.394022,0.58416654,-0.24267895,0.404837,0.57180499,-0.29406694,0.425754,0.5661709,-0.26333739,0.408372,0.56395954,-0.24882023,0.400386,0.56285515,-0.2422632,0.393339
0.53856971,-0.34073435,0.453097,0.54301037,-0.29230014,0.436186,0.52728329,-0.32466179,0.453142,0.52865252,-0.30478466,0.453886,0.49738951,-0.276314,0.43569,0.48973557,-0.25909044,0.428136,0.52530835,-0.25101705,0.424763,0.51966202,-0.20856494,0.400428,0.51620233,-0.18804717,0.38826,0.52226959,-0.1727549,0.383889,0.53979141,-0.258453,0.42008,0.53376101,-0.21384296,0.393266,0.53054264,-0.19362043,0.377625,0.52142575,-0.18929751,0.366452,0.55072534,-0.26946087,0.418047,0.5495751,-0.22451755,0.393913,0.5461908,-0.21731875,0.381565,0.55764531,-0.23862746,0.389986,0.56372901,-0.28969676,0.418866,0.55609442,-0.26461652,0.398916,0.55185193,-0.25324527,0.389749,0.54766421,-0.24788767,0.381662
0.54354272,-0.34651745,0.463056,0.55162802,-0.29889228,0.444766,0.53506081,-0.33072999,0.464628,0.52588417,-0.3156089,0.465315,0.49934773,-0.28575654,0.447999,0.49175093,-0.27054383,0.440395,0.53132161,-0.26026096,0.434395,0.52672921,-0.21360395,0.408034,0.51988755,-0.19754195,0.394854,0.51854676,-0.18375985,0.384756,0.54226573,-0.26994216,0.427348,0.53568556,-0.2243214,0.39855,0.53517545,-0.19641696,0.381751,0.52606015,-0.19002247,0.369752,0.55077686,-0.28003817,0.423515,0.55250628,-0.23493476,0.396438,0.55097284,-0.22265969,0.382584,0.55706707,-0.23853635,0.389385,0.5602629,-0.2983974,0.422504,0.55699675,-0.26857214,0.401669,0.55317978,-0.25703786,0.392096,0.54922258,-0.2504384,0.383649
0.54279253,-0.34666783,0.464964,0.54255815,-0.30131054,0.446764,0.52845598,-0.326128,0.464103,0.52235689,-0.30551328,0.471404,0.50035548,-0.27566135,0.454299,0.4979182,-0.26105057,0.450496,0.53003001,-0.25841642,0.433286,0.52256734,-0.21304202,0.407821,0.51916695,-0.19713452,0.395089,0.51615693,-0.18300574,0.383513,0.54257266,-0.27084959,0.429431,0.53903805,-0.22759349,0.400981,0.53850381,-0.20567832,0.384385,0.53611148,-0.19619858,0.37253,0.5529197,-0.28329082,0.428218,0.55365123,-0.24250261,0.402476,0.55829874,-0.22672935,0.389305,0.56995644,-0.24261338,0.397097,0.5579551,-0.30473548,0.430231,0.56055237,-0.27244582,0.408638,0.5599095,-0.26472328,0.398717,0.5597202,-0.25787682,0.389963
0.54298416,-0.34726752,0.467076,0.54211997,-0.30131711,0.44773,0.52728371,-0.32589702,0.464503,0.52430092,-0.30603114,0.472618,0.50320174,-0.27622534,0.455772,0.50164173,-0.26202609,0.452452,0.52714411,-0.25716752,0.431242,0.52366604,-0.21308881,0.409317,0.52245279,-0.19881087,0.398355,0.52149224,-0.18626905,0.388389,0.54135915,-0.27041474,0.429305,0.5372166,-0.22725288,0.399911,0.53547442,-0.2041494,0.382764,0.53063005,-0.1927006,0.370517,0.55338585,-0.28416441,0.429794,0.55436346,-0.24252737,0.403421,0.55775274,-0.22549306,0.389928,0.57155748,-0.24129708,0.397466,0.56255954,-0.30712097,0.433999,0.56424232,-0.27237327,0.411479,0.56266997,-0.26512501,0.401133,0.56074564,-0.25986507,0.392003
0.534389,-0.34368924,0.466742,0.53710454,-0.302142,0.448113,0.51903882,-0.32212727,0.463822,0.52326788,-0.30563238,0.471982,0.50269816,-0.2756354,0.454949,0.50165938,-0.26150923,0.451672,0.52656568,-0.25695108,0.431661,0.52701291,-0.21427295,0.412586,0.52647609,-0.19619083,0.403048,0.53047382,-0.18608773,0.394378,0.54130735,-0.27067563,0.430371,0.53891534,-0.22872555,0.401799,0.54712077,-0.2080633,0.391799,0.55406244,-0.19421001,0.384656,0.55124598,-0.2850068,0.431316,0.55674391,-0.24490524,0.405711,0.56103386,-0.22842098,0.39261,0.57807163,-0.24256681,0.400569,0.56373798,-0.30879165,0.435915,0.56652743,-0.27371054,0.413867,0.56520398,-0.26658206,0.403737,0.56248892,-0.26246243,0.394799
0.5352779,-0.34481295,0.465802,0.53622002,-0.30129927,0.447259,0.51939003,-0.32448392,0.462916,0.52143872,-0.30460412,0.470254,0.50110481,-0.27448675,0.452906,0.49990119,-0.26011113,0.449144,0.52522476,-0.25630808,0.43091,0.52659446,-0.21388647,0.412436,0.52739343,-0.1962252,0.403199,0.53077515,-0.18616766,0.394801,0.5397681,-0.2699996,0.429598,0.53793803,-0.22771625,0.401111,0.55133232,-0.20835879,0.394605,0.56216478,-0.19561702,0.389958,0.54989465,-0.28449186,0.430517,0.55495106,-0.247563,0.404995,0.55881231,-0.22894647,0.391938,0.5760523,-0.24253415,0.39994,0.56234596,-0.30846807,0.435069,0.56533243,-0.2731452,0.413061,0.56397106,-0.26602001,0.402949,0.56071592,-0.26241321,0.394027
0.51656213,-0.33314278,0.461761,0.53529588,-0.28938743,0.44776,0.50789798,-0.30160395,0.461115,0.52280125,-0.28554969,0.471525,0.50728823,-0.2580278,0.45583,0.51202875,-0.2465876,0.453866,0.53720299,-0.25018961,0.437413,0.5446356,-0.21132267,0.417307,0.54818137,-0.19203449,0.407254,0.54744983,-0.18242101,0.398115,0.5461202,-0.26646706,0.434426,0.55375629,-0.23075857,0.410594,0.56345836,-0.2097212,0.396691,0.56305933,-0.1940554,0.386761,0.55327833,-0.28569246,0.433475,0.5675279,-0.24638463,0.411894,0.57557954,-0.23153887,0.400853,0.59714184,-0.24096934,0.410744,0.55516149,-0.30659347,0.435003,0.5689761,-0.27455252,0.416678,0.57023342,-0.26822474,0.408258,0.5684069,-0.26672061,0.400829
0.51347944,-0.32912718,0.460638,0.53391948,-0.28909801,0.44733,0.50685576,-0.30152584,0.46101,0.52254095,-0.28591578,0.472136,0.50819262,-0.25941591,0.457619,0.51320194,-0.24792206,0.456026,0.53796813,-0.25091464,0.43878,0.54470316,-0.21131356,0.418313,0.5477845,-0.19176301,0.408079,0.5470651,-0.18139401,0.398776,0.54559889,-0.26657103,0.434657,0.55533434,-0.23062557,0.411407,0.56404017,-0.20933898,0.397845,0.56601697,-0.19436587,0.388158,0.5504871,-0.28397996,0.432696,0.56643821,-0.24610575,0.411565,0.57470343,-0.2313303,0.400754,0.59607561,-0.24077418,0.41076,0.55185255,-0.30517029,0.43292,0.56687181,-0.27407083,0.415262,0.56856921,-0.26768621,0.407149,0.56193105,-0.2667558,0.39999
0.50803393,-0.319591,0.460667,0.53309941,-0.28913746,0.447397,0.50609954,-0.30162343,0.461164,0.52130253,-0.28554983,0.47142,0.50725097,-0.25893995,0.45694,0.5118965,-0.24730958,0.454799,0.53736781,-0.25104145,0.439035,0.54413946,-0.21131605,0.418659,0.54721466,-0.19172832,0.408471,0.54662355,-0.18115111,0.39921,0.54485229,-0.26662159,0.43476,0.55439635,-0.23092095,0.411567,0.56167444,-0.20913354,0.398038,0.56633782,-0.19427964,0.388375,0.54909615,-0.28213893,0.432669,0.56547546,-0.24627686,0.411572,0.57388855,-0.23129351,0.400778,0.59482508,-0.24201453,0.41078,0.55080031,-0.30505627,0.432737,0.56541957,-0.2740125,0.415121,0.56723035,-0.267712,0.407028,0.55631975,-0.26606522,0.399886
0.50985941,-0.32029318,0.462609,0.53324963,-0.28881697,0.447705,0.50631712,-0.30127518,0.461608,0.52081762,-0.28469409,0.471043,0.50570433,-0.25756029,0.455576,0.5099266,-0.24583391,0.45298,0.53390547,-0.24898089,0.436282,0.55438366,-0.21510089,0.425448,0.56732534,-0.19995027,0.420789,0.57878105,-0.18582843,0.416553,0.54316056,-0.26540935,0.43351,0.54974778,-0.22421425,0.408835,0.5546601,-0.20783471,0.394441,0.54675135,-0.20287884,0.38416,0.54913922,-0.28182327,0.432834,0.56560851,-0.2446407,0.410498,0.57124804,-0.22992387,0.39907,0.59136239,-0.24026992,0.408611,0.55325213,-0.30612599,0.434851,0.56592055,-0.27418116,0.415728,0.56547793,-0.26655361,0.406942,0.55352055,-0.26576517,0.39919
0.50925867,-0.31964812,0.462236,0.53301451,-0.2884574,0.447608,0.50542269,-0.30045479,0.460931,0.51999873,-0.28388725,0.470321,0.50451418,-0.25645715,0.454424,0.50882375,-0.24492334,0.451829,0.5335053,-0.24853731,0.435975,0.55565011,-0.21562593,0.426226,0.56822518,-0.20031304,0.421351,0.57946003,-0.18610415,0.41692,0.54331074,-0.26526757,0.433676,0.55048394,-0.2245706,0.409331,0.55513885,-0.20838008,0.39513,0.54660792,-0.20419004,0.384986,0.54970926,-0.28193232,0.433359,0.56469112,-0.24504211,0.411378,0.57227064,-0.22987224,0.400131,0.59371542,-0.23884756,0.40986,0.55422711,-0.30651296,0.435741,0.56683441,-0.27445025,0.416736,0.56748564,-0.2675279,0.408004,0.55493188,-0.26646513,0.400299
0.50781394,-0.31811092,0.461051,0.53499876,-0.28945286,0.448978,0.50455302,-0.2990252,0.459874,0.51984414,-0.28062747,0.467102,0.50895298,-0.25009319,0.449707,0.50814014,-0.24038601,0.445881,0.54182324,-0.25206714,0.439248,0.55182483,-0.21408355,0.421663,0.55764424,-0.19724969,0.412871,0.55809487,-0.18457869,0.404878,0.54911928,-0.27236186,0.437479,0.56518287,-0.23729451,0.415682,0.56169528,-0.22825642,0.402966,0.5452265,-0.22828454,0.393884,0.55699651,-0.28758418,0.437324,0.57497098,-0.25211386,0.417882,0.5850592,-0.23722236,0.407934,0.5801149,-0.2319329,0.398891,0.55820366,-0.31116774,0.439413,0.57639947,-0.28156498,0.426656,0.58152374,-0.27074354,0.420794,0.58733955,-0.2631167,0.415622
0.50746575,-0.31744299,0.460825,0.53519715,-0.28939804,0.449002,0.50500776,-0.29868349,0.460174,0.51902792,-0.28030118,0.467511,0.50861473,-0.25024921,0.45036,0.50622992,-0.24077505,0.446583,0.54204231,-0.2521617,0.440125,0.55118582,-0.2134747,0.421097,0.55376606,-0.19506144,0.411582,0.55455996,-0.18288154,0.402933,0.54901489,-0.27038069,0.437742,0.56502407,-0.23627448,0.416127,0.56146702,-0.22699567,0.403518,0.54505935,-0.22703638,0.394512,0.55567933,-0.28638752,0.437053,0.57351584,-0.2503641,0.417808,0.58378279,-0.23539197,0.407962,0.58048067,-0.231342,0.39901,0.55737732,-0.30957523,0.438476,0.57441038,-0.28078442,0.426078,0.58058066,-0.26934663,0.420382,0.58580245,-0.26220455,0.415356
0.50708828,-0.31686389,0.460519,0.53524461,-0.28932291,0.448878,0.5049314,-0.29816707,0.459965,0.51846538,-0.27946655,0.466598,0.50743222,-0.24967174,0.449358,0.50880155,-0.23860848,0.445156,0.54272511,-0.2522989,0.440252,0.55168647,-0.21355661,0.421328,0.55510889,-0.19573704,0.411867,0.55938898,-0.18270863,0.403265,0.54932508,-0.26996978,0.437791,0.56539638,-0.23623508,0.416359,0.56267013,-0.22682895,0.403858,0.5472715,-0.22669507,0.394928,0.55531175,-0.28628818,0.437019,0.57433308,-0.25160743,0.41791,0.58452792,-0.23675361,0.408134,0.58122722,-0.23146803,0.399246,0.55710368,-0.30977826,0.438311,0.57360845,-0.28061556,0.425886,0.5803397,-0.26916589,0.420177,0.58537559,-0.26229775,0.415139
0.50514024,-0.3144211,0.458811,0.53420058,-0.28807026,0.447813,0.50376698,-0.29609281,0.458676,0.52450744,-0.27094232,0.467781,0.51373012,-0.24416229,0.451858,0.51872053,-0.23292015,0.449086,0.54545367,-0.25171913,0.440169,0.56536674,-0.21516034,0.426807,0.56835365,-0.20079911,0.420126,0.57545836,-0.18772868,0.414052,0.55109183,-0.26922926,0.437339,0.57404549,-0.23917441,0.421501,0.59286394,-0.22514058,0.412262,0.58684776,-0.22266568,0.405663,0.55433935,-0.2854282,0.436193,0.57890706,-0.25185545,0.421837,0.59072425,-0.233913,0.414492,0.60146841,-0.21860208,0.407814,0.5551134,-0.30874093,0.436931,0.57657358,-0.28077628,0.426997,0.58491075,-0.27153837,0.422433,0.59016184,-0.26472069,0.418405
0.51365518,-0.31826515,0.466575,0.54033691,-0.28403851,0.451074,0.51139844,-0.29394962,0.464331,0.52898327,-0.27100792,0.472322,0.51342729,-0.23994419,0.454208,0.51726827,-0.22752404,0.450933,0.54585256,-0.24632533,0.437626,0.5544859,-0.21195083,0.419553,0.56237636,-0.19489984,0.410516,0.56378178,-0.18085352,0.402301,0.55142277,-0.26637775,0.436311,0.56630825,-0.23312895,0.411183,0.57104283,-0.21670648,0.396524,0.55152462,-0.20922327,0.386054,0.55514255,-0.28492122,0.436899,0.57241657,-0.25325134,0.414387,0.56622387,-0.24797681,0.402869,0.53492186,-0.24759942,0.392399,0.55914251,-0.31059565,0.440494,0.56856003,-0.27687713,0.421129,0.57066794,-0.26615827,0.412231,0.56275946,-0.26676355,0.40438
0.51584459,-0.31819528,0.468452,0.53807275,-0.28742058,0.450198,0.51254383,-0.29813438,0.466105,0.52941358,-0.273994,0.472205,0.51666913,-0.24627806,0.455298,0.51817126,-0.23362379,0.450756,0.54043166,-0.24550088,0.434747,0.54644257,-0.20627557,0.409183,0.54730094,-0.19199333,0.396401,0.5329446,-0.18654853,0.384781,0.54533673,-0.26415638,0.432814,0.55242405,-0.22669855,0.404598,0.56054257,-0.21088154,0.388139,0.54694723,-0.20508213,0.376383,0.55065736,-0.28184629,0.433189,0.57135441,-0.25097646,0.407784,0.57227757,-0.24161469,0.394786,0.54890867,-0.23954196,0.38297,0.55514811,-0.30749504,0.437055,0.56169348,-0.27204286,0.415081,0.56017654,-0.26347429,0.404985,0.54857047,-0.26253525,0.396077
0.51874383,-0.31957851,0.471012,0.53306167,-0.28839366,0.447095,0.51199317,-0.29745134,0.465458,0.51993952,-0.28079214,0.468241,0.50292009,-0.25136676,0.449159,0.50348836,-0.23794267,0.442798,0.52162188,-0.24648126,0.423623,0.52116189,-0.20791427,0.393839,0.51786555,-0.19177607,0.378947,0.49990758,-0.18744535,0.365409,0.53430369,-0.26574224,0.424317,0.53495934,-0.22792222,0.390664,0.53274525,-0.20865737,0.371034,0.51789733,-0.20279296,0.357012,0.54426215,-0.28492127,0.427467,0.55521179,-0.25149886,0.397698,0.55183019,-0.24248668,0.382468,0.52468728,-0.24133041,0.368622,0.55303344,-0.3097139,0.435618,0.55324505,-0.27043859,0.408702,0.54321011,-0.26448089,0.396335,0.52858551,-0.26141418,0.385423
0.51847462,-0.31888887,0.4705,0.53340688,-0.28865776,0.446994,0.51245667,-0.2972405,0.465538,0.51969339,-0.28022833,0.467563,0.50287098,-0.25070911,0.44843,0.50284171,-0.23691748,0.441636,0.52303041,-0.24697242,0.424572,0.52162848,-0.20789355,0.393995,0.5178439,-0.19151702,0.378706,0.49948473,-0.18695774,0.364807,0.5349139,-0.26586783,0.424608,0.53609438,-0.22817226,0.391292,0.53424854,-0.20896065,0.371858,0.51970902,-0.2031377,0.357976,0.54412911,-0.28467707,0.427171,0.55529582,-0.25134216,0.397601,0.55214587,-0.2423399,0.382473,0.52523938,-0.24121543,0.368719,0.55209611,-0.30993714,0.434564,0.55299795,-0.26927866,0.408145,0.54305542,-0.26415397,0.396006,0.52878527,-0.26119147,0.385295
0.50688123,-0.28479554,0.449991,0.53079044,-0.27840397,0.433544,0.50855946,-0.26516561,0.444625,0.52311455,-0.25094665,0.437325,0.51454754,-0.22774962,0.414629,0.52329225,-0.22235984,0.409799,0.53401686,-0.24902677,0.415388,0.53899079,-0.22490064,0.391036,0.54062802,-0.21309029,0.37886,0.52274856,-0.20762122,0.367791,0.53840316,-0.27088211,0.417881,0.55255992,-0.2495908,0.391419,0.52922703,-0.23710758,0.375983,0.49539728,-0.23040739,0.364958,0.5407172,-0.29036188,0.421705,0.5607475,-0.26532797,0.397806,0.55791796,-0.25538874,0.385578,0.5322277,-0.24687836,0.374462,0.54062164,-0.3156566,0.429236,0.55406245,-0.28858483,0.407234,0.55986827,-0.27646129,0.397124,0.55709536,-0.26934683,0.388204
0.50966201,-0.34662716,0.440583,0.52346152,-0.304239,0.434226,0.50066751,-0.33242661,0.443145,0.51104521,-0.32027547,0.451802,0.48010942,-0.29144728,0.43473,0.4783702,-0.27703629,0.43177,0.5160853,-0.26784595,0.433246,0.52870359,-0.23503283,0.417866,0.5357102,-0.21816308,0.410217,0.54877145,-0.20559691,0.403265,0.52989146,-0.27573117,0.428171,0.5415096,-0.24388221,0.412142,0.54923179,-0.22594681,0.402792,0.55090401,-0.22145116,0.396113,0.54031338,-0.28329257,0.424677,0.55791971,-0.25741824,0.409034,0.56636207,-0.24603168,0.40103,0.55652423,-0.25137022,0.393755,0.5503853,-0.3039083,0.421816,0.55569833,-0.28322581,0.410229,0.57189942,-0.31022595,0.426211,0.57547071,-0.32850126,0.436486
0.47967242,-0.32603946,0.436678,0.50392039,-0.29186999,0.427916,0.4744741,-0.30753705,0.436047,0.48122151,-0.28950179,0.443032,0.45519046,-0.25758057,0.422923,0.45329646,-0.24303242,0.419276,0.50475824,-0.25293772,0.421144,0.51590423,-0.22192771,0.404745,0.52293212,-0.20611166,0.397029,0.53017689,-0.19142827,0.390213,0.51622022,-0.26813066,0.419571,0.53056031,-0.23957491,0.401346,0.54569584,-0.22572444,0.390715,0.55703112,-0.21687432,0.383984,0.52376828,-0.28350306,0.419219,0.54151596,-0.25785533,0.40297,0.55223178,-0.24436092,0.394657,0.54925023,-0.24866079,0.387099,0.52949781,-0.3079163,0.420459,0.54303553,-0.28657798,0.406019,0.54953775,-0.27870008,0.399384,0.56946306,-0.29050764,0.408365
0.46830179,-0.32670145,0.426145,0.48242352,-0.29216669,0.412114,0.46221931,-0.30895758,0.426335,0.46869744,-0.29796313,0.428088,0.43908547,-0.26770398,0.408439,0.43618499,-0.25140426,0.401522,0.47355792,-0.25016125,0.402833,0.47880686,-0.21363364,0.380801,0.4815833,-0.19525835,0.369785,0.48420643,-0.1784802,0.35977,0.48558113,-0.26190074,0.398751,0.49192197,-0.22204539,0.374602,0.49554615,-0.1988464,0.360515,0.4908855,-0.19330006,0.350454,0.49472709,-0.27523693,0.396901,0.50800891,-0.24174683,0.374765,0.51464249,-0.22673383,0.36344,0.50530406,-0.22697079,0.353144,0.504338,-0.29756635,0.397391,0.51282237,-0.26339716,0.379149,0.50827332,-0.26171757,0.370768,0.5228148,-0.27267708,0.378123
0.43995784,-0.30262963,0.422761,0.47112936,-0.27830049,0.414174,0.44219228,-0.28556022,0.425768,0.44869436,-0.26615362,0.431763,0.42973072,-0.23536523,0.412334,0.42870873,-0.22125168,0.407946,0.48419017,-0.24567727,0.41226,0.49260619,-0.21698207,0.395775,0.49833674,-0.20223501,0.387988,0.50446819,-0.18846303,0.381096,0.48792583,-0.2609726,0.405995,0.50105378,-0.2333553,0.387446,0.51098061,-0.21685255,0.377147,0.518825,-0.20486893,0.369854,0.48861126,-0.27568071,0.401762,0.50743603,-0.25144911,0.384236,0.51918015,-0.23873409,0.375577,0.53012753,-0.2309875,0.36791,0.48530104,-0.2967804,0.398462,0.50588899,-0.27984681,0.384554,0.51632995,-0.27189372,0.378163,0.52638776,-0.26490175,0.372705
0.44767234,-0.30267519,0.433869,0.47560612,-0.27787999,0.419795,0.44973479,-0.28431845,0.434957,0.45073934,-0.25533297,0.435875,0.42955247,-0.22450101,0.413747,0.42721526,-0.20919503,0.406588,0.48681178,-0.23989537,0.411655,0.48564428,-0.21336783,0.390117,0.48698804,-0.19844267,0.379643,0.48747201,-0.18609828,0.370121,0.4882498,-0.25918989,0.406391,0.49403087,-0.23081661,0.382141,0.49932078,-0.21414828,0.368542,0.50391045,-0.20216114,0.358993,0.48888933,-0.27511017,0.403573,0.50192586,-0.25030239,0.381681,0.50677161,-0.23943569,0.370481,0.50189931,-0.23265695,0.360298,0.48184217,-0.29572759,0.402947,0.50241627,-0.28026715,0.384644,0.51051624,-0.27208495,0.376234,0.50094566,-0.26918063,0.368814
0.45032106,-0.30323396,0.439251,0.45662532,-0.27160823,0.413023,0.44694367,-0.28206783,0.435126,0.4430219,-0.25665493,0.435845,0.42826717,-0.22634359,0.416132,0.42565492,-0.21092518,0.40863,0.44981202,-0.23099185,0.389841,0.44427816,-0.19024071,0.357547,0.45078573,-0.17405,0.349013,0.45705796,-0.15908744,0.341254,0.45602531,-0.24969119,0.388043,0.46413428,-0.21791603,0.359013,0.46561708,-0.20122116,0.34208,0.46561686,-0.18701621,0.329984,0.4606506,-0.26756721,0.389389,0.46124976,-0.23398085,0.357347,0.46037394,-0.21801781,0.340954,0.45203937,-0.20851117,0.326051,0.46521159,-0.29282154,0.395882,0.47641824,-0.27420519,0.371834,0.48161882,-0.26565146,0.360786,0.47581055,-0.25990291,0.351037
0.4140926,-0.29626753,0.420589,0.43945943,-0.27013831,0.402088,0.42014068,-0.28055028,0.424127,0.42721878,-0.26147491,0.430242,0.41298172,-0.23345049,0.41532,0.41268064,-0.21898154,0.41072,0.45137892,-0.23712752,0.394134,0.4478148,-0.19941256,0.370077,0.44626779,-0.18032651,0.358048,0.44502065,-0.16282206,0.347113,0.45039454,-0.24852378,0.384468,0.45917309,-0.21592465,0.355785,0.44441945,-0.19504931,0.339054,0.43515265,-0.17999886,0.327103,0.44546787,-0.26260216,0.378502,0.45557056,-0.23210263,0.351077,0.46479169,-0.21985192,0.337045,0.45050702,-0.20574837,0.32429,0.43862532,-0.28253997,0.375055,0.4542329,-0.2657872,0.352618,0.44550748,-0.25375414,0.342309,0.43642264,-0.24299953,0.333213
0.40935089,-0.29157144,0.418408,0.44144291,-0.2720576,0.406787,0.41698439,-0.27680013,0.423576,0.42014847,-0.25498563,0.428875,0.40542875,-0.22608586,0.41175,0.40718136,-0.21450076,0.406745,0.46070463,-0.24392361,0.405629,0.45568119,-0.21441613,0.385302,0.45613275,-0.19936552,0.375475,0.45720321,-0.18536667,0.36668,0.45374408,-0.25740632,0.39572,0.45630279,-0.22775847,0.373789,0.45949611,-0.21004617,0.361405,0.46764255,-0.19630183,0.353993,0.44889688,-0.27015218,0.388812,0.46045183,-0.24587887,0.367849,0.46783875,-0.23306078,0.357125,0.46567106,-0.2202884,0.347375,0.43943347,-0.2881352,0.382978,0.45996362,-0.27395318,0.365976,0.46376224,-0.26504567,0.358165,0.46159391,-0.25617476,0.351272
0.40837022,-0.2933683,0.420391,0.42826333,-0.26676521,0.400214,0.41248622,-0.27607178,0.422111,0.41173603,-0.25640757,0.426713,0.39672987,-0.22749335,0.410191,0.39603732,-0.21267787,0.404757,0.43389863,-0.23005065,0.388755,0.42446482,-0.1957402,0.36234,0.42051179,-0.17842392,0.34947,0.41732653,-0.1624841,0.337882,0.43331095,-0.24544225,0.380998,0.42942406,-0.21171553,0.350664,0.4282903,-0.19203265,0.33341,0.42739861,-0.17792464,0.321087,0.43137261,-0.26064131,0.376786,0.43704566,-0.23051932,0.349395,0.44077333,-0.21485905,0.335381,0.42699816,-0.20492764,0.322641,0.42660715,-0.28298519,0.375688,0.43638823,-0.2613753,0.352458,0.43410401,-0.25243086,0.341784,0.42835283,-0.24504139,0.332367
0.40137381,-0.29281795,0.421911,0.41200513,-0.26757912,0.40029,0.40721709,-0.27618607,0.42488,0.4008051,-0.25435167,0.426709,0.38688926,-0.22587334,0.410501,0.38464059,-0.21041238,0.403511,0.42432661,-0.23273131,0.389478,0.41520548,-0.19530907,0.361596,0.411249,-0.17657621,0.347997,0.41150019,-0.16052339,0.335912,0.41934651,-0.24709349,0.379699,0.4142362,-0.2111721,0.347904,0.41068626,-0.19013447,0.329356,0.40469276,-0.17550152,0.316108,0.41386291,-0.26120873,0.373977,0.41733305,-0.2293486,0.344929,0.41947911,-0.21293791,0.33018,0.42056257,-0.19953188,0.316772,0.40512197,-0.2818949,0.371399,0.41841711,-0.26181394,0.349456,0.42782492,-0.25162121,0.339374,0.4362657,-0.24400686,0.333022
0.4019904,-0.296522,0.426792,0.41109618,-0.26867456,0.401879,0.40218032,-0.27926754,0.427972,0.39845693,-0.25512558,0.426743,0.38519539,-0.2267162,0.410672,0.38188233,-0.21047208,0.402057,0.41463002,-0.23008444,0.386499,0.40510813,-0.19188963,0.355171,0.3987585,-0.17255198,0.339506,0.393004,-0.15495685,0.325266,0.41497742,-0.24561077,0.378151,0.40595701,-0.20757578,0.342735,0.40019447,-0.18546121,0.322076,0.39428869,-0.16991562,0.307319,0.41166775,-0.26072644,0.373962,0.41210359,-0.22782211,0.341667,0.41172246,-0.21096808,0.325143,0.41041025,-0.19612169,0.310122,0.40615222,-0.28332347,0.373783,0.40840959,-0.25925255,0.346452,0.41021885,-0.24836161,0.333894,0.41350295,-0.23843559,0.322863
0.39078635,-0.29740639,0.427744,0.40524623,-0.26868256,0.401915,0.39448946,-0.27889156,0.428031,0.39035816,-0.25625694,0.427861,0.37748773,-0.22798023,0.412107,0.37866755,-0.21215425,0.404051,0.4056997,-0.22882875,0.384751,0.39211833,-0.1900998,0.352816,0.38533846,-0.17072389,0.336848,0.3791832,-0.1531019,0.322332,0.40433211,-0.24461757,0.377316,0.39484426,-0.20669267,0.341041,0.38918962,-0.18462798,0.31988,0.38762459,-0.16905174,0.304765,0.40243631,-0.26042439,0.373977,0.40179752,-0.22706634,0.341061,0.40171719,-0.2099252,0.32422,0.40673934,-0.19634932,0.309776,0.39887395,-0.28398824,0.374957,0.40291151,-0.25947948,0.347063,0.40349233,-0.24837786,0.334248,0.40964325,-0.23995444,0.324594
0.38971271,-0.29928701,0.429705,0.3988133,-0.26960235,0.40275,0.39031026,-0.28124038,0.430145,0.38337093,-0.25838991,0.428156,0.37012828,-0.23015147,0.412393,0.36613031,-0.21359629,0.403393,0.39691213,-0.22921818,0.385022,0.38200546,-0.1902265,0.352077,0.37453413,-0.17074817,0.335604,0.36773039,-0.15305315,0.320629,0.3955907,-0.24459092,0.377079,0.38537269,-0.20532971,0.34012,0.37918788,-0.18254671,0.31856,0.37464666,-0.16633927,0.30316,0.39394148,-0.2601974,0.373444,0.39143711,-0.22568955,0.339947,0.3903693,-0.20796176,0.322809,0.38955346,-0.19179289,0.307229,0.3910544,-0.28377928,0.37429,0.39252694,-0.25855807,0.345613,0.39202057,-0.24714363,0.332437,0.3916583,-0.23706374,0.320812
0.38423395,-0.30034885,0.429786,0.39216275,-0.26971843,0.402778,0.38562751,-0.28305349,0.431733,0.38110734,-0.25918449,0.428995,0.36949178,-0.23196485,0.415197,0.36541717,-0.21512431,0.405902,0.3961921,-0.22980028,0.386977,0.37667355,-0.18914854,0.353675,0.36823413,-0.16916246,0.337025,0.36483633,-0.1523356,0.321888,0.39290929,-0.24377719,0.377057,0.37788072,-0.20352439,0.339685,0.37049038,-0.18061097,0.317885,0.36511468,-0.16430012,0.302313,0.38703088,-0.25736285,0.371799,0.38228803,-0.22376211,0.337338,0.37986173,-0.20650478,0.319707,0.37784244,-0.19075739,0.303679,0.38231173,-0.2797647,0.370772,0.38233645,-0.25496762,0.341525,0.3818203,-0.24357301,0.328087,0.38688001,-0.23549777,0.318804
0.38050033,-0.30201366,0.432636,0.38691916,-0.26953268,0.404811,0.38048495,-0.28412753,0.433761,0.37338688,-0.25914828,0.433819,0.36158841,-0.23188024,0.42001,0.35901767,-0.21569245,0.41213,0.38439132,-0.22741735,0.387385,0.36779124,-0.18681093,0.353848,0.35943023,-0.16658327,0.337079,0.3517882,-0.14824706,0.321835,0.38223021,-0.2420501,0.378312,0.36823294,-0.20209571,0.340368,0.35989654,-0.17889931,0.318234,0.35384672,-0.16239184,0.302424,0.38000031,-0.25707612,0.373839,0.37484164,-0.2225908,0.339098,0.37197783,-0.2049429,0.321323,0.36952878,-0.1888455,0.305165,0.37668556,-0.28007211,0.373878,0.37592006,-0.25429865,0.344413,0.37420995,-0.24263882,0.330876,0.37277704,-0.23234053,0.318931
0.37388078,-0.30197621,0.432508,0.37992037,-0.26811472,0.40523,0.37482119,-0.28434026,0.4349,0.36628404,-0.25958945,0.432831,0.35876493,-0.23230038,0.419857,0.35417014,-0.21568497,0.410942,0.38382857,-0.22809762,0.389825,0.36362866,-0.18625852,0.357388,0.35497199,-0.16576549,0.34117,0.34707787,-0.14717217,0.326426,0.38026812,-0.24158659,0.379252,0.36338185,-0.20013313,0.341664,0.35505607,-0.17668779,0.319738,0.35238452,-0.16163592,0.304076,0.37397497,-0.25450424,0.373485,0.36747677,-0.2196715,0.338785,0.36435455,-0.20176937,0.321031,0.36629566,-0.18749841,0.305611,0.3691796,-0.27655987,0.371918,0.36778463,-0.25074072,0.342783,0.36721471,-0.23886746,0.329397,0.36207823,-0.22849776,0.317586
0.36788899,-0.30136338,0.432661,0.37520092,-0.26745259,0.405737,0.36862756,-0.28314596,0.434979,0.3638564,-0.25880218,0.432617,0.35330396,-0.23182866,0.419225,0.347393,-0.215271,0.41014,0.37941765,-0.22727542,0.390475,0.36152923,-0.18614878,0.35781,0.35255045,-0.16563959,0.341477,0.34423757,-0.14706542,0.326629,0.37612832,-0.24062789,0.380096,0.36231543,-0.20025033,0.342823,0.35412074,-0.17679594,0.32108,0.3481924,-0.16009834,0.30555,0.37285013,-0.25472615,0.37445,0.3669023,-0.21966074,0.340071,0.36406768,-0.20163342,0.322481,0.36164349,-0.18518176,0.30649,0.36808615,-0.27686731,0.372958,0.36778268,-0.25091942,0.343862,0.36685831,-0.23900582,0.330494,0.36351282,-0.22854564,0.318699
0.36412378,-0.30188875,0.435658,0.37228643,-0.26756914,0.408405,0.36855882,-0.28461515,0.438284,0.36114232,-0.25883208,0.435473,0.34708221,-0.23151162,0.422963,0.34832663,-0.21641006,0.413712,0.37729239,-0.22759518,0.393322,0.35455701,-0.18501399,0.361167,0.34454712,-0.16421042,0.34509,0.33543045,-0.14533324,0.330474,0.3733642,-0.24065358,0.382449,0.35458018,-0.19806521,0.345342,0.34524054,-0.17392524,0.323696,0.33850393,-0.1567426,0.308235,0.36638205,-0.25337826,0.376433,0.35910333,-0.2174441,0.342058,0.35557494,-0.19896266,0.32447,0.35251079,-0.18209134,0.308481,0.36071501,-0.27514788,0.374573,0.36536836,-0.24971949,0.345435,0.35828049,-0.23541388,0.332047,0.35469606,-0.22428381,0.320234
0.35880183,-0.30133109,0.43626,0.36755614,-0.26597513,0.409646,0.36465552,-0.28501194,0.440237,0.35851312,-0.25953298,0.439026,0.34874885,-0.23427492,0.428574,0.34663506,-0.21808558,0.420268,0.37522864,-0.22750065,0.396757,0.35046123,-0.18456798,0.364966,0.33933823,-0.16373582,0.349071,0.32921702,-0.14482304,0.33462,0.36671735,-0.23747434,0.3843,0.35044279,-0.19542223,0.347484,0.34084096,-0.1710043,0.326009,0.33753334,-0.15579276,0.310669,0.36115425,-0.24987198,0.37691,0.35203897,-0.21383068,0.342418,0.3475904,-0.19527386,0.324772,0.34195772,-0.17814436,0.308729,0.35355196,-0.27022366,0.373334,0.36061236,-0.24618825,0.345407,0.35331987,-0.23142843,0.332576,0.34858451,-0.2199268,0.321254
0.35321628,-0.30031599,0.437317,0.3637306,-0.26522603,0.412383,0.35730633,-0.28413205,0.442498,0.35166738,-0.26118998,0.444542,0.34199015,-0.23630218,0.434608,0.34102137,-0.22103093,0.427976,0.37461757,-0.22869823,0.402202,0.35086301,-0.18473324,0.37382,0.34054378,-0.1631284,0.359629,0.33115906,-0.14350467,0.346728,0.36774045,-0.23890661,0.388637,0.34801688,-0.1952519,0.353502,0.33826665,-0.17054977,0.333006,0.33128365,-0.15293106,0.318367,0.35810742,-0.24877699,0.380154,0.35180979,-0.21106001,0.347376,0.34637218,-0.19127048,0.330606,0.34158839,-0.17314806,0.315361,0.34881378,-0.26750656,0.374993,0.36012136,-0.24433206,0.348479,0.3545677,-0.23102923,0.336297,0.34977433,-0.21921884,0.325548
0.34977589,-0.30049603,0.440958,0.36165996,-0.26469977,0.417338,0.3535508,-0.28423589,0.445987,0.34780827,-0.26130238,0.450687,0.33704877,-0.23664797,0.440622,0.33654159,-0.22209785,0.435366,0.36833843,-0.22528429,0.407852,0.34639154,-0.18271823,0.379826,0.33542174,-0.16140571,0.365813,0.32545175,-0.14201099,0.353074,0.36390822,-0.2357504,0.394844,0.34741176,-0.19215587,0.360868,0.33775562,-0.16677863,0.341049,0.33083966,-0.14868034,0.326892,0.36171449,-0.25022829,0.386678,0.35200743,-0.20868487,0.354218,0.34649803,-0.18873525,0.337611,0.34543351,-0.17372493,0.322513,0.35350317,-0.26951946,0.381639,0.36209726,-0.23897304,0.358147,0.35780117,-0.22577803,0.347354,0.35413909,-0.21401763,0.33783
0.34779642,-0.30131682,0.441003,0.35823081,-0.26346334,0.419382,0.34626027,-0.28459503,0.445261,0.33415895,-0.26465942,0.443402,0.3190435,-0.23817022,0.429963,0.31317286,-0.22078691,0.421126,0.358437,-0.22374318,0.410248,0.33722711,-0.18107783,0.382273,0.32662525,-0.15972288,0.368286,0.31226881,-0.14362389,0.355571,0.36013808,-0.23310567,0.39879,0.34422111,-0.18842432,0.366623,0.3349247,-0.16238314,0.347859,0.32719842,-0.144136,0.334457,0.36068853,-0.24453739,0.391685,0.35473307,-0.20251887,0.361831,0.35148007,-0.18091891,0.346557,0.34863896,-0.16115398,0.332672,0.35991796,-0.26469496,0.387502,0.3664036,-0.23107794,0.362822,0.36020121,-0.21710916,0.351482,0.354817,-0.20466981,0.341476
0.36710449,-0.30871003,0.443872,0.36261824,-0.2682659,0.424825,0.35730639,-0.3054653,0.449803,0.34638811,-0.28770501,0.451099,0.32838969,-0.26421131,0.440082,0.32046861,-0.24791571,0.432991,0.35119065,-0.23282628,0.419618,0.33377476,-0.1865666,0.394525,0.32450644,-0.16390444,0.381979,0.31607514,-0.14336506,0.370573,0.35697556,-0.23686755,0.406686,0.34267291,-0.18976161,0.377152,0.33344853,-0.16282666,0.359924,0.32615454,-0.1439824,0.347619,0.36427421,-0.24644186,0.398089,0.35691472,-0.19863595,0.369588,0.34991711,-0.17760729,0.355006,0.34369325,-0.15823262,0.341749,0.3684875,-0.26056475,0.39169,0.3672073,-0.22349372,0.368945,0.36090165,-0.2101084,0.358495,0.35542686,-0.19814356,0.349274
0.36822336,-0.31105421,0.443063,0.36375351,-0.27052273,0.424883,0.3594056,-0.30749771,0.449744,0.34876765,-0.29064781,0.45218,0.33129187,-0.26777112,0.442281,0.3236158,-0.25175515,0.435854,0.35252785,-0.23504197,0.421242,0.33534423,-0.18823682,0.397213,0.32554035,-0.16566193,0.385199,0.31662584,-0.14518114,0.374276,0.35759859,-0.23820758,0.40757,0.34320877,-0.190418,0.378963,0.33401096,-0.16302732,0.362275,0.32671198,-0.14384901,0.350356,0.36362137,-0.24620948,0.39827,0.35598146,-0.19868384,0.370382,0.3493815,-0.17674049,0.356113,0.34349922,-0.15655512,0.343141,0.36799937,-0.26035173,0.390893,0.36751634,-0.22232471,0.36943,0.3595295,-0.20989069,0.359568,0.34802165,-0.1984715,0.350867
0.36616571,-0.31277186,0.443156,0.36323166,-0.27056725,0.426082,0.35941297,-0.30760921,0.449834,0.34882634,-0.29176093,0.453132,0.32684323,-0.27253636,0.442896,0.3172523,-0.25804592,0.436891,0.34499989,-0.23620838,0.423188,0.32789329,-0.18753349,0.400334,0.31591215,-0.16583507,0.388908,0.30501545,-0.14608283,0.37852,0.35206633,-0.2376015,0.409822,0.33710271,-0.18689315,0.382302,0.33113543,-0.15910778,0.369446,0.3268805,-0.13923093,0.360263,0.35854657,-0.24293149,0.400655,0.34904486,-0.19599767,0.373398,0.34219381,-0.1733187,0.359453,0.33588245,-0.15259457,0.346775,0.36866182,-0.25902968,0.393225,0.36618981,-0.2155975,0.372262,0.35846079,-0.20291855,0.36263,0.3516856,-0.1915538,0.354132
0.36312033,-0.31260526,0.443019,0.36116376,-0.27069158,0.427451,0.35682999,-0.30717115,0.448572,0.3441601,-0.2973171,0.453652,0.32837304,-0.27397088,0.444335,0.32267176,-0.25836437,0.439328,0.33737218,-0.23544692,0.424112,0.31765011,-0.18739435,0.40348,0.31072963,-0.16556399,0.397087,0.30442894,-0.14562658,0.391275,0.34842528,-0.23517816,0.412623,0.33345742,-0.18561005,0.386547,0.32710347,-0.15809951,0.374116,0.32258491,-0.13835202,0.365237,0.35808459,-0.23921839,0.40484,0.35018702,-0.19002385,0.378608,0.34568572,-0.16539754,0.365187,0.33703843,-0.15590094,0.352986,0.37053941,-0.25139042,0.398732,0.36536542,-0.21368813,0.378479,0.36173639,-0.19804761,0.369174,0.35490635,-0.19530204,0.360963
0.3618036,-0.31404185,0.442938,0.35526808,-0.27071016,0.42895,0.35526296,-0.30774995,0.448684,0.34326859,-0.2997568,0.455627,0.32617165,-0.27941801,0.447964,0.32224155,-0.26341514,0.444068,0.33698574,-0.23767822,0.426937,0.31451182,-0.19082302,0.407386,0.30771753,-0.16936406,0.401865,0.30512479,-0.14870654,0.396846,0.34836412,-0.23722761,0.415628,0.3343208,-0.18817191,0.391185,0.3256133,-0.16144864,0.380348,0.32535207,-0.14153292,0.372607,0.35820263,-0.24105034,0.407822,0.35120422,-0.19222098,0.38306,0.34383746,-0.16761342,0.37039,0.33438185,-0.15901234,0.358873,0.37067522,-0.25282997,0.401392,0.36616209,-0.21544523,0.382224,0.36286496,-0.1999264,0.373418,0.35290332,-0.19749564,0.365647
0.360244,-0.31494484,0.441941,0.35402432,-0.27066247,0.429071,0.35219498,-0.30652473,0.446798,0.33862482,-0.29940179,0.454122,0.3223556,-0.27641261,0.44402,0.31822575,-0.26137877,0.440183,0.33365841,-0.2377063,0.426658,0.31739348,-0.18981304,0.407744,0.3055741,-0.16854764,0.399044,0.29614409,-0.14942708,0.391134,0.34817734,-0.23789275,0.416813,0.3323428,-0.18810086,0.393537,0.3237903,-0.15952547,0.379963,0.31767484,-0.13916211,0.370267,0.35900123,-0.24243304,0.410094,0.35271899,-0.19341317,0.389884,0.34628839,-0.1672796,0.379544,0.33952985,-0.14866713,0.370144,0.37247048,-0.25498108,0.404714,0.36678303,-0.2163041,0.387923,0.36246978,-0.195584,0.380208,0.35452415,-0.19013818,0.373401
0.36208631,-0.31769862,0.442901,0.35679816,-0.27207672,0.430054,0.35244652,-0.30740113,0.447348,0.34219626,-0.30217008,0.454469,0.32382665,-0.27878191,0.443573,0.31581916,-0.2644497,0.43959,0.33566039,-0.23838149,0.427123,0.31714623,-0.19050445,0.407847,0.30404389,-0.17104061,0.39821,0.29247066,-0.15345746,0.389448,0.34876912,-0.23881724,0.417819,0.33285585,-0.18873862,0.395189,0.32437818,-0.15999513,0.384356,0.31893927,-0.14000234,0.376618,0.36010983,-0.24335661,0.411541,0.35220401,-0.19211298,0.392249,0.3464355,-0.16858024,0.382378,0.33928111,-0.14979412,0.373405,0.37434487,-0.25596039,0.40667,0.36599313,-0.21459599,0.390188,0.36271454,-0.19564255,0.382615,0.35435936,-0.1903114,0.375933
0.36176082,-0.31774042,0.442884,0.35499587,-0.27210221,0.430487,0.35149279,-0.30741159,0.446884,0.34070885,-0.3030264,0.453935,0.32097417,-0.28073522,0.441835,0.31300572,-0.26865303,0.437777,0.33381799,-0.2392631,0.42728,0.30885773,-0.19503026,0.408814,0.29732549,-0.17249769,0.399581,0.29145199,-0.15345763,0.391187,0.347591,-0.23973908,0.41868,0.33177363,-0.18864432,0.39693,0.32374155,-0.16152372,0.388503,0.31891672,-0.14184612,0.382484,0.35954972,-0.24430261,0.412935,0.35312722,-0.19303298,0.395273,0.34462263,-0.16968923,0.386236,0.33743866,-0.14963843,0.378021,0.37559948,-0.25705676,0.408597,0.37164909,-0.21689542,0.396445,0.37012929,-0.19557002,0.390861,0.36446052,-0.187677,0.385934
0.3610044,-0.31965533,0.449116,0.3498441,-0.26940519,0.43824,0.34745856,-0.31075534,0.452659,0.32905914,-0.29530046,0.462776,0.30793017,-0.27228444,0.450059,0.30082165,-0.25943453,0.447778,0.33244189,-0.23529265,0.43547,0.31215143,-0.18989213,0.417961,0.30202148,-0.16727288,0.409206,0.29282225,-0.14676071,0.401247,0.34759031,-0.23687209,0.427882,0.33355338,-0.18677293,0.40687,0.32556353,-0.16098408,0.394613,0.31875651,-0.1403665,0.385857,0.36005395,-0.24230999,0.422806,0.35411263,-0.19033023,0.40347,0.34811905,-0.17065305,0.393577,0.34299813,-0.15122201,0.384584,0.37470341,-0.25589806,0.418959,0.37567524,-0.2164987,0.403056,0.37379143,-0.19766796,0.39575,0.36905161,-0.18693778,0.389303
0.36414291,-0.32108514,0.4492,0.35464935,-0.27211584,0.438736,0.3501271,-0.31011962,0.452154,0.33355015,-0.29854206,0.462054,0.3081914,-0.27412107,0.448702,0.30024045,-0.26167251,0.446302,0.33353053,-0.23599618,0.435479,0.31233447,-0.19028364,0.418515,0.29848471,-0.17338989,0.410033,0.28591723,-0.15757652,0.402322,0.34944801,-0.2374025,0.42877,0.33426472,-0.18710086,0.408174,0.32475275,-0.15885502,0.39616,0.31876639,-0.14012332,0.387579,0.36273203,-0.24274257,0.424373,0.35566569,-0.19055596,0.405906,0.34914369,-0.1686324,0.396458,0.34332014,-0.14936606,0.387869,0.37859577,-0.25631467,0.421237,0.37666332,-0.21417193,0.405779,0.3747387,-0.19664215,0.398676,0.37163947,-0.18405371,0.392409
0.3619666,-0.31978394,0.447895,0.35389641,-0.27142388,0.438357,0.34689404,-0.30935641,0.450725,0.32801638,-0.30232559,0.457683,0.30184995,-0.27845313,0.441249,0.29440526,-0.26225467,0.437195,0.33311921,-0.23647906,0.435567,0.31205798,-0.19083255,0.419466,0.29844178,-0.17405613,0.411416,0.28641356,-0.15832789,0.404098,0.34954444,-0.23765154,0.429274,0.33480672,-0.18758312,0.409762,0.3257066,-0.15925908,0.398381,0.31920602,-0.139015,0.390251,0.36322978,-0.24276545,0.425119,0.35633771,-0.19073521,0.407467,0.35021873,-0.16876787,0.398436,0.34490731,-0.1493583,0.390226,0.37952012,-0.25600812,0.42209,0.3774831,-0.21398407,0.407457,0.3754916,-0.19697923,0.400734,0.37267995,-0.18423638,0.394801
0.3607777,-0.31926388,0.448117,0.35398206,-0.27141974,0.438779,0.34578656,-0.30887427,0.449962,0.32758714,-0.30254252,0.455717,0.29949383,-0.27780072,0.437338,0.29096956,-0.26429486,0.432691,0.3318789,-0.2365924,0.434842,0.30773966,-0.19147677,0.418748,0.29545172,-0.17542616,0.4107,0.28501514,-0.16006933,0.403384,0.34957125,-0.23790697,0.429886,0.33467789,-0.18766177,0.410729,0.32449435,-0.15889873,0.399555,0.31907115,-0.13902825,0.391573,0.36440396,-0.24316286,0.42681,0.35596076,-0.19069658,0.409409,0.34979027,-0.16833997,0.400506,0.34501749,-0.1489819,0.392412,0.38287338,-0.25564835,0.424996,0.37805546,-0.2115005,0.410625,0.37651868,-0.19648296,0.404023,0.37491816,-0.18507781,0.398197
0.35889832,-0.31861176,0.447702,0.35252225,-0.27031275,0.438978,0.34449587,-0.30829289,0.449074,0.32665908,-0.30239909,0.454729,0.2978564,-0.27730127,0.435579,0.28913275,-0.26387754,0.430946,0.33034818,-0.23704386,0.434841,0.30706114,-0.19177763,0.419225,0.29511637,-0.1756381,0.411417,0.28497226,-0.16064889,0.404318,0.34956144,-0.23828676,0.430668,0.33438781,-0.18791991,0.412325,0.32527731,-0.15953479,0.401625,0.31876985,-0.13926825,0.393982,0.36503416,-0.24358383,0.428173,0.35555482,-0.19139585,0.411536,0.35103443,-0.16878327,0.403025,0.34595903,-0.14754942,0.395287,0.38397911,-0.25615274,0.426916,0.37861702,-0.21080721,0.4131,0.37818918,-0.19748773,0.406752,0.37688805,-0.18604048,0.401151
0.35777916,-0.31830201,0.447732,0.3524362,-0.27042517,0.439133,0.34300022,-0.30812878,0.448871,0.32626618,-0.30239321,0.454334,0.29710679,-0.27711493,0.4348,0.28822665,-0.26367901,0.430091,0.32983161,-0.23723157,0.434778,0.30658266,-0.19184036,0.419272,0.29476612,-0.17563507,0.41152,0.28465984,-0.16083522,0.404472,0.34935435,-0.23840361,0.430943,0.33422871,-0.18803153,0.412805,0.32522464,-0.15966068,0.402224,0.31879397,-0.13940154,0.394667,0.36513846,-0.24365377,0.428712,0.35561162,-0.19173825,0.412276,0.35119454,-0.16876678,0.403867,0.34630721,-0.14727127,0.396222,0.38434594,-0.25625726,0.427739,0.37919664,-0.21128678,0.414039,0.37859038,-0.19777685,0.407744,0.37732569,-0.18625005,0.40219
0.35692557,-0.31800963,0.447873,0.35210436,-0.27058719,0.439351,0.34121898,-0.30749531,0.448066,0.32605338,-0.30248423,0.454486,0.29730372,-0.27753977,0.43552,0.28877469,-0.26446315,0.431345,0.326845,-0.23774807,0.433817,0.3037915,-0.19132574,0.417648,0.29358234,-0.18567559,0.409563,0.29008573,-0.19596945,0.402213,0.34710329,-0.23840386,0.431235,0.33170928,-0.18771754,0.413134,0.32190524,-0.15927956,0.402575,0.31613604,-0.13896825,0.395033,0.36502423,-0.24394703,0.430027,0.35458757,-0.19192029,0.413711,0.34889858,-0.16713379,0.405364,0.3444127,-0.1444603,0.397775,0.38535885,-0.25663084,0.430227,0.38112511,-0.21253088,0.41681,0.37928139,-0.19764684,0.410645,0.37813112,-0.1852755,0.405206
0.3556591,-0.31737631,0.447201,0.35138191,-0.27048881,0.438946,0.34017218,-0.3075536,0.44793,0.32623184,-0.30258665,0.454893,0.29804942,-0.27788805,0.436555,0.29002588,-0.26377778,0.432651,0.32667426,-0.23825069,0.434292,0.30512644,-0.1915074,0.418309,0.29503709,-0.18704682,0.410318,0.29175373,-0.19832038,0.403053,0.34708831,-0.238556,0.431085,0.33123875,-0.18795755,0.413196,0.32225613,-0.15950892,0.40276,0.31754445,-0.13955707,0.395306,0.36395975,-0.24357749,0.429334,0.35372279,-0.19159922,0.413122,0.34879891,-0.16783414,0.404828,0.34583456,-0.14696332,0.397287,0.38408839,-0.25710659,0.428853,0.38036244,-0.21279666,0.415628,0.37937598,-0.19802274,0.409551,0.37841025,-0.18620032,0.40419
0.35404126,-0.31662622,0.447069,0.3510725,-0.27030964,0.438969,0.33824938,-0.30683444,0.447562,0.32626471,-0.30209541,0.455086,0.29842645,-0.27606108,0.437163,0.29072685,-0.26387162,0.43357,0.32620168,-0.23782768,0.434111,0.30500535,-0.19117016,0.418267,0.29435241,-0.18180213,0.410345,0.2908156,-0.19429339,0.403143,0.3462645,-0.2383227,0.431254,0.33127518,-0.18773888,0.413574,0.32238685,-0.15960523,0.403261,0.31759661,-0.13979636,0.395895,0.36314359,-0.24288306,0.429775,0.3542036,-0.19149716,0.41381,0.34906438,-0.16721052,0.405642,0.34490021,-0.14509641,0.398216,0.38348878,-0.25547698,0.42958,0.38111587,-0.21315804,0.416527,0.38025199,-0.19827881,0.41053,0.37861856,-0.18573003,0.405239
0.3523708,-0.3157321,0.446361,0.35057333,-0.2700822,0.438504,0.33672249,-0.30632416,0.447161,0.32597741,-0.30173709,0.454802,0.29838006,-0.27718526,0.436962,0.29062289,-0.26365791,0.433434,0.3269292,-0.23772901,0.434212,0.30618876,-0.19119692,0.418611,0.29597296,-0.1850948,0.41081,0.29230441,-0.19562701,0.403718,0.34703102,-0.23833963,0.431022,0.33273479,-0.18822985,0.413565,0.32457746,-0.16040105,0.403382,0.31779605,-0.14029852,0.396108,0.36391363,-0.24343023,0.429241,0.355609,-0.19166851,0.413417,0.35070199,-0.16805445,0.405321,0.34651675,-0.14669611,0.397961,0.38345499,-0.25656535,0.428651,0.38117926,-0.21341913,0.415748,0.3792611,-0.19758426,0.40982,0.37827376,-0.18440261,0.404589
0.35282836,-0.31611946,0.446469,0.35048645,-0.27017047,0.438482,0.3369839,-0.30693006,0.447259,0.32589676,-0.30160611,0.454833,0.29840429,-0.27701243,0.437013,0.29057317,-0.26352563,0.433441,0.32681797,-0.23765639,0.434087,0.30603274,-0.1910277,0.418322,0.29603006,-0.18454388,0.410439,0.29222029,-0.19483918,0.403273,0.34708478,-0.23829474,0.430875,0.3325396,-0.18813875,0.413274,0.32383054,-0.16024655,0.403007,0.31760529,-0.14027264,0.395673,0.36352204,-0.24309982,0.42909,0.35611197,-0.19193546,0.414005,0.35167099,-0.16848371,0.406286,0.34781713,-0.14717321,0.39927,0.38324356,-0.25596103,0.42852,0.3810728,-0.21348622,0.415525,0.37978838,-0.19773243,0.409554,0.37846975,-0.18464306,0.404285
0.35094515,-0.31518322,0.444593,0.34993425,-0.27039311,0.438421,0.33577147,-0.30680951,0.44632,0.32606665,-0.30187583,0.455189,0.29900713,-0.27752964,0.437884,0.29151351,-0.26516891,0.435083,0.32864128,-0.23915747,0.436481,0.3098067,-0.19394132,0.424176,0.30173931,-0.18792518,0.418024,0.29901323,-0.19907689,0.412431,0.34785478,-0.23942545,0.432543,0.33572194,-0.1903351,0.416834,0.32872303,-0.16258273,0.40767,0.32179004,-0.14231587,0.401148,0.36374071,-0.24367557,0.429966,0.3588588,-0.19388661,0.416925,0.35567313,-0.17099896,0.410253,0.35264744,-0.14947081,0.404187,0.38264744,-0.25592672,0.428135,0.38243511,-0.21593613,0.41677,0.38154246,-0.1991608,0.411549,0.38084528,-0.18571123,0.406941
0.35132205,-0.31593628,0.445305,0.34947596,-0.27039885,0.438185,0.3350536,-0.30674193,0.445706,0.32545493,-0.30125694,0.45418,0.29826973,-0.27669386,0.436563,0.29056953,-0.26423068,0.433541,0.32629583,-0.23795674,0.433872,0.305646,-0.19167189,0.418894,0.29715277,-0.18487445,0.411404,0.29359784,-0.19512161,0.404596,0.34661151,-0.23890592,0.431404,0.33309066,-0.18907135,0.414838,0.32551481,-0.16107974,0.405174,0.31927136,-0.14095827,0.398272,0.36358696,-0.24378712,0.43014,0.35658794,-0.19284843,0.4151,0.35295174,-0.17003247,0.407406,0.34949941,-0.14857938,0.40041,0.3838203,-0.25666259,0.43001,0.38301093,-0.21499267,0.417999,0.38292837,-0.19896387,0.41248,0.38335103,-0.18374778,0.407611
0.34963769,-0.31500763,0.443574,0.34898791,-0.27045771,0.4379,0.33392462,-0.30629757,0.444629,0.32562752,-0.30128273,0.45438,0.29906959,-0.27705093,0.437463,0.29189437,-0.26501165,0.435191,0.3272405,-0.23902112,0.435422,0.31045131,-0.19476521,0.425362,0.30302095,-0.17784866,0.420332,0.29817674,-0.1760862,0.415759,0.34726556,-0.23972499,0.432496,0.33507718,-0.19045805,0.417464,0.32828529,-0.16274901,0.408695,0.32266343,-0.14302226,0.402432,0.36382048,-0.24431795,0.430699,0.3584718,-0.19411164,0.417896,0.356147,-0.17125251,0.411345,0.35375836,-0.14984505,0.40539,0.38325374,-0.25667709,0.429679,0.38516957,-0.21595565,0.420932,0.3869923,-0.20094708,0.416913,0.38891117,-0.18550028,0.413367
0.34922176,-0.31506193,0.443176,0.34857482,-0.27052185,0.437597,0.33330581,-0.30620459,0.443976,0.32546486,-0.30091639,0.453902,0.29904666,-0.2765859,0.43701,0.29193712,-0.26457078,0.434849,0.32659196,-0.23897315,0.434851,0.30756939,-0.19320175,0.421405,0.29936407,-0.18821207,0.414682,0.29685743,-0.19819087,0.408571,0.34687567,-0.23982597,0.432284,0.33473674,-0.19063426,0.417386,0.3274536,-0.16283135,0.408696,0.32230314,-0.14292129,0.402489,0.36366499,-0.24454075,0.43077,0.35754972,-0.1938412,0.417258,0.35349509,-0.16992615,0.410345,0.35111473,-0.14869933,0.40406,0.38339947,-0.25705326,0.430063,0.38696342,-0.21734344,0.423226,0.3896085,-0.20145849,0.420085,0.39156196,-0.1863295,0.417313
0.34902591,-0.31549612,0.443256,0.34810032,-0.27077587,0.437561,0.33255952,-0.30623056,0.443392,0.32527245,-0.30073548,0.45366,0.29910926,-0.27639465,0.43697,0.29210401,-0.26442245,0.43501,0.3249078,-0.2389355,0.433871,0.30568693,-0.19381365,0.420297,0.2969762,-0.18965067,0.41351,0.29474837,-0.20159947,0.40734,0.34618639,-0.23998117,0.432137,0.33120835,-0.19088281,0.417224,0.32369672,-0.16237806,0.408525,0.31768232,-0.1425388,0.402312,0.36357671,-0.24501399,0.431322,0.3550413,-0.19327239,0.417897,0.3505522,-0.1703794,0.411028,0.34698308,-0.14892597,0.404784,0.38413612,-0.25796131,0.431448,0.38761621,-0.2182367,0.425174,0.38721905,-0.20077166,0.422292,0.39231717,-0.18682185,0.419749
0.34834321,-0.31553928,0.442452,0.34790337,-0.27131677,0.437558,0.33186593,-0.30633892,0.442575,0.32534071,-0.30210636,0.452954,0.2987783,-0.27870299,0.435801,0.29149852,-0.26458425,0.433971,0.32299563,-0.24214833,0.434396,0.30622579,-0.19579437,0.421613,0.2989287,-0.19037018,0.415222,0.29692551,-0.19903282,0.409411,0.34454917,-0.2420379,0.432898,0.33219074,-0.1927839,0.418898,0.32604256,-0.16486782,0.410731,0.32230726,-0.14452198,0.404898,0.36384104,-0.24633791,0.432191,0.35514307,-0.19566871,0.419603,0.35163541,-0.17297227,0.413162,0.34850693,-0.15231884,0.407307,0.38460778,-0.25883298,0.432291,0.38627479,-0.21850231,0.425598,0.38627758,-0.20147161,0.422522,0.38755585,-0.18612434,0.419809
