sluyters/QuantumLeap/backend/src/datasets/dynamic/HandGestureDataset_SHREC2017_csv/Gesture7/finger_1/subject_5_essai_3_skeletons_world.csv
Wrist_x,Wrist_y,Wrist_z,Palm_x,Palm_y,Palm_z,thumb_base_x,thumb_base_y,thumb_base_z,thumb_first_joint_x,thumb_first_joint_y,thumb_first_joint_z,thumb_second_joint_x,thumb_second_joint_y,thumb_second_joint_z,thumb_tip_x,thumb_tip_y,thumb_tip_z,index_base_x,index_base_y,index_base_z,index_first_joint_x,index_first_joint_y,index_first_joint_z,index_second_joint_x,index_second_joint_y,index_second_joint_z,index_tip_x,index_tip_y,index_tip_z,middle_base_x,middle_base_y,middle_base_z,middle_first_joint_x,middle_first_joint_y,middle_first_joint_z,middle_second_joint_x,middle_second_joint_y,middle_second_joint_z,middle_tip_x,middle_tip_y,middle_tip_z,ring_base_x,ring_base_y,ring_base_z,ring_first_joint_x,ring_first_joint_y,ring_first_joint_z,ring_second_joint_x,ring_second_joint_y,ring_second_joint_z,ring_tip_x,ring_tip_y,ring_tip_z,pinky_base_x,pinky_base_y,pinky_base_z,pinky_first_joint_x,pinky_first_joint_y,pinky_first_joint_z,pinky_second_joint_x,pinky_second_joint_y,pinky_second_joint_z,pinky_tip_x,pinky_tip_y,pinky_tip_z,
0.5058632,-0.37451659,0.54136,0.50390667,-0.32857683,0.535956,0.48644929,-0.36241875,0.539202,0.46163268,-0.33085313,0.531312,0.43882416,-0.30119837,0.519761,0.43066058,-0.28214407,0.517635,0.47847993,-0.29104084,0.530524,0.4746185,-0.25405933,0.530091,0.47145212,-0.23445784,0.529875,0.46945078,-0.21739504,0.529679,0.5023659,-0.29381201,0.531848,0.4944528,-0.24900015,0.519794,0.49266574,-0.24638531,0.512763,0.48618409,-0.2584528,0.50774,0.52245323,-0.29995354,0.533395,0.50888938,-0.25962902,0.521793,0.5041452,-0.25159073,0.515857,0.49938038,-0.26484997,0.510461,0.54574397,-0.31694428,0.536027,0.52862615,-0.27893168,0.524519,0.52351445,-0.26549357,0.519232,0.52093232,-0.2613651,0.514567
0.51081577,-0.37990823,0.548104,0.50182154,-0.33339323,0.537449,0.49150254,-0.36759975,0.546115,0.46562948,-0.33661832,0.536917,0.4424182,-0.30487128,0.522687,0.43283239,-0.28397018,0.517912,0.4773532,-0.29268222,0.529624,0.46039928,-0.25378386,0.514651,0.45410434,-0.23414596,0.507164,0.45231554,-0.21806433,0.504744,0.49832293,-0.29838559,0.52935,0.48819067,-0.25296354,0.512841,0.4850351,-0.25215956,0.503211,0.47614438,-0.25637802,0.496333,0.51698777,-0.30503009,0.530025,0.49833562,-0.26394955,0.514851,0.49482255,-0.26712008,0.507087,0.49018574,-0.28045952,0.500029,0.53549035,-0.3223845,0.532428,0.51891487,-0.29333696,0.517755,0.511981,-0.28157879,0.511012,0.50624178,-0.27210761,0.505064
0.51255064,-0.38321059,0.550796,0.50892878,-0.34275254,0.543948,0.49557574,-0.37240659,0.551371,0.47427565,-0.34943574,0.542192,0.45998305,-0.32199994,0.535856,0.45557997,-0.30201472,0.533922,0.48715374,-0.30893539,0.54128,0.47179143,-0.28895911,0.530848,0.46416582,-0.27977606,0.525632,0.45727132,-0.27196263,0.52089,0.50716324,-0.31099147,0.538743,0.49888792,-0.27530938,0.526039,0.49135847,-0.26289808,0.518629,0.48240516,-0.27087999,0.513336,0.52392479,-0.31656193,0.537234,0.52345492,-0.28168229,0.526201,0.51193314,-0.28852455,0.520556,0.51608457,-0.31212698,0.532236,0.54410879,-0.33021448,0.5365,0.52704245,-0.30455145,0.525275,0.52055348,-0.30371596,0.520117,0.51743535,-0.31400553,0.515566
0.50697298,-0.38533504,0.550809,0.49693911,-0.33099909,0.531734,0.49412647,-0.3722879,0.551433,0.47028852,-0.33568296,0.541949,0.45733314,-0.30795639,0.533212,0.45232464,-0.28559452,0.525973,0.48452787,-0.28978002,0.523056,0.46847375,-0.25661139,0.503309,0.46044258,-0.23975092,0.493435,0.461108,-0.22814112,0.492953,0.49907111,-0.29622499,0.517233,0.47749378,-0.26696732,0.494645,0.45901131,-0.26017736,0.481468,0.44143693,-0.26860986,0.472056,0.51121295,-0.3057714,0.514053,0.50244942,-0.27507937,0.494503,0.48046905,-0.281025,0.484501,0.47731705,-0.29857788,0.491537,0.52575934,-0.32473515,0.51321,0.49995701,-0.30019938,0.495047,0.48658682,-0.29966664,0.486702,0.47679044,-0.30838532,0.479339
0.5074852,-0.38701837,0.552572,0.50945507,-0.34601315,0.53449,0.49933224,-0.3767737,0.558015,0.49116018,-0.34784786,0.554496,0.48548883,-0.31860677,0.551816,0.48494417,-0.29814702,0.547192,0.51397612,-0.30620091,0.532442,0.51145668,-0.27171214,0.516862,0.48772289,-0.27030978,0.509072,0.48089063,-0.28526825,0.515061,0.51638785,-0.31294198,0.520744,0.50647728,-0.27342516,0.500926,0.47498072,-0.27297472,0.489366,0.46930827,-0.28817008,0.494349,0.5177292,-0.32227972,0.512643,0.50521308,-0.294171,0.49794,0.47885135,-0.29602475,0.490418,0.47478591,-0.31098444,0.496883,0.51806816,-0.34008522,0.505882,0.48874646,-0.312927,0.491325,0.47080803,-0.30975679,0.484637,0.45838522,-0.31779643,0.479283
0.5080968,-0.384835,0.551593,0.52319456,-0.33749758,0.534337,0.50426002,-0.36877053,0.555892,0.49856112,-0.33341185,0.550564,0.48564098,-0.30573753,0.542049,0.48253763,-0.28430128,0.534738,0.53062854,-0.29778277,0.531244,0.51722619,-0.26112668,0.518019,0.49763899,-0.26632727,0.511406,0.49613902,-0.28573196,0.519067,0.53377245,-0.30748065,0.521219,0.518069,-0.27116664,0.501451,0.48639668,-0.27432522,0.48992,0.48180339,-0.29030573,0.495868,0.53529721,-0.31893696,0.514426,0.51703049,-0.2952269,0.499252,0.49025184,-0.29680163,0.491488,0.48629161,-0.31155403,0.498812,0.53507292,-0.33860744,0.509073,0.49352082,-0.3210126,0.494106,0.49261156,-0.33329769,0.504926,0.50688297,-0.34564875,0.515672
0.52618213,-0.38331156,0.562876,0.54964861,-0.3387365,0.540509,0.5496846,-0.36502074,0.570776,0.53929055,-0.33825537,0.572101,0.53008667,-0.31212465,0.571466,0.52664908,-0.29144684,0.566376,0.57163908,-0.30589163,0.539464,0.53883811,-0.27615175,0.528104,0.51670207,-0.2815039,0.522424,0.52093419,-0.29491617,0.524743,0.55899064,-0.31024025,0.523506,0.5372525,-0.26767719,0.502673,0.49942597,-0.26407911,0.490521,0.49199261,-0.27567189,0.490417,0.54756638,-0.31706026,0.51226,0.51401369,-0.28321645,0.497987,0.48621444,-0.27945883,0.490684,0.4771536,-0.29081766,0.49221,0.53019634,-0.33256119,0.502461,0.48909192,-0.30422695,0.488523,0.4836839,-0.31642315,0.493349,0.49351182,-0.33338498,0.500188
0.54348053,-0.38020404,0.563848,0.55789811,-0.34216257,0.540442,0.55369457,-0.3673277,0.570463,0.54866618,-0.34950988,0.569232,0.53188015,-0.33319354,0.562011,0.52682976,-0.31700622,0.555195,0.57122116,-0.30497124,0.537244,0.55290449,-0.27275624,0.523749,0.52601479,-0.27419317,0.517001,0.51992269,-0.28979025,0.519821,0.56428354,-0.31117055,0.522649,0.50532874,-0.28755403,0.500112,0.4690209,-0.27944083,0.486965,0.45862813,-0.2897523,0.487505,0.55632475,-0.31955366,0.512613,0.52572789,-0.28625945,0.496361,0.49648314,-0.28241684,0.488046,0.48716203,-0.29482479,0.490139,0.54574124,-0.33579665,0.50439,0.50160184,-0.30879779,0.488697,0.49625212,-0.31835757,0.494565,0.50791565,-0.33218734,0.502362
0.54405924,-0.38033617,0.562425,0.56382512,-0.3491736,0.539273,0.55533019,-0.36792678,0.569099,0.5587111,-0.34804607,0.567951,0.54633147,-0.3283247,0.560525,0.54517,-0.31202485,0.553689,0.58792303,-0.31832319,0.536276,0.57573213,-0.28349422,0.522948,0.54759279,-0.28014604,0.516284,0.54208454,-0.2925213,0.519256,0.57548438,-0.32400028,0.521673,0.52067951,-0.29110836,0.499324,0.48504366,-0.27720095,0.486288,0.4720086,-0.28505426,0.486981,0.56398013,-0.33158805,0.511609,0.54123269,-0.29427536,0.495529,0.51219275,-0.2852912,0.487303,0.49986784,-0.29521653,0.489554,0.5481314,-0.34572222,0.503314,0.50968574,-0.31205499,0.487761,0.50273708,-0.31938086,0.493744,0.50933489,-0.33297775,0.501538
0.55688287,-0.38395507,0.572508,0.57765516,-0.3422159,0.54252,0.57432872,-0.35722211,0.573799,0.56747538,-0.32105077,0.56347,0.55952556,-0.28982392,0.553505,0.55821798,-0.2682967,0.54315,0.59252384,-0.30535235,0.529272,0.56524902,-0.27074392,0.502136,0.55162732,-0.25334378,0.488568,0.55297978,-0.24350715,0.488355,0.58559194,-0.31805201,0.519724,0.52561808,-0.28511999,0.489817,0.48327556,-0.27311045,0.472371,0.4716292,-0.27920365,0.471899,0.57906292,-0.33140093,0.514399,0.54645583,-0.29885986,0.489904,0.51184565,-0.28737092,0.477372,0.49807166,-0.29146989,0.478008,0.56977653,-0.35226667,0.512694,0.5233926,-0.31727652,0.490032,0.51620457,-0.32233708,0.496449,0.52698388,-0.33661819,0.506913
0.60877464,-0.38874222,0.583713,0.59954309,-0.34693542,0.546354,0.61523509,-0.37012148,0.583304,0.60207999,-0.33779913,0.573474,0.59601853,-0.30929881,0.567282,0.59165996,-0.28823415,0.556375,0.6023839,-0.30321565,0.52728,0.57878573,-0.2676701,0.496247,0.5670073,-0.24986538,0.48073,0.55959608,-0.23503719,0.469377,0.59212929,-0.31537968,0.517954,0.53802089,-0.27443385,0.484945,0.4930718,-0.2651246,0.465689,0.47456905,-0.26638424,0.456431,0.5845188,-0.32911683,0.513436,0.55932527,-0.29587439,0.483204,0.52039615,-0.28213134,0.467737,0.49734467,-0.27959643,0.458263,0.57697001,-0.35188757,0.51379,0.52186439,-0.31492346,0.48956,0.51097419,-0.3080496,0.487514,0.51165591,-0.30819864,0.495249
0.61852557,-0.3880496,0.582673,0.61963172,-0.34617415,0.545506,0.6357615,-0.3695355,0.582457,0.62009642,-0.33898257,0.572631,0.61219256,-0.3118128,0.566816,0.60651057,-0.291128,0.556078,0.62218006,-0.30252224,0.526773,0.59799104,-0.26686631,0.495657,0.58591427,-0.24901103,0.480098,0.57842319,-0.23416839,0.46877,0.61185057,-0.31455757,0.517252,0.55672649,-0.27374778,0.48421,0.51064338,-0.26461256,0.464936,0.49203417,-0.26622092,0.456179,0.60422465,-0.32818387,0.512557,0.57808823,-0.29462405,0.481881,0.53800733,-0.28091747,0.466186,0.51463497,-0.27871842,0.457115,0.59674362,-0.35081718,0.512675,0.54021556,-0.31405782,0.488398,0.52940949,-0.30760155,0.486885,0.53027386,-0.30795266,0.494843
0.64060819,-0.38951608,0.591401,0.63552918,-0.34738772,0.552494,0.64456196,-0.36917477,0.588861,0.63328486,-0.3291546,0.572638,0.62326115,-0.30007608,0.560654,0.61586737,-0.28084776,0.547514,0.63615389,-0.30331436,0.529935,0.61334405,-0.27148451,0.495929,0.60196863,-0.25555079,0.478927,0.59763742,-0.24349372,0.468164,0.62975924,-0.31883399,0.522917,0.57953847,-0.28092067,0.487017,0.53026605,-0.2710251,0.466076,0.51288453,-0.27183813,0.45833,0.62516566,-0.33501715,0.520429,0.55470013,-0.30520234,0.489805,0.52614247,-0.2989334,0.474137,0.50911837,-0.29734161,0.466966,0.6208435,-0.36007672,0.523398,0.56214583,-0.32201386,0.496144,0.55345707,-0.31618771,0.496302,0.55663957,-0.31726835,0.505955
0.63757946,-0.38545665,0.587165,0.63541745,-0.34523717,0.549193,0.6410878,-0.36502032,0.584554,0.63021247,-0.32620974,0.568706,0.61827706,-0.29665182,0.555378,0.60999123,-0.27760936,0.541874,0.64048073,-0.30103023,0.527009,0.61751498,-0.26855117,0.49308,0.60604881,-0.25230038,0.476116,0.5971272,-0.24068242,0.464786,0.63694441,-0.3167943,0.520326,0.58605503,-0.28044407,0.484356,0.53633694,-0.27214064,0.463374,0.52099691,-0.27435174,0.457474,0.63436026,-0.33319103,0.518036,0.5677153,-0.30390112,0.487218,0.53541431,-0.29676043,0.47145,0.51891608,-0.29606341,0.466185,0.63172249,-0.35856817,0.521095,0.57454937,-0.3213403,0.493498,0.56564412,-0.31736498,0.495593,0.56802643,-0.31961063,0.506117
0.64521409,-0.38903441,0.592299,0.65151074,-0.35179305,0.554569,0.64673451,-0.36733887,0.58816,0.63895319,-0.32945054,0.570086,0.62520345,-0.2982047,0.553816,0.61120833,-0.2776778,0.538973,0.65019504,-0.30617826,0.530558,0.63003126,-0.2745658,0.496533,0.62637687,-0.26142588,0.484479,0.62328881,-0.24935179,0.473522,0.65038959,-0.32338096,0.525887,0.57837618,-0.29527606,0.489123,0.5367423,-0.2923018,0.467678,0.52905728,-0.29569912,0.463037,0.65080187,-0.34105857,0.525231,0.58482233,-0.31226497,0.493064,0.5472587,-0.30335756,0.476606,0.52912492,-0.3017495,0.472484,0.65147855,-0.36810182,0.53017,0.59394994,-0.33103291,0.501367,0.58612095,-0.32847483,0.504928,0.59399845,-0.33530846,0.516446
0.64659141,-0.38851431,0.591285,0.66055204,-0.35392906,0.555919,0.65070333,-0.36595303,0.587906,0.64721106,-0.33150803,0.571187,0.63363907,-0.30022181,0.554724,0.62501803,-0.28096122,0.539973,0.66327183,-0.31100164,0.53405,0.64567529,-0.27903484,0.501969,0.64235141,-0.26525506,0.490062,0.63955534,-0.25259404,0.479238,0.66241611,-0.32752392,0.529033,0.59398316,-0.29688016,0.493772,0.5501517,-0.29417215,0.473203,0.5461994,-0.29928445,0.470538,0.66162519,-0.34443492,0.527893,0.59924543,-0.31395441,0.497173,0.56055824,-0.30582726,0.481456,0.54890546,-0.30896524,0.479426,0.66026085,-0.37018968,0.531906,0.60522038,-0.33225268,0.504178,0.59848824,-0.33285958,0.509464,0.60204709,-0.33969281,0.521272
0.64848939,-0.38673456,0.588697,0.66904546,-0.35859013,0.560852,0.65756057,-0.36902197,0.587689,0.65845391,-0.33439093,0.575055,0.65127523,-0.30061896,0.561135,0.64892098,-0.27916735,0.548927,0.68110158,-0.3198544,0.54574,0.6721146,-0.2913362,0.518476,0.66241092,-0.27493742,0.504844,0.65626007,-0.2620672,0.493797,0.68044984,-0.33627042,0.539685,0.61871392,-0.31060034,0.509285,0.57696482,-0.30885731,0.491552,0.57494848,-0.31484471,0.493287,0.67902556,-0.35271131,0.537055,0.62409334,-0.32759251,0.511769,0.58754413,-0.32041797,0.498831,0.57721434,-0.32445622,0.501693,0.67556438,-0.37717452,0.538183,0.62593169,-0.34385972,0.514798,0.62215227,-0.34586407,0.52363,0.62385865,-0.35154126,0.535284
0.6637229,-0.39362941,0.596786,0.67203663,-0.35967222,0.561479,0.66659696,-0.37292842,0.594456,0.66286425,-0.33518226,0.579037,0.65916727,-0.30038074,0.566358,0.66084617,-0.28105432,0.555813,0.67594365,-0.31733833,0.540978,0.65978866,-0.28627451,0.508839,0.65757878,-0.27357332,0.497266,0.65567119,-0.26157666,0.486744,0.67392982,-0.33346772,0.534639,0.60725424,-0.30470481,0.49989,0.59655693,-0.31885078,0.508066,0.61181246,-0.33479034,0.523202,0.67217046,-0.34990548,0.532406,0.61207786,-0.32153283,0.502557,0.57349263,-0.31282394,0.487286,0.56021712,-0.31451799,0.484972,0.669731,-0.37489932,0.53513,0.61633549,-0.33899814,0.508134,0.60826934,-0.33861278,0.512924,0.61321522,-0.34580588,0.524282
0.6528475,-0.39080779,0.593649,0.66536291,-0.36039344,0.563717,0.65005302,-0.36830768,0.589291,0.64877377,-0.33039694,0.572162,0.65506577,-0.30032908,0.563505,0.66121259,-0.28396243,0.5568,0.66575292,-0.32049865,0.543301,0.6666223,-0.29197498,0.515838,0.67294421,-0.28064118,0.506948,0.67336263,-0.27259645,0.498866,0.6689468,-0.34008002,0.540963,0.62983983,-0.32188157,0.508831,0.621435,-0.33661783,0.523052,0.63094102,-0.3460094,0.539138,0.67081057,-0.35870974,0.541569,0.63436659,-0.34277636,0.512847,0.59552198,-0.3364167,0.498152,0.58930697,-0.33798618,0.500023,0.67152462,-0.38528077,0.546808,0.63298618,-0.36169609,0.520651,0.62673189,-0.36861517,0.529341,0.63652382,-0.37954913,0.541916
0.66392832,-0.3968719,0.599141,0.67534673,-0.36524532,0.56821,0.66188333,-0.37522634,0.595107,0.6529289,-0.34319134,0.577341,0.65285533,-0.31165433,0.567939,0.65690529,-0.29290416,0.560734,0.66924705,-0.32206919,0.547709,0.66761644,-0.29247828,0.518423,0.67485714,-0.28132725,0.510123,0.67897771,-0.2722397,0.502578,0.67427597,-0.34055257,0.544696,0.63999078,-0.31915248,0.510882,0.63155388,-0.33610574,0.524237,0.63444197,-0.34754555,0.54066,0.68093909,-0.35646709,0.54483,0.63618873,-0.34295308,0.513933,0.59620395,-0.33579025,0.498125,0.58952312,-0.33597635,0.498837,0.6872701,-0.38329538,0.549667,0.63924372,-0.36345295,0.52323,0.63054667,-0.36966489,0.531403,0.6389034,-0.37978085,0.543876
0.66565839,-0.39914445,0.600652,0.67327996,-0.36621689,0.569374,0.66347289,-0.37732223,0.596831,0.65460591,-0.34418798,0.57926,0.65446273,-0.31264359,0.570179,0.65878517,-0.2940837,0.563455,0.66977814,-0.32213676,0.548973,0.66597829,-0.29137677,0.519585,0.67352801,-0.28008421,0.51155,0.68073454,-0.27160727,0.504246,0.67537413,-0.3401057,0.545596,0.63312681,-0.32196729,0.511497,0.6265233,-0.33697003,0.524509,0.63483337,-0.34807858,0.540928,0.68152416,-0.35627248,0.545461,0.63604382,-0.34227009,0.513863,0.59576213,-0.33497366,0.497696,0.58893655,-0.33475322,0.497984,0.68776724,-0.38296806,0.550034,0.63951913,-0.36311153,0.52356,0.63105744,-0.36931383,0.531518,0.63894684,-0.37919571,0.543921
0.65034231,-0.38950795,0.586324,0.67382505,-0.36274615,0.566622,0.65291422,-0.36974578,0.586603,0.6598023,-0.33320725,0.576498,0.67303834,-0.30908177,0.576783,0.67658016,-0.29240746,0.569602,0.68745298,-0.32221916,0.557194,0.69959719,-0.29509979,0.53565,0.70186885,-0.28393278,0.524878,0.69743559,-0.27533025,0.515085,0.69056164,-0.33910169,0.551646,0.65172721,-0.33187369,0.526618,0.64985565,-0.35442361,0.544826,0.66116108,-0.36367398,0.56094,0.69134188,-0.35522865,0.548744,0.64992927,-0.34820667,0.523935,0.65018255,-0.36373093,0.538943,0.66017209,-0.37321177,0.555833,0.68919236,-0.3782205,0.548324,0.65465915,-0.36571441,0.529429,0.65236592,-0.37646186,0.540992,0.65086366,-0.38608244,0.553122
0.65051621,-0.38902456,0.586221,0.67612839,-0.36022268,0.567395,0.65359003,-0.36965894,0.586936,0.66654431,-0.33678725,0.583591,0.67173562,-0.30772958,0.577158,0.6779846,-0.29216138,0.571589,0.68797415,-0.32108704,0.558958,0.69890939,-0.29091728,0.538334,0.70033468,-0.27988102,0.528023,0.70413382,-0.27332276,0.518648,0.6910017,-0.33768672,0.553084,0.65544479,-0.33180507,0.528776,0.65165119,-0.35303961,0.547182,0.66200183,-0.36377723,0.563211,0.69164388,-0.35357269,0.549841,0.65340984,-0.34645604,0.525594,0.64959683,-0.36310538,0.540759,0.65850456,-0.37192599,0.554546,0.68920592,-0.37625423,0.548887,0.65542607,-0.36414573,0.530637,0.65333805,-0.37511403,0.542354,0.65297258,-0.38650039,0.554534
0.65271467,-0.38966526,0.588314,0.67625848,-0.35891868,0.56962,0.65626344,-0.37079776,0.588853,0.66284131,-0.33294973,0.58274,0.66248404,-0.30028614,0.572569,0.67234932,-0.28612113,0.567929,0.68961262,-0.32104242,0.561023,0.70072631,-0.29209529,0.540571,0.70347925,-0.28080621,0.530345,0.70634027,-0.27041382,0.521048,0.69269223,-0.33784151,0.555409,0.65538277,-0.33223731,0.531226,0.65407339,-0.35443603,0.549772,0.66076101,-0.3633841,0.563019,0.69334882,-0.35385208,0.552369,0.65638066,-0.34731796,0.528313,0.65456362,-0.3641558,0.543599,0.66162661,-0.37367623,0.557495,0.69088016,-0.37662265,0.551632,0.6582256,-0.36482022,0.533255,0.6565185,-0.37623227,0.545075,0.65653628,-0.38813002,0.557293
0.65580959,-0.39083266,0.590703,0.6775987,-0.35919195,0.571269,0.65895921,-0.37186907,0.591164,0.66311058,-0.33269947,0.58338,0.66301859,-0.30052843,0.573031,0.67200456,-0.28552415,0.568115,0.69061554,-0.3211056,0.562205,0.70106359,-0.29237676,0.541111,0.70379137,-0.28082046,0.530564,0.70660963,-0.27019394,0.520976,0.6934437,-0.33787343,0.556496,0.65566022,-0.33212409,0.531685,0.65391255,-0.35405815,0.549933,0.66042795,-0.36314894,0.562967,0.69395857,-0.35386823,0.553439,0.65675745,-0.34716253,0.52878,0.65467532,-0.36399611,0.543818,0.66136734,-0.37352106,0.557489,0.69145712,-0.3766653,0.552796,0.65835417,-0.36445331,0.533534,0.65665676,-0.37595923,0.54523,0.65707315,-0.38810525,0.557558
0.65951334,-0.39280047,0.594419,0.68091158,-0.36073154,0.574961,0.66179943,-0.37346965,0.594525,0.66384095,-0.3327791,0.586087,0.66445409,-0.30197625,0.57559,0.67082743,-0.28461025,0.568518,0.69230011,-0.32100661,0.565431,0.70186495,-0.29335755,0.544053,0.69919585,-0.28062106,0.533364,0.70660344,-0.27176931,0.524854,0.69483511,-0.33745354,0.560168,0.65839102,-0.33258575,0.535361,0.65676003,-0.35474771,0.553756,0.66414551,-0.36513687,0.566895,0.69565261,-0.35361781,0.557481,0.66047697,-0.34792148,0.532958,0.65911282,-0.3662439,0.548124,0.66601186,-0.37610391,0.561912,0.69351487,-0.37661337,0.557274,0.6634476,-0.36525789,0.537918,0.66230896,-0.37716309,0.549694,0.66203302,-0.39040724,0.561507
0.66004895,-0.39323819,0.59584,0.68179681,-0.36140536,0.576537,0.66244631,-0.37417463,0.59648,0.66118326,-0.33464873,0.587849,0.66018726,-0.30359911,0.576664,0.66607093,-0.28568003,0.571282,0.6926914,-0.32142,0.567766,0.69846112,-0.29233507,0.54673,0.69999405,-0.28074466,0.536211,0.70123854,-0.27041811,0.52665,0.69555556,-0.33790909,0.561862,0.6600034,-0.3330081,0.53715,0.65831542,-0.35530946,0.555374,0.6658349,-0.36557759,0.568391,0.69611676,-0.35370592,0.558635,0.66149386,-0.34784791,0.534009,0.66003027,-0.36629355,0.549024,0.66685952,-0.37623073,0.562674,0.69371305,-0.37635996,0.557771,0.6649472,-0.36443453,0.53868,0.66732701,-0.37459287,0.550358,0.66333081,-0.38965442,0.561605
0.66012429,-0.39392912,0.596923,0.68146391,-0.36101506,0.57799,0.66226971,-0.37499991,0.597964,0.65946057,-0.33674904,0.589409,0.6583591,-0.30531423,0.579114,0.66459708,-0.28755316,0.57485,0.68819278,-0.32085933,0.569913,0.69710239,-0.29131769,0.549002,0.6980305,-0.27957991,0.538547,0.69822915,-0.26946707,0.529042,0.69354089,-0.3369785,0.563597,0.66045137,-0.33263711,0.539177,0.66003671,-0.35615942,0.557374,0.66800162,-0.36661334,0.570372,0.69461516,-0.35237748,0.559998,0.66193115,-0.34707567,0.535518,0.66095943,-0.3660251,0.550504,0.66812266,-0.37697423,0.564127,0.69419708,-0.37625016,0.558644,0.6649601,-0.36459901,0.53908,0.66503758,-0.37671098,0.550919,0.66389053,-0.3903107,0.562396
0.6662713,-0.39710035,0.602519,0.67454088,-0.35882003,0.578108,0.66729658,-0.37510614,0.60318,0.65964745,-0.33629919,0.592122,0.65843044,-0.30477322,0.581506,0.66630545,-0.28757061,0.576867,0.68197183,-0.31764599,0.566827,0.68217018,-0.28660879,0.54122,0.67763496,-0.27470531,0.528417,0.6725365,-0.26449549,0.516778,0.68458767,-0.33280334,0.559552,0.64170145,-0.32296609,0.53061,0.63757647,-0.34387161,0.546044,0.64942547,-0.35575507,0.557068,0.68404609,-0.34770776,0.555627,0.64333345,-0.33720971,0.526721,0.63921107,-0.35419202,0.53941,0.64817862,-0.36642979,0.550946,0.68277917,-0.37065948,0.554719,0.64856756,-0.35544019,0.53245,0.64599332,-0.36647857,0.542342,0.65037254,-0.38058213,0.554015
0.65986685,-0.39300583,0.597817,0.66439121,-0.35507357,0.572478,0.65213862,-0.37133478,0.595997,0.63858336,-0.33298241,0.58082,0.63350208,-0.30094651,0.568152,0.63703678,-0.28122622,0.562132,0.66272006,-0.31138319,0.557577,0.66394466,-0.27886931,0.531398,0.66114166,-0.26665965,0.518308,0.66211951,-0.2591881,0.50921,0.67043379,-0.32709618,0.553216,0.63287745,-0.32072701,0.523639,0.63035748,-0.34278153,0.53983,0.64094191,-0.35231105,0.551396,0.67588702,-0.3430744,0.551769,0.63933977,-0.33638416,0.523143,0.6385532,-0.35641158,0.536507,0.64381402,-0.3653692,0.548657,0.68130757,-0.3688025,0.553905,0.6472307,-0.35530043,0.530601,0.64577947,-0.36776868,0.540865,0.64998909,-0.38230737,0.553047
0.63932141,-0.38916712,0.591387,0.64180845,-0.35506732,0.566622,0.63018149,-0.36998204,0.587513,0.61256596,-0.33309971,0.569534,0.60282871,-0.30055961,0.553139,0.60333521,-0.28031984,0.54377,0.63996345,-0.31022199,0.549387,0.64207721,-0.279312,0.523398,0.64681644,-0.26704501,0.513877,0.65510328,-0.25620112,0.50614,0.65058811,-0.32702552,0.547795,0.61242241,-0.32669465,0.518943,0.60956531,-0.34788645,0.536018,0.61610506,-0.35328593,0.548213,0.6583461,-0.34385368,0.548578,0.62217411,-0.34321192,0.52144,0.61941698,-0.3610231,0.535579,0.62191232,-0.36919899,0.548433,0.665796,-0.36912559,0.553242,0.62962677,-0.3613245,0.52971,0.62863719,-0.37475476,0.540406,0.62911154,-0.38793835,0.552836
0.61712612,-0.38776874,0.582965,0.63342521,-0.3524573,0.562042,0.61096819,-0.36721837,0.579246,0.60715104,-0.33118386,0.567491,0.59749352,-0.29949084,0.550004,0.59775885,-0.27895954,0.540238,0.62989975,-0.30960692,0.546914,0.639192,-0.2778145,0.523316,0.63621995,-0.26773772,0.511517,0.63785058,-0.26045623,0.501974,0.64186763,-0.32581755,0.546137,0.61383909,-0.32864957,0.520558,0.61266045,-0.35123575,0.539315,0.61961266,-0.356995,0.552712,0.65034936,-0.34198269,0.547266,0.62436168,-0.3448904,0.523369,0.62328262,-0.36414847,0.53891,0.62649011,-0.37270286,0.553037,0.65801239,-0.36611336,0.551754,0.63361486,-0.36648586,0.534408,0.63540864,-0.38539256,0.547341,0.64219899,-0.39836995,0.560316
0.61755807,-0.39380909,0.588142,0.61573731,-0.35613103,0.563351,0.60517101,-0.37492318,0.584004,0.58875293,-0.34056031,0.569285,0.57738667,-0.30731772,0.552052,0.57694596,-0.28691424,0.542076,0.60707798,-0.30962159,0.545769,0.60991731,-0.28110524,0.518888,0.61862396,-0.27001324,0.511458,0.62692518,-0.25977371,0.504704,0.62125593,-0.32414004,0.544505,0.58627707,-0.32594964,0.515675,0.5842871,-0.34944282,0.532777,0.58959489,-0.3553153,0.544993,0.63228472,-0.33954273,0.545561,0.59760391,-0.34108439,0.518541,0.59526255,-0.36038023,0.532708,0.59675608,-0.36854955,0.545587,0.64420555,-0.36392469,0.550548,0.61051701,-0.36140993,0.528067,0.61118272,-0.37729942,0.539558,0.61285069,-0.38976294,0.549697
0.6058941,-0.40437397,0.587952,0.60584005,-0.36189866,0.562045,0.59498811,-0.38469238,0.584454,0.58307627,-0.3557834,0.571111,0.56825459,-0.31973057,0.556873,0.56786668,-0.29945283,0.553626,0.59019153,-0.31456244,0.544722,0.58573827,-0.28369589,0.517052,0.58980294,-0.27103215,0.508541,0.5938381,-0.25932164,0.500804,0.6061688,-0.32612937,0.54235,0.57235203,-0.32579208,0.51249,0.57266264,-0.35286856,0.528896,0.57756392,-0.36107333,0.540614,0.61927599,-0.33956367,0.542588,0.5820269,-0.34127956,0.514295,0.58016453,-0.3613676,0.527869,0.58191671,-0.3713316,0.540209,0.63468823,-0.36243845,0.546786,0.59685288,-0.3597425,0.522554,0.59827021,-0.37466774,0.533232,0.60265164,-0.38583795,0.542654
0.60008183,-0.40409406,0.58763,0.59681714,-0.35990049,0.561588,0.58667549,-0.38703402,0.584933,0.5642054,-0.34424426,0.568466,0.55048049,-0.31233182,0.554714,0.54548067,-0.29102839,0.54345,0.59028534,-0.31383536,0.545219,0.57837251,-0.28434319,0.518763,0.57602244,-0.27144702,0.508345,0.57411176,-0.25954661,0.498873,0.60363532,-0.32647711,0.54179,0.56538737,-0.32095226,0.511722,0.56425245,-0.34752803,0.527827,0.56755399,-0.35918773,0.539331,0.611,-0.34254556,0.54117,0.57121173,-0.33875872,0.512371,0.56859537,-0.35820122,0.52568,0.56958706,-0.37069961,0.53778,0.62103812,-0.3671744,0.544382,0.58272638,-0.35962209,0.520254,0.58406653,-0.37593188,0.530507,0.58699364,-0.38886053,0.539554
0.56027088,-0.3944966,0.582865,0.57264321,-0.35468942,0.558749,0.55324782,-0.37360831,0.579637,0.53927777,-0.33361342,0.562595,0.52772253,-0.30012254,0.548419,0.52817733,-0.27897538,0.542148,0.56946659,-0.30922078,0.542661,0.55828574,-0.28230461,0.517635,0.55369664,-0.26926952,0.505927,0.54985328,-0.25734692,0.495422,0.58124955,-0.32495585,0.540416,0.54603498,-0.32324739,0.512017,0.54436178,-0.34930029,0.52929,0.54759762,-0.36003936,0.541628,0.58998111,-0.34111943,0.540608,0.5531929,-0.34062808,0.513689,0.55076293,-0.35991727,0.527982,0.55153742,-0.37224914,0.540976,0.59859561,-0.36596839,0.54448,0.56423263,-0.361287,0.522164,0.56653591,-0.37838088,0.533764,0.57017815,-0.39185115,0.543999
0.56301118,-0.40045333,0.587264,0.57055735,-0.35683501,0.560227,0.5542351,-0.3795511,0.583675,0.53088387,-0.34274715,0.565903,0.51534071,-0.30826887,0.553142,0.51570128,-0.28812288,0.54994,0.55639687,-0.31046912,0.542229,0.53976143,-0.27995066,0.51568,0.53323848,-0.26535898,0.503992,0.52741652,-0.25193462,0.493365,0.57028039,-0.32423364,0.539675,0.53215711,-0.32180803,0.508899,0.52890962,-0.34671047,0.524691,0.53129817,-0.35656281,0.53597,0.58134155,-0.33925281,0.539858,0.54092296,-0.33831114,0.510672,0.537076,-0.35643766,0.523737,0.53610693,-0.36834877,0.535614,0.59601196,-0.36468719,0.544162,0.55411038,-0.35832469,0.519175,0.55376699,-0.37406443,0.529445,0.55488141,-0.38666116,0.538508
0.56191598,-0.40055188,0.588583,0.55691219,-0.34951017,0.560516,0.55246065,-0.38064354,0.585756,0.52332289,-0.33963312,0.569846,0.50449601,-0.30587962,0.555617,0.49625219,-0.28428749,0.543815,0.54111644,-0.30210195,0.542976,0.51940161,-0.27475944,0.51529,0.50954531,-0.26142625,0.502366,0.50078036,-0.24925965,0.490753,0.55596826,-0.3127627,0.539179,0.51789917,-0.31480098,0.507489,0.51944815,-0.3436344,0.522403,0.52602312,-0.35472367,0.533055,0.56823476,-0.32550484,0.538428,0.53007734,-0.32751622,0.508035,0.52986057,-0.34827639,0.520355,0.53203948,-0.3633406,0.531554,0.5828917,-0.34768948,0.541792,0.54601782,-0.34669053,0.516948,0.55069958,-0.36433165,0.527371,0.55424208,-0.3820043,0.536567
0.57157976,-0.40749495,0.602512,0.55785922,-0.35308144,0.566047,0.55595589,-0.3864573,0.597372,0.52250252,-0.34119971,0.57893,0.50506628,-0.30776856,0.566382,0.50036837,-0.28478596,0.557655,0.53283512,-0.30521432,0.541389,0.50573629,-0.27187411,0.509314,0.49370798,-0.2559614,0.494793,0.48709343,-0.24301207,0.481592,0.54694186,-0.31807156,0.538326,0.50479403,-0.30746246,0.500661,0.49876358,-0.32933722,0.509324,0.50916263,-0.34393175,0.525667,0.5592606,-0.33249698,0.538888,0.51557856,-0.32503834,0.503263,0.51390189,-0.34360926,0.510431,0.51736842,-0.35276628,0.516946,0.57508721,-0.356419,0.545062,0.5235974,-0.3473049,0.515941,0.51482734,-0.34879834,0.521017,0.50771374,-0.34990488,0.525496
0.55989102,-0.40258677,0.601024,0.54116939,-0.34479609,0.564004,0.54037906,-0.379456,0.594954,0.5072711,-0.33678857,0.573926,0.4852615,-0.30284014,0.557213,0.47646076,-0.27832997,0.546074,0.51530138,-0.29252615,0.537886,0.48558453,-0.26675878,0.505,0.47073479,-0.2538415,0.488558,0.4572395,-0.24207543,0.47361,0.53246639,-0.30335381,0.535861,0.48968319,-0.29988193,0.497915,0.48636935,-0.32379283,0.506317,0.49753313,-0.33833117,0.52268,0.54765344,-0.31682801,0.537324,0.50740422,-0.31641193,0.501753,0.50823664,-0.33576384,0.508721,0.51367645,-0.34638858,0.515056,0.56751719,-0.34103306,0.544638,0.52219551,-0.33346156,0.514845,0.51576651,-0.34170983,0.519716,0.50827416,-0.3489061,0.524013
0.55073104,-0.3984733,0.600137,0.53241839,-0.33953683,0.564449,0.53156092,-0.37860488,0.595743,0.50131753,-0.33409313,0.577421,0.47953988,-0.30084064,0.562457,0.47073261,-0.27662505,0.551739,0.50761451,-0.28854056,0.541129,0.47602929,-0.26187838,0.509861,0.46022636,-0.24849799,0.494228,0.44585155,-0.23630051,0.480015,0.52344242,-0.29804933,0.53732,0.47885529,-0.29350524,0.500121,0.47727125,-0.31843065,0.509289,0.48980115,-0.33376404,0.525623,0.537562,-0.31045038,0.537202,0.4952872,-0.30878279,0.50178,0.49793527,-0.32913304,0.509352,0.50378876,-0.3375726,0.516236,0.55622659,-0.33340779,0.542461,0.51020991,-0.32569459,0.51401,0.5054127,-0.33500715,0.519444,0.50135357,-0.34312321,0.524238
0.54172208,-0.39216327,0.591731,0.52518569,-0.33391459,0.559454,0.52629144,-0.37519812,0.591361,0.49783998,-0.33809146,0.579487,0.47405579,-0.3070842,0.566964,0.4612781,-0.28451125,0.55534,0.49742862,-0.2842812,0.542953,0.47243058,-0.25085703,0.513873,0.46177889,-0.2350043,0.501331,0.4521064,-0.22047068,0.489929,0.5104977,-0.28846466,0.534917,0.46582951,-0.28112655,0.50011,0.46885552,-0.30823918,0.509811,0.48377582,-0.32560556,0.525446,0.52266355,-0.29660115,0.531031,0.47944243,-0.29374974,0.496542,0.48718724,-0.31426365,0.504484,0.49632557,-0.32671867,0.511704,0.53967151,-0.31475199,0.531358,0.49383477,-0.30606884,0.506674,0.48540004,-0.31432363,0.512623,0.48582055,-0.32501284,0.523617
0.52727318,-0.38399702,0.58151,0.51518848,-0.32655641,0.552527,0.5172931,-0.36883603,0.583423,0.48878507,-0.33332464,0.57469,0.46723489,-0.30313281,0.564642,0.46055392,-0.28277664,0.55693,0.49672264,-0.2818917,0.540571,0.47192493,-0.24417848,0.514765,0.46162098,-0.22722796,0.504968,0.45223397,-0.21163961,0.496061,0.50712163,-0.28597158,0.530495,0.48088007,-0.24771024,0.498214,0.47880726,-0.26972896,0.508813,0.48727389,-0.29166223,0.523816,0.51652313,-0.29372308,0.524651,0.4803453,-0.26424681,0.491871,0.48142497,-0.28138244,0.500519,0.49311001,-0.30777566,0.51721,0.52932213,-0.31085296,0.522185,0.48712141,-0.3023802,0.50036,0.47923172,-0.31120284,0.506994,0.47988196,-0.32186241,0.517248
0.52632972,-0.3836174,0.58235,0.51507336,-0.32618969,0.553014,0.51451439,-0.3669425,0.584403,0.48769039,-0.33254831,0.575328,0.46657633,-0.30274853,0.566312,0.45840012,-0.28032519,0.559299,0.49933372,-0.28023414,0.54106,0.47187615,-0.2458374,0.516718,0.45566485,-0.23033049,0.505266,0.44255463,-0.21546814,0.494854,0.50780391,-0.2856715,0.530713,0.47931992,-0.24782039,0.49822,0.47619518,-0.26850948,0.508261,0.48391216,-0.29090706,0.523167,0.51654941,-0.29369937,0.524677,0.48200062,-0.26426447,0.494367,0.48230444,-0.28055407,0.502699,0.4927243,-0.30645096,0.518266,0.52845244,-0.31116684,0.522037,0.48612558,-0.30126194,0.500207,0.47699383,-0.30910035,0.506486,0.47797909,-0.32073902,0.516604
0.52689648,-0.38407919,0.583585,0.5168796,-0.32874183,0.553892,0.51716141,-0.36873586,0.585606,0.49170982,-0.33621063,0.576522,0.46558748,-0.30956351,0.565417,0.45952915,-0.28466888,0.557888,0.49749289,-0.28374978,0.541721,0.4741144,-0.24654022,0.519428,0.46386154,-0.22805315,0.509405,0.45379129,-0.21170562,0.500293,0.5066688,-0.28910826,0.53132,0.49266116,-0.24325928,0.502011,0.49023383,-0.24743943,0.506295,0.49386395,-0.26759707,0.5194,0.5147539,-0.30033508,0.525268,0.48104454,-0.27199655,0.494854,0.48016302,-0.28909923,0.502898,0.49167544,-0.31156511,0.518392,0.5263261,-0.31805395,0.522666,0.4861343,-0.31160749,0.500696,0.47866234,-0.31947224,0.506743,0.47756091,-0.32545231,0.516819
0.52317452,-0.38205551,0.580669,0.51335456,-0.32714446,0.552789,0.51147577,-0.36583611,0.582539,0.48064933,-0.33631858,0.573018,0.4550673,-0.30843641,0.559802,0.44198116,-0.28771127,0.548892,0.49467845,-0.2844359,0.541326,0.47256733,-0.24593221,0.520111,0.46198086,-0.22654395,0.510891,0.45433091,-0.21152056,0.502509,0.50545812,-0.28894278,0.531596,0.49221124,-0.24177777,0.503282,0.49275638,-0.2485273,0.509763,0.4977594,-0.26961109,0.523609,0.51617905,-0.29603775,0.525943,0.4856599,-0.26515373,0.497359,0.49112609,-0.27950501,0.507132,0.49777506,-0.30782132,0.522578,0.52751055,-0.31447551,0.523534,0.48949059,-0.30428131,0.502075,0.48428208,-0.31455355,0.509442,0.48192379,-0.32678383,0.519851
0.51868986,-0.37984389,0.576988,0.51336857,-0.33238466,0.561147,0.50426693,-0.36228649,0.575962,0.47090327,-0.33169917,0.562976,0.44765984,-0.30478903,0.551072,0.43603743,-0.28454055,0.5408,0.49101574,-0.28912422,0.551973,0.47270752,-0.25008737,0.534531,0.46353898,-0.2304054,0.525811,0.45519372,-0.21240986,0.517883,0.50950583,-0.29521935,0.549105,0.49898767,-0.2471779,0.528562,0.48511186,-0.23695698,0.516578,0.48986738,-0.23876871,0.524323,0.52503579,-0.30440284,0.548084,0.51099261,-0.25806809,0.530024,0.50041863,-0.24327099,0.520784,0.50559127,-0.25506765,0.529348,0.54370795,-0.32274412,0.549282,0.53168632,-0.28089896,0.532024,0.52325243,-0.27037661,0.524095,0.52676342,-0.28086478,0.529959
0.51325101,-0.37723255,0.573987,0.50569338,-0.32944132,0.558018,0.49891356,-0.36099705,0.574268,0.46981915,-0.3314384,0.563077,0.44661073,-0.3034662,0.550773,0.43608313,-0.28302582,0.541649,0.48839432,-0.28747351,0.550444,0.47099883,-0.24859443,0.533491,0.46227111,-0.22900174,0.525015,0.45432627,-0.21107404,0.517308,0.50512533,-0.29270412,0.545878,0.49438358,-0.24519455,0.525604,0.4818586,-0.22312643,0.513777,0.48925132,-0.21416893,0.521345,0.51914025,-0.30113824,0.543469,0.51930288,-0.25885797,0.522685,0.51481568,-0.24228262,0.512052,0.51702052,-0.24927015,0.519525,0.53597888,-0.31852963,0.543061,0.52389865,-0.27889698,0.526388,0.51904442,-0.26109733,0.518727,0.51090094,-0.2545389,0.511968
0.51173157,-0.37568757,0.570889,0.50578531,-0.32774399,0.557871,0.49640118,-0.35857651,0.569239,0.46696293,-0.3295122,0.560267,0.44350074,-0.30119846,0.551425,0.43375563,-0.28199774,0.539843,0.48407249,-0.28496338,0.549278,0.46790498,-0.24522213,0.532395,0.45979809,-0.22522662,0.523953,0.45287892,-0.20855637,0.516279,0.50325399,-0.28743874,0.547933,0.49447387,-0.24170166,0.533941,0.4896588,-0.21733765,0.525778,0.48631242,-0.20183249,0.519948,0.52113793,-0.29443129,0.547924,0.50687943,-0.24886515,0.530793,0.50035299,-0.22950264,0.522029,0.51130614,-0.22213207,0.531362,0.5428893,-0.31001148,0.549878,0.53593808,-0.27174041,0.538681,0.53351861,-0.25678445,0.533536,0.53141405,-0.24345285,0.528997
0.50846878,-0.3739748,0.568803,0.5041478,-0.32687904,0.556271,0.49387392,-0.35770814,0.566899,0.46408266,-0.32927546,0.558137,0.44240789,-0.30218028,0.549271,0.43249691,-0.28200362,0.538901,0.47958559,-0.28485127,0.547595,0.46400993,-0.24451666,0.531001,0.45737558,-0.22513047,0.522703,0.45079281,-0.20794811,0.515161,0.50232907,-0.28975463,0.546703,0.49216709,-0.24273468,0.532796,0.48716576,-0.2184055,0.524683,0.48368456,-0.20293483,0.518888,0.51949849,-0.29547338,0.547026,0.50520397,-0.25001544,0.53021,0.49864781,-0.23072511,0.521606,0.50956149,-0.22348612,0.531112,0.54170551,-0.31108278,0.549296,0.53439215,-0.27270272,0.538027,0.53179369,-0.25772376,0.532849,0.52952839,-0.24437267,0.52828
0.50526247,-0.37235561,0.566096,0.50245434,-0.32612982,0.554813,0.49043644,-0.35674853,0.564512,0.4635109,-0.32937775,0.557232,0.44128032,-0.30171792,0.546088,0.43123843,-0.28219849,0.534735,0.47838112,-0.28530961,0.547167,0.46530814,-0.24527402,0.531552,0.45802168,-0.22517196,0.523745,0.451938,-0.20782561,0.516647,0.49995095,-0.28879915,0.546198,0.49610807,-0.24570343,0.538315,0.49398067,-0.22142123,0.533716,0.48926653,-0.20498113,0.530825,0.51809406,-0.29569565,0.546352,0.5154973,-0.25591431,0.541649,0.51313782,-0.23673413,0.539243,0.5131325,-0.21889674,0.538152,0.54005651,-0.3110736,0.548235,0.53375348,-0.27317247,0.537999,0.53140962,-0.25797245,0.533296,0.52936384,-0.24443567,0.529146
0.50220682,-0.37048379,0.564341,0.5032214,-0.32317267,0.556228,0.49045792,-0.35731764,0.566374,0.46607147,-0.32700619,0.562197,0.4428034,-0.29930512,0.552993,0.4333901,-0.28219389,0.540394,0.48726792,-0.28113324,0.554753,0.47361063,-0.24305838,0.543255,0.46675006,-0.22372418,0.537507,0.46272477,-0.20855742,0.532281,0.50451309,-0.28642458,0.550014,0.49799304,-0.24200564,0.538675,0.49176853,-0.21943889,0.532061,0.48582133,-0.20178033,0.527336,0.51880504,-0.29234858,0.546798,0.51920615,-0.25408985,0.546378,0.51882534,-0.23739543,0.546164,0.51848632,-0.21989014,0.545969,0.53419299,-0.30781142,0.544251,0.53678594,-0.27411445,0.541142,0.53878047,-0.25841097,0.539713,0.54367351,-0.24581304,0.543624
0.5013653,-0.36971119,0.562478,0.50571912,-0.32632834,0.554707,0.4876187,-0.35613875,0.562902,0.46789774,-0.33393556,0.553651,0.44349773,-0.30982383,0.548028,0.43247329,-0.28456722,0.539621,0.48354391,-0.28781284,0.551354,0.46895417,-0.24852987,0.539433,0.46240532,-0.22823009,0.533473,0.45657188,-0.20793695,0.528054,0.50345261,-0.29075344,0.548754,0.49496047,-0.24505425,0.536818,0.49002925,-0.21952127,0.529855,0.48646478,-0.20280422,0.524882,0.51924973,-0.29475305,0.547269,0.51978469,-0.25714084,0.547511,0.51869843,-0.23702288,0.547635,0.51899826,-0.22120347,0.547748,0.54126749,-0.30719183,0.5467,0.5396648,-0.27411475,0.543595,0.54290378,-0.25913012,0.545679,0.54570823,-0.24690706,0.547519
0.5011476,-0.3694753,0.561683,0.5022412,-0.32405043,0.553831,0.48672554,-0.3564372,0.562097,0.46568019,-0.32952288,0.55843,0.44373878,-0.30167475,0.548459,0.43452157,-0.28159019,0.539396,0.48169395,-0.28700049,0.550424,0.46887659,-0.24534828,0.538369,0.46005197,-0.22455054,0.532341,0.45633017,-0.20835439,0.526861,0.50194187,-0.28802221,0.547816,0.49809314,-0.24468075,0.540373,0.4931348,-0.22117469,0.536031,0.49170197,-0.20361324,0.53293,0.51854169,-0.29386835,0.546332,0.51957438,-0.25694689,0.546994,0.51764299,-0.23678341,0.547332,0.51797791,-0.22129295,0.54764,0.53866563,-0.307117,0.545777,0.54003296,-0.27390194,0.544177,0.54290849,-0.25900085,0.546311,0.54553103,-0.24681162,0.548194
0.49968462,-0.36842743,0.559897,0.50146207,-0.32321727,0.552761,0.48472076,-0.35584983,0.56031,0.46535074,-0.32897614,0.557764,0.44366862,-0.30131143,0.548274,0.43271922,-0.28107621,0.538,0.48111965,-0.28629137,0.549712,0.46843728,-0.24499766,0.53818,0.46003441,-0.22449726,0.532414,0.45609999,-0.20830218,0.527172,0.50152448,-0.28755376,0.547294,0.49856568,-0.24483441,0.541135,0.4945359,-0.22113365,0.537541,0.49337152,-0.20399883,0.534975,0.51826661,-0.29336768,0.545906,0.51916446,-0.25665452,0.546917,0.51735635,-0.23677381,0.547435,0.5176773,-0.22147998,0.547905,0.53847302,-0.30657158,0.545355,0.53998961,-0.27361356,0.544274,0.54270284,-0.25883693,0.546418,0.54522096,-0.2466637,0.548309
0.49893111,-0.36762561,0.558361,0.50108458,-0.32287085,0.552138,0.48352697,-0.35546108,0.558782,0.46439505,-0.32854036,0.55657,0.4432978,-0.30064438,0.546825,0.43261631,-0.28052502,0.537511,0.48176577,-0.28620793,0.549557,0.46893177,-0.24523295,0.538766,0.46189204,-0.22542008,0.53337,0.45593479,-0.20775756,0.528465,0.50209596,-0.28824225,0.547372,0.49843306,-0.24491943,0.541042,0.49522003,-0.22113509,0.53735,0.49323033,-0.20394811,0.534712,0.51861449,-0.29351274,0.546097,0.51936013,-0.25658188,0.547445,0.51793122,-0.23743193,0.548135,0.51831234,-0.22221035,0.548762,0.53908083,-0.30737899,0.545542,0.53976753,-0.2741112,0.544235,0.54279263,-0.25921947,0.546594,0.54544029,-0.24714159,0.548676
0.49853358,-0.36664983,0.556906,0.50063333,-0.32215035,0.551543,0.48293443,-0.3548713,0.557446,0.46413029,-0.32802057,0.5558,0.44361419,-0.30012146,0.547055,0.43308977,-0.28015188,0.537877,0.48176541,-0.28620063,0.549544,0.46907046,-0.24535957,0.539445,0.46285939,-0.22571435,0.534396,0.4571812,-0.20800879,0.529806,0.5022015,-0.28827613,0.547435,0.49953566,-0.24578529,0.542686,0.49720738,-0.22233881,0.539916,0.49642886,-0.20544246,0.537937,0.51879217,-0.29356939,0.546151,0.51946964,-0.25680927,0.547705,0.51820854,-0.23785918,0.5485,0.51861511,-0.22268954,0.549222,0.53912574,-0.30730137,0.545456,0.54004025,-0.274253,0.544525,0.54311828,-0.25963009,0.546998,0.54582339,-0.2476082,0.549181
0.49813185,-0.36527771,0.55501,0.50059833,-0.3213601,0.550993,0.48273004,-0.35420267,0.556132,0.4648262,-0.32735679,0.555341,0.44516719,-0.2998583,0.548321,0.43449538,-0.27954359,0.539114,0.48255302,-0.28531915,0.55041,0.47208668,-0.24441527,0.541456,0.46654818,-0.2248175,0.536979,0.46229183,-0.2078211,0.532909,0.5027577,-0.28749607,0.547916,0.50217358,-0.24667191,0.545557,0.50159603,-0.22327535,0.544181,0.50119076,-0.20631784,0.543198,0.51947998,-0.29256292,0.546203,0.51919546,-0.25671912,0.547847,0.51854004,-0.2378843,0.548689,0.51895048,-0.22303648,0.549454,0.53940192,-0.30566576,0.544799,0.54103486,-0.27359643,0.545259,0.5438606,-0.25982716,0.547616,0.54645733,-0.24777954,0.549697
0.49781866,-0.36483078,0.554219,0.50066861,-0.32119091,0.550827,0.48248235,-0.35385254,0.555471,0.46589036,-0.32678886,0.555565,0.44513444,-0.29949183,0.548245,0.43496163,-0.27870803,0.538526,0.4829042,-0.28541193,0.550721,0.47316899,-0.24446368,0.542277,0.4679504,-0.22495817,0.538054,0.46376166,-0.20791807,0.534216,0.50313341,-0.28750708,0.548228,0.50274194,-0.24668196,0.545863,0.50223602,-0.2232997,0.544484,0.50174552,-0.20690379,0.543498,0.51987372,-0.29245956,0.546462,0.51907912,-0.25641672,0.547584,0.51862775,-0.2378003,0.548158,0.51837977,-0.22229137,0.54868,0.53981192,-0.30538171,0.544903,0.54251997,-0.27400436,0.546522,0.54585576,-0.26037928,0.548261,0.54730186,-0.24810645,0.549795
