sluyters/QuantumLeap/backend/src/datasets/dynamic/HandGestureDataset_SHREC2017_csv/Gesture7/finger_1/subject_14_essai_1_skeletons_world.csv
Wrist_x,Wrist_y,Wrist_z,Palm_x,Palm_y,Palm_z,thumb_base_x,thumb_base_y,thumb_base_z,thumb_first_joint_x,thumb_first_joint_y,thumb_first_joint_z,thumb_second_joint_x,thumb_second_joint_y,thumb_second_joint_z,thumb_tip_x,thumb_tip_y,thumb_tip_z,index_base_x,index_base_y,index_base_z,index_first_joint_x,index_first_joint_y,index_first_joint_z,index_second_joint_x,index_second_joint_y,index_second_joint_z,index_tip_x,index_tip_y,index_tip_z,middle_base_x,middle_base_y,middle_base_z,middle_first_joint_x,middle_first_joint_y,middle_first_joint_z,middle_second_joint_x,middle_second_joint_y,middle_second_joint_z,middle_tip_x,middle_tip_y,middle_tip_z,ring_base_x,ring_base_y,ring_base_z,ring_first_joint_x,ring_first_joint_y,ring_first_joint_z,ring_second_joint_x,ring_second_joint_y,ring_second_joint_z,ring_tip_x,ring_tip_y,ring_tip_z,pinky_base_x,pinky_base_y,pinky_base_z,pinky_first_joint_x,pinky_first_joint_y,pinky_first_joint_z,pinky_second_joint_x,pinky_second_joint_y,pinky_second_joint_z,pinky_tip_x,pinky_tip_y,pinky_tip_z,
0.50245722,-0.41897061,0.640471,0.49689279,-0.37081727,0.63156,0.4822219,-0.40502662,0.640157,0.44063307,-0.37400969,0.632667,0.41278489,-0.35106182,0.628918,0.40333599,-0.3337996,0.628295,0.46606181,-0.31410279,0.624341,0.46560708,-0.27844919,0.627634,0.46341827,-0.25834198,0.62928,0.4583534,-0.24445582,0.630777,0.48765649,-0.31834856,0.621728,0.47618954,-0.26687024,0.605711,0.46627291,-0.26552012,0.596368,0.46031017,-0.27631373,0.589694,0.50729464,-0.32191632,0.620328,0.49350294,-0.27381485,0.60563,0.4837985,-0.26622295,0.59811,0.47595605,-0.28237889,0.591274,0.53254988,-0.33439922,0.620062,0.51145514,-0.29088345,0.605377,0.50530965,-0.28824214,0.59863,0.50001118,-0.28659904,0.592676
0.50325068,-0.42078429,0.643493,0.49077473,-0.36937597,0.633177,0.48220715,-0.40623652,0.642763,0.44166768,-0.3732887,0.63774,0.41448447,-0.3497165,0.633904,0.40332312,-0.3308443,0.633282,0.46525637,-0.31416586,0.624365,0.46321553,-0.27688206,0.625864,0.46092558,-0.25530736,0.626613,0.45694109,-0.24215922,0.627294,0.48757337,-0.31824953,0.621795,0.47492371,-0.26660891,0.604403,0.46387142,-0.26761661,0.594258,0.45703656,-0.28017906,0.587011,0.507166,-0.3224122,0.620548,0.49056921,-0.27349468,0.604532,0.48070748,-0.27004755,0.596338,0.47423242,-0.28332051,0.588889,0.53000803,-0.33806156,0.620684,0.50982353,-0.29469758,0.604864,0.50173536,-0.29465257,0.597596,0.49614689,-0.29762921,0.591182
0.505683,-0.42316621,0.64855,0.49174828,-0.3698599,0.635433,0.48175909,-0.40634753,0.64756,0.44987454,-0.37035671,0.646279,0.42703093,-0.34535386,0.6449,0.41898892,-0.3252763,0.644374,0.46523135,-0.31297878,0.624151,0.46323926,-0.27375292,0.62587,0.46221495,-0.25405914,0.62673,0.4596586,-0.237165,0.627511,0.48690819,-0.31736523,0.620959,0.47192352,-0.26432844,0.600995,0.45727653,-0.26748336,0.589349,0.44883304,-0.28143379,0.581031,0.50606538,-0.32183671,0.619437,0.48763861,-0.2721202,0.601175,0.47494209,-0.27012077,0.591832,0.46756173,-0.28265797,0.583338,0.52848937,-0.33773299,0.619685,0.50665336,-0.29347683,0.601906,0.49695729,-0.29389049,0.593738,0.49002995,-0.2982546,0.586531
0.50513212,-0.42353775,0.649966,0.49178367,-0.36969134,0.635806,0.48094354,-0.40640235,0.649626,0.45184538,-0.37151912,0.648403,0.42933822,-0.34677909,0.647526,0.42122252,-0.32681058,0.647128,0.46590308,-0.31261843,0.624533,0.46448495,-0.27241962,0.625472,0.46511835,-0.25106792,0.625941,0.45995677,-0.23606112,0.626368,0.48643792,-0.31666862,0.620181,0.47106447,-0.26361995,0.599472,0.45568255,-0.26673245,0.587391,0.44679256,-0.28052165,0.578762,0.50470797,-0.32106591,0.617793,0.48603334,-0.27104868,0.599186,0.47323864,-0.26932702,0.589667,0.46560286,-0.28230454,0.581013,0.52621097,-0.3367233,0.617176,0.50274205,-0.29402444,0.599057,0.49283251,-0.29610051,0.590732,0.48528817,-0.30292777,0.583386
0.504397,-0.42360654,0.651128,0.49260239,-0.36978419,0.63673,0.48297406,-0.40788555,0.651282,0.45457908,-0.37284176,0.651339,0.43521196,-0.3494665,0.653612,0.42866729,-0.33052447,0.654786,0.46741866,-0.31281931,0.625888,0.4671379,-0.27139972,0.626537,0.46661924,-0.25129792,0.626861,0.46224884,-0.2353522,0.627157,0.48720077,-0.31668838,0.620843,0.47197262,-0.26376049,0.600066,0.45710818,-0.26600238,0.587947,0.4483974,-0.27965535,0.57929,0.50490821,-0.32109902,0.617904,0.48561614,-0.27043214,0.599451,0.47432352,-0.26849389,0.59001,0.46693259,-0.28199476,0.581427,0.52588952,-0.33648111,0.616673,0.5017161,-0.29677105,0.598659,0.4922501,-0.30121395,0.590383,0.48533897,-0.30958538,0.58308
0.50707384,-0.42520639,0.655613,0.49508217,-0.37100373,0.639867,0.48215244,-0.40643379,0.655709,0.45672931,-0.37368349,0.653909,0.43727366,-0.3499837,0.656017,0.43125689,-0.33132272,0.657652,0.46994405,-0.31189522,0.627922,0.46834124,-0.27142063,0.627652,0.46750593,-0.25113157,0.627518,0.46424037,-0.23398033,0.627395,0.48916609,-0.31567391,0.622494,0.4725525,-0.26394904,0.600539,0.45727526,-0.26508622,0.587731,0.44813458,-0.27828816,0.578583,0.50616171,-0.3216646,0.619353,0.48624576,-0.27033185,0.599903,0.47443696,-0.26742937,0.589952,0.46629104,-0.28109234,0.580905,0.52808266,-0.33522671,0.618093,0.50077105,-0.299462,0.599215,0.49159697,-0.30592994,0.590542,0.48520975,-0.31537527,0.582889
0.50486757,-0.42394234,0.655182,0.49499462,-0.37050359,0.639755,0.48207306,-0.40577838,0.655588,0.45756701,-0.373912,0.654885,0.44182303,-0.351595,0.660503,0.43838569,-0.33452761,0.664263,0.47040302,-0.31184275,0.628437,0.46895295,-0.27147943,0.628402,0.46819312,-0.25123323,0.628385,0.46399125,-0.23493073,0.628369,0.48943914,-0.31544762,0.622732,0.4731062,-0.26395883,0.601143,0.45777595,-0.26544782,0.588549,0.44869491,-0.27878665,0.579554,0.50599488,-0.32148384,0.619337,0.48666328,-0.27027801,0.60032,0.47521892,-0.26388451,0.590591,0.4649309,-0.27555022,0.581746,0.5276472,-0.33503717,0.617725,0.50028738,-0.29970227,0.599209,0.49138027,-0.30657409,0.590702,0.48527298,-0.31626362,0.583195
0.5075676,-0.42819535,0.669106,0.49499966,-0.36478261,0.648461,0.48922672,-0.4059636,0.669358,0.46747104,-0.36709569,0.673294,0.46010461,-0.34561055,0.681858,0.45866674,-0.32725605,0.684908,0.47674857,-0.3036564,0.632955,0.47253916,-0.26174454,0.629052,0.46953468,-0.2408623,0.6271,0.46470573,-0.22295975,0.625326,0.4925411,-0.31320481,0.625682,0.47263589,-0.26230345,0.599691,0.45348484,-0.26463289,0.584529,0.44166576,-0.27699784,0.5737,0.50765942,-0.32195296,0.621435,0.48556307,-0.26942359,0.598745,0.47081045,-0.26788269,0.587136,0.45325791,-0.27785573,0.576582,0.52613153,-0.3386003,0.619631,0.49903344,-0.2993744,0.597961,0.48689577,-0.30697847,0.588005,0.47121939,-0.31737571,0.57922
0.50241362,-0.41870824,0.679866,0.49770176,-0.36633551,0.655921,0.48691977,-0.39774109,0.677727,0.46370274,-0.36401141,0.678875,0.45235624,-0.34170102,0.685584,0.44976014,-0.32305774,0.688208,0.47141938,-0.30026143,0.634915,0.465246,-0.256493,0.627198,0.4610256,-0.23486562,0.623339,0.45775624,-0.21879827,0.619889,0.48845467,-0.30829325,0.629501,0.46017147,-0.26751319,0.60006,0.43444683,-0.27943717,0.582887,0.43356575,-0.29877087,0.587407,0.50313273,-0.3191901,0.627062,0.4726326,-0.27706837,0.600525,0.45266439,-0.28608465,0.586948,0.43866545,-0.29976852,0.575106,0.52170804,-0.34016681,0.627916,0.49595532,-0.30784717,0.603047,0.47722046,-0.31590196,0.591621,0.46174555,-0.32412143,0.58154
0.49949451,-0.41875363,0.678219,0.4927753,-0.36580966,0.655183,0.48443118,-0.39825024,0.676723,0.45903692,-0.37077198,0.67694,0.45878127,-0.35506752,0.691301,0.46455929,-0.34180203,0.700434,0.47045342,-0.30279743,0.63567,0.46501654,-0.25943452,0.629089,0.46117664,-0.23795805,0.625798,0.45529478,-0.21958748,0.622807,0.48719469,-0.31011907,0.629765,0.4597135,-0.26829666,0.601256,0.43457047,-0.27995644,0.584626,0.43400544,-0.29974014,0.589542,0.50157451,-0.32044027,0.626844,0.4719192,-0.27752116,0.601343,0.45253831,-0.28615594,0.588295,0.4389962,-0.29997679,0.576891,0.51971087,-0.34076504,0.626986,0.49470848,-0.30747649,0.602976,0.47644476,-0.31548078,0.591944,0.46135046,-0.32385928,0.58221
0.49839349,-0.41894694,0.678079,0.49161914,-0.36589534,0.65494,0.48136014,-0.3973277,0.67432,0.46714856,-0.37001362,0.656132,0.44935857,-0.33667559,0.649863,0.4479145,-0.3144736,0.648872,0.46477051,-0.30275494,0.632537,0.45604203,-0.26025261,0.628483,0.45220881,-0.23930353,0.626456,0.45200981,-0.22125389,0.624848,0.48556255,-0.3096593,0.629408,0.45269589,-0.27306688,0.600144,0.43036262,-0.28697179,0.583073,0.43162121,-0.30293862,0.588245,0.50210246,-0.32072312,0.628781,0.46676869,-0.28526051,0.601694,0.45078021,-0.29781461,0.587835,0.4400506,-0.31185428,0.576063,0.5230177,-0.34213357,0.631657,0.49722288,-0.30876899,0.606384,0.47878138,-0.31682471,0.594772,0.46337011,-0.32495677,0.584525
0.48494718,-0.40869894,0.660581,0.48201478,-0.35967612,0.642748,0.46990943,-0.38920705,0.659382,0.46043718,-0.36358276,0.645162,0.45410823,-0.33516839,0.647859,0.45084035,-0.31454787,0.650289,0.46060225,-0.30078204,0.627592,0.4523449,-0.25743767,0.619477,0.44801405,-0.23619196,0.615969,0.44329886,-0.21721104,0.612779,0.48005508,-0.30687571,0.62307,0.45195984,-0.27337298,0.598952,0.4318492,-0.28864961,0.584883,0.43453448,-0.30988327,0.592438,0.49531217,-0.31680748,0.620851,0.46378511,-0.29137512,0.599068,0.45078867,-0.30655494,0.587923,0.44766781,-0.3250468,0.584804,0.51395892,-0.33627487,0.621009,0.49205074,-0.30581903,0.600175,0.47551411,-0.31493532,0.590602,0.46174491,-0.32401713,0.582283
0.49749634,-0.42099051,0.680857,0.48031701,-0.36590201,0.656795,0.47812466,-0.39890389,0.676718,0.45876202,-0.36798768,0.657957,0.44345366,-0.33416935,0.650512,0.43953821,-0.31172209,0.650317,0.45376872,-0.30085623,0.633213,0.44974906,-0.25960555,0.631109,0.44668069,-0.23904119,0.630058,0.4482284,-0.22107476,0.629567,0.4737194,-0.30833415,0.630245,0.44228047,-0.2740715,0.600124,0.41991153,-0.2882912,0.582554,0.42033787,-0.30791904,0.587267,0.49091609,-0.31893459,0.629829,0.45559199,-0.2924962,0.601881,0.44026535,-0.30642583,0.587583,0.44357376,-0.32981178,0.593342,0.51270156,-0.33992422,0.633099,0.48660388,-0.30948297,0.607109,0.46827165,-0.31805206,0.595167,0.4525168,-0.32572907,0.584631
0.47978787,-0.41585964,0.679122,0.470677,-0.35919947,0.65376,0.45906056,-0.39202419,0.671012,0.44106897,-0.35224069,0.655053,0.43043952,-0.32084286,0.641811,0.42602286,-0.29443598,0.631778,0.44161536,-0.29137462,0.624246,0.4381986,-0.25014898,0.621729,0.43647753,-0.22923429,0.62047,0.4358535,-0.21439642,0.620461,0.46526597,-0.30168256,0.625776,0.43585014,-0.27313927,0.593704,0.41222193,-0.29034516,0.574995,0.41301068,-0.30627856,0.579027,0.48552914,-0.31466583,0.629169,0.45140711,-0.29670345,0.597978,0.43464116,-0.31035962,0.58202,0.43708002,-0.32933761,0.586628,0.51090287,-0.33859462,0.637157,0.48274743,-0.31554847,0.60863,0.46258834,-0.32366098,0.595523,0.44510569,-0.33035188,0.583957
0.48934346,-0.42138993,0.681992,0.47470193,-0.36608424,0.654173,0.45879729,-0.3950037,0.672984,0.44068724,-0.3604657,0.654589,0.42927446,-0.32856539,0.640184,0.42449711,-0.30187784,0.629617,0.43976434,-0.29806467,0.62166,0.43659108,-0.25714223,0.619484,0.43499142,-0.23636362,0.618396,0.43172343,-0.21855136,0.617407,0.46358158,-0.30857369,0.623477,0.43086251,-0.28117571,0.589229,0.40809458,-0.29533649,0.569251,0.40650227,-0.31305373,0.571915,0.4841598,-0.32184788,0.627314,0.44842976,-0.30294528,0.59398,0.43086553,-0.31572621,0.576925,0.43072316,-0.33697604,0.580026,0.5102485,-0.34638065,0.636212,0.4806876,-0.32250405,0.605916,0.45991797,-0.32997404,0.591996,0.44192006,-0.33606206,0.579713
0.4767118,-0.42043122,0.681694,0.45997323,-0.36754716,0.653738,0.45174812,-0.39581041,0.672402,0.42943861,-0.361047,0.654049,0.41741274,-0.3289492,0.639979,0.4122207,-0.30222569,0.629169,0.42749277,-0.29786695,0.620768,0.42799478,-0.25834507,0.622381,0.4251729,-0.23999563,0.623188,0.41923979,-0.23789443,0.623922,0.45166724,-0.30791896,0.622891,0.41904979,-0.28065086,0.588485,0.39677634,-0.29478798,0.568415,0.39524797,-0.31244153,0.570976,0.47262426,-0.32084486,0.626992,0.43689966,-0.30261751,0.593414,0.4196823,-0.31531264,0.576234,0.4195593,-0.33647883,0.579194,0.49931973,-0.34502382,0.636223,0.46926083,-0.32208629,0.605739,0.44863246,-0.32948739,0.591733,0.4307633,-0.33551349,0.579375
0.49178862,-0.42204379,0.682328,0.47367404,-0.36526311,0.658289,0.46573421,-0.39823503,0.673451,0.4309989,-0.36231798,0.656833,0.41663454,-0.33089694,0.643068,0.4052462,-0.30518452,0.632895,0.42942665,-0.30477285,0.628836,0.41787379,-0.26902438,0.623821,0.41130853,-0.25123171,0.621313,0.40088028,-0.25172835,0.619034,0.45438183,-0.30478871,0.631765,0.41664813,-0.2883627,0.600683,0.40435579,-0.30118044,0.582551,0.4065721,-0.32091902,0.587143,0.47706806,-0.30913516,0.636199,0.4392421,-0.29300491,0.605511,0.42630505,-0.30503175,0.58981,0.42971606,-0.32738787,0.594891,0.50800006,-0.32277965,0.645214,0.46338265,-0.3014998,0.61718,0.44389427,-0.30966668,0.604299,0.45022949,-0.31962131,0.607435
0.48088968,-0.41668125,0.667576,0.46719059,-0.38022593,0.650004,0.4540725,-0.41817097,0.659844,0.4245326,-0.37771713,0.647381,0.40877425,-0.34843745,0.635203,0.40089661,-0.32314943,0.626102,0.42812438,-0.32323208,0.626929,0.41940288,-0.28807511,0.624568,0.41425326,-0.27048667,0.623388,0.40465887,-0.27077574,0.622315,0.45355472,-0.32399191,0.630615,0.41900336,-0.30346288,0.605354,0.40505548,-0.31460909,0.590618,0.4103623,-0.33630231,0.598136,0.47626494,-0.32876579,0.635128,0.44229099,-0.31570688,0.609714,0.43293614,-0.32785484,0.596712,0.43754936,-0.35268306,0.604878,0.50643326,-0.34256161,0.643224,0.46527168,-0.32374597,0.619696,0.4472637,-0.33252087,0.608886,0.4554149,-0.34357829,0.614431
0.47033516,-0.43222938,0.654787,0.46311767,-0.38714815,0.644102,0.44712423,-0.41695909,0.649708,0.42335945,-0.38486642,0.642758,0.41133045,-0.35718257,0.632156,0.4059027,-0.3328538,0.624388,0.43032061,-0.33456846,0.629604,0.42081993,-0.2987607,0.625915,0.41529516,-0.28092295,0.624071,0.40530696,-0.28100611,0.622395,0.45511783,-0.33499641,0.632313,0.42516517,-0.31770625,0.613726,0.41374794,-0.33109296,0.602883,0.42092773,-0.35494864,0.613233,0.4768068,-0.33922452,0.635442,0.44762299,-0.32950993,0.616657,0.43897305,-0.34497209,0.607045,0.44679151,-0.37217925,0.618345,0.50385981,-0.34966967,0.640822,0.46795218,-0.33578932,0.62291,0.45174569,-0.34583545,0.61468,0.46172377,-0.35839415,0.62267
0.45402418,-0.42195157,0.634705,0.45344333,-0.38307528,0.634055,0.43577448,-0.41124982,0.63632,0.40866278,-0.38343845,0.62868,0.38951418,-0.3547361,0.623761,0.38017727,-0.33252642,0.622207,0.42929488,-0.34177015,0.635563,0.41549715,-0.30499891,0.629272,0.40777612,-0.28788338,0.626127,0.40026729,-0.28984678,0.623267,0.45175318,-0.34008774,0.633338,0.43368346,-0.33221293,0.625467,0.4264858,-0.35011545,0.620876,0.43513544,-0.37717197,0.63468,0.47044123,-0.34206134,0.631561,0.45365175,-0.33424317,0.624479,0.44941456,-0.35358502,0.620856,0.45989104,-0.38365908,0.636305,0.49302945,-0.35080754,0.629557,0.46478323,-0.34085312,0.621501,0.45316708,-0.35455078,0.6178,0.46601084,-0.3658999,0.629021
0.45085091,-0.42246807,0.629849,0.44794658,-0.39019438,0.628156,0.43182806,-0.41648718,0.631763,0.4078294,-0.39087854,0.624305,0.38777156,-0.36245538,0.62029,0.37808321,-0.34132778,0.619853,0.42226981,-0.34884103,0.629237,0.40446773,-0.31280099,0.622431,0.39482028,-0.2961534,0.619028,0.38712777,-0.29845121,0.615935,0.44388829,-0.34457886,0.626287,0.42394336,-0.33730538,0.617499,0.41799433,-0.35507454,0.612373,0.42808957,-0.38211713,0.625862,0.46222813,-0.34444645,0.624002,0.44408944,-0.33784622,0.616274,0.44162286,-0.35716736,0.612321,0.45348803,-0.38125954,0.6275,0.48593326,-0.34852379,0.62156,0.45529382,-0.34242571,0.612902,0.46045405,-0.36883515,0.629824,0.47312652,-0.3794441,0.639433
0.44788974,-0.4225063,0.621795,0.44168601,-0.38160229,0.619294,0.42658564,-0.41182858,0.618134,0.399955,-0.37911645,0.603322,0.38431573,-0.34220652,0.579827,0.38057807,-0.32028784,0.577339,0.40037865,-0.34292812,0.612827,0.37441816,-0.31168444,0.601628,0.36664292,-0.30012668,0.605244,0.35905913,-0.28892918,0.608531,0.42705935,-0.33884178,0.616534,0.42848708,-0.30784628,0.630224,0.42785297,-0.28701062,0.638209,0.43699814,-0.2875463,0.655864,0.45047121,-0.3388067,0.619795,0.44003955,-0.3330327,0.608276,0.44363545,-0.3515255,0.602383,0.45971117,-0.38059817,0.616329,0.48100385,-0.3450933,0.624051,0.45768936,-0.33998172,0.612503,0.47170753,-0.36955848,0.629144,0.48350232,-0.38284596,0.639661
0.45311811,-0.41396083,0.607839,0.44258903,-0.3714769,0.608949,0.42648316,-0.4060745,0.603894,0.40729178,-0.37445731,0.602866,0.38701409,-0.3432335,0.594159,0.37593905,-0.32349846,0.593896,0.39825807,-0.33451315,0.604897,0.37650321,-0.30694678,0.596051,0.36516909,-0.29251357,0.591628,0.35461981,-0.27901311,0.587685,0.42559082,-0.32981243,0.610174,0.41854333,-0.29471069,0.618159,0.41499488,-0.27333309,0.622817,0.42568065,-0.27594532,0.639588,0.44957745,-0.32902183,0.614422,0.44741263,-0.32482628,0.605763,0.45109184,-0.34471192,0.601333,0.46822207,-0.37349561,0.615941,0.48342577,-0.33488236,0.619284,0.46684214,-0.33302156,0.61035,0.48097981,-0.36073056,0.626975,0.49182999,-0.37661613,0.637143
0.46489932,-0.41314381,0.608873,0.43061909,-0.36785416,0.595162,0.43263922,-0.4044456,0.598139,0.41206983,-0.38540094,0.597583,0.39377657,-0.34605802,0.572014,0.38322518,-0.32199333,0.564955,0.36862056,-0.33316408,0.571316,0.33898442,-0.30011165,0.548237,0.32401395,-0.28338281,0.536698,0.3188425,-0.27541779,0.540684,0.39483856,-0.32563531,0.580033,0.385364,-0.31235427,0.558059,0.41446767,-0.34703383,0.579409,0.42885767,-0.36595015,0.59406,0.41960983,-0.32268078,0.588362,0.41152015,-0.31152767,0.564521,0.43615124,-0.34126702,0.582921,0.44899937,-0.35750724,0.599899,0.45507963,-0.32534589,0.600375,0.441477,-0.31783607,0.578565,0.4614053,-0.34213113,0.592577,0.47693767,-0.35589535,0.605686
0.4807216,-0.4035028,0.586321,0.4442022,-0.37808074,0.586263,0.44864576,-0.40261651,0.573758,0.4131738,-0.37990209,0.566207,0.38948888,-0.33868533,0.541508,0.37824448,-0.32014665,0.540824,0.37839418,-0.35828284,0.570604,0.35904257,-0.3251084,0.558345,0.34976645,-0.30840837,0.552215,0.3501638,-0.30055216,0.560876,0.40483165,-0.35067379,0.586199,0.38352805,-0.32050389,0.577926,0.37046228,-0.3018716,0.5731,0.36929453,-0.29481638,0.583054,0.4298364,-0.34622107,0.599036,0.43652779,-0.32899126,0.586126,0.46917392,-0.35209025,0.602492,0.4840881,-0.37219566,0.617135,0.4655311,-0.34454122,0.614259,0.44431734,-0.31358604,0.61211,0.44603042,-0.30521398,0.611123,0.46120747,-0.3175431,0.620752
0.49761049,-0.41038323,0.596908,0.46320319,-0.3807758,0.590578,0.46407932,-0.4087265,0.582631,0.43373443,-0.3818516,0.56891,0.41043301,-0.34218093,0.54606,0.39555667,-0.32185692,0.541549,0.39190602,-0.35754829,0.567985,0.37026742,-0.32584793,0.548358,0.35929382,-0.30962956,0.538544,0.3592676,-0.30312565,0.544864,0.41763479,-0.34950097,0.583594,0.41775257,-0.32712505,0.569015,0.41829281,-0.3134617,0.56051,0.44091732,-0.32599519,0.568595,0.44246917,-0.34498896,0.596972,0.44852552,-0.32441711,0.578066,0.4819023,-0.34542268,0.593891,0.49915857,-0.36558835,0.608411,0.47878579,-0.34374564,0.613816,0.45264045,-0.30605076,0.603224,0.44060748,-0.28869505,0.598358,0.43314295,-0.27414185,0.594064
0.50691357,-0.40487283,0.58727,0.47489982,-0.37532398,0.580398,0.48330287,-0.40197148,0.571026,0.4579955,-0.35652815,0.542677,0.41331196,-0.34077598,0.52051,0.38960791,-0.33731576,0.517804,0.40386669,-0.34668328,0.554944,0.38617705,-0.31303223,0.534223,0.37728562,-0.29583407,0.523863,0.37914456,-0.28751853,0.528342,0.43017706,-0.34175134,0.572816,0.43817601,-0.31435104,0.558045,0.44354554,-0.29768322,0.549429,0.46691312,-0.30837065,0.555958,0.45534173,-0.34008801,0.588101,0.46826552,-0.31575558,0.56834,0.49547751,-0.33813813,0.582015,0.51068976,-0.3602074,0.596147,0.49175093,-0.34268642,0.607291,0.44882603,-0.32475917,0.598959,0.45052667,-0.31154676,0.595131,0.46296,-0.31137474,0.591754
0.52807122,-0.40910009,0.587904,0.49881406,-0.38073779,0.583208,0.50442132,-0.40696568,0.572248,0.48369896,-0.36532271,0.544491,0.44496725,-0.35252845,0.530507,0.42692776,-0.33312711,0.522388,0.42675196,-0.35280583,0.560154,0.42810898,-0.32733765,0.541279,0.43675788,-0.32069697,0.531842,0.45863025,-0.33346526,0.536998,0.45536248,-0.34793535,0.578028,0.46878489,-0.33057823,0.565409,0.47767995,-0.32000916,0.558049,0.50124218,-0.33518402,0.565291,0.48241546,-0.34617156,0.593131,0.49391613,-0.32260145,0.575413,0.52443711,-0.34313956,0.589379,0.53854016,-0.36284782,0.602112,0.52106627,-0.34845002,0.611765,0.47884479,-0.32738022,0.6045,0.47632973,-0.31498389,0.601162,0.48674475,-0.3125067,0.598216
0.59075576,-0.45222868,0.664132,0.54594707,-0.41595823,0.623507,0.56613434,-0.45673847,0.64739,0.57093189,-0.45529877,0.615776,0.55371226,-0.4602183,0.590602,0.55323617,-0.45404371,0.569842,0.48126784,-0.39368205,0.571569,0.44127042,-0.35464356,0.537956,0.42937102,-0.33815734,0.521149,0.44443094,-0.34125159,0.519355,0.49662164,-0.3760531,0.578681,0.47106722,-0.34275724,0.536533,0.45615933,-0.32333566,0.511947,0.46413507,-0.32183577,0.501171,0.51304558,-0.36451505,0.587953,0.4788159,-0.32046174,0.547261,0.49941652,-0.32863626,0.546011,0.5216392,-0.34981583,0.561943,0.53955879,-0.35637161,0.605295,0.49814576,-0.31936553,0.571256,0.47918741,-0.30246848,0.555617,0.47712768,-0.29402317,0.541818
0.60151911,-0.45228655,0.664217,0.56719361,-0.41594556,0.623488,0.58762317,-0.45687181,0.647579,0.5919364,-0.45566921,0.616277,0.57453196,-0.46045051,0.5909,0.57369511,-0.45426203,0.570116,0.50238274,-0.3937034,0.5716,0.46484761,-0.35501459,0.536832,0.45433455,-0.33896369,0.519448,0.46923364,-0.34199174,0.516371,0.51762938,-0.37596602,0.578547,0.49217921,-0.34274829,0.536519,0.4773345,-0.32337103,0.512003,0.48006011,-0.31843871,0.495881,0.53397993,-0.36435385,0.587693,0.49971303,-0.32037976,0.547121,0.52002874,-0.32827272,0.545407,0.54213958,-0.34929417,0.561105,0.56043284,-0.35613964,0.604901,0.51885438,-0.31915085,0.570872,0.49981422,-0.30226216,0.555238,0.49772308,-0.29381967,0.541443
0.61040984,-0.44377433,0.661574,0.56272719,-0.3984696,0.624195,0.58418543,-0.44578582,0.641793,0.5913762,-0.44241303,0.613765,0.5791684,-0.45414133,0.593824,0.5806724,-0.44872058,0.574875,0.49498313,-0.37104872,0.570969,0.4597004,-0.34191174,0.534686,0.45170573,-0.32844007,0.516544,0.46608238,-0.3263171,0.510926,0.50964967,-0.35617081,0.582952,0.49326552,-0.32388539,0.543088,0.48373168,-0.30504312,0.519835,0.48730255,-0.29693538,0.503225,0.52578367,-0.34702969,0.595959,0.47769066,-0.30258946,0.564406,0.45315788,-0.28004639,0.548082,0.45638898,-0.26678808,0.53943,0.55247582,-0.3420107,0.617219,0.51035754,-0.30635822,0.589715,0.49108341,-0.29006776,0.577078,0.4744106,-0.27591351,0.566274
0.614862,-0.41708382,0.63606,0.56777505,-0.36881773,0.611104,0.57761773,-0.41039445,0.619576,0.54454278,-0.36826231,0.586139,0.52207607,-0.33250136,0.559041,0.5067842,-0.30863782,0.547179,0.48778316,-0.3251701,0.571493,0.48712966,-0.31671858,0.538292,0.48677569,-0.31248264,0.521692,0.5032062,-0.32251127,0.522333,0.51691304,-0.31708086,0.583567,0.51844021,-0.31231426,0.551375,0.51978648,-0.30976797,0.532842,0.52004588,-0.31493202,0.519604,0.54505637,-0.31408348,0.595603,0.53417134,-0.28991148,0.561078,0.52893656,-0.27752243,0.543508,0.52440066,-0.2662379,0.527589,0.58619551,-0.31756376,0.61377,0.53740139,-0.2839975,0.59436,0.52231376,-0.27003055,0.585442,0.52216831,-0.26543972,0.577572
0.62558813,-0.41682284,0.635662,0.58862684,-0.36822023,0.610114,0.59842788,-0.40961086,0.618393,0.56444084,-0.36702396,0.584168,0.54193047,-0.33136178,0.557125,0.52732212,-0.30795419,0.545967,0.50671951,-0.32379429,0.569075,0.50525918,-0.3148899,0.535184,0.50446316,-0.31041377,0.518238,0.51992435,-0.3198754,0.518064,0.53670964,-0.31618759,0.581923,0.53786789,-0.31113665,0.549296,0.53873695,-0.30826867,0.530263,0.55310527,-0.32195733,0.531195,0.56567805,-0.31357934,0.594647,0.55441449,-0.28908579,0.55948,0.54894562,-0.27651959,0.541544,0.54418286,-0.26507372,0.525282,0.60800043,-0.31753893,0.613722,0.5583051,-0.28378105,0.593907,0.54316828,-0.26973535,0.584802,0.54312955,-0.26507068,0.576769
0.62432075,-0.41079765,0.631508,0.59840293,-0.34747907,0.605277,0.59549336,-0.38860696,0.619369,0.56094262,-0.35185045,0.597338,0.52472246,-0.3223341,0.583428,0.50601945,-0.30001818,0.576295,0.53294761,-0.28782656,0.57009,0.51882555,-0.29005281,0.538392,0.51183843,-0.29125228,0.522544,0.52439216,-0.30873553,0.525184,0.56384274,-0.28726918,0.576333,0.54700566,-0.291604,0.543022,0.53769031,-0.2995823,0.523591,0.54625329,-0.31849663,0.526485,0.59231199,-0.29128189,0.583679,0.57404688,-0.27999021,0.549867,0.56494227,-0.2742967,0.532568,0.55689574,-0.26920973,0.516902,0.6316919,-0.30457133,0.596487,0.61657225,-0.27279879,0.56727,0.60974384,-0.25807444,0.553846,0.60378794,-0.24500822,0.542001
0.63528624,-0.4079465,0.632234,0.6094213,-0.34756404,0.605425,0.60131972,-0.38882464,0.619716,0.57122039,-0.35140396,0.59658,0.53477509,-0.32183244,0.58252,0.51616747,-0.29965428,0.575596,0.54268269,-0.28743982,0.569324,0.52805292,-0.28934167,0.537072,0.52079814,-0.29036101,0.520945,0.53296082,-0.3075551,0.523176,0.5739253,-0.28702545,0.575844,0.55663315,-0.29106431,0.542017,0.54694965,-0.29883562,0.522286,0.54978722,-0.31747487,0.524796,0.60277108,-0.29117559,0.583466,0.58407766,-0.27959049,0.549082,0.57475102,-0.27374199,0.531491,0.56649652,-0.26850819,0.515555,0.64276172,-0.30467549,0.596691,0.62735612,-0.27272136,0.567109,0.62039442,-0.25792163,0.553518,0.61431969,-0.2447935,0.541526
0.64510697,-0.39975616,0.629456,0.61526489,-0.33975629,0.601298,0.6085657,-0.38400181,0.615223,0.57832715,-0.3449357,0.590053,0.5392937,-0.31612546,0.573698,0.51781151,-0.29397601,0.56497,0.54426411,-0.28087754,0.562032,0.53369374,-0.28145811,0.528636,0.52841615,-0.28175467,0.511937,0.54019963,-0.29726392,0.512916,0.57603431,-0.27937511,0.570229,0.56332398,-0.28217939,0.535199,0.55599017,-0.28900876,0.514765,0.56127367,-0.30575551,0.516042,0.60552411,-0.2825912,0.579344,0.59049929,-0.26980874,0.543391,0.58305295,-0.26331953,0.524996,0.57649785,-0.25747686,0.508316,0.64671087,-0.29488783,0.59455,0.63356485,-0.2625387,0.564839,0.62764382,-0.24756616,0.551188,0.62248927,-0.23429095,0.539143
0.62090705,-0.38556414,0.607893,0.62339685,-0.32909484,0.594051,0.5980818,-0.36292992,0.593424,0.56413131,-0.31137477,0.570313,0.53562961,-0.27666946,0.556606,0.5252659,-0.25681474,0.555858,0.58251312,-0.26305123,0.565462,0.5964514,-0.23299687,0.546837,0.60380177,-0.21772409,0.537525,0.62220811,-0.20751249,0.539006,0.61401224,-0.27444889,0.578777,0.6268205,-0.27673245,0.558173,0.63529516,-0.27841324,0.546153,0.64630305,-0.30097399,0.55298,0.64075026,-0.28793555,0.5909,0.64559191,-0.28701143,0.565603,0.63521322,-0.29879966,0.552661,0.62465468,-0.31001257,0.540911,0.67403624,-0.31169585,0.60743,0.66766946,-0.30509449,0.584813,0.66509859,-0.30215607,0.574421,0.6631203,-0.29965563,0.56532
0.62011979,-0.37883912,0.600348,0.62419194,-0.32893166,0.5929,0.59952132,-0.35296114,0.588423,0.56556154,-0.30554366,0.565899,0.53590683,-0.27422213,0.555008,0.52778319,-0.25412624,0.554928,0.59418737,-0.26604832,0.572372,0.61146661,-0.23693334,0.557163,0.62060779,-0.22204208,0.549559,0.63913133,-0.21235152,0.552406,0.62532566,-0.27999281,0.584682,0.6416499,-0.27966033,0.568769,0.65256061,-0.27976996,0.559487,0.66542476,-0.30622976,0.568708,0.6511658,-0.29522109,0.595438,0.66387282,-0.29116004,0.576259,0.65513661,-0.30637385,0.566446,0.64553683,-0.31990261,0.557525,0.68223871,-0.3204083,0.609351,0.67783643,-0.30972978,0.59189,0.67766562,-0.30665099,0.583868,0.6778499,-0.30399626,0.576843
0.61244849,-0.37660877,0.596438,0.62231641,-0.32773673,0.590481,0.59380715,-0.34875108,0.583081,0.56499654,-0.30073539,0.558762,0.54189304,-0.26929101,0.551399,0.5334033,-0.25278779,0.55577,0.60156771,-0.2643537,0.569318,0.62401689,-0.2349843,0.556401,0.63549859,-0.22013256,0.549942,0.66361591,-0.21212863,0.558824,0.63185305,-0.28060796,0.583909,0.65489155,-0.27937244,0.569599,0.66868518,-0.28127971,0.561251,0.6796017,-0.3033185,0.569977,0.65424009,-0.29665626,0.596417,0.6709876,-0.29972363,0.578072,0.65939576,-0.31338784,0.568686,0.64738272,-0.32326672,0.560444,0.68476723,-0.32323787,0.612172,0.69072548,-0.32453216,0.595683,0.69434281,-0.32471982,0.588106,0.69939923,-0.34248817,0.59415
0.6155136,-0.37790171,0.599037,0.62444167,-0.32925246,0.592027,0.59451858,-0.3532663,0.586161,0.56961193,-0.30352329,0.562239,0.54249816,-0.27041309,0.551531,0.53553515,-0.25463148,0.557321,0.60399818,-0.26617118,0.570654,0.62490696,-0.23543981,0.55694,0.63552233,-0.21996355,0.550083,0.66339826,-0.21160836,0.559127,0.63321824,-0.28217762,0.584292,0.65366093,-0.28919051,0.570125,0.66446878,-0.29572651,0.561861,0.67174723,-0.31873074,0.57102,0.6567457,-0.29897557,0.596106,0.67085697,-0.30105573,0.577344,0.65754175,-0.31468452,0.567744,0.66020482,-0.33749184,0.576411,0.6836945,-0.32572459,0.611201,0.68911698,-0.32534743,0.59394,0.69217234,-0.3253753,0.586009,0.69702952,-0.34301437,0.592168
0.61567683,-0.37755747,0.598906,0.62474571,-0.32964978,0.592034,0.59477698,-0.35274057,0.58612,0.5698544,-0.30376253,0.562117,0.54272498,-0.27079881,0.551601,0.53678887,-0.25564253,0.558292,0.60457457,-0.26667433,0.570878,0.62522513,-0.23559963,0.557139,0.63569225,-0.21996356,0.55027,0.66346561,-0.21148038,0.559345,0.6337072,-0.28271582,0.584451,0.65393495,-0.28931174,0.570364,0.66480701,-0.29587704,0.562147,0.67215544,-0.31892443,0.571367,0.65713067,-0.29953064,0.596199,0.67138658,-0.30175603,0.577595,0.65767301,-0.31547222,0.568076,0.65985298,-0.33826708,0.576832,0.68390211,-0.3262775,0.611197,0.68938553,-0.3259971,0.594053,0.69247256,-0.32607251,0.586177,0.69729273,-0.34370583,0.592402
0.61920892,-0.37723732,0.599563,0.62655496,-0.33106355,0.59282,0.59597781,-0.35338675,0.586963,0.57035799,-0.30631853,0.563084,0.5448599,-0.27344868,0.552857,0.54021625,-0.25780279,0.559828,0.60531141,-0.2681294,0.571994,0.62475945,-0.23606561,0.557899,0.63292812,-0.21984519,0.550851,0.66190744,-0.21106966,0.559913,0.6345011,-0.28363488,0.58538,0.65581256,-0.28610409,0.571322,0.67019715,-0.28498938,0.563121,0.68176196,-0.30775804,0.572441,0.65797532,-0.30001681,0.596963,0.67212861,-0.30435253,0.578713,0.65734092,-0.31859914,0.569375,0.65836631,-0.3415762,0.578341,0.68481524,-0.32625467,0.611745,0.69032275,-0.32626525,0.594726,0.69341887,-0.32647949,0.586907,0.69855826,-0.3442445,0.593245
0.62142,-0.37842177,0.601444,0.62916935,-0.33265188,0.595212,0.59792822,-0.35432201,0.588302,0.57149351,-0.3107257,0.565153,0.54820726,-0.27756395,0.554079,0.54257717,-0.25955121,0.560327,0.60774802,-0.27047258,0.574104,0.62597613,-0.23683161,0.560226,0.63125203,-0.21892412,0.553287,0.65317691,-0.20821636,0.553745,0.63735895,-0.28520041,0.588337,0.66486348,-0.28838499,0.578109,0.68324585,-0.29381428,0.572143,0.6944304,-0.3168771,0.582142,0.66135255,-0.30159323,0.600573,0.67563245,-0.30842073,0.583556,0.66159864,-0.32399022,0.57485,0.66266629,-0.34754227,0.583789,0.68793771,-0.32636309,0.616049,0.69523498,-0.32758981,0.599364,0.69911681,-0.32843798,0.591698,0.70426154,-0.3471876,0.597824
0.62227419,-0.37890628,0.602121,0.63052148,-0.33401122,0.596529,0.59871416,-0.35476982,0.588757,0.57155353,-0.31131136,0.565462,0.54882797,-0.27882979,0.555337,0.54308125,-0.26034556,0.560636,0.60882256,-0.27163763,0.575635,0.62354834,-0.23703987,0.561654,0.63138238,-0.21911488,0.554663,0.65131627,-0.20794166,0.55793,0.6390085,-0.28635384,0.590359,0.66456156,-0.28860797,0.578365,0.68035587,-0.29277592,0.571368,0.69235452,-0.3161479,0.580676,0.66332893,-0.30304995,0.602945,0.67795296,-0.30963375,0.586105,0.66424468,-0.32539528,0.577488,0.66530049,-0.34897669,0.586249,0.68989108,-0.32745587,0.618736,0.69858039,-0.32673579,0.602534,0.70393945,-0.32707639,0.59509,0.71078757,-0.34497663,0.601175
0.62324868,-0.37812294,0.601672,0.6308797,-0.33479566,0.596474,0.59962112,-0.35519232,0.58916,0.57367563,-0.31253135,0.56708,0.54834539,-0.27903856,0.554837,0.5432813,-0.26088354,0.560585,0.61053396,-0.2726557,0.576941,0.62645236,-0.23778303,0.564404,0.63450207,-0.21974329,0.558136,0.65422809,-0.20836604,0.561774,0.63962016,-0.28735292,0.590738,0.66902519,-0.29093269,0.58138,0.68719076,-0.29612096,0.57592,0.70076257,-0.3202528,0.586415,0.66290997,-0.30303607,0.60253,0.68007625,-0.31083457,0.587501,0.66733939,-0.32708648,0.579811,0.66961563,-0.35132015,0.589641,0.68844529,-0.32720837,0.617317,0.69857131,-0.32642839,0.601517,0.70433659,-0.3264912,0.594257,0.71173632,-0.34431277,0.600852
0.62320594,-0.37804318,0.601385,0.63101815,-0.33495964,0.596389,0.60108676,-0.35421654,0.589069,0.57410539,-0.31280397,0.567216,0.54788983,-0.2790788,0.554369,0.54357972,-0.26134253,0.560709,0.61109963,-0.27308982,0.577253,0.62748581,-0.23811754,0.565076,0.63562791,-0.22010371,0.558987,0.65501526,-0.20836738,0.562777,0.63988835,-0.28762683,0.590876,0.66979919,-0.29135644,0.581653,0.68805677,-0.29660607,0.576274,0.70173046,-0.32080182,0.586895,0.66291042,-0.30316275,0.602506,0.68221176,-0.31194925,0.589082,0.67035937,-0.32867199,0.582214,0.67329058,-0.35329641,0.59263,0.6882515,-0.32737894,0.61707,0.69908092,-0.32651518,0.601452,0.70505189,-0.32643849,0.594277,0.71257699,-0.34415732,0.600999
0.62786322,-0.38119071,0.606137,0.63362933,-0.33609654,0.599223,0.60472768,-0.35629543,0.592429,0.57475699,-0.31309871,0.568234,0.54837816,-0.27793525,0.555614,0.54249642,-0.26030997,0.560039,0.61018698,-0.27235161,0.576889,0.6253044,-0.23726189,0.564038,0.64425127,-0.22335516,0.570271,0.66743538,-0.21200403,0.575938,0.64012562,-0.28790253,0.591595,0.66804116,-0.29029219,0.580874,0.68538892,-0.29508988,0.57462,0.69741568,-0.31837164,0.584205,0.66348917,-0.30369931,0.604278,0.67775064,-0.3098074,0.585704,0.66323637,-0.32485459,0.5762,0.66482777,-0.34694595,0.584359,0.69123584,-0.32903381,0.62039,0.70047584,-0.32687844,0.603114,0.70632251,-0.3252897,0.595176,0.71206699,-0.34317955,0.6009
0.62858489,-0.38209731,0.607359,0.63464435,-0.33673809,0.60037,0.60546983,-0.35705609,0.593191,0.57471819,-0.31303449,0.568463,0.54891482,-0.2782606,0.556266,0.54289443,-0.26047234,0.560396,0.61042706,-0.27264427,0.577407,0.62476245,-0.23703772,0.564166,0.64429218,-0.22319666,0.570882,0.66753786,-0.21188031,0.576989,0.64085587,-0.28836259,0.592659,0.66520067,-0.28897157,0.578738,0.68015612,-0.29259461,0.570617,0.69096309,-0.3151686,0.579038,0.66467087,-0.30436872,0.605798,0.67840687,-0.3100345,0.58661,0.66377607,-0.32488666,0.576792,0.66501662,-0.34689686,0.58444,0.69303022,-0.33005653,0.622462,0.70241327,-0.32758977,0.605091,0.70811729,-0.32590643,0.597109,0.71376818,-0.34351036,0.602557
0.63098879,-0.38439722,0.610518,0.63580263,-0.33888575,0.603436,0.60788548,-0.3593884,0.596321,0.57530211,-0.31397308,0.571233,0.54962784,-0.2787048,0.557083,0.54365051,-0.26108631,0.560655,0.61103847,-0.27505668,0.580364,0.62460311,-0.23816885,0.567158,0.64522805,-0.22465159,0.573469,0.66832973,-0.21260336,0.579207,0.64075854,-0.28986135,0.595622,0.66199948,-0.29097636,0.580337,0.67095587,-0.29568878,0.571421,0.68462478,-0.31899924,0.579461,0.66513945,-0.3057257,0.608773,0.67246639,-0.31410287,0.589232,0.66279325,-0.32728852,0.579234,0.66729091,-0.34853576,0.586763,0.69191584,-0.3323437,0.625467,0.69523398,-0.33452555,0.608019,0.69855333,-0.33467046,0.600003,0.70767011,-0.35133225,0.605422
0.62904297,-0.38387562,0.60913,0.63511629,-0.33948632,0.603767,0.606949,-0.35952646,0.596045,0.57516459,-0.31389858,0.571761,0.5529377,-0.28049419,0.560617,0.54476144,-0.26121496,0.561249,0.60431252,-0.27866984,0.583395,0.61096567,-0.24285099,0.565227,0.61789439,-0.22592515,0.559192,0.62447345,-0.21024002,0.553706,0.63472509,-0.29579083,0.597849,0.64429625,-0.25353414,0.585482,0.65952144,-0.24013003,0.578267,0.68052555,-0.25237515,0.58762,0.66102829,-0.31115156,0.610195,0.6748884,-0.31509447,0.592439,0.67099592,-0.32835901,0.583355,0.67343511,-0.35233257,0.592,0.68823976,-0.34106381,0.625665,0.69528601,-0.30580399,0.60967,0.69866367,-0.28945438,0.602322,0.70430455,-0.28954797,0.595837
0.62692491,-0.3832013,0.607747,0.63143505,-0.33982392,0.603795,0.6048859,-0.35906781,0.594963,0.5762876,-0.31413128,0.57379,0.55726677,-0.27903779,0.566198,0.54800322,-0.26082913,0.563821,0.60305836,-0.27855324,0.584878,0.60695785,-0.2420639,0.567631,0.61138794,-0.22421993,0.559751,0.61941821,-0.20879229,0.552588,0.63416903,-0.29536619,0.599435,0.63975511,-0.25081226,0.587119,0.6541402,-0.23699606,0.579935,0.67459939,-0.24906343,0.589308,0.66103502,-0.31170183,0.611746,0.67286353,-0.3120108,0.595305,0.6724245,-0.32823685,0.586893,0.67763516,-0.35431071,0.595944,0.68939226,-0.33846659,0.626954,0.69604361,-0.30051899,0.612114,0.69981242,-0.28328922,0.605295,0.70674278,-0.27632109,0.599279
0.61293563,-0.37480781,0.594927,0.63063706,-0.33828613,0.602065,0.59975585,-0.35627556,0.59109,0.5783724,-0.3142322,0.580925,0.55887443,-0.27890653,0.569821,0.55449182,-0.26000919,0.571143,0.61703213,-0.28521427,0.602765,0.63176657,-0.24703872,0.602993,0.64224981,-0.2289717,0.604504,0.65186307,-0.21237366,0.605878,0.64294012,-0.29793782,0.60994,0.66444844,-0.25891488,0.610513,0.67590483,-0.23369612,0.610847,0.68471681,-0.21690871,0.611085,0.6645254,-0.31138354,0.615244,0.67689293,-0.2750757,0.616974,0.69420321,-0.25950142,0.61786,0.72681806,-0.26706784,0.634944,0.68875516,-0.32947613,0.620413,0.70416692,-0.29677244,0.62,0.71642407,-0.28394111,0.61981,0.72842083,-0.27418008,0.619642
0.65116003,-0.37414447,0.606316,0.65619039,-0.33492378,0.611238,0.62796095,-0.35777023,0.602274,0.59772585,-0.32564568,0.595337,0.57279566,-0.29865151,0.590204,0.56305034,-0.27804517,0.588586,0.63146366,-0.28543786,0.609988,0.63827812,-0.24703897,0.608171,0.64339923,-0.22433158,0.607263,0.64834247,-0.20578111,0.606437,0.66174513,-0.29215927,0.61667,0.66393079,-0.24773343,0.614466,0.66735424,-0.22173063,0.61318,0.67137837,-0.20325204,0.612262,0.68639176,-0.30096986,0.621754,0.69503703,-0.26341941,0.629085,0.69945796,-0.24439784,0.632836,0.71270698,-0.22830146,0.636246,0.71503521,-0.31756736,0.62701,0.72129565,-0.28532168,0.630616,0.73033949,-0.26974143,0.632273,0.73843326,-0.25573372,0.633735
0.62273784,-0.3793336,0.605116,0.64181378,-0.32846059,0.612585,0.60702044,-0.35456505,0.606295,0.59595952,-0.32337557,0.600977,0.56087969,-0.28862669,0.584739,0.55349293,-0.26823268,0.584431,0.63519859,-0.28170261,0.619772,0.64137501,-0.24178981,0.619713,0.6444799,-0.22172347,0.619683,0.64873578,-0.2046423,0.619656,0.66106823,-0.28914691,0.620825,0.66789986,-0.24700147,0.620796,0.67526262,-0.22394031,0.620779,0.68024769,-0.21420914,0.620767,0.68339055,-0.2995004,0.621063,0.69205556,-0.2615925,0.627967,0.69648395,-0.2423721,0.631499,0.70288013,-0.22274963,0.634711,0.70252539,-0.31508613,0.620177,0.71929911,-0.28574059,0.630106,0.72490384,-0.27335785,0.634667,0.73762792,-0.25979148,0.638692
0.61874871,-0.37554068,0.602615,0.63786378,-0.32758212,0.612467,0.60273431,-0.353278,0.603638,0.59234218,-0.32209522,0.598415,0.55703753,-0.28860492,0.583429,0.55622181,-0.27218947,0.590777,0.63055998,-0.2797018,0.621288,0.63733982,-0.24049835,0.623403,0.64074004,-0.2208023,0.62446,0.64544427,-0.20275821,0.625422,0.65710639,-0.28815363,0.623337,0.66621517,-0.24796791,0.626071,0.67147934,-0.22484798,0.627665,0.68420565,-0.20961995,0.628804,0.67739143,-0.2981633,0.624194,0.67818796,-0.25833783,0.626798,0.68024652,-0.23694758,0.628131,0.68693167,-0.22150788,0.629342,0.69830472,-0.31568783,0.623669,0.7075534,-0.28305975,0.627499,0.71258747,-0.26761763,0.629259,0.72081272,-0.25713924,0.630812
0.61521505,-0.37346578,0.600325,0.63205226,-0.34150605,0.609318,0.60142483,-0.3559765,0.601727,0.58288183,-0.3259698,0.597305,0.56094989,-0.2963996,0.593287,0.55850432,-0.27884347,0.598613,0.62230201,-0.29121705,0.617952,0.62949664,-0.25255434,0.621308,0.63310276,-0.23314081,0.622987,0.63638421,-0.21544415,0.624512,0.6505173,-0.29944095,0.619241,0.65470681,-0.25506771,0.620786,0.65840413,-0.23018071,0.621688,0.66338571,-0.21235457,0.622331,0.66848622,-0.30631401,0.619544,0.67158439,-0.26525276,0.622862,0.67391825,-0.24391808,0.624559,0.67969612,-0.22243723,0.626102,0.68973259,-0.32218256,0.618498,0.70005906,-0.28992459,0.624628,0.70623348,-0.27432669,0.627445,0.71572539,-0.25864954,0.62993
0.61377899,-0.37269558,0.599828,0.63194571,-0.34102431,0.609127,0.602085,-0.35692363,0.601565,0.58142214,-0.32689279,0.5994,0.56198977,-0.30021118,0.598338,0.55728527,-0.27896204,0.598791,0.62285533,-0.29133936,0.618411,0.62976127,-0.25283386,0.621895,0.63321639,-0.23355511,0.623637,0.63635905,-0.21601417,0.625221,0.64996821,-0.29888605,0.619387,0.65476233,-0.25604919,0.622001,0.65874992,-0.23158867,0.623526,0.66369326,-0.21374997,0.624615,0.66826858,-0.30612435,0.619408,0.67176621,-0.26503582,0.622869,0.67423015,-0.24372934,0.624639,0.67884571,-0.22301538,0.626249,0.68891365,-0.32177988,0.617978,0.70099257,-0.28990217,0.625333,0.707257,-0.27487875,0.628713,0.71578602,-0.26023099,0.631694
0.61279044,-0.37258031,0.600325,0.628261,-0.33880225,0.608343,0.59829144,-0.35931348,0.600251,0.57909109,-0.32812953,0.603138,0.55875936,-0.29837184,0.598586,0.55633474,-0.28085524,0.602071,0.61196735,-0.28931008,0.614395,0.62120185,-0.25438571,0.621055,0.63072732,-0.23484357,0.624384,0.63735054,-0.2172852,0.627411,0.63884618,-0.29639259,0.617191,0.64565139,-0.25468534,0.620838,0.64985335,-0.23046712,0.62319,0.65285463,-0.21316978,0.62487,0.65973882,-0.30538145,0.618816,0.66457601,-0.26417459,0.622722,0.66704996,-0.24311955,0.62472,0.67431649,-0.22426633,0.626536,0.68213971,-0.32188098,0.619489,0.70042991,-0.29022046,0.626289,0.70671135,-0.27524691,0.629413,0.71476485,-0.26095373,0.63217
0.61462211,-0.37348808,0.602459,0.62911534,-0.33949971,0.609927,0.59948621,-0.36062444,0.603187,0.57795189,-0.32804431,0.6025,0.55766009,-0.29865362,0.598378,0.55494445,-0.28060575,0.601621,0.61695721,-0.29049324,0.616556,0.62157306,-0.25438957,0.621609,0.62713051,-0.23520395,0.624136,0.63505656,-0.21695167,0.626433,0.64290437,-0.29709868,0.618169,0.64854353,-0.25530763,0.620767,0.65069919,-0.2301895,0.622283,0.65796449,-0.21289645,0.623366,0.66301548,-0.30571007,0.618867,0.66404694,-0.26386295,0.62179,0.66575036,-0.24247126,0.623286,0.66729786,-0.22303087,0.624645,0.68447735,-0.32178599,0.618526,0.69998607,-0.29047419,0.626854,0.70694331,-0.27579306,0.630681,0.71309928,-0.26280474,0.634058
0.6166992,-0.37424176,0.604622,0.6301044,-0.34006082,0.611124,0.60002054,-0.36146795,0.605063,0.57913484,-0.32918185,0.603773,0.5591235,-0.29971517,0.598738,0.55444316,-0.28063559,0.601255,0.61492723,-0.29103074,0.616653,0.61973739,-0.25360375,0.620002,0.62395141,-0.23405881,0.621676,0.6286695,-0.21617766,0.623198,0.64090403,-0.29724387,0.618298,0.64467712,-0.25426059,0.619246,0.64797456,-0.22902224,0.619799,0.65071291,-0.21101518,0.620194,0.66120434,-0.30557162,0.619104,0.66201529,-0.26292727,0.620265,0.66327003,-0.24110549,0.620859,0.66441374,-0.22119912,0.6214,0.68597284,-0.32177051,0.619042,0.69629558,-0.28978249,0.626924,0.70332908,-0.27485969,0.630545,0.70954677,-0.26162881,0.63374
0.61880532,-0.37539803,0.606725,0.6305768,-0.34044352,0.612357,0.60103157,-0.36289003,0.607114,0.57742876,-0.32996518,0.603335,0.5562713,-0.30115547,0.598396,0.55220271,-0.2808487,0.600691,0.61525653,-0.29209556,0.617155,0.61883747,-0.25375589,0.619219,0.62236421,-0.23392172,0.620251,0.62623815,-0.21577262,0.621189,0.64106451,-0.29808519,0.618571,0.64411061,-0.25493883,0.619092,0.6473243,-0.22954836,0.619395,0.64991416,-0.21138374,0.619613,0.66132645,-0.30626025,0.619261,0.6612151,-0.26344513,0.619924,0.66241396,-0.24147118,0.620263,0.66350749,-0.22139063,0.620571,0.68481856,-0.32203473,0.619199,0.6955575,-0.2903123,0.626806,0.70266184,-0.27518854,0.630302,0.70993345,-0.26192109,0.633386
0.61970666,-0.37620915,0.607859,0.63024064,-0.34077571,0.612964,0.60103294,-0.36396036,0.608084,0.57757737,-0.33056248,0.603744,0.55634541,-0.30086553,0.598883,0.5517622,-0.28132913,0.6008,0.61504378,-0.29241145,0.617154,0.61608341,-0.25296126,0.616739,0.61791067,-0.2323671,0.616532,0.62035845,-0.21384566,0.616343,0.64095601,-0.29833036,0.618596,0.64197792,-0.25408021,0.616825,0.64388701,-0.22844795,0.615791,0.64623833,-0.20964357,0.615053,0.66137887,-0.30647236,0.619352,0.6597631,-0.26330877,0.618888,0.66075651,-0.24120257,0.61865,0.66192872,-0.22093429,0.618434,0.68389973,-0.32220143,0.619451,0.69451342,-0.29011058,0.626121,0.70126026,-0.27471279,0.629186,0.70723481,-0.26101639,0.63189
0.61930555,-0.37648462,0.607535,0.62993954,-0.34084769,0.612799,0.60078906,-0.36407552,0.607888,0.57733614,-0.33076599,0.603661,0.55611781,-0.3011405,0.59886,0.55144501,-0.28167091,0.600875,0.61501924,-0.29267772,0.617271,0.61530916,-0.25256634,0.615928,0.61650096,-0.23183458,0.615256,0.61852093,-0.21318624,0.614645,0.6408787,-0.29849155,0.618608,0.64151588,-0.25388769,0.616236,0.64325018,-0.22800319,0.614853,0.64514054,-0.20912607,0.613865,0.661255,-0.30654025,0.619264,0.65918145,-0.26337102,0.618559,0.66031726,-0.2412661,0.618198,0.66163176,-0.22101266,0.61787,0.68371306,-0.32214595,0.619219,0.69378955,-0.28996423,0.625639,0.7004887,-0.27445935,0.628588,0.70642489,-0.26065424,0.63119
0.61834662,-0.38083051,0.608199,0.62484854,-0.35005357,0.612333,0.60084189,-0.36542086,0.60869,0.57699123,-0.33414745,0.605004,0.55622381,-0.30434185,0.600238,0.55080442,-0.28272662,0.601195,0.61386865,-0.30032171,0.616112,0.61359197,-0.25820885,0.612653,0.61345816,-0.23710133,0.610924,0.61307419,-0.21271588,0.609352,0.63917988,-0.30749877,0.616895,0.6392295,-0.26602826,0.613429,0.64623958,-0.25147576,0.611407,0.64927134,-0.25486228,0.609963,0.65900999,-0.31667545,0.617193,0.6522228,-0.27209829,0.613367,0.6524897,-0.24992351,0.61141,0.65277131,-0.22940195,0.60963,0.68060444,-0.33365484,0.616898,0.68615133,-0.29867837,0.619964,0.69019455,-0.28213578,0.621372,0.69454248,-0.26742727,0.622615
0.61724668,-0.38135282,0.607757,0.62465466,-0.34994495,0.612143,0.59992626,-0.36591594,0.608362,0.57627244,-0.33468469,0.604849,0.55609715,-0.3047475,0.60024,0.55092906,-0.28330143,0.601415,0.61401113,-0.30039142,0.616255,0.61398958,-0.25837617,0.61305,0.61398433,-0.23730469,0.611448,0.61376122,-0.21379991,0.609991,0.63927003,-0.30754213,0.616982,0.63960047,-0.26618265,0.613785,0.64678075,-0.25168635,0.611919,0.64993555,-0.25512301,0.610587,0.65903028,-0.31668519,0.617212,0.6525333,-0.27222782,0.613659,0.65294966,-0.25009969,0.611841,0.65336987,-0.2296123,0.610189,0.68049411,-0.33360076,0.616798,0.6860473,-0.29863308,0.61987,0.69009458,-0.28209492,0.621282,0.69444432,-0.26738947,0.622527
0.61601298,-0.38270017,0.607293,0.622699,-0.35084346,0.610698,0.59674843,-0.36969219,0.607184,0.5750491,-0.3447762,0.605594,0.55569633,-0.31367633,0.600369,0.55164114,-0.2895141,0.602666,0.60551384,-0.30506066,0.613172,0.60631617,-0.26317424,0.609101,0.60674097,-0.24203121,0.607065,0.60714241,-0.2226921,0.605215,0.63200455,-0.31062333,0.614455,0.63239027,-0.26486435,0.610164,0.63262767,-0.23805996,0.607661,0.63280275,-0.21886254,0.605873,0.65568276,-0.31663303,0.615224,0.65092918,-0.27278115,0.61271,0.65205042,-0.25094763,0.611425,0.65311726,-0.23068495,0.610256,0.6785111,-0.33341285,0.615603,0.6848401,-0.2990739,0.619225,0.68937308,-0.28266855,0.62089,0.69408037,-0.26807699,0.622358
0.61478739,-0.38402166,0.606812,0.62212995,-0.351521,0.610376,0.59601032,-0.3707794,0.606903,0.57517825,-0.34485362,0.60573,0.55557323,-0.31360684,0.600236,0.55165207,-0.29065725,0.602621,0.60556124,-0.30508454,0.61322,0.60656304,-0.2632814,0.609349,0.60708878,-0.24216995,0.607413,0.60758281,-0.22285363,0.605654,0.63185336,-0.31054901,0.614308,0.63243588,-0.26488345,0.610208,0.63279008,-0.23812108,0.607817,0.63304924,-0.21894779,0.606109,0.65472734,-0.31695244,0.614903,0.6504158,-0.27317831,0.612507,0.65166893,-0.25139817,0.611281,0.65285953,-0.23117598,0.610167,0.6775708,-0.33334409,0.615052,0.68304125,-0.29830756,0.617682,0.68722422,-0.28170773,0.618891,0.69158146,-0.26700703,0.619957
0.61435166,-0.38529851,0.606724,0.62171862,-0.35144377,0.610222,0.59640972,-0.36977108,0.606998,0.57508928,-0.34163145,0.605982,0.55558679,-0.31054649,0.600733,0.55048691,-0.28800828,0.601594,0.60572072,-0.30410666,0.613243,0.60658861,-0.26219633,0.60935,0.60704532,-0.24105256,0.607404,0.60832833,-0.2196376,0.605634,0.63354968,-0.30816254,0.614082,0.63256938,-0.26387165,0.60995,0.63307445,-0.23708457,0.60754,0.63344237,-0.21788404,0.605818,0.65394259,-0.316542,0.614478,0.64930113,-0.27264997,0.611801,0.65042813,-0.25091004,0.610431,0.65159065,-0.23082694,0.609186,0.67661302,-0.33270882,0.6144,0.68244796,-0.29747638,0.616824,0.68660829,-0.28084897,0.617938,0.69096121,-0.26611297,0.618921
