sluyters/QuantumLeap/backend/src/datasets/dynamic/HandGestureDataset_SHREC2017_csv/Gesture7/finger_1/subject_23_essai_4_skeletons_world.csv
Wrist_x,Wrist_y,Wrist_z,Palm_x,Palm_y,Palm_z,thumb_base_x,thumb_base_y,thumb_base_z,thumb_first_joint_x,thumb_first_joint_y,thumb_first_joint_z,thumb_second_joint_x,thumb_second_joint_y,thumb_second_joint_z,thumb_tip_x,thumb_tip_y,thumb_tip_z,index_base_x,index_base_y,index_base_z,index_first_joint_x,index_first_joint_y,index_first_joint_z,index_second_joint_x,index_second_joint_y,index_second_joint_z,index_tip_x,index_tip_y,index_tip_z,middle_base_x,middle_base_y,middle_base_z,middle_first_joint_x,middle_first_joint_y,middle_first_joint_z,middle_second_joint_x,middle_second_joint_y,middle_second_joint_z,middle_tip_x,middle_tip_y,middle_tip_z,ring_base_x,ring_base_y,ring_base_z,ring_first_joint_x,ring_first_joint_y,ring_first_joint_z,ring_second_joint_x,ring_second_joint_y,ring_second_joint_z,ring_tip_x,ring_tip_y,ring_tip_z,pinky_base_x,pinky_base_y,pinky_base_z,pinky_first_joint_x,pinky_first_joint_y,pinky_first_joint_z,pinky_second_joint_x,pinky_second_joint_y,pinky_second_joint_z,pinky_tip_x,pinky_tip_y,pinky_tip_z,
0.234037952,-0.260200614,0.413808,0.179423607,-0.240647476,0.40027,0.219098342,-0.252278684,0.397159,0.1866256,-0.214507664,0.374501,0.163219239,-0.190598193,0.355102,0.145740796,-0.180691983,0.345825,0.143883779,-0.223149485,0.373535,0.107900695,-0.191353249,0.351485,0.0899405474,-0.175476391,0.34046,0.0736329087,-0.161055169,0.330434,0.146057485,-0.227738698,0.390852,0.16455228,-0.188965609,0.37863,0.180055925,-0.187624058,0.3715,0.184389301,-0.193967042,0.362488,0.149666873,-0.235158555,0.406098,0.147696079,-0.190278473,0.389391,0.161561412,-0.1852577,0.380844,0.170697979,-0.180868364,0.369673,0.161824221,-0.24408857,0.4259,0.17603506,-0.213830543,0.413874,0.18555969,-0.208556301,0.408349,0.193992003,-0.206107203,0.400607
0.233108473,-0.260884376,0.414982,0.17958451,-0.242209491,0.401289,0.218921274,-0.253065735,0.398302,0.186831272,-0.215843177,0.375649,0.162791712,-0.193735695,0.356222,0.145938519,-0.182287163,0.346887,0.144207208,-0.224709278,0.374448,0.108059091,-0.192945333,0.352218,0.0895759405,-0.178752472,0.341103,0.0736452058,-0.162686233,0.330999,0.145419509,-0.231014517,0.391762,0.162876675,-0.191415866,0.379385,0.180503143,-0.188769859,0.372165,0.184116529,-0.195013256,0.363146,0.150211034,-0.236544496,0.407018,0.148184968,-0.191541945,0.390168,0.162040759,-0.185122335,0.381548,0.171352164,-0.178876889,0.370371,0.1623838,-0.245486857,0.426853,0.175616049,-0.216603276,0.414707,0.186064487,-0.209823483,0.409126,0.194497738,-0.207358216,0.401377
0.232412675,-0.261765646,0.416305,0.181367716,-0.24382888,0.401845,0.219238985,-0.253971588,0.399512,0.187520543,-0.216881956,0.37651,0.164488595,-0.196279904,0.356778,0.146535129,-0.183278889,0.347192,0.144945073,-0.22657766,0.37453,0.108450559,-0.194658395,0.351439,0.0902773364,-0.17874716,0.339894,0.0750748399,-0.162267785,0.329398,0.146155572,-0.231819086,0.391784,0.161268301,-0.190825505,0.378684,0.178089559,-0.185674069,0.371043,0.182802503,-0.193148233,0.36193,0.150752935,-0.237469018,0.407046,0.147064588,-0.192121212,0.389546,0.160751191,-0.18517278,0.380592,0.170021407,-0.178787265,0.369328,0.162728955,-0.246597787,0.426992,0.175761611,-0.21724149,0.414301,0.186075067,-0.210126863,0.40847,0.194499287,-0.207359595,0.400647
0.233687981,-0.264712762,0.421055,0.183545836,-0.244287054,0.404042,0.222219622,-0.256482918,0.403115,0.188680059,-0.217937822,0.378127,0.164554491,-0.19348711,0.356735,0.14786055,-0.179907454,0.345621,0.146681582,-0.224523701,0.374188,0.108880249,-0.195874117,0.352697,0.0905285408,-0.180642932,0.341768,0.0738143685,-0.166764896,0.331798,0.147059112,-0.230631763,0.392206,0.161196078,-0.188106249,0.375538,0.177540797,-0.183919063,0.365815,0.180576835,-0.191288459,0.358194,0.152235749,-0.236507735,0.408283,0.155121976,-0.187459623,0.387199,0.166764135,-0.185472328,0.376411,0.174948484,-0.182065269,0.366699,0.165042573,-0.246185529,0.429533,0.176549628,-0.21362675,0.413725,0.181017223,-0.198026301,0.406461,0.191236161,-0.192909998,0.399649
0.230527982,-0.262632329,0.417808,0.182436996,-0.242976809,0.401782,0.219411495,-0.254751087,0.400597,0.188466784,-0.217501922,0.377227,0.164920419,-0.19340161,0.357044,0.148415907,-0.180361255,0.347009,0.146367508,-0.224052123,0.373268,0.108374162,-0.195230187,0.350977,0.0898675436,-0.18016528,0.339831,0.0730299617,-0.16646122,0.329696,0.146727253,-0.229654109,0.390633,0.161256427,-0.187991195,0.375815,0.178129936,-0.184578906,0.367172,0.180369927,-0.191398908,0.358233,0.151638328,-0.235171702,0.4061,0.154335965,-0.187858382,0.386965,0.166458206,-0.186048513,0.377175,0.174506464,-0.181932582,0.366102,0.164038487,-0.244366105,0.426498,0.175714802,-0.21268126,0.412419,0.180983463,-0.198260932,0.40595,0.190222216,-0.192436177,0.398228
0.230456777,-0.262529875,0.41742,0.186295442,-0.241130196,0.398866,0.219361737,-0.254749531,0.400417,0.19707796,-0.21827547,0.375278,0.173600448,-0.192307501,0.353641,0.155666545,-0.180021803,0.342247,0.153457234,-0.225053646,0.369524,0.117330742,-0.192258455,0.34484,0.099349268,-0.175916986,0.332498,0.0830559204,-0.161097151,0.321276,0.153882964,-0.228750327,0.385958,0.167785074,-0.184566801,0.369325,0.183371329,-0.181308132,0.359622,0.18308511,-0.187392452,0.349591,0.157890421,-0.233377094,0.400846,0.161045671,-0.186727501,0.380336,0.171986095,-0.183678807,0.369843,0.174116562,-0.177415181,0.35771,0.169263332,-0.241738566,0.420898,0.180130123,-0.207569505,0.405704,0.188810438,-0.198684075,0.398722,0.196361488,-0.193757806,0.390224
0.234317267,-0.262415311,0.417409,0.202304351,-0.243858359,0.400076,0.227551665,-0.25519239,0.400535,0.209418358,-0.218912851,0.375896,0.18574057,-0.194710027,0.354641,0.16781067,-0.183132986,0.343707,0.167875422,-0.225758425,0.371422,0.130361866,-0.194687488,0.346423,0.1116674,-0.179189934,0.333924,0.0947134704,-0.165126001,0.322561,0.168717935,-0.229431367,0.388017,0.180752507,-0.186624721,0.372528,0.195941182,-0.184002771,0.363493,0.195735657,-0.190631543,0.353597,0.173007209,-0.233999736,0.402947,0.1728134,-0.18825535,0.383448,0.183479981,-0.185481114,0.373472,0.190017965,-0.18125675,0.361458,0.184607022,-0.242226677,0.422886,0.193896835,-0.209982971,0.408542,0.201618508,-0.199120329,0.401951,0.209151448,-0.194730387,0.393558
0.248860097,-0.264753847,0.417705,0.209923986,-0.243731365,0.399073,0.242715976,-0.257295678,0.400479,0.217553796,-0.218509739,0.375221,0.193612813,-0.19411561,0.353546,0.175544583,-0.182852894,0.342147,0.174084423,-0.224706144,0.369417,0.137135853,-0.196463615,0.342387,0.118592176,-0.182308129,0.328871,0.10168751,-0.16941682,0.316584,0.175576924,-0.228477469,0.386111,0.18875354,-0.186030757,0.369166,0.203142708,-0.182705592,0.359281,0.202927459,-0.18924648,0.349587,0.180473104,-0.23321549,0.401218,0.180940621,-0.186502369,0.380331,0.193846357,-0.186841528,0.369644,0.203002568,-0.185637913,0.357849,0.19291192,-0.24179154,0.42154,0.201539695,-0.208876957,0.406011,0.209384307,-0.197983443,0.398876,0.217208652,-0.193596435,0.390608
0.259050033,-0.261545557,0.409155,0.217687986,-0.240652805,0.392045,0.247319385,-0.253656228,0.391928,0.224491024,-0.215319211,0.367201,0.200814483,-0.190970897,0.345956,0.183083251,-0.180219332,0.33495,0.18132645,-0.220719113,0.363045,0.144707674,-0.192527961,0.336952,0.126291203,-0.178376251,0.323905,0.109475828,-0.165472462,0.312043,0.183918871,-0.224769104,0.380142,0.200389212,-0.185024424,0.364441,0.21452347,-0.183239237,0.355282,0.213784345,-0.190197086,0.346023,0.189660026,-0.22980616,0.395469,0.193050612,-0.184453615,0.375603,0.204899557,-0.18620568,0.365439,0.213019663,-0.186134347,0.354058,0.202981546,-0.238858027,0.415847,0.215502301,-0.210322386,0.401164,0.224655764,-0.203982697,0.394418,0.231352241,-0.203523746,0.386464
0.266940625,-0.265398216,0.414723,0.226744425,-0.243319419,0.387727,0.261058938,-0.260801251,0.396889,0.238417804,-0.22498656,0.369254,0.217943957,-0.197591379,0.349484,0.199958085,-0.184855927,0.335928,0.192931179,-0.230250444,0.353703,0.157322549,-0.195744544,0.327454,0.139656166,-0.178604525,0.31433,0.123686976,-0.163097048,0.302398,0.192205698,-0.227468763,0.368946,0.158888579,-0.1950966,0.343708,0.139026698,-0.175856831,0.328985,0.124934879,-0.16234638,0.319307,0.195235545,-0.226792511,0.383473,0.204162584,-0.182588038,0.355336,0.20690418,-0.177192582,0.34094,0.208819606,-0.172808433,0.329381,0.2055147,-0.22904294,0.404232,0.192694714,-0.187768925,0.382486,0.201493493,-0.183860416,0.372495,0.202761256,-0.189987611,0.364215
0.277680094,-0.267516068,0.415751,0.237703625,-0.245358071,0.388009,0.271793015,-0.264866328,0.397948,0.24933053,-0.227277469,0.370075,0.228690184,-0.19977762,0.350211,0.210517553,-0.186890621,0.336405,0.2037661,-0.232118016,0.353701,0.168015671,-0.197529044,0.327338,0.150279732,-0.180351712,0.314157,0.134248518,-0.164813575,0.302174,0.202956435,-0.22919811,0.368709,0.169520656,-0.196468258,0.342761,0.149654148,-0.177061883,0.327625,0.13574214,-0.163602665,0.317929,0.205938371,-0.228448559,0.383096,0.213717896,-0.183837463,0.354375,0.215423698,-0.178138969,0.33968,0.216667908,-0.1736429,0.328131,0.21619178,-0.230672725,0.40379,0.202696898,-0.189110972,0.381538,0.211077656,-0.185040641,0.371314,0.214704868,-0.191131332,0.363025
0.296544971,-0.270044369,0.417224,0.250456397,-0.247703099,0.384333,0.286679439,-0.269420831,0.400572,0.269137061,-0.232946184,0.37157,0.253591733,-0.205206557,0.354958,0.234806986,-0.188951379,0.339278,0.213786172,-0.238528518,0.349253,0.185719235,-0.200410927,0.321573,0.171772519,-0.181501957,0.307733,0.159152345,-0.164413017,0.295152,0.212718795,-0.231752536,0.361452,0.202844057,-0.187334954,0.331594,0.196946613,-0.161872994,0.314176,0.20333359,-0.14814773,0.302963,0.215814163,-0.227862595,0.373907,0.186570677,-0.19773059,0.342467,0.171530319,-0.182236511,0.326381,0.158368325,-0.168699675,0.312878,0.226714913,-0.226322312,0.39301,0.211221695,-0.185357487,0.368422,0.218097208,-0.180067242,0.357124,0.219229676,-0.184448608,0.347824
0.327249768,-0.26894438,0.416047,0.269950832,-0.247996622,0.384267,0.314148685,-0.269952255,0.398499,0.282579115,-0.241061823,0.369964,0.264215171,-0.207577896,0.351954,0.243934175,-0.186588647,0.336426,0.22926592,-0.239993887,0.348539,0.205101053,-0.200898136,0.320888,0.193065826,-0.181509477,0.307062,0.182015648,-0.16386358,0.294265,0.230482202,-0.233429069,0.362159,0.219264145,-0.189716556,0.331684,0.225816907,-0.176371026,0.313907,0.225396043,-0.176483643,0.305421,0.235596612,-0.229481816,0.3757,0.20673029,-0.197018208,0.343191,0.191934368,-0.180368779,0.326558,0.178401314,-0.165146089,0.311327,0.249203841,-0.227499856,0.395937,0.231459934,-0.186497719,0.370275,0.237364767,-0.182110361,0.358485,0.239720048,-0.187335529,0.351106
0.338850822,-0.269524226,0.416944,0.292058269,-0.248472909,0.385005,0.33662203,-0.270601903,0.399458,0.304711625,-0.241602636,0.370794,0.28550884,-0.207857455,0.352428,0.264738297,-0.186887588,0.336965,0.251129388,-0.240508938,0.349287,0.226864458,-0.201464729,0.321793,0.214765198,-0.182091136,0.308046,0.203744216,-0.164542946,0.295485,0.252310696,-0.233832556,0.362785,0.240888289,-0.190142681,0.332429,0.245681443,-0.17682894,0.314722,0.243679001,-0.176679529,0.30576,0.257426888,-0.229811044,0.376239,0.228730177,-0.197417192,0.343886,0.213750437,-0.180565962,0.326915,0.200123761,-0.165230432,0.311486,0.271079837,-0.227761867,0.396393,0.252739985,-0.186813522,0.370902,0.258220947,-0.182468501,0.35919,0.25978648,-0.187529211,0.351469
0.361120829,-0.269870901,0.417578,0.314169135,-0.248967273,0.38552,0.358829317,-0.271014581,0.400103,0.326967642,-0.242337255,0.371532,0.30694116,-0.208453854,0.352765,0.28569408,-0.187542239,0.337286,0.273190844,-0.241252508,0.349763,0.248705028,-0.202315604,0.322017,0.236483118,-0.182994833,0.308144,0.225413709,-0.16554981,0.295568,0.274335947,-0.234469861,0.363217,0.262612705,-0.190913496,0.332659,0.265331481,-0.177370208,0.314834,0.262119924,-0.177169217,0.306033,0.279423332,-0.230336132,0.376642,0.250896534,-0.198166325,0.344114,0.236030838,-0.181466813,0.327119,0.222510934,-0.166268221,0.31167,0.29305257,-0.228119965,0.39678,0.27396524,-0.187192712,0.371121,0.278900626,-0.182829249,0.359332,0.279961221,-0.187920675,0.35173
0.369588378,-0.277529988,0.423206,0.322120028,-0.254899307,0.407992,0.350380141,-0.285567288,0.414367,0.31338647,-0.274442426,0.40121,0.294975165,-0.251849489,0.389269,0.278002832,-0.23560297,0.382451,0.270760202,-0.247639402,0.390339,0.256022534,-0.234479371,0.370654,0.266863446,-0.232219808,0.360811,0.286125474,-0.239524727,0.366901,0.286252645,-0.234521734,0.397408,0.277052542,-0.223069375,0.376916,0.289036702,-0.225959914,0.364962,0.299475878,-0.233249159,0.371561,0.302959965,-0.225460961,0.404344,0.282536181,-0.208532319,0.382938,0.288148599,-0.204479071,0.371986,0.298613819,-0.204420418,0.362834,0.330174999,-0.218049671,0.414565,0.315790375,-0.213288733,0.39634,0.311998881,-0.21382464,0.387967,0.315077451,-0.219201172,0.380578
0.371863502,-0.275231103,0.415403,0.324700665,-0.254703527,0.408315,0.35004005,-0.278617946,0.405377,0.313380948,-0.266139907,0.390419,0.292566997,-0.240348859,0.37415,0.271580635,-0.22597625,0.367709,0.274972188,-0.249554642,0.392674,0.273114672,-0.232369106,0.376196,0.283772672,-0.234509661,0.367957,0.302642841,-0.245693621,0.374492,0.292503385,-0.238561997,0.403384,0.298518876,-0.2248377,0.389779,0.313894487,-0.232142481,0.381843,0.324193079,-0.244484146,0.389799,0.310556075,-0.23078774,0.41272,0.30882777,-0.213082393,0.396538,0.313401677,-0.208577459,0.38826,0.323954034,-0.216180225,0.381759,0.339006044,-0.224995006,0.424684,0.339526289,-0.213777833,0.410981,0.348095264,-0.210673859,0.404686,0.354630298,-0.214730657,0.409779
0.396564283,-0.28464441,0.428741,0.349561238,-0.254067352,0.411025,0.374944489,-0.282871995,0.41438,0.343424621,-0.265607901,0.394494,0.318560905,-0.244201522,0.376938,0.300510495,-0.228273614,0.367191,0.294161673,-0.243459768,0.385361,0.299314672,-0.225676695,0.366636,0.309426502,-0.220520272,0.357274,0.320988576,-0.225233632,0.360376,0.312126322,-0.234182111,0.398701,0.312244553,-0.213777115,0.376527,0.344974332,-0.232458416,0.3894,0.358430999,-0.247777582,0.401461,0.331011197,-0.22824548,0.41098,0.325422291,-0.204355574,0.386086,0.327229177,-0.195981942,0.373349,0.345170787,-0.20691981,0.375264,0.360942586,-0.224568664,0.427842,0.357270905,-0.210866311,0.407476,0.363622892,-0.206656941,0.398118,0.367603066,-0.208643753,0.399166
0.420724063,-0.28641349,0.433444,0.372547768,-0.255675747,0.413336,0.403805377,-0.287327573,0.418243,0.367339516,-0.26722765,0.396807,0.341462718,-0.244840869,0.378021,0.322929642,-0.228595981,0.367827,0.314917405,-0.244088754,0.385585,0.319739254,-0.22445736,0.365659,0.328679905,-0.219205237,0.355696,0.338650252,-0.223808423,0.357564,0.332971963,-0.235140191,0.399347,0.332980593,-0.212501731,0.375396,0.365306197,-0.229573988,0.386713,0.378917262,-0.24534207,0.398929,0.352116876,-0.229551308,0.412148,0.346781655,-0.204198667,0.385491,0.347059817,-0.193511149,0.371853,0.364729773,-0.201490376,0.372272,0.382726309,-0.226386082,0.429948,0.373068064,-0.209581462,0.408258,0.377856766,-0.204130256,0.398293,0.381775976,-0.205620545,0.398281
0.432805138,-0.261380393,0.409386,0.379599441,-0.24494004,0.400999,0.404647475,-0.259185803,0.392512,0.38135066,-0.228532906,0.367898,0.361635887,-0.202210433,0.346846,0.348604833,-0.183041307,0.335882,0.324147818,-0.235062141,0.376201,0.327787023,-0.204218933,0.36191,0.336207707,-0.206358163,0.354765,0.346631853,-0.213479277,0.354208,0.344345321,-0.233942734,0.395164,0.351749677,-0.202524635,0.382785,0.376985922,-0.21744289,0.388079,0.388205761,-0.233851055,0.394219,0.364710253,-0.233952741,0.411386,0.366436446,-0.201297246,0.393853,0.374307673,-0.190808234,0.384883,0.391100211,-0.194716151,0.38359,0.395762802,-0.235754642,0.43165,0.394370439,-0.209986428,0.418114,0.40228,-0.207579322,0.411895,0.404998552,-0.213482762,0.410981
0.438449889,-0.244619263,0.391424,0.392578098,-0.237213715,0.391595,0.411120865,-0.242504288,0.37616,0.389356775,-0.214109217,0.355255,0.369449375,-0.19039278,0.337051,0.35623286,-0.174169338,0.328823,0.340778237,-0.231268386,0.37251,0.341816254,-0.197625077,0.359868,0.351825905,-0.199967359,0.353546,0.362713325,-0.208898274,0.35353,0.362062717,-0.232290071,0.391715,0.372167537,-0.200290246,0.3869,0.400017568,-0.214015103,0.392746,0.411418097,-0.229555244,0.396322,0.382819611,-0.233495232,0.407508,0.386512072,-0.200057964,0.396895,0.398997355,-0.192466208,0.391465,0.418623219,-0.19584182,0.392328,0.413378827,-0.235644071,0.426119,0.415646116,-0.209624261,0.41823,0.425788625,-0.209284169,0.414606,0.428465424,-0.217913375,0.415325
0.438420958,-0.24164764,0.386669,0.406933377,-0.239867426,0.395446,0.414271516,-0.24129081,0.374193,0.402798085,-0.215819299,0.357815,0.387375302,-0.19434734,0.34365,0.376910863,-0.179326008,0.338009,0.361355718,-0.238726819,0.38357,0.369150735,-0.207866066,0.377537,0.383189962,-0.212232339,0.37452,0.398059021,-0.223479624,0.37769,0.381581825,-0.238666017,0.401552,0.3994533,-0.209648622,0.404016,0.431185507,-0.225027779,0.412331,0.441089645,-0.240089918,0.414049,0.400926346,-0.238671668,0.415708,0.409184866,-0.206864973,0.412195,0.425462353,-0.199375601,0.410397,0.446274345,-0.205056845,0.414757,0.428725469,-0.238830154,0.431233,0.436929949,-0.215324914,0.428932,0.449991509,-0.216203854,0.427875,0.455295621,-0.226391418,0.431131
0.46068603,-0.217071009,0.405203,0.418715931,-0.235100393,0.400228,0.444579691,-0.217831073,0.388742,0.423584429,-0.193335061,0.364363,0.406172307,-0.174408688,0.343492,0.392950806,-0.165178375,0.332737,0.380555136,-0.243725458,0.37742,0.375289011,-0.211151182,0.375042,0.395814371,-0.208958081,0.379001,0.405500188,-0.223892002,0.382547,0.389531418,-0.247635552,0.396767,0.37730385,-0.20768648,0.387588,0.404050585,-0.206216301,0.392324,0.41688162,-0.220421096,0.397242,0.3999627,-0.249495562,0.413055,0.394872234,-0.215569713,0.412884,0.412810144,-0.211081499,0.412796,0.425120688,-0.224990568,0.416272,0.417887229,-0.249221105,0.43294,0.408695472,-0.219957289,0.421792,0.425766651,-0.220221445,0.424316,0.435510644,-0.230774361,0.429218
0.459772901,-0.212046972,0.400874,0.416308743,-0.231502618,0.393988,0.443265194,-0.213898103,0.384457,0.426314867,-0.186051622,0.360364,0.410690118,-0.177451579,0.340242,0.39352477,-0.162581243,0.330377,0.381296123,-0.243878956,0.370412,0.36908598,-0.214071674,0.367466,0.389031473,-0.206371122,0.372786,0.402238321,-0.216438303,0.376074,0.391183779,-0.246423388,0.389198,0.369710064,-0.208553877,0.377878,0.395981705,-0.202405117,0.384288,0.411209519,-0.215655353,0.390395,0.402335593,-0.246924427,0.405165,0.39044842,-0.21423108,0.406187,0.413397046,-0.211175025,0.412234,0.425139903,-0.223128251,0.414237,0.421042375,-0.244531579,0.424926,0.401901701,-0.215595861,0.41215,0.419082146,-0.214405774,0.41568,0.432089299,-0.223141457,0.421545
0.46580632,-0.204852865,0.39594,0.436413844,-0.228184263,0.394882,0.449558589,-0.208035173,0.380709,0.434197422,-0.179381836,0.359137,0.416665255,-0.170360613,0.340862,0.404459132,-0.156217513,0.334002,0.399723793,-0.241981673,0.375308,0.386440743,-0.215849891,0.376222,0.40784264,-0.210211145,0.382054,0.423006652,-0.216791338,0.384023,0.411176696,-0.245349119,0.394146,0.388545368,-0.212146865,0.387894,0.41611472,-0.205090177,0.395018,0.433104019,-0.215228028,0.399515,0.4232281,-0.24629792,0.409728,0.409591502,-0.220687964,0.413928,0.431485017,-0.213256318,0.420484,0.445706698,-0.221196605,0.421408,0.442268365,-0.244053606,0.428255,0.427561226,-0.216763739,0.41926,0.444559185,-0.212481756,0.423309,0.460282802,-0.207868816,0.428044
0.488108832,-0.207811183,0.405349,0.451368585,-0.229862719,0.40093,0.471612769,-0.210270516,0.389723,0.455533844,-0.181886517,0.366638,0.440768996,-0.171746868,0.347735,0.430605045,-0.156930029,0.340627,0.414652686,-0.241607991,0.379412,0.40342576,-0.21372554,0.379063,0.425142031,-0.209034975,0.385613,0.43955705,-0.216695546,0.388368,0.423769554,-0.245000263,0.397857,0.407537506,-0.212200322,0.394423,0.436081735,-0.206446496,0.40274,0.450904334,-0.216949167,0.406593,0.434154661,-0.246189429,0.413362,0.425125993,-0.216505573,0.415899,0.447656295,-0.21186046,0.423224,0.460145215,-0.222460788,0.425126,0.451684276,-0.24463905,0.432248,0.437761185,-0.215329351,0.420826,0.454413632,-0.210415353,0.425334,0.471425603,-0.208236951,0.431102
0.499962795,-0.211622635,0.412831,0.461012517,-0.232125623,0.407764,0.487193979,-0.213324562,0.397092,0.46841186,-0.182548294,0.371689,0.449760643,-0.17174772,0.349128,0.435810411,-0.155203828,0.337775,0.424662752,-0.240012509,0.385823,0.415748073,-0.209645993,0.384944,0.43796305,-0.206277984,0.391474,0.451181399,-0.218792469,0.396262,0.433561837,-0.243495185,0.404239,0.419893545,-0.208022058,0.400214,0.449077957,-0.204031429,0.408505,0.461840059,-0.218775344,0.413915,0.443974567,-0.244991789,0.419767,0.437541958,-0.212856035,0.421742,0.460451717,-0.209793323,0.429044,0.472396671,-0.225227841,0.433964,0.460200077,-0.246280366,0.438767,0.450097646,-0.213333587,0.426916,0.467246439,-0.209434936,0.431399,0.48147709,-0.209782249,0.437309
0.516311856,-0.212126763,0.414472,0.4800184,-0.228581652,0.408868,0.49879584,-0.212733898,0.39779,0.480399622,-0.17508874,0.374464,0.453446664,-0.165199097,0.355412,0.437200192,-0.162781218,0.347546,0.438423088,-0.236014122,0.385513,0.418773516,-0.195449369,0.368811,0.43885722,-0.189329886,0.371477,0.464100024,-0.186860907,0.379133,0.44891306,-0.240073295,0.40497,0.428624561,-0.201512373,0.395416,0.453092453,-0.19508243,0.399438,0.468077637,-0.207131781,0.404193,0.460787523,-0.242184625,0.421395,0.443918964,-0.204467284,0.413282,0.462402941,-0.199651741,0.416729,0.476510421,-0.212958922,0.421444,0.480752551,-0.242415623,0.441526,0.469890757,-0.210116157,0.430121,0.482746075,-0.207486932,0.432198,0.497340694,-0.206629571,0.437017
0.528302473,-0.210614946,0.415062,0.485935584,-0.229099139,0.411617,0.510677721,-0.211122889,0.398639,0.483629979,-0.174659998,0.376425,0.456937358,-0.16536074,0.358017,0.440611005,-0.166686715,0.351833,0.448442955,-0.236656277,0.389517,0.429093837,-0.197111428,0.374564,0.448548452,-0.190937659,0.37651,0.471012441,-0.188863907,0.383189,0.45948224,-0.241215305,0.40922,0.439855225,-0.20412391,0.40186,0.463297976,-0.196594779,0.404962,0.475459132,-0.208593102,0.408628,0.471605151,-0.243562989,0.42569,0.451618403,-0.205496741,0.416237,0.468977537,-0.199805998,0.418721,0.481135546,-0.213299687,0.423328,0.491494574,-0.243761823,0.445583,0.481056596,-0.212286976,0.435857,0.49340137,-0.209068201,0.437398,0.504785645,-0.208121217,0.441419
0.53006549,-0.211405847,0.414776,0.490705025,-0.229551348,0.412359,0.512404518,-0.211811119,0.398634,0.486463161,-0.174981778,0.376767,0.458619282,-0.165335739,0.358274,0.444086989,-0.167833222,0.354135,0.450449545,-0.237708385,0.391055,0.432361372,-0.198161893,0.376751,0.452730547,-0.192654829,0.379217,0.477359788,-0.190952075,0.385846,0.461857504,-0.242332323,0.410678,0.448582014,-0.203419879,0.404062,0.473899484,-0.19969373,0.40784,0.484068403,-0.21108411,0.411565,0.474265538,-0.24477429,0.427005,0.471374651,-0.209752598,0.427451,0.491166156,-0.207893062,0.431004,0.502155056,-0.222296573,0.433687,0.494451961,-0.245164679,0.446593,0.485001644,-0.213707291,0.4374,0.500538597,-0.212149624,0.439371,0.512115804,-0.209884111,0.443371
0.531844074,-0.212878247,0.414723,0.494922282,-0.232490988,0.413906,0.514035326,-0.213013869,0.398785,0.490793091,-0.178259553,0.377885,0.462855098,-0.167575249,0.360021,0.447320505,-0.168514763,0.355903,0.453708446,-0.239221437,0.393547,0.436504619,-0.200179551,0.38065,0.455998106,-0.194120939,0.382295,0.479650203,-0.19186928,0.388042,0.466484593,-0.24446499,0.413337,0.454822086,-0.20571349,0.408461,0.479127443,-0.200905473,0.411185,0.492043737,-0.212923019,0.413905,0.479729136,-0.247455843,0.429684,0.476935789,-0.212330894,0.431256,0.495961187,-0.210298897,0.43389,0.506718039,-0.224747686,0.436285,0.502605766,-0.249922222,0.449082,0.495563032,-0.218442909,0.441247,0.508498704,-0.216706057,0.442593,0.519963033,-0.214368877,0.445873
0.534045287,-0.214042974,0.415256,0.497060811,-0.233505891,0.414885,0.51601641,-0.214018417,0.399434,0.493229796,-0.179914161,0.378707,0.464189169,-0.167773038,0.36098,0.448259518,-0.167953301,0.356549,0.456009805,-0.240187569,0.394864,0.438610548,-0.201130743,0.382268,0.458572931,-0.195934951,0.384068,0.482450027,-0.194835064,0.389757,0.469678474,-0.24582149,0.414627,0.458332999,-0.207092164,0.410101,0.483014077,-0.201746663,0.413025,0.49712324,-0.212976252,0.415738,0.483533141,-0.249207981,0.430919,0.485859426,-0.216628293,0.437439,0.505894404,-0.214960883,0.440494,0.517527085,-0.229816229,0.44327,0.505356217,-0.250956081,0.450192,0.498124765,-0.219618236,0.442614,0.511363861,-0.217869372,0.44409,0.525185635,-0.217295592,0.447329
0.535657373,-0.214877134,0.415725,0.498068723,-0.233984505,0.415324,0.517384305,-0.214707506,0.399904,0.493862331,-0.180127499,0.379147,0.46477439,-0.167842766,0.361396,0.448660888,-0.167558427,0.356808,0.456737817,-0.240500813,0.395291,0.439073559,-0.20141823,0.382657,0.459197761,-0.196555276,0.384515,0.483209681,-0.19597926,0.390243,0.470431775,-0.246164902,0.415044,0.458856782,-0.207434808,0.410468,0.483669911,-0.202084701,0.413469,0.497923298,-0.213314312,0.41623,0.484377392,-0.249565506,0.431331,0.488214745,-0.217751891,0.439344,0.508542245,-0.216110324,0.442546,0.520458365,-0.231065046,0.445457,0.506316251,-0.251322292,0.450601,0.498879616,-0.219966313,0.442982,0.512221005,-0.218215431,0.444504,0.526129596,-0.217635366,0.447775
0.536897305,-0.215508367,0.416129,0.498786643,-0.234324845,0.415682,0.518435106,-0.215230232,0.400297,0.494376546,-0.180306391,0.379519,0.465264875,-0.167935051,0.361754,0.449035577,-0.167336363,0.357066,0.457255005,-0.240731183,0.395617,0.43941856,-0.201621435,0.382949,0.459597391,-0.196937549,0.384804,0.483676881,-0.196669232,0.390544,0.47094269,-0.246406881,0.415371,0.459235484,-0.207658888,0.410756,0.484069248,-0.202283532,0.413752,0.498374763,-0.213505391,0.416519,0.48493986,-0.249816568,0.431662,0.488661041,-0.217987558,0.439638,0.509020932,-0.216325896,0.442836,0.520981288,-0.231270816,0.445743,0.506949625,-0.251581497,0.450942,0.499401086,-0.220203885,0.443294,0.512765935,-0.218438036,0.444812,0.526713249,-0.217851443,0.448093
0.540237384,-0.216680701,0.418546,0.500833613,-0.234951308,0.417506,0.52158256,-0.216331067,0.402662,0.49590772,-0.180713918,0.381473,0.466382001,-0.168264506,0.363366,0.449841753,-0.167226371,0.358242,0.459012372,-0.241104137,0.397119,0.43916578,-0.201874794,0.383883,0.459838831,-0.197388701,0.386224,0.484804553,-0.197095275,0.392383,0.472308124,-0.24671004,0.416783,0.459822145,-0.207670964,0.411616,0.485393842,-0.202553398,0.415248,0.500312919,-0.213987351,0.418468,0.486301439,-0.250108289,0.433043,0.489053436,-0.21789609,0.440288,0.508578292,-0.213841024,0.444011,0.523994252,-0.222741931,0.447396,0.508399595,-0.251891298,0.452367,0.487506577,-0.222943625,0.444154,0.500758673,-0.216472617,0.446048,0.517800869,-0.212469076,0.449673
0.541213458,-0.216941616,0.419169,0.501527991,-0.235038198,0.418169,0.5224577,-0.216534376,0.403287,0.496082611,-0.180677184,0.382126,0.466438551,-0.168278694,0.364032,0.450096801,-0.167278998,0.359022,0.45959929,-0.241137022,0.397801,0.439244929,-0.202046567,0.384604,0.459813255,-0.197376406,0.386909,0.484794191,-0.197067862,0.393037,0.472933501,-0.24676316,0.417473,0.460356121,-0.207743713,0.412317,0.485873056,-0.20256467,0.4159,0.500794705,-0.213961664,0.41909,0.486953446,-0.250171132,0.433736,0.489660369,-0.21798923,0.441032,0.509229154,-0.213392243,0.444716,0.524778962,-0.2230755,0.448066,0.509075104,-0.25195338,0.453058,0.48830783,-0.223310049,0.444884,0.501546778,-0.216813306,0.44675,0.517791656,-0.212592055,0.450351
0.541989945,-0.217148608,0.419664,0.502054521,-0.235106159,0.418671,0.523144811,-0.216691695,0.403777,0.496255221,-0.180668311,0.382629,0.466521917,-0.168304366,0.364541,0.450294824,-0.167320975,0.359612,0.460034529,-0.241168946,0.398302,0.439301704,-0.202169337,0.385119,0.459780659,-0.197361458,0.387386,0.48474445,-0.19703025,0.393493,0.4733974,-0.24681008,0.417981,0.460717804,-0.207786822,0.4128,0.486174929,-0.202555913,0.416331,0.50110042,-0.21392695,0.419502,0.487440486,-0.250226978,0.43425,0.490101223,-0.218059051,0.44157,0.509720175,-0.213237813,0.445213,0.525316547,-0.223304019,0.448525,0.509587303,-0.252012458,0.453578,0.488897245,-0.223579597,0.445421,0.502115965,-0.217059359,0.447257,0.517882034,-0.212705013,0.45084
0.544416646,-0.217793983,0.420792,0.503353354,-0.235466178,0.419926,0.525331213,-0.217173513,0.404936,0.497370262,-0.180994784,0.383843,0.467804255,-0.168883801,0.365784,0.451718142,-0.168220874,0.36088,0.461291228,-0.241364162,0.39965,0.440836504,-0.202372613,0.386558,0.464137887,-0.199003121,0.388848,0.486196065,-0.197943475,0.394928,0.474768914,-0.247052408,0.419324,0.462527574,-0.208055226,0.414357,0.488114804,-0.203029579,0.417924,0.502950425,-0.214606907,0.421053,0.48889736,-0.25049473,0.43558,0.491433188,-0.218398153,0.442999,0.510833399,-0.212444258,0.446667,0.526734636,-0.223710952,0.450001,0.511127058,-0.252284913,0.454876,0.491036277,-0.223495351,0.446799,0.504402887,-0.21733711,0.448655,0.51968159,-0.213231582,0.452218
0.546199636,-0.218672438,0.421782,0.50418479,-0.235656724,0.420757,0.526805443,-0.217861876,0.405893,0.498153119,-0.181217781,0.384723,0.468614246,-0.169267179,0.366605,0.452549615,-0.168453409,0.361701,0.461890241,-0.241450571,0.400371,0.441646672,-0.202309634,0.387158,0.464553629,-0.198748195,0.38945,0.487104761,-0.198257777,0.39558,0.475377793,-0.247152166,0.420045,0.463285427,-0.207993849,0.414956,0.488915712,-0.20315156,0.418528,0.503712805,-0.214846955,0.421693,0.489527687,-0.250609639,0.436312,0.491855096,-0.218425025,0.443593,0.511324646,-0.212539613,0.447263,0.527249698,-0.223812251,0.4506,0.511807577,-0.252424586,0.455642,0.492132679,-0.223358538,0.447455,0.505570083,-0.21741492,0.449311,0.520671241,-0.213557006,0.452912
0.547940216,-0.219178306,0.423082,0.505284224,-0.235848816,0.421667,0.528132682,-0.218126633,0.407006,0.497206723,-0.180131394,0.385848,0.469972369,-0.169525363,0.367794,0.45354777,-0.168348631,0.362772,0.461572043,-0.240475865,0.400877,0.442533677,-0.199261971,0.387551,0.460378178,-0.196188909,0.389093,0.486312276,-0.197735894,0.394967,0.475836922,-0.247348421,0.420682,0.46327105,-0.206558062,0.415385,0.488230177,-0.202608458,0.417978,0.502517198,-0.214189422,0.420763,0.490092997,-0.250907466,0.437086,0.492425298,-0.218497352,0.444374,0.512279306,-0.214998906,0.44723,0.525771048,-0.227823247,0.449826,0.512568131,-0.252869893,0.45663,0.494758269,-0.223232686,0.44842,0.506142485,-0.217353399,0.449674,0.520016022,-0.213084278,0.453049
0.547759191,-0.218629087,0.423137,0.505707024,-0.235578339,0.422219,0.527952414,-0.217526261,0.407137,0.494208484,-0.178851961,0.386294,0.461081436,-0.169697883,0.368656,0.451752528,-0.169348372,0.364106,0.462081204,-0.239990619,0.401738,0.443796277,-0.199276423,0.388858,0.461808514,-0.196295418,0.390146,0.487132999,-0.19810866,0.395743,0.475891453,-0.246044204,0.42158,0.464786479,-0.206745198,0.416742,0.488977574,-0.201865849,0.419003,0.503313318,-0.214227883,0.42149,0.490979617,-0.250931366,0.437977,0.492899633,-0.217815691,0.445802,0.512312647,-0.213320764,0.448384,0.526721782,-0.227750679,0.450731,0.513486134,-0.252952895,0.457447,0.49477875,-0.223661525,0.449664,0.507464812,-0.217620439,0.450724,0.521140353,-0.21336708,0.453875
0.547679741,-0.218206277,0.423429,0.505662371,-0.235134348,0.422527,0.527855292,-0.217026085,0.407441,0.493440111,-0.179128856,0.386581,0.461429133,-0.169825851,0.368934,0.451315236,-0.169923393,0.364432,0.462266485,-0.239827637,0.402068,0.444023423,-0.199045378,0.389178,0.462421557,-0.196178695,0.390547,0.487319657,-0.197710122,0.39618,0.476086443,-0.245945273,0.421899,0.465128115,-0.206530827,0.417047,0.48948359,-0.201845142,0.419412,0.503664595,-0.214079001,0.421951,0.490984882,-0.25054928,0.438287,0.493075762,-0.21770035,0.446089,0.512659677,-0.213539542,0.448759,0.52692049,-0.227378542,0.451186,0.513516731,-0.252663058,0.457742,0.495158155,-0.223504962,0.449942,0.507956349,-0.217605722,0.451067,0.521700792,-0.213463183,0.454248
0.547987429,-0.217295936,0.424166,0.505847504,-0.233946713,0.42324,0.528250843,-0.216048223,0.408146,0.490973603,-0.173827206,0.387354,0.463065039,-0.168656152,0.370165,0.45451557,-0.170248728,0.366447,0.462624334,-0.237249149,0.402732,0.444017576,-0.197600298,0.389893,0.463523772,-0.193619758,0.391007,0.486682322,-0.196332217,0.396494,0.476481534,-0.244752421,0.422596,0.466295677,-0.204982916,0.417814,0.489910055,-0.201683556,0.41985,0.50351717,-0.21374377,0.42219,0.490806567,-0.248785295,0.439012,0.492995966,-0.21670391,0.446904,0.51293062,-0.213443283,0.449298,0.526554701,-0.225648338,0.451473,0.51372461,-0.2519419,0.458505,0.495484958,-0.221761865,0.450775,0.503950996,-0.213829988,0.451698,0.520266781,-0.212907322,0.454776
0.552064926,-0.218423063,0.428277,0.508446887,-0.235192782,0.425748,0.53195728,-0.216775672,0.411837,0.496129059,-0.182233212,0.391009,0.471665506,-0.170683934,0.372842,0.453178358,-0.169847945,0.365451,0.464687415,-0.240138864,0.404021,0.444028491,-0.197883685,0.390565,0.461067808,-0.192604095,0.389775,0.481206348,-0.189333656,0.39477,0.478396625,-0.246726946,0.423988,0.466242293,-0.206734066,0.418475,0.487462573,-0.200938649,0.418036,0.499796789,-0.212210522,0.419434,0.492820421,-0.251371952,0.440607,0.466689403,-0.224685758,0.439403,0.479271858,-0.213761505,0.439255,0.493671278,-0.2211415,0.439682,0.511988407,-0.258803205,0.460555,0.495664485,-0.227422738,0.452423,0.505640267,-0.217938597,0.451807,0.520764645,-0.21294566,0.45443
0.551338081,-0.217860381,0.428468,0.508127944,-0.234919679,0.425911,0.531388238,-0.215971295,0.412023,0.496078506,-0.182722404,0.391236,0.471785527,-0.17080167,0.373058,0.453737112,-0.170048311,0.365504,0.464696245,-0.239720403,0.404166,0.44371582,-0.197929783,0.390731,0.460463755,-0.192358603,0.389823,0.480371305,-0.188768041,0.394761,0.478315188,-0.246673456,0.424132,0.466054897,-0.206597894,0.41864,0.48722675,-0.200943774,0.418046,0.499453007,-0.21228046,0.419321,0.492605447,-0.251612338,0.440752,0.465966114,-0.224337533,0.438722,0.478336784,-0.21334445,0.438398,0.49300434,-0.220842743,0.439088,0.512154047,-0.258886933,0.460704,0.494946673,-0.227837877,0.4526,0.504781862,-0.21772898,0.451888,0.520391741,-0.212809812,0.454465
0.55146454,-0.217928177,0.429541,0.508396487,-0.235302761,0.42673,0.531656053,-0.215822156,0.413074,0.495069092,-0.18578176,0.392588,0.468242754,-0.172265187,0.375311,0.449526019,-0.166771996,0.367108,0.464911671,-0.240429507,0.404849,0.43945484,-0.204115166,0.391547,0.454447615,-0.196219761,0.389772,0.478317004,-0.190594061,0.394311,0.478585255,-0.2483731,0.424775,0.463577512,-0.209315446,0.419397,0.483969283,-0.202790476,0.417675,0.498702631,-0.212593756,0.41908,0.491087171,-0.255518511,0.441381,0.458911989,-0.237766601,0.439463,0.46506267,-0.220880226,0.438188,0.480294042,-0.220460845,0.438454,0.512454224,-0.260401654,0.461351,0.493098051,-0.230346176,0.453419,0.501580001,-0.219422467,0.452015,0.515926833,-0.212565687,0.454262
0.549709059,-0.217252237,0.429145,0.508278914,-0.235507187,0.427225,0.530340652,-0.215030951,0.412893,0.494821848,-0.186637547,0.393063,0.468752783,-0.172418388,0.376188,0.45053428,-0.166548917,0.368367,0.465887414,-0.240953977,0.405996,0.437790785,-0.20462932,0.393546,0.45178393,-0.196209172,0.391332,0.4774337,-0.190358299,0.395361,0.479303987,-0.249356819,0.425889,0.464332052,-0.210886023,0.421495,0.484413873,-0.204418801,0.419206,0.499425621,-0.213534955,0.420077,0.49201854,-0.256718452,0.442402,0.45881905,-0.237718449,0.439374,0.464343088,-0.220538462,0.43751,0.479783574,-0.220226534,0.437988,0.513123584,-0.261422799,0.462142,0.494350719,-0.231875272,0.455002,0.502396537,-0.220680169,0.453264,0.515289464,-0.213341807,0.455103
0.548963704,-0.217066495,0.429414,0.507998113,-0.235733283,0.427473,0.529778382,-0.214643379,0.413169,0.494742647,-0.187177153,0.393403,0.468837579,-0.172428821,0.376538,0.450732757,-0.166322474,0.368748,0.465975996,-0.241141877,0.406245,0.438110051,-0.20477855,0.393833,0.451961719,-0.196286385,0.391486,0.476625135,-0.190723009,0.395446,0.479191473,-0.250058865,0.426122,0.464368361,-0.21144939,0.421764,0.484236521,-0.204820002,0.419301,0.498885648,-0.213926073,0.420105,0.492143935,-0.257212684,0.442625,0.458636305,-0.237623767,0.439199,0.463976928,-0.220364555,0.437165,0.479507526,-0.220099824,0.437736,0.513234725,-0.261887685,0.462355,0.494346841,-0.232439606,0.455257,0.502220539,-0.221143002,0.453413,0.514997898,-0.213852751,0.455196
0.548372682,-0.216941568,0.429802,0.507744954,-0.235972016,0.427744,0.529335457,-0.214304401,0.413537,0.494831006,-0.18759045,0.393742,0.468973999,-0.172465135,0.376836,0.450917896,-0.166210462,0.369031,0.46600357,-0.241298361,0.406441,0.438252442,-0.204845105,0.393961,0.452052923,-0.196325995,0.391565,0.476079327,-0.190995304,0.395532,0.479031564,-0.250736545,0.426313,0.464309646,-0.211787105,0.421868,0.484092656,-0.205076373,0.419342,0.498372939,-0.214328876,0.420156,0.492277932,-0.257568472,0.442819,0.458521437,-0.237564253,0.439089,0.463791195,-0.220276342,0.43699,0.479420988,-0.220060102,0.437657,0.513389828,-0.262238895,0.46257,0.494329051,-0.232808605,0.455413,0.502120689,-0.221459055,0.453528,0.514850455,-0.214242659,0.455316
0.549879801,-0.218012684,0.432196,0.50829079,-0.237855714,0.429339,0.530890026,-0.215190896,0.415785,0.49463433,-0.189417148,0.395721,0.469304425,-0.172933343,0.378584,0.452588579,-0.169422493,0.370404,0.46610392,-0.24421,0.407508,0.43803262,-0.205807768,0.394507,0.451548071,-0.19705572,0.391912,0.471785364,-0.193050675,0.396006,0.478920463,-0.253673609,0.427352,0.463011931,-0.214057647,0.422265,0.482232413,-0.206429711,0.419477,0.497865651,-0.21477373,0.420441,0.492376243,-0.259939805,0.443893,0.454679001,-0.243121906,0.439666,0.4571156,-0.224286338,0.437352,0.47837699,-0.220319675,0.438135,0.513558163,-0.2645553,0.463792,0.493306282,-0.235236658,0.456173,0.495259406,-0.22469936,0.454117,0.505476191,-0.215975762,0.456001
0.549218107,-0.218224968,0.432888,0.507789305,-0.238577853,0.429745,0.5303928,-0.215272897,0.416422,0.49461768,-0.189411155,0.396235,0.469368137,-0.173234598,0.378992,0.452634437,-0.168987705,0.370759,0.465945996,-0.244707118,0.407721,0.437488204,-0.206263065,0.394513,0.450927699,-0.19741833,0.391897,0.471196442,-0.19337794,0.396064,0.478725576,-0.254164094,0.427559,0.462384945,-0.214466241,0.422222,0.48144318,-0.20646705,0.419406,0.497033252,-0.215136159,0.420452,0.492165557,-0.26042475,0.444116,0.454529049,-0.243041725,0.439521,0.456931647,-0.22419608,0.437176,0.477288498,-0.220312379,0.438095,0.513355993,-0.265033033,0.464073,0.492799616,-0.235681139,0.456267,0.495337929,-0.224734985,0.454189,0.505620296,-0.216037334,0.456131
0.548447839,-0.218393155,0.433492,0.507238592,-0.239275302,0.430108,0.529794716,-0.215313474,0.416978,0.494702841,-0.189444038,0.39668,0.469487218,-0.173477073,0.379343,0.452628667,-0.168531728,0.371073,0.465886618,-0.245090388,0.40792,0.437114766,-0.206595289,0.394531,0.450515566,-0.197690637,0.391913,0.470828945,-0.193633407,0.39615,0.478639051,-0.254542545,0.427754,0.461946944,-0.214762328,0.4222,0.48090704,-0.206505364,0.419379,0.496247824,-0.215518177,0.420502,0.492071076,-0.260800978,0.444326,0.454428737,-0.242988087,0.439424,0.456821902,-0.224142233,0.437071,0.476558569,-0.220329071,0.43811,0.513275857,-0.265407687,0.464332,0.492468929,-0.236013507,0.456363,0.495436083,-0.224779518,0.454279,0.505781028,-0.21610601,0.456276
0.548301644,-0.219607175,0.434748,0.506709472,-0.240845497,0.430897,0.529620114,-0.216386952,0.418137,0.49221236,-0.188872173,0.397593,0.468159095,-0.175335193,0.380045,0.451674841,-0.172393358,0.371468,0.464093885,-0.247488089,0.408385,0.434002334,-0.209244153,0.394624,0.447342188,-0.200212355,0.392057,0.467762792,-0.196351235,0.396462,0.476722427,-0.256923031,0.428217,0.453538942,-0.220048037,0.42222,0.471097658,-0.208138241,0.419464,0.491830566,-0.215475044,0.420768,0.490033933,-0.263113286,0.444822,0.450084209,-0.249207602,0.439128,0.448757999,-0.229191459,0.436809,0.462421396,-0.221017888,0.438182,0.511061953,-0.267538387,0.464929,0.492415226,-0.236438994,0.456619,0.495526779,-0.22495939,0.454569,0.505583311,-0.216033056,0.456699
0.547375301,-0.219962607,0.434938,0.506297631,-0.241123732,0.430983,0.528718713,-0.216806076,0.4183,0.491809363,-0.188946136,0.397664,0.467916629,-0.175942017,0.379998,0.451475148,-0.173155334,0.371367,0.463739244,-0.247814158,0.408392,0.433373251,-0.209588407,0.39452,0.446857049,-0.200718414,0.392031,0.467447787,-0.197146874,0.396511,0.476373943,-0.257249928,0.428231,0.453418634,-0.219989666,0.422108,0.471085304,-0.208132783,0.419453,0.491007576,-0.215463879,0.420835,0.489689972,-0.263431996,0.44485,0.449947891,-0.249132123,0.438995,0.448706631,-0.229165225,0.436759,0.462473106,-0.221042604,0.438231,0.510720757,-0.267829536,0.464987,0.492109026,-0.236643095,0.456573,0.495406571,-0.224988164,0.454583,0.50526468,-0.215903837,0.456773
0.546437612,-0.220312713,0.435118,0.505998896,-0.241360987,0.431078,0.527812344,-0.2172222,0.418458,0.491595732,-0.189016677,0.397756,0.467804539,-0.176365627,0.380007,0.451386106,-0.173680756,0.371336,0.463534984,-0.248048706,0.408425,0.432973059,-0.209826999,0.394468,0.446552279,-0.201064085,0.39203,0.467260585,-0.197686911,0.396563,0.476172399,-0.257484514,0.428268,0.453354155,-0.219958396,0.422048,0.471092043,-0.20813576,0.419459,0.49047781,-0.215464771,0.420896,0.48949067,-0.263660669,0.444896,0.449869994,-0.249088993,0.438919,0.448685057,-0.229154206,0.436738,0.462523762,-0.221066815,0.438279,0.510526547,-0.268041146,0.465056,0.491893003,-0.236820223,0.456563,0.495347803,-0.225017096,0.454612,0.505075931,-0.215827791,0.456844
0.545056158,-0.220295534,0.434927,0.503339152,-0.242489717,0.431152,0.526538633,-0.217273111,0.418311,0.488952094,-0.189300874,0.397682,0.465664744,-0.178626368,0.379635,0.449730816,-0.176995662,0.370991,0.463282567,-0.248296404,0.408668,0.433482106,-0.209930439,0.394873,0.447247824,-0.201385477,0.392521,0.469777804,-0.196608569,0.397025,0.475934483,-0.257742568,0.428526,0.453439461,-0.220062514,0.42251,0.471448096,-0.208575788,0.420034,0.490410951,-0.215967457,0.421433,0.489239775,-0.263910223,0.445147,0.451681726,-0.245891644,0.439158,0.449208222,-0.228425171,0.437061,0.467321187,-0.220733322,0.438641,0.510216196,-0.268251142,0.465264,0.491784662,-0.237269218,0.456915,0.495821147,-0.225167805,0.455036,0.505505546,-0.215931857,0.457246
0.544156126,-0.220472265,0.435119,0.503143719,-0.24264798,0.431351,0.525687995,-0.217497842,0.418499,0.48860282,-0.189488989,0.397844,0.465200805,-0.178892746,0.379777,0.449311908,-0.177523372,0.371129,0.463109959,-0.248491146,0.408865,0.433729199,-0.209942686,0.395054,0.447616663,-0.201557697,0.392755,0.469590973,-0.197352791,0.397286,0.475766515,-0.257941829,0.428729,0.453394881,-0.220078522,0.422698,0.471562874,-0.208796159,0.420291,0.490222105,-0.216283793,0.421717,0.489073149,-0.264109124,0.445355,0.451571749,-0.245913031,0.439382,0.449613632,-0.228035039,0.437344,0.467290378,-0.220722648,0.438942,0.510044754,-0.268440943,0.465476,0.491506092,-0.237636272,0.457109,0.496087906,-0.225240736,0.455273,0.505780723,-0.21598977,0.457505
0.543245426,-0.220746764,0.435302,0.503003583,-0.24289047,0.431516,0.524817833,-0.217816601,0.418671,0.488374963,-0.189785155,0.397956,0.464886079,-0.179238663,0.379867,0.449018426,-0.178041571,0.371209,0.462963993,-0.24875,0.409008,0.433865601,-0.210035817,0.395144,0.447944576,-0.201912764,0.39294,0.468889022,-0.199009389,0.397531,0.47563034,-0.258207451,0.428882,0.453334787,-0.220243432,0.422795,0.471695075,-0.209135799,0.420512,0.490143615,-0.216672428,0.421997,0.48894265,-0.264376913,0.445516,0.451421263,-0.246008553,0.439493,0.449911972,-0.227958662,0.43756,0.467313075,-0.220848108,0.43922,0.509921257,-0.268707363,0.46565,0.491150148,-0.238068121,0.457231,0.496309195,-0.22541719,0.45547,0.506044055,-0.216170144,0.457751
0.54241759,-0.221054668,0.435551,0.502941545,-0.243108675,0.431691,0.524023344,-0.218166465,0.418903,0.48833127,-0.190042988,0.398133,0.464746646,-0.179518589,0.380001,0.448868012,-0.178435013,0.371315,0.462854725,-0.24896111,0.409129,0.433950594,-0.210098611,0.395194,0.448138547,-0.202166032,0.393028,0.469188908,-0.199480022,0.397662,0.475522049,-0.25842031,0.429005,0.453261528,-0.220346463,0.422836,0.47171338,-0.209344682,0.420602,0.489977304,-0.216937744,0.422132,0.488840629,-0.26459247,0.445647,0.451317605,-0.246094068,0.439598,0.450119587,-0.227901372,0.437709,0.4672828,-0.220925647,0.439397,0.509833166,-0.268926173,0.465799,0.490751336,-0.23847902,0.457313,0.49643654,-0.225535828,0.455582,0.506198509,-0.216290498,0.457897
