sluyters/QuantumLeap/backend/src/datasets/gesture/HandGestureDataset_SHREC2017_csv/Gesture13/finger_2/subject_11_essai_4_skeletons_world.csv
Wrist_x,Wrist_y,Wrist_z,Palm_x,Palm_y,Palm_z,thumb_base_x,thumb_base_y,thumb_base_z,thumb_first_joint_x,thumb_first_joint_y,thumb_first_joint_z,thumb_second_joint_x,thumb_second_joint_y,thumb_second_joint_z,thumb_tip_x,thumb_tip_y,thumb_tip_z,index_base_x,index_base_y,index_base_z,index_first_joint_x,index_first_joint_y,index_first_joint_z,index_second_joint_x,index_second_joint_y,index_second_joint_z,index_tip_x,index_tip_y,index_tip_z,middle_base_x,middle_base_y,middle_base_z,middle_first_joint_x,middle_first_joint_y,middle_first_joint_z,middle_second_joint_x,middle_second_joint_y,middle_second_joint_z,middle_tip_x,middle_tip_y,middle_tip_z,ring_base_x,ring_base_y,ring_base_z,ring_first_joint_x,ring_first_joint_y,ring_first_joint_z,ring_second_joint_x,ring_second_joint_y,ring_second_joint_z,ring_tip_x,ring_tip_y,ring_tip_z,pinky_base_x,pinky_base_y,pinky_base_z,pinky_first_joint_x,pinky_first_joint_y,pinky_first_joint_z,pinky_second_joint_x,pinky_second_joint_y,pinky_second_joint_z,pinky_tip_x,pinky_tip_y,pinky_tip_z,
0.35580052,-0.2669843,0.537123,0.34485651,-0.2158651,0.53081,0.33395985,-0.25347915,0.534763,0.29622162,-0.22009711,0.523362,0.26313251,-0.19212725,0.500848,0.25191139,-0.17463379,0.497813,0.31589073,-0.16587179,0.52345,0.29827406,-0.12135431,0.513363,0.28918626,-0.099299391,0.508319,0.28082889,-0.078924244,0.503734,0.34076973,-0.16768446,0.524799,0.3253043,-0.11168479,0.509471,0.31595023,-0.081354117,0.50053,0.30916568,-0.058890237,0.494143,0.36178524,-0.17256357,0.526589,0.34511933,-0.12326828,0.512687,0.33661461,-0.098188931,0.505575,0.32888287,-0.075416999,0.499109,0.38780432,-0.18484809,0.529854,0.37322589,-0.14181888,0.516732,0.36652011,-0.12199006,0.510703,0.36060357,-0.10447073,0.505384
0.34123783,-0.25221523,0.531026,0.33529178,-0.20114546,0.525505,0.32186991,-0.23871583,0.530959,0.28793185,-0.20595759,0.520272,0.25441302,-0.17828133,0.497478,0.24237386,-0.16036425,0.492931,0.31107674,-0.15159125,0.521669,0.28974444,-0.10688686,0.508735,0.27902294,-0.084368252,0.502268,0.26924217,-0.063794578,0.496389,0.3335961,-0.15292794,0.520246,0.32133403,-0.10831853,0.505694,0.31093274,-0.078577309,0.497206,0.30592805,-0.058794427,0.491142,0.35252709,-0.15739059,0.51967,0.33985702,-0.10859883,0.511262,0.33186638,-0.08323764,0.50696,0.3239722,-0.060272525,0.50305,0.37579636,-0.16918015,0.520039,0.36696833,-0.12422291,0.512653,0.36216609,-0.10323934,0.50926,0.35737168,-0.085002047,0.506266
0.33293885,-0.23598017,0.524326,0.32934437,-0.18535278,0.520946,0.31332868,-0.22290653,0.523899,0.27926167,-0.18995863,0.512386,0.24640197,-0.16337168,0.491817,0.23519682,-0.14696427,0.491734,0.30264988,-0.1398735,0.518095,0.28294338,-0.095821898,0.507068,0.27296633,-0.073411991,0.501555,0.26381943,-0.052801723,0.496543,0.32584505,-0.13914094,0.517728,0.31016725,-0.093733179,0.505639,0.30073826,-0.067116411,0.498588,0.29396973,-0.047939635,0.493551,0.34546978,-0.1416355,0.517789,0.33218866,-0.098303523,0.506975,0.32649346,-0.079307383,0.501442,0.31878598,-0.057726966,0.496412,0.36987775,-0.15064363,0.518496,0.36046288,-0.10711717,0.509615,0.35502673,-0.087018171,0.505534,0.35019046,-0.068979943,0.501934
0.33233368,-0.23281508,0.523417,0.32869799,-0.18445384,0.520027,0.31232165,-0.21995247,0.522771,0.27847569,-0.1887655,0.510962,0.24581441,-0.16220283,0.490487,0.23497223,-0.14597868,0.491077,0.30172533,-0.13891956,0.516882,0.28223717,-0.094876494,0.505801,0.27220481,-0.072683513,0.50026,0.26289706,-0.052376788,0.495223,0.32512392,-0.13833431,0.516797,0.30964257,-0.092969605,0.504683,0.30034646,-0.066374155,0.497616,0.29367399,-0.047212419,0.492568,0.34492113,-0.14094485,0.517093,0.33174593,-0.097665715,0.506246,0.32544513,-0.077963211,0.500696,0.31797539,-0.057005571,0.495651,0.36953686,-0.1500769,0.518073,0.35846014,-0.10592841,0.508108,0.35245271,-0.086051054,0.503529,0.34710231,-0.068172271,0.499489
0.3317448,-0.23160373,0.522547,0.32787974,-0.18447755,0.519104,0.31145441,-0.21874685,0.521836,0.27805508,-0.1882907,0.509925,0.24585508,-0.16146008,0.489693,0.23620325,-0.14544023,0.491724,0.30038817,-0.13819452,0.515841,0.28179772,-0.09391192,0.504688,0.27209931,-0.071729687,0.499112,0.26310913,-0.051620862,0.494043,0.32404868,-0.13792287,0.515826,0.30868215,-0.090983437,0.503645,0.29915068,-0.057879222,0.49654,0.29278929,-0.036702888,0.491464,0.34401706,-0.14082074,0.516184,0.33050203,-0.094152476,0.505276,0.32275785,-0.065597443,0.499695,0.31652851,-0.049853835,0.494622,0.36877863,-0.15032732,0.517247,0.35734632,-0.10609389,0.507288,0.35149043,-0.086013419,0.502711,0.3462878,-0.068033321,0.498673
0.33128928,-0.23080622,0.521864,0.32746989,-0.18448852,0.518641,0.31091656,-0.2180109,0.521246,0.27791182,-0.18809906,0.50953,0.24611542,-0.16124806,0.489776,0.23689644,-0.14521871,0.492209,0.29990783,-0.13791832,0.515647,0.28190716,-0.093541791,0.504722,0.27243846,-0.07135814,0.499259,0.26366206,-0.051330999,0.494293,0.32365528,-0.13777861,0.515571,0.30851305,-0.090080525,0.503634,0.2992296,-0.057894492,0.496671,0.29292869,-0.036720363,0.491698,0.34364864,-0.14079289,0.515855,0.33021585,-0.093186399,0.505167,0.32276108,-0.065598099,0.4997,0.31653118,-0.047867311,0.494729,0.36836915,-0.1504391,0.516791,0.35713737,-0.10627995,0.507372,0.35152874,-0.086121358,0.503044,0.34654793,-0.068094882,0.499225
0.33106392,-0.2303294,0.521532,0.32721825,-0.18449169,0.518354,0.31058736,-0.21754068,0.520902,0.27776686,-0.18794429,0.509185,0.24620166,-0.16107539,0.489687,0.23723443,-0.14503794,0.492338,0.29952962,-0.1377111,0.515377,0.28183394,-0.093274224,0.504494,0.27248121,-0.071093512,0.499053,0.26381422,-0.051121964,0.494106,0.32336252,-0.13766793,0.515328,0.30829844,-0.089504937,0.503443,0.299132,-0.057875609,0.496509,0.29284469,-0.036709849,0.491557,0.34340988,-0.14076892,0.515631,0.32999135,-0.092680238,0.504988,0.32265902,-0.06557734,0.499542,0.31641045,-0.046850579,0.494592,0.3681675,-0.15052381,0.516579,0.35701084,-0.10639142,0.507421,0.35153087,-0.08618104,0.503214,0.34666578,-0.068124313,0.499501
0.33879456,-0.20525593,0.525458,0.33097493,-0.1638847,0.524419,0.31628501,-0.19524327,0.524672,0.2791551,-0.17525017,0.513751,0.24201967,-0.15184645,0.488495,0.23332941,-0.14219641,0.486483,0.29822325,-0.12188946,0.52269,0.2849007,-0.079084547,0.514118,0.27804163,-0.056570574,0.509893,0.2717209,-0.035390381,0.506171,0.32271614,-0.11983552,0.523429,0.3125398,-0.079048145,0.514055,0.30708927,-0.058141924,0.509687,0.30436778,-0.03978701,0.510241,0.3434653,-0.12114073,0.52415,0.33473258,-0.075931004,0.515765,0.33052072,-0.059430136,0.511475,0.32598111,-0.047310278,0.508964,0.36940398,-0.12841874,0.525182,0.3612854,-0.086480947,0.51747,0.35748978,-0.066245642,0.513926,0.35414921,-0.047842525,0.510865
0.33185331,-0.22982183,0.521956,0.32701516,-0.18386098,0.517597,0.31067401,-0.21692893,0.520382,0.27920608,-0.18880809,0.51125,0.24650691,-0.16144575,0.490019,0.23652418,-0.14489359,0.490735,0.29789802,-0.1373258,0.512588,0.27986718,-0.094093463,0.500419,0.2702121,-0.071832136,0.494334,0.26214682,-0.052402089,0.488802,0.32211058,-0.13716365,0.513446,0.30653942,-0.088652472,0.500251,0.29768702,-0.059003544,0.492554,0.29104372,-0.036405241,0.487056,0.3426666,-0.14018473,0.514622,0.32975796,-0.097306728,0.502758,0.32311894,-0.077311049,0.496688,0.31586213,-0.056965209,0.49117,0.36834218,-0.14990058,0.516807,0.3564379,-0.10543806,0.505976,0.35008879,-0.085268856,0.501,0.34566434,-0.067402119,0.496609
0.33496658,-0.23418758,0.524254,0.33359775,-0.19101733,0.517469,0.31415232,-0.221571,0.523377,0.28414607,-0.19755883,0.5102,0.2504879,-0.17319993,0.489585,0.24096863,-0.15710966,0.490583,0.30438446,-0.1476332,0.51172,0.28368504,-0.10309973,0.497205,0.27443768,-0.079071867,0.489947,0.26463007,-0.061720379,0.483349,0.3271931,-0.1476852,0.511008,0.30881867,-0.095187163,0.49513,0.29831794,-0.065797941,0.485869,0.28955116,-0.05111237,0.479253,0.34654522,-0.14721316,0.511153,0.33013552,-0.095672099,0.501415,0.32205577,-0.065355445,0.496433,0.31666353,-0.052564395,0.491904,0.37179794,-0.15596851,0.512596,0.35832575,-0.11082886,0.500052,0.35216741,-0.090390594,0.494288,0.34592508,-0.078756741,0.489203
0.33411174,-0.23380354,0.516219,0.33576288,-0.19775403,0.512111,0.31771821,-0.22566095,0.515837,0.28570199,-0.20464434,0.504153,0.2538261,-0.17953874,0.487543,0.2434032,-0.16271539,0.492095,0.30634043,-0.15738592,0.508826,0.28942957,-0.11328743,0.497019,0.28022837,-0.095292863,0.491115,0.27163933,-0.078284361,0.485749,0.32944874,-0.1553136,0.5082,0.31314103,-0.10650326,0.495292,0.30318812,-0.078211864,0.487762,0.29372476,-0.054494108,0.482384,0.34914481,-0.15662483,0.508126,0.33458914,-0.10838744,0.496574,0.3270556,-0.083127008,0.490663,0.32011366,-0.059847532,0.48529,0.3740192,-0.16397224,0.508814,0.36200996,-0.11944067,0.498459,0.35649815,-0.09903177,0.493702,0.3513371,-0.088475784,0.489504
0.33735317,-0.23281153,0.514967,0.33501006,-0.19596357,0.510569,0.31817365,-0.22573857,0.514272,0.28450246,-0.20382852,0.502076,0.25246537,-0.17929323,0.485606,0.2426839,-0.1638293,0.487227,0.30467961,-0.15564871,0.506677,0.28777791,-0.11130845,0.494538,0.27872814,-0.093278985,0.488468,0.27028403,-0.076232782,0.48295,0.32796323,-0.15353792,0.50638,0.31222535,-0.10464761,0.493123,0.30250228,-0.076812367,0.485389,0.29534528,-0.057502685,0.479865,0.34786865,-0.15481878,0.50661,0.33355075,-0.10691611,0.494743,0.32613175,-0.081738805,0.488671,0.31930833,-0.058448722,0.483151,0.37310322,-0.16212791,0.507703,0.36130115,-0.11762555,0.497243,0.35588107,-0.097211092,0.492436,0.35086928,-0.086764979,0.488195
0.34736444,-0.24276621,0.516787,0.34190368,-0.20823761,0.51171,0.32522142,-0.23520772,0.514185,0.29183294,-0.21627916,0.499277,0.25874763,-0.19357282,0.483846,0.24893944,-0.18170826,0.48975,0.30436942,-0.1709095,0.504874,0.28997987,-0.12731505,0.492473,0.28270573,-0.10506421,0.486273,0.27549637,-0.089161521,0.480637,0.32878299,-0.16733591,0.506875,0.31142716,-0.11870721,0.493023,0.30126148,-0.09340353,0.484944,0.29410911,-0.077153396,0.479172,0.35012099,-0.16728556,0.50907,0.33796831,-0.11988269,0.496835,0.33151909,-0.095758568,0.490576,0.32559169,-0.073169011,0.484885,0.37798404,-0.17275334,0.512572,0.36938706,-0.12833902,0.502325,0.36500854,-0.10902185,0.497616,0.36086186,-0.10133578,0.493462
0.35427985,-0.27261347,0.518846,0.34609313,-0.22907901,0.515208,0.33122054,-0.26150063,0.5163,0.29650254,-0.23561681,0.504303,0.26828743,-0.21318009,0.493992,0.25462414,-0.19575155,0.489764,0.31298206,-0.18642391,0.509456,0.29638034,-0.14345547,0.498397,0.28795274,-0.12146925,0.492867,0.28011874,-0.10143488,0.48784,0.33769,-0.1848656,0.511368,0.3253051,-0.13543126,0.499479,0.31651291,-0.11207367,0.492543,0.31007792,-0.094610879,0.487589,0.35887985,-0.18672347,0.51322,0.34756055,-0.13848752,0.501809,0.34136807,-0.11445068,0.495971,0.33545103,-0.093461458,0.490663,0.38571257,-0.19499978,0.515949,0.37582103,-0.15001943,0.505392,0.37128598,-0.12955941,0.500541,0.36687854,-0.11678947,0.496261
0.35381323,-0.27806123,0.515939,0.34934267,-0.2418718,0.513852,0.3312115,-0.2667424,0.513864,0.29881908,-0.24771033,0.502853,0.2694206,-0.22465048,0.491051,0.25643586,-0.20866774,0.489094,0.31804482,-0.19789607,0.509795,0.30136333,-0.15388134,0.500019,0.29299504,-0.13176934,0.495131,0.28358519,-0.10687674,0.490687,0.34316377,-0.19761676,0.51165,0.32912625,-0.14881597,0.501227,0.3208732,-0.11993872,0.495147,0.31355033,-0.097196388,0.490804,0.36437123,-0.20055382,0.513335,0.35123315,-0.1529475,0.503237,0.34448806,-0.12842305,0.49807,0.33891392,-0.10728288,0.493373,0.39067899,-0.21009421,0.515642,0.37989405,-0.16555986,0.505823,0.3757642,-0.14690241,0.501312,0.37210277,-0.1300473,0.497331
0.36678982,-0.29854958,0.531512,0.35723252,-0.25629136,0.522374,0.34325599,-0.2856042,0.527981,0.31060151,-0.2659906,0.513953,0.27912204,-0.24286615,0.496439,0.26317663,-0.22441924,0.487247,0.32234641,-0.20845455,0.511467,0.3036997,-0.16605075,0.495372,0.29385777,-0.14603923,0.487324,0.28479436,-0.12743629,0.480008,0.34654629,-0.20805637,0.512758,0.32836474,-0.16020744,0.495194,0.31767433,-0.13175558,0.484947,0.30962697,-0.11231278,0.477629,0.36753149,-0.21123117,0.514526,0.3498799,-0.1614946,0.496961,0.34058311,-0.13657526,0.487974,0.33209295,-0.11363571,0.479804,0.39442946,-0.22174962,0.517956,0.38141967,-0.17621337,0.501732,0.37544151,-0.15523965,0.494278,0.36907699,-0.14409481,0.4877
0.37759847,-0.31307553,0.539482,0.36783768,-0.26913851,0.527799,0.35250758,-0.29922147,0.533882,0.31740674,-0.27930529,0.517131,0.28435594,-0.25629369,0.498946,0.26736666,-0.23803161,0.489645,0.32748841,-0.22031138,0.512514,0.30730361,-0.1775329,0.493716,0.29713849,-0.15583494,0.484317,0.28785085,-0.13591256,0.475772,0.35300619,-0.21952764,0.515504,0.33401804,-0.17355456,0.495131,0.32283028,-0.1462511,0.483247,0.31478994,-0.12639227,0.474758,0.37542216,-0.22243537,0.518865,0.35898037,-0.17324042,0.498716,0.35055407,-0.14776454,0.488407,0.34288454,-0.12440606,0.479035,0.40474547,-0.23277373,0.524559,0.39454979,-0.1865512,0.509467,0.38929374,-0.17161782,0.502533,0.38423011,-0.16860428,0.496415
0.37909422,-0.32003289,0.532148,0.36901809,-0.27857207,0.523782,0.35411557,-0.30713419,0.527321,0.31873039,-0.28547692,0.511948,0.28798372,-0.26153899,0.497802,0.27063789,-0.24104644,0.491364,0.33081133,-0.23145642,0.51183,0.31387468,-0.18589699,0.496143,0.30564832,-0.16882804,0.488299,0.29806089,-0.15283946,0.481168,0.35655983,-0.23089853,0.514979,0.34179953,-0.18247828,0.49815,0.33311803,-0.15536206,0.488334,0.32688281,-0.13558515,0.481322,0.37891186,-0.23384774,0.518215,0.36520411,-0.18450678,0.501476,0.35823492,-0.16073023,0.492912,0.35188272,-0.13866001,0.485126,0.40774407,-0.24393062,0.523279,0.40610329,-0.20350397,0.521634,0.40568136,-0.18463464,0.520878,0.4053116,-0.167707,0.520211
0.38027528,-0.33432428,0.53325,0.37120598,-0.29565189,0.526374,0.35698318,-0.32167388,0.530145,0.32465693,-0.30267929,0.516935,0.29413203,-0.27692907,0.498037,0.27980027,-0.2574207,0.487587,0.33845253,-0.24733434,0.517616,0.32329579,-0.20150541,0.50354,0.31572311,-0.17862858,0.496502,0.30880375,-0.16688722,0.490103,0.36343869,-0.24799331,0.519148,0.35064502,-0.19900868,0.50388,0.34316217,-0.17004962,0.494973,0.33768211,-0.15083091,0.488611,0.38471546,-0.25204084,0.520943,0.37369463,-0.20282808,0.506031,0.3680556,-0.17754412,0.498401,0.36289497,-0.158354,0.491465,0.41131818,-0.26351597,0.52408,0.40424319,-0.21839102,0.510692,0.40106946,-0.20274778,0.504541,0.39831471,-0.18859709,0.499114
0.39235784,-0.35273219,0.544145,0.38530649,-0.30773228,0.532044,0.36829288,-0.33883755,0.539683,0.33840655,-0.31727301,0.524125,0.30567286,-0.2922552,0.504283,0.29077961,-0.27488562,0.499101,0.3467672,-0.25739665,0.517848,0.32805306,-0.21184464,0.499029,0.31864783,-0.19024219,0.48962,0.31006279,-0.17041424,0.481066,0.37174771,-0.25720093,0.519306,0.35437926,-0.2071679,0.498771,0.34428839,-0.18141677,0.486792,0.33705435,-0.16272967,0.478236,0.39344111,-0.26072795,0.521444,0.37659005,-0.20909901,0.501319,0.36834033,-0.18759508,0.491022,0.36082872,-0.16764978,0.481661,0.42139187,-0.27194454,0.525753,0.40683958,-0.22701033,0.506864,0.40015542,-0.20627949,0.498186,0.39470019,-0.19410315,0.490528
0.40304414,-0.36700445,0.548385,0.39201839,-0.32313246,0.535427,0.37701342,-0.35154108,0.541527,0.34102338,-0.33079007,0.523151,0.30821125,-0.30589566,0.504518,0.29199426,-0.28794147,0.498252,0.35213062,-0.26965057,0.51767,0.33288228,-0.22767435,0.497439,0.3232969,-0.20704648,0.487323,0.31454329,-0.18806759,0.478127,0.378855,-0.27140355,0.521812,0.36110489,-0.2231919,0.500071,0.35106919,-0.19761145,0.487389,0.34388602,-0.17901065,0.47833,0.40209716,-0.27661967,0.526231,0.38660079,-0.2311531,0.504992,0.37868051,-0.20749224,0.494125,0.37148591,-0.18572049,0.484246,0.43208945,-0.29007156,0.533379,0.41866845,-0.24276303,0.514294,0.4129999,-0.22389301,0.505525,0.40801341,-0.20709388,0.497788
0.40592425,-0.37273709,0.543205,0.40146835,-0.32746159,0.536258,0.38005372,-0.35733578,0.536104,0.3463598,-0.33366434,0.519153,0.3140343,-0.31026937,0.501586,0.2975084,-0.29261521,0.494264,0.36352749,-0.27671612,0.522507,0.34045037,-0.22978228,0.506751,0.33688102,-0.21796001,0.498874,0.33370549,-0.20687636,0.491712,0.39161017,-0.27910402,0.528958,0.37322655,-0.22724623,0.513077,0.36721761,-0.2020769,0.503813,0.36676934,-0.19430735,0.497195,0.41552718,-0.28461728,0.534808,0.40115089,-0.23390604,0.51937,0.39742247,-0.21234652,0.511471,0.3940951,-0.19228144,0.504291,0.44551695,-0.29789592,0.542776,0.43241377,-0.25105151,0.529009,0.43299771,-0.24202909,0.522683,0.43371743,-0.23385526,0.517102
0.42348886,-0.39865876,0.550728,0.41323561,-0.3485887,0.53962,0.39886965,-0.38318727,0.545164,0.36215544,-0.35535022,0.528453,0.33133177,-0.33137765,0.51176,0.31559888,-0.31265412,0.504348,0.37637225,-0.29610014,0.524864,0.35607952,-0.25439455,0.506327,0.3458646,-0.23323441,0.497059,0.336534,-0.21380165,0.488633,0.40264528,-0.29812078,0.528078,0.38526114,-0.2484238,0.508275,0.37570863,-0.22292701,0.496723,0.36887217,-0.20437672,0.488472,0.42528498,-0.30356795,0.531597,0.40770641,-0.25487074,0.512039,0.39898146,-0.23089575,0.502033,0.39142185,-0.21056534,0.492936,0.45408144,-0.31724852,0.537413,0.43783612,-0.27036928,0.518686,0.43124956,-0.25241719,0.510082,0.42544759,-0.2363785,0.50249
0.42251139,-0.39125895,0.550299,0.41339123,-0.34624717,0.538312,0.40051656,-0.3819955,0.544691,0.36325759,-0.35399375,0.527796,0.33190886,-0.32972515,0.511007,0.31617048,-0.31136367,0.504315,0.37485542,-0.29399248,0.52288,0.35522365,-0.25241591,0.503679,0.34540372,-0.23180188,0.494078,0.33648579,-0.21329324,0.48535,0.40085428,-0.29529505,0.525857,0.3839941,-0.24787855,0.505205,0.37447061,-0.22194488,0.493158,0.36769076,-0.20359515,0.484553,0.4234225,-0.30017088,0.529251,0.40650318,-0.25374683,0.508911,0.39798285,-0.23024587,0.498504,0.39043143,-0.20947821,0.489044,0.4524536,-0.31322099,0.535047,0.43638498,-0.26757995,0.515567,0.42963899,-0.25000931,0.506617,0.42369969,-0.23430332,0.49872
0.42237942,-0.39843479,0.548354,0.41426174,-0.35198583,0.539995,0.39757609,-0.38223967,0.54222,0.36232871,-0.35414275,0.52582,0.33232514,-0.32992708,0.510674,0.31752499,-0.31178244,0.505103,0.38355621,-0.30096905,0.526483,0.36710678,-0.25701409,0.509708,0.36037443,-0.23974678,0.50132,0.35423442,-0.22367168,0.493695,0.41077227,-0.30608543,0.53131,0.39874537,-0.25567882,0.51411,0.39536246,-0.22836525,0.508751,0.3929559,-0.20856511,0.504924,0.43370122,-0.31399175,0.535941,0.42165075,-0.26449529,0.518702,0.41660765,-0.24216774,0.509883,0.41206525,-0.22151048,0.501865,0.46191638,-0.33042202,0.542671,0.45462644,-0.28602916,0.526621,0.45129717,-0.26552466,0.519247,0.44837024,-0.2473719,0.51274
0.42385362,-0.40208016,0.551304,0.41770422,-0.35735823,0.542275,0.39849613,-0.38453036,0.543838,0.36428124,-0.35828304,0.525706,0.33615576,-0.33329531,0.506711,0.32070208,-0.3130017,0.502808,0.38566204,-0.30180498,0.52664,0.37742724,-0.25914961,0.520698,0.37654998,-0.24502856,0.517727,0.37744904,-0.23928964,0.515026,0.41378913,-0.30799932,0.532894,0.40718362,-0.26167078,0.515042,0.40363241,-0.23756165,0.504629,0.40119701,-0.21992993,0.49719,0.43747151,-0.31682667,0.538751,0.43074366,-0.27046308,0.521244,0.42658017,-0.24589443,0.512287,0.42282016,-0.22340388,0.504144,0.46655645,-0.33441986,0.547037,0.46492316,-0.29131725,0.532378,0.46376168,-0.27087326,0.525643,0.46274141,-0.25281705,0.5197
0.42619287,-0.41145512,0.552354,0.43023394,-0.37163024,0.544127,0.40981628,-0.40195031,0.544898,0.37625631,-0.36984921,0.526659,0.34846283,-0.34243298,0.509632,0.33588145,-0.32203146,0.500593,0.3977534,-0.31621284,0.529043,0.3833794,-0.26932552,0.517061,0.38160146,-0.25741002,0.511071,0.38010148,-0.24619197,0.505625,0.42598519,-0.32215892,0.535525,0.41632638,-0.27290527,0.518324,0.41177229,-0.24596572,0.50829,0.40649062,-0.22408256,0.501123,0.44969964,-0.3307357,0.541504,0.43879251,-0.28054867,0.524298,0.43521149,-0.25834205,0.515495,0.43203677,-0.23782918,0.507492,0.47877326,-0.34793243,0.549814,0.46775702,-0.2995779,0.533637,0.46596946,-0.28347948,0.526205,0.4646998,-0.26973584,0.519647
0.44435775,-0.42215278,0.561743,0.44263924,-0.37378322,0.550209,0.41930748,-0.40479459,0.552498,0.39558357,-0.37917319,0.536639,0.36519586,-0.35331618,0.517511,0.35178078,-0.33494012,0.509917,0.40958674,-0.32355244,0.530556,0.39142179,-0.27522921,0.514104,0.38450444,-0.25371426,0.505877,0.37853094,-0.23443767,0.498399,0.43819963,-0.3277465,0.538151,0.41889527,-0.27329954,0.518743,0.41330263,-0.24636526,0.507423,0.40934748,-0.22688564,0.499336,0.46207844,-0.33467109,0.545303,0.4415466,-0.28142562,0.524322,0.43560543,-0.25793564,0.513588,0.4312239,-0.23804128,0.50383,0.49100197,-0.34939729,0.555493,0.48264416,-0.30361054,0.539272,0.47921515,-0.28299177,0.53182,0.47619489,-0.26476802,0.525244
0.46073781,-0.4201879,0.569546,0.45557815,-0.3703076,0.554735,0.43625988,-0.40637033,0.5614,0.40613244,-0.3774411,0.542462,0.37178425,-0.35554675,0.523208,0.35635676,-0.33642058,0.513563,0.41487769,-0.32029641,0.534106,0.39725807,-0.27066541,0.516989,0.39137326,-0.24998577,0.50843,0.38314558,-0.2332129,0.500649,0.44225174,-0.32105537,0.539252,0.42962664,-0.26771421,0.523185,0.42581279,-0.24047953,0.513812,0.42374727,-0.22175916,0.507118,0.46576331,-0.32537137,0.544646,0.44897351,-0.27364617,0.522579,0.44126007,-0.2483724,0.511289,0.43425347,-0.22533842,0.501025,0.49554801,-0.33741888,0.55323,0.48088513,-0.29099115,0.533404,0.47462442,-0.27026316,0.524294,0.46910498,-0.25194531,0.516257
0.44720786,-0.41402281,0.56109,0.44889515,-0.36582436,0.549914,0.42486138,-0.40015828,0.552016,0.39567372,-0.36464042,0.533337,0.36826206,-0.33760375,0.514693,0.3552917,-0.31816647,0.508469,0.41420653,-0.31001934,0.530728,0.39953115,-0.26290203,0.518684,0.39658361,-0.2433445,0.512662,0.39394279,-0.22518257,0.507187,0.44186644,-0.31801979,0.53823,0.42878254,-0.2649435,0.522679,0.42668583,-0.23983958,0.513608,0.42584655,-0.22258729,0.507128,0.46601083,-0.32479814,0.545278,0.45124245,-0.27491679,0.52433,0.44422738,-0.24997786,0.513613,0.43790626,-0.22724164,0.50387,0.4957236,-0.33960035,0.555292,0.48571704,-0.29422638,0.537315,0.48457659,-0.27500924,0.529945,0.48244289,-0.25704539,0.523441
0.43314958,-0.40749716,0.554797,0.43981,-0.35630655,0.548771,0.40785827,-0.38761816,0.548728,0.38951795,-0.35380469,0.533417,0.36306378,-0.32544332,0.512978,0.35248636,-0.30593947,0.507208,0.41705243,-0.30211496,0.536953,0.40747994,-0.25472915,0.524617,0.40644283,-0.24152927,0.518449,0.40200911,-0.22840523,0.512842,0.44420014,-0.31011058,0.54243,0.4393223,-0.25947938,0.527583,0.43877573,-0.23503221,0.518922,0.4385245,-0.21714661,0.512735,0.46691506,-0.3226147,0.547405,0.46209317,-0.27242271,0.532444,0.4599936,-0.24778651,0.52479,0.45811694,-0.22524455,0.517832,0.49384435,-0.33878976,0.554199,0.49214632,-0.29591013,0.541784,0.49691252,-0.27553755,0.53954,0.50020976,-0.2590586,0.537559
0.44324391,-0.40460061,0.558891,0.44751402,-0.35157318,0.550947,0.42149133,-0.38498024,0.550228,0.39512464,-0.34785375,0.530826,0.36940153,-0.31959285,0.509513,0.35725573,-0.29857782,0.499449,0.41879089,-0.29560752,0.534549,0.40537184,-0.24988688,0.519979,0.40671879,-0.2325935,0.512694,0.40675439,-0.2188773,0.506072,0.44753835,-0.30325834,0.542586,0.43998362,-0.25179988,0.525607,0.43803904,-0.22465128,0.515703,0.43683616,-0.20517929,0.508628,0.47127396,-0.31312394,0.549818,0.46506165,-0.26426876,0.53262,0.46220976,-0.23945468,0.523822,0.45831253,-0.2209537,0.515823,0.49960929,-0.33160257,0.559574,0.49837686,-0.28565177,0.546915,0.50063654,-0.26746372,0.541098,0.50169733,-0.25828661,0.535966
0.47832312,-0.39686346,0.571826,0.46913193,-0.34808297,0.56002,0.45338465,-0.38071358,0.565142,0.42032099,-0.3528246,0.547158,0.38913412,-0.32644794,0.527443,0.37431135,-0.30695892,0.518984,0.43211611,-0.29412125,0.543259,0.41969826,-0.2474545,0.524525,0.41408766,-0.22605961,0.515158,0.40900868,-0.20641104,0.506642,0.45939446,-0.29723967,0.547529,0.44841701,-0.24485406,0.527402,0.44391546,-0.22072119,0.51566,0.43823129,-0.20388031,0.507274,0.48270588,-0.30350276,0.551954,0.47247401,-0.25361533,0.532167,0.46772047,-0.22907549,0.522044,0.46394555,-0.20799386,0.512841,0.51201818,-0.31799454,0.558933,0.50264898,-0.26943601,0.541366,0.50110922,-0.25496386,0.533295,0.49988815,-0.24195152,0.526173
0.47701407,-0.39248389,0.568132,0.46884628,-0.34450619,0.557894,0.4516355,-0.37601382,0.560771,0.42120519,-0.34518201,0.542312,0.39092978,-0.31795688,0.522433,0.37669911,-0.29796179,0.513246,0.43200451,-0.29073816,0.54143,0.42427648,-0.24187636,0.524519,0.42068228,-0.22054628,0.516064,0.41745565,-0.20093293,0.508377,0.46019721,-0.29445241,0.547062,0.4523849,-0.23985824,0.528939,0.44992424,-0.21504934,0.518368,0.4483172,-0.19705101,0.510816,0.48525852,-0.29851617,0.552487,0.47736644,-0.24842168,0.53444,0.47444563,-0.22447517,0.525208,0.47024754,-0.20731783,0.516814,0.51511357,-0.31332069,0.560426,0.50896594,-0.26600228,0.54531,0.50955158,-0.25029906,0.538364,0.51021955,-0.23618154,0.532236
0.47156939,-0.38276042,0.55944,0.47096657,-0.32797281,0.553428,0.44923506,-0.3634835,0.553629,0.41931043,-0.32589248,0.537655,0.39137291,-0.29672512,0.518323,0.37785876,-0.27661832,0.511651,0.43840439,-0.27413606,0.541855,0.42922463,-0.22957502,0.527773,0.42474878,-0.2072809,0.520732,0.42095602,-0.18740539,0.514331,0.46613441,-0.27891967,0.546922,0.46124496,-0.2315973,0.53214,0.45849623,-0.20346282,0.523518,0.45658286,-0.18310652,0.517359,0.48953323,-0.28624154,0.551543,0.48481663,-0.2388551,0.537016,0.48247412,-0.21426402,0.529583,0.48038982,-0.19168914,0.522826,0.51850009,-0.30153787,0.557909,0.51371931,-0.25517874,0.545041,0.51440166,-0.24202554,0.539129,0.5134945,-0.23449126,0.533912
0.46959964,-0.37741797,0.554724,0.47043892,-0.3258224,0.550833,0.44926819,-0.35397502,0.54905,0.41826222,-0.3229003,0.533616,0.3903873,-0.29381907,0.514789,0.37744178,-0.27450962,0.50936,0.43899844,-0.27312877,0.540994,0.43143541,-0.22871276,0.528702,0.42788628,-0.20655557,0.522556,0.4248087,-0.18649919,0.516968,0.46702432,-0.27816562,0.546624,0.46513155,-0.23107586,0.53427,0.46665372,-0.20130093,0.527063,0.46434369,-0.18483858,0.521916,0.49054156,-0.28560298,0.551548,0.48820667,-0.23836824,0.539361,0.48843702,-0.21207702,0.533126,0.48610013,-0.19139721,0.527458,0.51940747,-0.30084429,0.55797,0.51501686,-0.25514064,0.546701,0.51661432,-0.24142986,0.541524,0.51821094,-0.22995325,0.536955
0.4747216,-0.36925163,0.558468,0.47342416,-0.31632877,0.553593,0.44857342,-0.3494601,0.548944,0.42284927,-0.3110219,0.530706,0.39779199,-0.28323051,0.512766,0.38656204,-0.26425634,0.508006,0.44671969,-0.26021629,0.538298,0.43557811,-0.21486516,0.528693,0.43812982,-0.19854238,0.523891,0.44069556,-0.18316962,0.519525,0.47632966,-0.26883224,0.548318,0.4704178,-0.21804968,0.534406,0.4722011,-0.19249331,0.526291,0.47474747,-0.17550226,0.520495,0.50058408,-0.27924572,0.556928,0.49511273,-0.22984791,0.542451,0.49381232,-0.20542343,0.535044,0.49130816,-0.18710969,0.528311,0.52919945,-0.29799998,0.567883,0.52420507,-0.25211408,0.55594,0.52775095,-0.23593721,0.550453,0.53105751,-0.22138326,0.545611
0.47582792,-0.36608338,0.559863,0.47718198,-0.30917133,0.553915,0.45043886,-0.33820873,0.55061,0.42613326,-0.30398144,0.531129,0.39933203,-0.27519585,0.51147,0.38696487,-0.26004472,0.506977,0.44959106,-0.2526583,0.538162,0.43709047,-0.20676359,0.527203,0.43885819,-0.18996917,0.521724,0.43951101,-0.1781968,0.516743,0.47886488,-0.26085222,0.547479,0.47164864,-0.20949857,0.532467,0.47259854,-0.1835156,0.52371,0.47324589,-0.17035176,0.517455,0.50290852,-0.27096446,0.555592,0.4963585,-0.22107424,0.540337,0.49304168,-0.19556421,0.532532,0.49087528,-0.17275507,0.525436,0.5314281,-0.28944872,0.566109,0.52532165,-0.24314256,0.55326,0.52830076,-0.22664101,0.547357,0.53109629,-0.21180947,0.542148
0.49910006,-0.338955,0.554448,0.49167447,-0.29349352,0.549426,0.47318249,-0.32296793,0.547213,0.43999887,-0.29269662,0.531157,0.41240845,-0.2650638,0.513192,0.39950105,-0.24608326,0.507427,0.45491153,-0.24168033,0.536836,0.44392261,-0.19515452,0.523939,0.442929,-0.17629208,0.517491,0.44215626,-0.15866315,0.511629,0.48370986,-0.24531443,0.543993,0.48044176,-0.19609457,0.531286,0.47857938,-0.16714689,0.523874,0.47727025,-0.14635693,0.51858,0.50808141,-0.25163044,0.550259,0.50296624,-0.20225053,0.537648,0.50306032,-0.17871145,0.531196,0.50447794,-0.15841206,0.52533,0.53839722,-0.26555132,0.558442,0.53078297,-0.21996645,0.546837,0.53356022,-0.20545563,0.541505,0.5362481,-0.1922842,0.536801
0.49391627,-0.31893037,0.556421,0.48859066,-0.27291816,0.548768,0.46945447,-0.30253481,0.547276,0.43665143,-0.27169089,0.528279,0.41038728,-0.24394337,0.506568,0.39741694,-0.2244934,0.499379,0.45470531,-0.21971278,0.531971,0.44792262,-0.17314411,0.519271,0.44942269,-0.15221739,0.512921,0.45090254,-0.13287918,0.507148,0.48293904,-0.2244893,0.540662,0.47732561,-0.17428084,0.527799,0.47986517,-0.14718937,0.520296,0.48462694,-0.13066446,0.514936,0.50653667,-0.2319152,0.548401,0.50579632,-0.18325699,0.53425,0.50600567,-0.15857483,0.527011,0.50621578,-0.1360706,0.520429,0.53535544,-0.2473396,0.558716,0.53406576,-0.20285462,0.546089,0.54002448,-0.18941116,0.540288,0.54559754,-0.17724258,0.535169
0.49497227,-0.32401648,0.552376,0.49264126,-0.27308438,0.548613,0.47102217,-0.30061413,0.545081,0.44373227,-0.26861825,0.527919,0.41489434,-0.239547,0.507961,0.40437728,-0.21861344,0.496841,0.46845645,-0.21999886,0.536905,0.45591487,-0.17423377,0.524984,0.45595548,-0.15439877,0.519024,0.45789015,-0.13608883,0.513606,0.49615973,-0.22703977,0.544627,0.4885975,-0.17690109,0.531977,0.49007398,-0.15005834,0.524597,0.49035373,-0.13141786,0.519326,0.51897895,-0.23615367,0.551269,0.5154955,-0.18738235,0.538679,0.51237919,-0.16129686,0.532237,0.51408429,-0.13970922,0.526381,0.54625448,-0.25329053,0.559716,0.54719506,-0.21073805,0.547684,0.54770654,-0.19095211,0.542155,0.54797643,-0.17563551,0.537277
0.49519681,-0.31644635,0.552728,0.49735644,-0.27201375,0.549357,0.47234578,-0.29938784,0.545426,0.44396156,-0.26687968,0.528341,0.41612821,-0.23785413,0.508538,0.40601029,-0.21686161,0.496959,0.4692806,-0.21879445,0.537923,0.45897732,-0.17296405,0.526402,0.46061893,-0.14971197,0.520641,0.4602113,-0.1346194,0.515404,0.49714661,-0.22592301,0.545786,0.48956698,-0.17591173,0.533536,0.49150317,-0.14933483,0.526391,0.49255438,-0.13098291,0.521287,0.52007591,-0.23509993,0.552514,0.51662596,-0.1864186,0.540236,0.51414556,-0.16119756,0.533954,0.51658372,-0.14037942,0.528243,0.5474246,-0.25229443,0.561007,0.54887736,-0.20987066,0.549596,0.54963255,-0.19011849,0.544353,0.55034769,-0.17254609,0.539727
0.50153711,-0.31326156,0.552453,0.5084409,-0.2633566,0.54871,0.47849967,-0.29574732,0.545259,0.45438908,-0.26139748,0.528201,0.42570781,-0.23406441,0.507771,0.41479649,-0.2137588,0.494437,0.47845095,-0.21116476,0.537139,0.46962308,-0.16590323,0.526597,0.47215712,-0.14681416,0.521326,0.47467566,-0.12894232,0.516534,0.50672201,-0.21687332,0.544745,0.50279278,-0.16721251,0.533025,0.50284223,-0.13884945,0.526188,0.5029402,-0.11833969,0.521305,0.53011833,-0.22493015,0.55129,0.52171801,-0.17566801,0.539333,0.52302568,-0.15270883,0.533216,0.52437547,-0.13136622,0.527654,0.55822607,-0.24087255,0.559618,0.55719663,-0.1971063,0.54923,0.55674762,-0.17689113,0.544456,0.55662147,-0.15906539,0.540245
0.50701629,-0.29595047,0.548366,0.50715073,-0.24332891,0.546303,0.48342807,-0.26849554,0.541468,0.45656186,-0.23378683,0.525081,0.43318762,-0.20315758,0.508284,0.42368128,-0.18409777,0.504853,0.47724799,-0.19219746,0.536311,0.47653948,-0.14772292,0.526249,0.47771837,-0.12606471,0.521219,0.47888264,-0.10604409,0.516645,0.50644741,-0.19909391,0.544117,0.5091389,-0.15101377,0.534111,0.51249332,-0.12336751,0.528273,0.51499968,-0.10330178,0.524104,0.53070691,-0.20797793,0.550699,0.53302001,-0.16102097,0.539875,0.53434805,-0.13650957,0.534337,0.53564696,-0.11392046,0.529303,0.55997884,-0.22470016,0.558827,0.55959423,-0.18094992,0.549425,0.55937646,-0.1610341,0.545106,0.56444054,-0.1509641,0.541294
0.51181822,-0.28646397,0.557153,0.50740754,-0.23800515,0.550727,0.48652282,-0.2683307,0.547873,0.46549478,-0.23566457,0.53314,0.43701573,-0.20493097,0.511302,0.42756002,-0.1855836,0.506887,0.47744472,-0.18479941,0.53465,0.48005063,-0.14102214,0.528412,0.48226403,-0.11906974,0.525292,0.48431141,-0.09896722,0.522456,0.50691841,-0.19083954,0.543921,0.5029667,-0.140882,0.529983,0.50219139,-0.11217761,0.521852,0.50689697,-0.099047745,0.516044,0.53126484,-0.19925799,0.552042,0.53098807,-0.15178986,0.537327,0.53098261,-0.12708576,0.529797,0.53052257,-0.10870153,0.522953,0.56032624,-0.21578462,0.562634,0.55891078,-0.17144077,0.549887,0.55949338,-0.15152121,0.54403,0.56354237,-0.14736381,0.538862
0.51139052,-0.28372522,0.559653,0.5094893,-0.23530471,0.553703,0.48491593,-0.26144493,0.550485,0.46293754,-0.22316219,0.533897,0.43894397,-0.19236306,0.515269,0.4292628,-0.17300786,0.511246,0.48318964,-0.17578206,0.538108,0.47939382,-0.13310313,0.53122,0.48522244,-0.11348891,0.527776,0.48991208,-0.10054792,0.524645,0.51175334,-0.18450195,0.547401,0.50732085,-0.13466492,0.533604,0.50880272,-0.10668421,0.525556,0.51210662,-0.098233245,0.519807,0.53505923,-0.19506646,0.555504,0.5361014,-0.14708815,0.541437,0.53669963,-0.12234957,0.53424,0.53948354,-0.1007985,0.527697,0.56305041,-0.21555795,0.566006,0.56548635,-0.17215652,0.554954,0.56892381,-0.15173421,0.549876,0.57591461,-0.13990134,0.545396
0.50968642,-0.27558974,0.55812,0.51706458,-0.22550412,0.554663,0.48851954,-0.25383244,0.551844,0.46623768,-0.21691172,0.535795,0.44012914,-0.18601794,0.515802,0.42997987,-0.16949257,0.510934,0.48957832,-0.17382829,0.544433,0.48739648,-0.12898645,0.532851,0.48633644,-0.10640671,0.527059,0.48751971,-0.088101484,0.521795,0.51827228,-0.18101148,0.551002,0.51769032,-0.13201744,0.538754,0.51872382,-0.10377712,0.53161,0.5210934,-0.085351413,0.526506,0.54203512,-0.19017062,0.556673,0.54140978,-0.14178492,0.544527,0.5411352,-0.11685118,0.538313,0.54401141,-0.098870277,0.532664,0.57052675,-0.20730811,0.563919,0.57202236,-0.16538149,0.556156,0.57392458,-0.1460418,0.552589,0.57957229,-0.13843209,0.549442
0.50453711,-0.26673367,0.55392,0.51248063,-0.22211112,0.552776,0.48393643,-0.24838956,0.548523,0.46056163,-0.20685283,0.533885,0.43721764,-0.17602125,0.517485,0.42840531,-0.15587603,0.512625,0.49102047,-0.16756143,0.545297,0.49041282,-0.12310205,0.535407,0.49015419,-0.10064666,0.530462,0.49194225,-0.085716302,0.525966,0.51869332,-0.17931496,0.551564,0.52149653,-0.13114021,0.541736,0.52473177,-0.10141137,0.536004,0.52792889,-0.085690898,0.531909,0.54149546,-0.18943949,0.556807,0.54228796,-0.14148146,0.546421,0.54298318,-0.11673756,0.541107,0.545239,-0.095088487,0.536277,0.5680957,-0.20750079,0.563211,0.57124812,-0.16578114,0.556888,0.57328386,-0.14664138,0.553982,0.57852447,-0.13382154,0.551419
0.50907093,-0.26751767,0.561019,0.51418664,-0.2201669,0.558667,0.4881146,-0.245323,0.554626,0.46849137,-0.21176467,0.543857,0.44661533,-0.18229443,0.524165,0.43401643,-0.1588636,0.515131,0.49513231,-0.16675116,0.54909,0.4902835,-0.12069869,0.539265,0.49210353,-0.099967613,0.534353,0.49505698,-0.08567981,0.529887,0.52341997,-0.17644077,0.556177,0.52118586,-0.12532412,0.545163,0.5226336,-0.097085823,0.538738,0.52923197,-0.085289903,0.534149,0.54631987,-0.18480823,0.562188,0.54202595,-0.13573185,0.550354,0.53983319,-0.11059476,0.544299,0.54411132,-0.092290598,0.538794,0.57151358,-0.20390392,0.56968,0.57257199,-0.16067024,0.56098,0.57302505,-0.14094379,0.556983,0.57818302,-0.12970994,0.553456
0.50958867,-0.26683065,0.562851,0.51489521,-0.22009001,0.559978,0.4885726,-0.24513419,0.556512,0.469061,-0.21234345,0.544958,0.44627702,-0.18258876,0.524449,0.43505031,-0.16000246,0.51613,0.49580824,-0.16639726,0.550091,0.49055044,-0.12100276,0.540627,0.49075841,-0.098833102,0.535895,0.49573403,-0.085588512,0.531594,0.52388495,-0.17575252,0.556934,0.52069319,-0.12524341,0.545626,0.52144896,-0.096859548,0.53903,0.52585832,-0.08270847,0.534318,0.54636707,-0.18473605,0.562786,0.54113927,-0.13542625,0.550342,0.53846344,-0.11021017,0.543976,0.54209011,-0.091382626,0.538188,0.57161616,-0.20367897,0.570163,0.5718688,-0.16020125,0.560945,0.5719456,-0.14038769,0.556709,0.57707661,-0.12856415,0.552972
0.51276918,-0.26455653,0.56679,0.51664602,-0.21852593,0.562387,0.48936416,-0.24321897,0.560205,0.47035697,-0.21151978,0.546249,0.44656187,-0.18136673,0.525268,0.43594627,-0.15955017,0.517033,0.49666764,-0.16406295,0.551091,0.49134236,-0.12011949,0.541715,0.49165871,-0.097945035,0.537028,0.49614498,-0.083653669,0.532766,0.52452426,-0.17281558,0.557723,0.52074916,-0.12419141,0.546012,0.52200367,-0.096079564,0.539181,0.52628266,-0.081486375,0.534301,0.54693029,-0.18337264,0.563518,0.54302777,-0.13101023,0.550085,0.5407393,-0.10829023,0.543212,0.54342589,-0.09220026,0.536964,0.57234476,-0.20117737,0.571049,0.57737675,-0.15971597,0.566768,0.58072736,-0.13927531,0.564801,0.58742589,-0.12403938,0.563066
0.51252264,-0.26254942,0.56986,0.51824823,-0.21793877,0.564491,0.49124325,-0.24305152,0.562692,0.47166719,-0.20803555,0.548315,0.44769692,-0.17767457,0.527366,0.43629333,-0.158544,0.516924,0.49617766,-0.16028358,0.551781,0.49394339,-0.11713788,0.543827,0.49604565,-0.095297497,0.53985,0.50082423,-0.080271449,0.536235,0.52444348,-0.16887356,0.558805,0.52123517,-0.12085788,0.547164,0.5232945,-0.09454239,0.540374,0.52772207,-0.079259917,0.535524,0.547327,-0.1793384,0.564997,0.5435157,-0.12996554,0.550695,0.54309024,-0.10511657,0.543377,0.54314404,-0.090530898,0.536725,0.57374893,-0.19819853,0.57314,0.57863526,-0.15717857,0.568069,0.58163346,-0.13830237,0.565738,0.588225,-0.1230619,0.563682
0.50746217,-0.25967639,0.566016,0.51417638,-0.21353302,0.561834,0.48738158,-0.24034091,0.559668,0.4653713,-0.19804203,0.544786,0.44760353,-0.16621392,0.528166,0.4411382,-0.14485982,0.520915,0.4960197,-0.15893927,0.550989,0.49698695,-0.11685021,0.546956,0.50141576,-0.095527068,0.54494,0.50923029,-0.077537625,0.543106,0.52322113,-0.16838962,0.557404,0.52607397,-0.12176109,0.550639,0.53718586,-0.095359543,0.546694,0.54159211,-0.079009672,0.543875,0.54561623,-0.18159706,0.563003,0.54398136,-0.13589519,0.556385,0.55114071,-0.1100559,0.552999,0.56063454,-0.10445982,0.549921,0.57059178,-0.20201415,0.57027,0.57640893,-0.16054309,0.565726,0.57976051,-0.14146033,0.563639,0.58688305,-0.12881964,0.561797
0.50559305,-0.25883137,0.564843,0.51453598,-0.21595527,0.562115,0.48548208,-0.23931418,0.55831,0.46807222,-0.20245526,0.546893,0.44872305,-0.16847726,0.528492,0.44207561,-0.14992676,0.520785,0.49658791,-0.15947304,0.552093,0.49493831,-0.11790161,0.544323,0.49938021,-0.095304905,0.540437,0.50323119,-0.081144252,0.536905,0.52503434,-0.17119511,0.559226,0.52355077,-0.123049,0.548305,0.52647563,-0.095261574,0.541935,0.53050816,-0.077396996,0.537385,0.54740419,-0.18244054,0.565304,0.54591725,-0.13482014,0.553599,0.54752736,-0.11009787,0.547611,0.55169321,-0.088143841,0.542167,0.57214175,-0.20397669,0.572929,0.5731639,-0.15999096,0.562675,0.57452278,-0.14118296,0.557964,0.57933057,-0.12828403,0.553807
0.50691762,-0.25999103,0.56442,0.51440331,-0.21591106,0.561951,0.48535709,-0.23913642,0.558241,0.46938671,-0.20559714,0.546803,0.44802768,-0.17298677,0.526728,0.4409695,-0.15348245,0.519499,0.49739047,-0.16165247,0.552552,0.49614225,-0.11855458,0.545408,0.5009275,-0.09660041,0.541837,0.50548006,-0.082056897,0.538589,0.52510307,-0.17129129,0.559335,0.52350238,-0.12314062,0.548262,0.5263685,-0.095348047,0.541802,0.53121342,-0.078513104,0.537188,0.54718787,-0.18250239,0.565107,0.54761665,-0.13470508,0.553911,0.54858077,-0.10925445,0.548183,0.55203758,-0.088331667,0.542975,0.57201098,-0.20290972,0.572329,0.5746796,-0.16056137,0.564041,0.57695165,-0.14124558,0.560233,0.582409,-0.12605477,0.556873
0.50651851,-0.25970206,0.564226,0.51439808,-0.21591746,0.561931,0.48521174,-0.2389744,0.558132,0.46911378,-0.20531866,0.546469,0.44778031,-0.17278589,0.526243,0.44108778,-0.15303946,0.519293,0.49755633,-0.16170066,0.552762,0.49684665,-0.11898379,0.546012,0.50181892,-0.097370758,0.542637,0.50680131,-0.082600331,0.539569,0.52523282,-0.17138887,0.5595,0.52375948,-0.12327827,0.548537,0.52671639,-0.095490416,0.542143,0.5315129,-0.078474996,0.537575,0.54727715,-0.18263262,0.565219,0.54827363,-0.13488739,0.554227,0.54932247,-0.10957735,0.548603,0.55240334,-0.08843439,0.543491,0.57204253,-0.20296107,0.572356,0.57512796,-0.16079179,0.564394,0.57765533,-0.14152806,0.560736,0.58323479,-0.12631202,0.557508
0.50783725,-0.25952459,0.566367,0.51730189,-0.21792736,0.562884,0.48766129,-0.2399039,0.559977,0.46970763,-0.2080201,0.546049,0.44711383,-0.17502871,0.526066,0.43841998,-0.15535783,0.517662,0.49733496,-0.16257122,0.552494,0.49407182,-0.11968888,0.543376,0.49537377,-0.10080727,0.538818,0.50067009,-0.083077679,0.534674,0.52522486,-0.17207966,0.559195,0.52378916,-0.12383278,0.547944,0.52673338,-0.095340899,0.541381,0.53076795,-0.079098105,0.536693,0.54734944,-0.18338832,0.564977,0.5455386,-0.13477138,0.552261,0.54473796,-0.10954689,0.545755,0.5469238,-0.089753991,0.53984,0.57352957,-0.20303183,0.572359,0.57643238,-0.16120854,0.565712,0.57933429,-0.14203178,0.562658,0.5850811,-0.1255279,0.559964
0.50941378,-0.25985613,0.568102,0.51764968,-0.21750217,0.563905,0.48908331,-0.24015266,0.561458,0.4694194,-0.20795824,0.545728,0.44565311,-0.17679669,0.526096,0.43754751,-0.15615367,0.51922,0.49761418,-0.16280932,0.552686,0.49410527,-0.12005813,0.543918,0.49518332,-0.10154726,0.539534,0.49881084,-0.085041521,0.535548,0.52547584,-0.17236499,0.55946,0.52434811,-0.12408073,0.548302,0.52727892,-0.095625747,0.541793,0.53148868,-0.079335364,0.537144,0.54767275,-0.18370266,0.565355,0.54466042,-0.13481824,0.55154,0.54135302,-0.11016554,0.544472,0.54352971,-0.089544534,0.538047,0.5730414,-0.20343007,0.572976,0.57600007,-0.16121875,0.565459,0.57840811,-0.14232364,0.562005,0.58313935,-0.12593976,0.558957
0.51248336,-0.26055454,0.570063,0.52048305,-0.21834292,0.565917,0.49323464,-0.24208473,0.564373,0.47193763,-0.20878269,0.548799,0.44764649,-0.17882137,0.530217,0.43550188,-0.15977197,0.525687,0.49289441,-0.17301467,0.55591,0.48911612,-0.13047258,0.543185,0.48734264,-0.10860938,0.536823,0.48914251,-0.086384494,0.531039,0.52441589,-0.17646673,0.561525,0.5215802,-0.12768054,0.548618,0.52086126,-0.10272847,0.541089,0.52337537,-0.082412836,0.535712,0.54819028,-0.18400464,0.566463,0.54600314,-0.13529716,0.553622,0.54318843,-0.11184186,0.547053,0.54603425,-0.090081486,0.541081,0.57299569,-0.20229184,0.572937,0.57751125,-0.16057821,0.566961,0.58034649,-0.14116848,0.564215,0.58357427,-0.12347831,0.561792
0.51324799,-0.2609177,0.56822,0.52017883,-0.22974659,0.5664,0.49326695,-0.2429257,0.561758,0.46382732,-0.21897439,0.545868,0.43814816,-0.18825736,0.528602,0.42767131,-0.16817404,0.523059,0.48875914,-0.18254651,0.55712,0.48574024,-0.13858785,0.546118,0.48466157,-0.11641137,0.540616,0.48683999,-0.092562292,0.535615,0.51770734,-0.18976148,0.564471,0.51776505,-0.14175452,0.553866,0.51895643,-0.11373324,0.54768,0.51998438,-0.093355755,0.543261,0.54195112,-0.19858262,0.57066,0.53658699,-0.1499324,0.559049,0.5373152,-0.12649564,0.553109,0.53812252,-0.10469587,0.547709,0.57164527,-0.2146752,0.578285,0.56362688,-0.16946353,0.566086,0.56414579,-0.15111499,0.560481,0.56472323,-0.13460008,0.555536
0.5234721,-0.27081625,0.584731,0.51891442,-0.24046887,0.578198,0.4929651,-0.26514586,0.575988,0.46989786,-0.23523379,0.556785,0.44095735,-0.20559598,0.534221,0.42973491,-0.18535366,0.52659,0.49444939,-0.18448855,0.562705,0.48337902,-0.1380258,0.546134,0.47980591,-0.11557643,0.537849,0.47658792,-0.094998138,0.530316,0.52364547,-0.19292088,0.571278,0.52171363,-0.14345299,0.556035,0.52885592,-0.12016538,0.547143,0.53344518,-0.10333655,0.540792,0.54792162,-0.2030878,0.578834,0.52550285,-0.15502034,0.561032,0.52890491,-0.14512655,0.551923,0.53172318,-0.15059789,0.543643,0.57269207,-0.2241431,0.588769,0.56470724,-0.17995632,0.571478,0.56107388,-0.15950167,0.563533,0.56181501,-0.13813449,0.556524
0.50720794,-0.28933116,0.576928,0.50753888,-0.25405554,0.573439,0.48297317,-0.27922894,0.569642,0.45438292,-0.2447122,0.552546,0.43064421,-0.21519607,0.537331,0.42141435,-0.1945079,0.530756,0.47949353,-0.20100878,0.561939,0.4704305,-0.15548707,0.549785,0.47178426,-0.138159,0.543709,0.47329221,-0.12202396,0.538184,0.50843427,-0.20873257,0.569743,0.50640734,-0.15976623,0.557374,0.50660956,-0.13157736,0.550159,0.50683926,-0.11111143,0.545005,0.5323397,-0.21838108,0.576433,0.52972703,-0.16962666,0.564584,0.53254542,-0.14598898,0.558521,0.53004877,-0.12265615,0.55301,0.56092262,-0.23615703,0.584896,0.55800528,-0.19140251,0.573064,0.55665418,-0.17088714,0.567627,0.55569653,-0.15285318,0.56283
0.50303646,-0.30189149,0.583542,0.49873708,-0.25885638,0.577438,0.48027062,-0.28299039,0.575784,0.4501883,-0.25348437,0.560619,0.42613804,-0.2248366,0.542443,0.41624735,-0.20466579,0.536242,0.47566793,-0.20414964,0.563468,0.46458581,-0.15849783,0.551334,0.46457347,-0.13930467,0.545267,0.46471045,-0.12135075,0.539752,0.50378844,-0.2124659,0.570973,0.49732298,-0.16183321,0.555916,0.49913268,-0.13678031,0.547134,0.50128194,-0.11982806,0.54086,0.52658871,-0.22269435,0.577616,0.5194623,-0.1729797,0.561948,0.51581661,-0.14754322,0.553932,0.5136417,-0.12486832,0.546645,0.55302659,-0.24124462,0.586404,0.54698623,-0.19684587,0.570367,0.54423787,-0.17633176,0.562998,0.54240199,-0.1585839,0.556497
0.49512356,-0.3087052,0.586972,0.49507736,-0.26814893,0.581093,0.47215912,-0.28900274,0.577394,0.44037826,-0.25897159,0.557704,0.41592432,-0.22992757,0.541495,0.40632838,-0.2088452,0.532817,0.46826094,-0.21198155,0.565043,0.44986738,-0.16696357,0.552032,0.45141491,-0.14982518,0.545526,0.45304042,-0.13375964,0.539611,0.49687479,-0.22095799,0.574866,0.4881725,-0.17039013,0.560182,0.49286256,-0.14698058,0.551616,0.49659293,-0.12999526,0.545497,0.52029675,-0.23174632,0.583401,0.50944228,-0.1816959,0.566124,0.50538408,-0.15665772,0.557285,0.50172271,-0.13373389,0.549249,0.54796534,-0.25102912,0.594404,0.54254306,-0.20581482,0.57888,0.54004816,-0.18505908,0.571748,0.53784347,-0.1667548,0.565454
0.4933657,-0.31211822,0.586452,0.49221233,-0.27071508,0.579934,0.46804394,-0.29649132,0.576334,0.43381172,-0.26668457,0.557631,0.40828841,-0.23957495,0.543972,0.39815232,-0.21874337,0.534628,0.46056825,-0.2176859,0.562757,0.43788609,-0.17335236,0.549188,0.43916943,-0.15892699,0.542403,0.4405837,-0.14535894,0.536235,0.48984397,-0.226186,0.57303,0.48104714,-0.17513603,0.557475,0.48467683,-0.15185289,0.548401,0.48752473,-0.13476586,0.541919,0.51402526,-0.23662237,0.581983,0.50067538,-0.18632305,0.563661,0.49687516,-0.16216537,0.554287,0.49423946,-0.14050184,0.545766,0.54298068,-0.25558231,0.593578,0.53266197,-0.20941057,0.576244,0.52790828,-0.18828706,0.56828,0.52890259,-0.17456325,0.561252
0.4876513,-0.318284,0.583897,0.48322534,-0.27948719,0.578078,0.46374257,-0.29856893,0.573868,0.42749541,-0.27148146,0.555639,0.40277222,-0.24390697,0.542371,0.39574394,-0.22088474,0.534237,0.45294776,-0.22356418,0.561514,0.43443329,-0.17925158,0.549614,0.43646072,-0.16481584,0.543663,0.44040113,-0.14856165,0.538254,0.48266564,-0.23217079,0.571914,0.47357236,-0.18152951,0.557558,0.47670225,-0.15767071,0.549184,0.47916449,-0.14016006,0.543202,0.50726658,-0.2426809,0.580918,0.49285611,-0.19205898,0.563181,0.49056048,-0.16943078,0.554106,0.49287266,-0.15532813,0.545856,0.53679897,-0.26172001,0.592472,0.52783768,-0.21524348,0.577389,0.5237052,-0.1941478,0.570459,0.52875241,-0.17811024,0.564345
0.48508872,-0.31884453,0.580918,0.4802522,-0.27978728,0.576511,0.46116655,-0.30478756,0.574428,0.42865253,-0.27416617,0.557959,0.40318327,-0.24573502,0.543906,0.39309024,-0.2265753,0.538566,0.44310862,-0.23203906,0.565331,0.43820924,-0.18737372,0.553162,0.43772478,-0.16774887,0.547078,0.43790011,-0.15257396,0.541547,0.47204815,-0.23538398,0.571844,0.46571029,-0.18581297,0.558598,0.46298684,-0.15900897,0.550872,0.46110911,-0.13942036,0.545353,0.49669723,-0.24140525,0.577541,0.49350535,-0.19244137,0.564826,0.49295247,-0.16978345,0.558321,0.49087124,-0.1477928,0.552407,0.52751966,-0.25491162,0.584956,0.52417322,-0.21182024,0.573798,0.52205222,-0.19135263,0.568672,0.52379687,-0.17982539,0.564148
0.48262603,-0.32981422,0.585193,0.47149692,-0.29023507,0.57985,0.45709988,-0.31175608,0.576475,0.41992635,-0.28532063,0.559957,0.39540245,-0.25689686,0.543432,0.3838764,-0.23704953,0.537399,0.43850116,-0.23678409,0.565247,0.42432812,-0.19060316,0.549728,0.42248428,-0.17343356,0.541969,0.42093235,-0.15738647,0.534914,0.46790065,-0.24327593,0.57419,0.45882527,-0.19292882,0.55986,0.45859687,-0.16805918,0.551501,0.45857916,-0.14981132,0.54553,0.49250114,-0.25201373,0.581959,0.48740117,-0.20410757,0.567184,0.48493309,-0.1793737,0.559624,0.48272461,-0.15669456,0.552751,0.52251825,-0.2689004,0.591975,0.51579415,-0.2229175,0.577675,0.51838968,-0.21200716,0.571105,0.5209377,-0.20212531,0.565308
0.48209662,-0.33267923,0.586385,0.47243033,-0.29203408,0.580577,0.45510501,-0.31741153,0.57822,0.42097693,-0.28784696,0.561409,0.39569795,-0.2592149,0.544233,0.38371718,-0.23980751,0.538728,0.43910506,-0.23892108,0.56632,0.42516661,-0.1924189,0.551082,0.42400189,-0.17607048,0.543464,0.42309167,-0.16077519,0.536538,0.46787422,-0.2448475,0.574426,0.45852549,-0.19442648,0.559646,0.45828487,-0.17001597,0.551024,0.45826843,-0.15209368,0.544866,0.49198121,-0.25312267,0.581542,0.48551738,-0.20555539,0.566004,0.48188333,-0.18377491,0.558054,0.48024939,-0.15900837,0.550827,0.52150211,-0.26945507,0.590848,0.51706107,-0.22684376,0.576028,0.51674248,-0.21007876,0.569219,0.51667832,-0.19271022,0.563211
0.48284123,-0.3356212,0.58897,0.47292418,-0.29336638,0.581742,0.45595507,-0.3200057,0.580915,0.41970713,-0.29052379,0.562266,0.39370563,-0.26219832,0.544686,0.38087114,-0.24297583,0.539073,0.43886921,-0.23976222,0.566595,0.4247197,-0.1929193,0.550393,0.42341155,-0.17706114,0.542293,0.42333847,-0.16555792,0.534928,0.46718524,-0.24558818,0.574086,0.45696524,-0.19480046,0.557879,0.45663594,-0.17357436,0.548426,0.45667297,-0.15702124,0.541673,0.49099001,-0.25380812,0.580805,0.48284507,-0.20823705,0.563582,0.48130689,-0.18842266,0.554771,0.48049321,-0.16964715,0.54676,0.52032942,-0.27013667,0.589846,0.51513697,-0.22795606,0.573677,0.5143917,-0.2116476,0.566249,0.51533411,-0.19966761,0.559694
0.48209463,-0.33707165,0.589409,0.4722782,-0.29413456,0.581877,0.45311227,-0.3232833,0.581624,0.41694495,-0.29262262,0.563193,0.38946839,-0.26459205,0.545025,0.37532588,-0.24519192,0.538417,0.43737674,-0.24182698,0.566842,0.42471114,-0.19410158,0.550906,0.42338487,-0.17963721,0.542938,0.42290852,-0.16675813,0.535695,0.46550918,-0.24737457,0.573898,0.45513949,-0.19676808,0.557406,0.45042605,-0.17495337,0.547786,0.4537183,-0.15708879,0.540914,0.48923397,-0.25535498,0.580283,0.48173749,-0.2117939,0.562994,0.47928401,-0.18978643,0.554149,0.47751802,-0.1699568,0.546107,0.51862273,-0.27139153,0.588969,0.51390939,-0.22759602,0.573396,0.51371978,-0.21051523,0.56624,0.51460988,-0.20024567,0.559927
0.48230079,-0.33862728,0.590604,0.4720447,-0.29470291,0.582175,0.45360564,-0.32442133,0.582849,0.41701318,-0.29368703,0.564281,0.38738237,-0.26683376,0.546327,0.37254427,-0.24773191,0.539815,0.43632856,-0.24209833,0.566532,0.42320106,-0.19526257,0.549896,0.4211265,-0.18060319,0.541578,0.42032512,-0.16930003,0.534016,0.46428986,-0.24741031,0.573248,0.45217516,-0.19722987,0.555866,0.44831447,-0.17533887,0.545726,0.44693024,-0.15946057,0.538484,0.48794721,-0.25521891,0.579422,0.47882046,-0.21299397,0.561256,0.47511103,-0.19032651,0.551962,0.473773,-0.16909008,0.543513,0.51740985,-0.27110135,0.587987,0.51118517,-0.22635346,0.57101,0.51010289,-0.21174557,0.56321,0.50833653,-0.21129095,0.556328
0.48000428,-0.34423425,0.592433,0.47172464,-0.29815202,0.583812,0.45394354,-0.32602437,0.58381,0.41552923,-0.29598584,0.564315,0.38736817,-0.26837194,0.546883,0.37269227,-0.24899704,0.540073,0.43351608,-0.24619052,0.56696,0.41910328,-0.2032667,0.54936,0.41728484,-0.18371539,0.540559,0.41689129,-0.17144289,0.532559,0.46149382,-0.25469336,0.574681,0.45181337,-0.20509222,0.557046,0.45086984,-0.18457363,0.546758,0.4489824,-0.16587107,0.53941,0.48592281,-0.26287526,0.581696,0.47956782,-0.22191532,0.56279,0.47650107,-0.20032447,0.553117,0.47383543,-0.18027845,0.544324,0.51662564,-0.27915898,0.59129,0.50953754,-0.23452195,0.57384,0.50951857,-0.21541002,0.565822,0.50987644,-0.2063556,0.558747
