sluyters/QuantumLeap/backend/src/datasets/gesture/HandGestureDataset_SHREC2017_csv/Gesture13/finger_2/subject_16_essai_2_skeletons_world.csv
Wrist_x,Wrist_y,Wrist_z,Palm_x,Palm_y,Palm_z,thumb_base_x,thumb_base_y,thumb_base_z,thumb_first_joint_x,thumb_first_joint_y,thumb_first_joint_z,thumb_second_joint_x,thumb_second_joint_y,thumb_second_joint_z,thumb_tip_x,thumb_tip_y,thumb_tip_z,index_base_x,index_base_y,index_base_z,index_first_joint_x,index_first_joint_y,index_first_joint_z,index_second_joint_x,index_second_joint_y,index_second_joint_z,index_tip_x,index_tip_y,index_tip_z,middle_base_x,middle_base_y,middle_base_z,middle_first_joint_x,middle_first_joint_y,middle_first_joint_z,middle_second_joint_x,middle_second_joint_y,middle_second_joint_z,middle_tip_x,middle_tip_y,middle_tip_z,ring_base_x,ring_base_y,ring_base_z,ring_first_joint_x,ring_first_joint_y,ring_first_joint_z,ring_second_joint_x,ring_second_joint_y,ring_second_joint_z,ring_tip_x,ring_tip_y,ring_tip_z,pinky_base_x,pinky_base_y,pinky_base_z,pinky_first_joint_x,pinky_first_joint_y,pinky_first_joint_z,pinky_second_joint_x,pinky_second_joint_y,pinky_second_joint_z,pinky_tip_x,pinky_tip_y,pinky_tip_z,
0.49624629,-0.34063409,0.664981,0.48514122,-0.29294978,0.654436,0.49167092,-0.33612226,0.67769,0.4798155,-0.31083696,0.688898,0.46618591,-0.28580321,0.696049,0.46056366,-0.26417951,0.696465,0.47274106,-0.25615315,0.66383,0.44232335,-0.22062676,0.656764,0.42394237,-0.22240511,0.653231,0.40679844,-0.22410207,0.650019,0.47451626,-0.24690162,0.644393,0.43037665,-0.21699478,0.629999,0.40427019,-0.19925951,0.621793,0.38540346,-0.18642625,0.615969,0.47703636,-0.24331585,0.629523,0.43596997,-0.2278506,0.621045,0.41426202,-0.2196929,0.616708,0.39411545,-0.21213753,0.612813,0.48225707,-0.2465506,0.614246,0.4405565,-0.25599483,0.606881,0.45554458,-0.27851275,0.616401,0.47512075,-0.29270617,0.623755
0.49625226,-0.34063819,0.664989,0.4848385,-0.29298136,0.654452,0.49166291,-0.33626686,0.677792,0.47958429,-0.31112405,0.689013,0.46551602,-0.28607863,0.695831,0.45999717,-0.26477088,0.696372,0.47221869,-0.2563644,0.663973,0.44392289,-0.21995856,0.657597,0.4253401,-0.22048686,0.654409,0.40799192,-0.22101134,0.651511,0.47391513,-0.24695886,0.644417,0.42958065,-0.21726825,0.629981,0.40335174,-0.19966013,0.621738,0.38439551,-0.18691945,0.615884,0.47639079,-0.24324432,0.629448,0.43519756,-0.22799398,0.620897,0.41342534,-0.21995168,0.616521,0.39322104,-0.21250492,0.61259,0.48160076,-0.24632043,0.614055,0.44008228,-0.25604948,0.606786,0.45512393,-0.27846365,0.616203,0.47481799,-0.29258493,0.623617
0.50229487,-0.34500708,0.672334,0.49106931,-0.29797765,0.663469,0.49620564,-0.34067014,0.684268,0.48458723,-0.31611427,0.696488,0.46890905,-0.29267629,0.703382,0.46448802,-0.27034149,0.704689,0.4727279,-0.26546393,0.672993,0.44431833,-0.2289511,0.666332,0.42691158,-0.22821182,0.663001,0.41239021,-0.22511722,0.659974,0.47749311,-0.2550383,0.655025,0.43574197,-0.2225647,0.640122,0.40965172,-0.20501077,0.632053,0.39077814,-0.19229394,0.626348,0.48259355,-0.25037525,0.641184,0.44358981,-0.23586376,0.632214,0.42154817,-0.22535103,0.627625,0.40188593,-0.21817624,0.624317,0.49108685,-0.25210389,0.626786,0.4536014,-0.26293391,0.619663,0.47125294,-0.28553826,0.630686,0.48771571,-0.29928925,0.6382
0.48351051,-0.32876129,0.674149,0.47444934,-0.28071131,0.662776,0.47716045,-0.32357395,0.684895,0.46433848,-0.29512411,0.694735,0.4511144,-0.26899252,0.699943,0.44615526,-0.24642606,0.700537,0.46127247,-0.24339577,0.669051,0.42324495,-0.21811505,0.657831,0.4073523,-0.20697,0.658025,0.39235682,-0.19645482,0.658202,0.46581605,-0.23476357,0.651945,0.42207941,-0.20453255,0.636352,0.39496346,-0.19045663,0.627256,0.37498317,-0.18226621,0.620759,0.47051243,-0.23166306,0.639084,0.43123702,-0.23209931,0.630281,0.41036472,-0.2324089,0.625778,0.39094109,-0.23277537,0.621764,0.47808303,-0.23544832,0.626294,0.43402656,-0.23373409,0.616689,0.44798414,-0.25688883,0.627774,0.46353292,-0.27542025,0.635453
0.48059056,-0.32725718,0.673159,0.47202365,-0.27970879,0.662639,0.47475756,-0.32244591,0.684373,0.4627694,-0.29448598,0.695027,0.45133766,-0.26987295,0.701239,0.4467865,-0.24748971,0.701743,0.45980973,-0.24310144,0.670103,0.4216888,-0.2180496,0.659363,0.40470015,-0.20737589,0.662578,0.39378601,-0.19818302,0.665501,0.46385818,-0.23416138,0.65262,0.41758106,-0.20364789,0.638105,0.39036423,-0.18988019,0.629638,0.37348651,-0.18249723,0.623591,0.46808156,-0.23076823,0.639357,0.42625925,-0.23069416,0.631747,0.40539113,-0.23125222,0.627854,0.38925436,-0.23279487,0.624379,0.47214682,-0.23294841,0.625939,0.42812165,-0.23171206,0.617227,0.44197522,-0.25464975,0.628248,0.46048794,-0.2741811,0.635588
0.48163449,-0.32558559,0.673428,0.46760195,-0.2772402,0.662782,0.47520868,-0.32166778,0.684909,0.45707094,-0.29173974,0.687034,0.44642659,-0.27046152,0.69627,0.43840536,-0.24737504,0.691126,0.44430698,-0.24242995,0.670508,0.40910848,-0.20863091,0.658058,0.39586857,-0.19373206,0.659465,0.38340493,-0.17972269,0.660745,0.44820635,-0.23097791,0.652644,0.40312993,-0.20098119,0.638195,0.37558302,-0.18583542,0.629767,0.3553583,-0.17621408,0.623747,0.45304507,-0.22545959,0.63908,0.41525167,-0.22998575,0.629926,0.39517058,-0.23249523,0.62526,0.38088222,-0.23318321,0.622205,0.46201861,-0.22616185,0.625338,0.4213282,-0.23439206,0.616783,0.4406023,-0.25483598,0.627514,0.45866968,-0.27334326,0.634686
0.48331487,-0.32722381,0.674906,0.46178125,-0.28417876,0.662986,0.47321527,-0.32294537,0.683185,0.45575139,-0.30441427,0.688298,0.44600672,-0.28293033,0.695423,0.44000535,-0.26061047,0.692158,0.4292816,-0.25342491,0.665676,0.39601893,-0.21507934,0.649828,0.38680614,-0.19967499,0.654575,0.38015387,-0.18211704,0.658891,0.43944194,-0.24040863,0.651634,0.39666777,-0.20856796,0.634099,0.37505041,-0.19156327,0.630324,0.35833322,-0.17815845,0.627627,0.44982458,-0.23354779,0.641355,0.41806457,-0.23347648,0.626549,0.40123193,-0.23358526,0.618974,0.38630766,-0.23211172,0.613851,0.46639558,-0.23047675,0.631665,0.43282818,-0.23511437,0.619822,0.45294747,-0.25852835,0.632473,0.47107876,-0.2766144,0.641547
0.48390439,-0.32810685,0.675209,0.46163773,-0.28474625,0.663147,0.47290031,-0.32451574,0.683397,0.45551689,-0.30521611,0.688456,0.44530016,-0.28384317,0.695434,0.43896298,-0.26153935,0.692052,0.42889013,-0.25405231,0.665622,0.39521534,-0.21586012,0.649673,0.38594951,-0.20064482,0.654652,0.37705268,-0.18616291,0.659179,0.43896212,-0.24095668,0.65166,0.39565077,-0.20932475,0.633908,0.374136,-0.19268592,0.630708,0.35816702,-0.1794315,0.628423,0.44931611,-0.23402975,0.641462,0.41696182,-0.23517949,0.625792,0.39986255,-0.23594318,0.617775,0.38400463,-0.23678118,0.61056,0.46603884,-0.23144526,0.631892,0.43151023,-0.23839607,0.619898,0.45300677,-0.25885631,0.632555,0.47173879,-0.2765409,0.641685
0.46479851,-0.31296892,0.657826,0.43488904,-0.26082017,0.648547,0.43821238,-0.30354789,0.663689,0.42999473,-0.27656058,0.674456,0.41323622,-0.25151761,0.681778,0.40475071,-0.22885934,0.681547,0.40268503,-0.22989206,0.649884,0.37115132,-0.19217446,0.635271,0.36279386,-0.17676336,0.641362,0.35464574,-0.1619564,0.646899,0.41623313,-0.21836133,0.63971,0.37773262,-0.17829204,0.623594,0.36307119,-0.1581672,0.628,0.35202756,-0.14308714,0.631148,0.42915322,-0.21254235,0.632332,0.40144225,-0.21538204,0.621059,0.3866001,-0.21705422,0.615291,0.37273093,-0.21875625,0.61015,0.44788996,-0.21242655,0.625512,0.41527091,-0.21823695,0.613761,0.43592192,-0.24135487,0.628318,0.4523403,-0.26111231,0.638098
0.45747615,-0.30782929,0.651237,0.4309787,-0.25848731,0.643511,0.43503212,-0.30134078,0.658737,0.42531595,-0.27425128,0.669327,0.41012811,-0.24975457,0.67858,0.40188542,-0.22690632,0.678176,0.40162565,-0.22971009,0.648035,0.36990101,-0.19276915,0.635171,0.36114668,-0.17763621,0.641692,0.35262348,-0.16310926,0.64762,0.41328037,-0.21704382,0.636154,0.37497971,-0.17807943,0.62227,0.36026811,-0.15855974,0.627824,0.34916643,-0.1439235,0.631791,0.42449466,-0.21020163,0.627203,0.393039,-0.2126564,0.618184,0.37705354,-0.21462441,0.614098,0.36203872,-0.21660496,0.610522,0.44098381,-0.2086995,0.618265,0.40440264,-0.21369017,0.608563,0.42514562,-0.23629278,0.622821,0.44462533,-0.2569951,0.631764
0.44080876,-0.29910305,0.644605,0.42228335,-0.25460023,0.634271,0.42603684,-0.29760121,0.650962,0.40927884,-0.26541429,0.661601,0.40044023,-0.23553668,0.668999,0.39659351,-0.21174191,0.669148,0.39515792,-0.22493144,0.635535,0.36158015,-0.19586435,0.618982,0.35606367,-0.18783555,0.632609,0.34991045,-0.17949433,0.644997,0.40705262,-0.21307512,0.624429,0.36943508,-0.18274609,0.607167,0.35501718,-0.16884253,0.613405,0.34373007,-0.15805503,0.61786,0.42074744,-0.20779368,0.616398,0.38716856,-0.19951129,0.603934,0.36931443,-0.19521013,0.597761,0.35261546,-0.19125068,0.592268,0.43698791,-0.20794345,0.609017,0.39749801,-0.20628603,0.596883,0.41376758,-0.22673881,0.610979,0.43079539,-0.24920108,0.620715
0.44567074,-0.30460699,0.649644,0.43928096,-0.26749542,0.63628,0.43332718,-0.30254832,0.653315,0.42426607,-0.2786611,0.658645,0.40998431,-0.24963455,0.66255,0.40443915,-0.2284908,0.664738,0.41751464,-0.23432414,0.631989,0.38004804,-0.22497074,0.616478,0.37653639,-0.22986424,0.635389,0.3851988,-0.25068802,0.65258,0.4291183,-0.22450275,0.623553,0.38238232,-0.20177891,0.602583,0.37620743,-0.19975478,0.6264,0.36992993,-0.19743208,0.643412,0.44008458,-0.22003495,0.618046,0.39816837,-0.211561,0.60213,0.37526768,-0.2087013,0.594959,0.35813111,-0.20738978,0.588441,0.45578039,-0.22160478,0.614166,0.40705945,-0.2165003,0.598455,0.41649926,-0.24194979,0.612714,0.42378344,-0.26460318,0.623773
0.43304611,-0.30849682,0.619208,0.43325077,-0.27962951,0.617245,0.42375906,-0.31637912,0.622891,0.41758699,-0.28789713,0.636648,0.40882872,-0.26184,0.647903,0.41412937,-0.24737502,0.657622,0.41510007,-0.25523304,0.620709,0.38500923,-0.24390012,0.614052,0.38403768,-0.24757549,0.635449,0.39483771,-0.26740797,0.654901,0.42947034,-0.2444509,0.615375,0.39193506,-0.22077562,0.605914,0.38902319,-0.21748812,0.633011,0.38505292,-0.21392274,0.652366,0.44201307,-0.23839056,0.611194,0.40796814,-0.22783832,0.604324,0.3899474,-0.22239233,0.601406,0.37298956,-0.21731705,0.598915,0.45825325,-0.23663572,0.606711,0.41642932,-0.22997375,0.598809,0.42779553,-0.25592475,0.615206,0.43411711,-0.27759686,0.624345
0.43255316,-0.32023392,0.609829,0.43436008,-0.28915277,0.608858,0.42047854,-0.31881226,0.614843,0.4195441,-0.29727847,0.629604,0.41108489,-0.2694162,0.637897,0.41193521,-0.25019088,0.645777,0.42080393,-0.26331808,0.614728,0.39030268,-0.24689404,0.610441,0.38853088,-0.2473593,0.631662,0.38847037,-0.26174881,0.641831,0.43425994,-0.25343047,0.607933,0.39812104,-0.22949062,0.599936,0.39581721,-0.22613738,0.626738,0.39232275,-0.22249003,0.645883,0.44569288,-0.24818966,0.602442,0.41240022,-0.23773236,0.597274,0.39465263,-0.23228237,0.595133,0.37790827,-0.22718689,0.593342,0.45997672,-0.24756207,0.596251,0.41865752,-0.24019755,0.589753,0.42862015,-0.26665429,0.606013,0.43326224,-0.28843632,0.614604
0.46103964,-0.35047262,0.597591,0.44912232,-0.30768845,0.594639,0.45285268,-0.35081462,0.608834,0.44701901,-0.32934883,0.625649,0.42982019,-0.3162004,0.633638,0.42595171,-0.30906215,0.638287,0.43217853,-0.28091956,0.607278,0.39638829,-0.25545195,0.597174,0.3818713,-0.24484022,0.598213,0.37618648,-0.23993121,0.612361,0.43775947,-0.2668876,0.591827,0.39864206,-0.24108508,0.583217,0.39224525,-0.2358441,0.604956,0.38601147,-0.23098638,0.620483,0.44339683,-0.25881817,0.579422,0.40838909,-0.24350613,0.574791,0.38986262,-0.24014941,0.572421,0.37244275,-0.23772356,0.570267,0.45229058,-0.25578617,0.565578,0.41478652,-0.2497507,0.561618,0.41922527,-0.2755938,0.574967,0.42088885,-0.29675205,0.581537
0.46349253,-0.36104177,0.600761,0.45416192,-0.32095865,0.590718,0.4537093,-0.35750302,0.608913,0.44776088,-0.33938421,0.619791,0.43741556,-0.31349485,0.625409,0.43284072,-0.2912987,0.626773,0.43778052,-0.28365905,0.594518,0.40063585,-0.26083017,0.58091,0.3924017,-0.25618993,0.590394,0.38896248,-0.25467603,0.606968,0.44528576,-0.27489724,0.581154,0.40114943,-0.25001533,0.565333,0.39581732,-0.24836461,0.587358,0.39025033,-0.24622997,0.603091,0.45258146,-0.27168792,0.571231,0.41357031,-0.25244502,0.561245,0.39489005,-0.24349054,0.558906,0.3773198,-0.23507603,0.55678,0.46347027,-0.27544633,0.561601,0.41833719,-0.27511074,0.550839,0.43074018,-0.30171665,0.564153,0.43960737,-0.3242138,0.573103
0.48030807,-0.38749101,0.600026,0.46511276,-0.33715337,0.587739,0.46583588,-0.38020112,0.604821,0.45895598,-0.35749494,0.613412,0.44698155,-0.33243511,0.615687,0.4406985,-0.3105943,0.616768,0.43808493,-0.29663384,0.585642,0.40231634,-0.27587705,0.568334,0.39639788,-0.27383947,0.577778,0.39637885,-0.27589197,0.59595,0.4506824,-0.28954081,0.576037,0.40809492,-0.26709989,0.556549,0.40714782,-0.26998725,0.580171,0.4047003,-0.27123052,0.597044,0.46277701,-0.28788071,0.569451,0.42474518,-0.27070967,0.555166,0.40623705,-0.26270891,0.549996,0.38889542,-0.25524141,0.545297,0.48036624,-0.2937813,0.564117,0.43753881,-0.29601378,0.54976,0.45176375,-0.32311805,0.563939,0.46281826,-0.34639471,0.57449
0.51389207,-0.42672869,0.61934,0.50450774,-0.37413072,0.594768,0.51347232,-0.4116077,0.627028,0.49853087,-0.38716519,0.622636,0.4854543,-0.36357385,0.619409,0.47862813,-0.33826015,0.610591,0.49785095,-0.32120869,0.588096,0.44757758,-0.29785013,0.563487,0.43152915,-0.29231739,0.563002,0.42507424,-0.29309999,0.574331,0.49572569,-0.32353009,0.571365,0.43696233,-0.29560645,0.542783,0.42429915,-0.29419886,0.55393,0.41401448,-0.29276527,0.561893,0.49535887,-0.33020383,0.560236,0.44426437,-0.308402,0.540259,0.41885728,-0.29777446,0.530984,0.3956953,-0.28809361,0.522552,0.49750665,-0.34701061,0.551937,0.43835585,-0.33695717,0.532993,0.44208186,-0.35525371,0.539532,0.44819598,-0.37353695,0.548734
0.51864975,-0.42675832,0.619383,0.51393348,-0.37421249,0.594898,0.51790636,-0.41139895,0.62671,0.50776662,-0.38679148,0.622035,0.49488649,-0.36314478,0.618678,0.4879762,-0.33778372,0.609731,0.50677711,-0.32105576,0.587816,0.45679952,-0.29789294,0.563568,0.44261256,-0.293469,0.56522,0.43731452,-0.29479481,0.577652,0.50510796,-0.32365126,0.571579,0.4460552,-0.29559502,0.542762,0.43447862,-0.29463437,0.55475,0.42494184,-0.29350514,0.563313,0.5051449,-0.33056337,0.560846,0.45371813,-0.308547,0.540513,0.42796572,-0.29766959,0.530797,0.40451642,-0.28776943,0.521964,0.50780373,-0.34767264,0.55299,0.44808801,-0.33741552,0.533718,0.45215074,-0.3560603,0.540757,0.45851003,-0.37458254,0.55027
0.52033042,-0.42684582,0.61951,0.51392397,-0.37420557,0.594887,0.51959221,-0.41149479,0.626856,0.50786784,-0.38686858,0.622159,0.49488729,-0.36314537,0.618679,0.4879794,-0.33778594,0.609735,0.50670728,-0.32101152,0.587735,0.45715049,-0.29812182,0.564001,0.44213815,-0.29457601,0.565465,0.43292715,-0.29649953,0.577607,0.50498071,-0.32356973,0.571435,0.44586865,-0.29547139,0.542535,0.43413323,-0.29440015,0.554309,0.42449375,-0.29319565,0.562719,0.50498367,-0.33045786,0.560667,0.45352422,-0.30841513,0.540282,0.42818099,-0.29781932,0.531064,0.40507441,-0.28816638,0.522684,0.50762466,-0.34755004,0.552795,0.44789323,-0.33726885,0.533486,0.45184806,-0.35582195,0.540395,0.45817674,-0.37431025,0.54987
0.52324192,-0.42501185,0.611961,0.52683727,-0.37476911,0.590359,0.52068246,-0.41035938,0.618422,0.51748535,-0.38339386,0.618199,0.50313558,-0.36083936,0.615592,0.49024297,-0.33713797,0.608928,0.51460408,-0.32442102,0.584106,0.47029833,-0.30075367,0.565433,0.46445709,-0.30343235,0.57832,0.45819315,-0.30791931,0.591188,0.51775157,-0.32127034,0.569785,0.4653688,-0.2860611,0.542624,0.45719438,-0.30535204,0.559001,0.46307745,-0.33251167,0.573966,0.5219086,-0.32360281,0.56032,0.47239371,-0.31802319,0.540824,0.44691817,-0.31525001,0.530924,0.42409252,-0.31526974,0.521924,0.5297639,-0.33572162,0.553395,0.47172027,-0.32789656,0.534692,0.44538766,-0.32427198,0.526099,0.42237619,-0.32108812,0.518566
0.5978811,-0.42056635,0.58536,0.55501574,-0.40106758,0.579878,0.59181248,-0.42194029,0.597965,0.57426246,-0.4550188,0.609813,0.56604648,-0.48423386,0.607238,0.54845768,-0.49631145,0.601539,0.51902216,-0.39003206,0.592573,0.51329234,-0.43070121,0.59258,0.54062004,-0.45827478,0.607914,0.5590099,-0.47803149,0.614037,0.51242581,-0.38176005,0.574657,0.49720455,-0.41985932,0.565716,0.52985269,-0.45332426,0.584678,0.55021267,-0.47371085,0.593864,0.51094092,-0.37676525,0.560494,0.50067024,-0.41614253,0.557841,0.52481075,-0.44309343,0.573031,0.54770292,-0.46728892,0.586839,0.51668246,-0.37437627,0.545086,0.46810837,-0.3425356,0.527787,0.44827082,-0.32971437,0.522568,0.43151839,-0.31896385,0.518937
0.6018866,-0.41991722,0.586269,0.56016234,-0.39546773,0.573262,0.59527592,-0.42049092,0.599115,0.57787187,-0.44994422,0.606784,0.57018682,-0.47802577,0.601096,0.55220118,-0.48902781,0.591692,0.52059325,-0.3794298,0.58116,0.50816091,-0.41590896,0.576744,0.52871509,-0.43881161,0.587614,0.54229904,-0.45957342,0.593699,0.51583708,-0.37267723,0.560873,0.4651618,-0.33800316,0.538799,0.44682176,-0.32595653,0.539373,0.44169445,-0.32322703,0.550416,0.51609965,-0.36932679,0.545569,0.4978931,-0.40314489,0.538056,0.51422714,-0.42481008,0.548752,0.52519389,-0.44455657,0.558475,0.52424656,-0.36954672,0.53025,0.47679006,-0.34551528,0.514725,0.45497276,-0.33617962,0.508303,0.43531012,-0.32876968,0.502638
0.60370901,-0.42004128,0.587047,0.56025517,-0.39553327,0.573357,0.59692106,-0.42034916,0.599989,0.57890422,-0.45074803,0.607868,0.5700813,-0.47885533,0.602375,0.55182866,-0.48996241,0.593527,0.52037647,-0.3792718,0.580918,0.50774504,-0.41556859,0.576272,0.52763627,-0.43791623,0.586415,0.54162124,-0.45761972,0.592301,0.51532665,-0.37230845,0.560318,0.46420782,-0.33730996,0.537694,0.44873539,-0.32735253,0.541683,0.43697269,-0.3197717,0.544532,0.51540056,-0.36882652,0.54483,0.49694276,-0.4023754,0.537029,0.51258068,-0.42344992,0.546995,0.52423595,-0.44258148,0.556055,0.5234309,-0.36897175,0.529425,0.47680858,-0.34552871,0.514745,0.45470245,-0.33597989,0.508001,0.43523477,-0.32871278,0.502551
0.60401231,-0.41968049,0.586845,0.56011141,-0.39559324,0.573269,0.59720949,-0.41993315,0.5999,0.5791113,-0.45097005,0.608029,0.56998411,-0.47909204,0.602597,0.55212255,-0.49029097,0.593497,0.52038167,-0.37960514,0.581055,0.50806328,-0.41608262,0.576636,0.5278943,-0.43830286,0.586651,0.54207553,-0.4573863,0.592397,0.51522979,-0.37256394,0.560339,0.46417151,-0.3377853,0.537876,0.44835881,-0.32770145,0.541526,0.43636501,-0.32004239,0.544132,0.51520827,-0.36899688,0.544743,0.4970612,-0.40270077,0.537151,0.51263066,-0.42363768,0.546989,0.52485562,-0.44257527,0.555933,0.52310689,-0.36900529,0.529192,0.47671719,-0.34589301,0.51481,0.45470729,-0.33649269,0.508202,0.43488546,-0.32902814,0.502371
0.60427612,-0.41927398,0.585753,0.56035913,-0.39508469,0.572112,0.59753686,-0.41932818,0.59886,0.57933125,-0.45050542,0.607109,0.56973459,-0.47860837,0.601765,0.55203583,-0.48975824,0.592397,0.52085827,-0.37868314,0.579923,0.50817314,-0.41509369,0.575549,0.52772956,-0.4372867,0.585403,0.54262788,-0.45512622,0.591066,0.51551939,-0.37170776,0.559121,0.46520742,-0.3362769,0.536633,0.45357674,-0.32459997,0.540165,0.4368542,-0.3184766,0.542688,0.51533948,-0.36822479,0.543461,0.49680735,-0.40181437,0.535899,0.51210253,-0.42267754,0.545575,0.52608019,-0.44150706,0.554371,0.52304705,-0.36838933,0.527848,0.47698658,-0.34513987,0.513716,0.45510836,-0.33566692,0.507223,0.43538983,-0.32813294,0.501493
0.60433582,-0.41892264,0.584913,0.56045513,-0.39474241,0.571364,0.59765953,-0.41885791,0.598071,0.57934517,-0.4501347,0.606433,0.56954634,-0.47828574,0.601225,0.55194667,-0.48940554,0.591697,0.52119837,-0.3781692,0.579304,0.50837613,-0.41461226,0.575052,0.52783597,-0.4368472,0.584882,0.54260785,-0.45469627,0.590486,0.51575742,-0.37124042,0.55846,0.46568873,-0.33574606,0.53608,0.45308383,-0.32424723,0.539578,0.43735265,-0.31768731,0.542077,0.51547891,-0.36780502,0.542756,0.49680711,-0.40140567,0.535312,0.51200725,-0.42228457,0.544963,0.52589864,-0.44112758,0.553736,0.52304402,-0.36804302,0.527075,0.47709199,-0.34464733,0.512999,0.45525617,-0.33510291,0.506532,0.43557012,-0.32750343,0.500825
0.62211108,-0.43115338,0.600894,0.58791957,-0.39671791,0.579817,0.61331159,-0.42902886,0.612273,0.59015717,-0.44575629,0.61745,0.56430915,-0.43646467,0.623701,0.54690247,-0.41954571,0.622088,0.55065899,-0.36371448,0.580326,0.51917507,-0.39194651,0.570071,0.52509409,-0.41166988,0.575428,0.54340695,-0.41626561,0.581614,0.54745319,-0.35856214,0.559743,0.5034164,-0.3824394,0.537296,0.49599216,-0.40959137,0.543416,0.51208936,-0.43157395,0.553457,0.54880328,-0.35794187,0.545065,0.5131358,-0.38447679,0.531585,0.51688941,-0.40567236,0.536754,0.52179342,-0.42394653,0.541453,0.55791458,-0.36396785,0.53199,0.50815952,-0.34941256,0.518268,0.48585742,-0.34318498,0.512676,0.46616066,-0.33773736,0.507836
0.62639502,-0.43238488,0.604223,0.59032766,-0.38902948,0.58248,0.62312677,-0.42861085,0.616022,0.5980395,-0.43750092,0.623508,0.57163278,-0.43013638,0.630112,0.55279477,-0.41398977,0.62778,0.55436245,-0.35673182,0.583086,0.52267672,-0.38461323,0.574101,0.51779361,-0.40192428,0.575205,0.52927525,-0.41111675,0.579192,0.54952067,-0.35707947,0.561773,0.48991326,-0.35922806,0.540316,0.49725962,-0.37963367,0.541,0.52064492,-0.3845382,0.548976,0.54998036,-0.35725392,0.546566,0.50675876,-0.37652691,0.534205,0.51115989,-0.39569736,0.535115,0.5179344,-0.41155729,0.535942,0.55805915,-0.36394495,0.533001,0.51396144,-0.38326851,0.521012,0.4943287,-0.39227961,0.515504,0.47682171,-0.39958977,0.510644
0.63863177,-0.4296232,0.6056,0.60976551,-0.38450313,0.584968,0.64507603,-0.41580673,0.61799,0.61630332,-0.42980267,0.627191,0.59290207,-0.41765025,0.634478,0.57669162,-0.39883722,0.632166,0.58099013,-0.34685433,0.587098,0.54475849,-0.37216808,0.57989,0.5359472,-0.38817312,0.579838,0.54538822,-0.39883138,0.582662,0.57286416,-0.34544705,0.565319,0.51073768,-0.3440409,0.545651,0.51324104,-0.36538942,0.544854,0.53591136,-0.37278393,0.551718,0.56982458,-0.34792336,0.549608,0.52295817,-0.36436657,0.538949,0.52301621,-0.38370833,0.538701,0.526129,-0.40025579,0.538476,0.57313104,-0.35764426,0.53525,0.52592991,-0.37259291,0.524796,0.50449157,-0.37930996,0.519993,0.48556534,-0.38509672,0.515755
0.66049104,-0.43502949,0.622522,0.62973742,-0.39192905,0.602253,0.66166638,-0.42523767,0.634708,0.63201754,-0.43747553,0.6421,0.609322,-0.42654062,0.650167,0.59459856,-0.40899052,0.649432,0.6023234,-0.35442401,0.604362,0.56523207,-0.3794191,0.595995,0.55975668,-0.3984789,0.599652,0.56948713,-0.41158631,0.604415,0.59624836,-0.3527581,0.582948,0.53525593,-0.35023113,0.562216,0.54070297,-0.37516931,0.566152,0.5640798,-0.38420194,0.574887,0.59457552,-0.35501822,0.567499,0.55135174,-0.33022318,0.547849,0.53833244,-0.34793313,0.549264,0.54474608,-0.36898611,0.557957,0.59890145,-0.36444992,0.553377,0.55671479,-0.37853057,0.541731,0.53725821,-0.38522407,0.536497,0.51783421,-0.39170025,0.53188
0.6716893,-0.43536638,0.625692,0.64211174,-0.39308352,0.604027,0.66752529,-0.42630564,0.637188,0.64377873,-0.43819569,0.643157,0.62007361,-0.42654587,0.650175,0.60466596,-0.4085415,0.648719,0.61283115,-0.35438179,0.60429,0.57392696,-0.3783063,0.594247,0.56840527,-0.39730337,0.597883,0.57862963,-0.41082635,0.603299,0.60725377,-0.35302798,0.583394,0.54446865,-0.34946615,0.560988,0.54978601,-0.37434429,0.564907,0.57374594,-0.38377088,0.574242,0.60617757,-0.35565819,0.568522,0.56231569,-0.33041908,0.548174,0.5490648,-0.34801358,0.549391,0.55565392,-0.36920699,0.558291,0.61154005,-0.36573746,0.555332,0.56792399,-0.37894842,0.542329,0.54784726,-0.38519391,0.536455,0.52772366,-0.39125249,0.531272
0.68469707,-0.43361207,0.626199,0.65521224,-0.39274517,0.605428,0.68069137,-0.4248804,0.637792,0.65627836,-0.436051,0.643537,0.63284723,-0.42603129,0.65138,0.61777086,-0.40913183,0.650945,0.62649209,-0.35441561,0.606424,0.58727491,-0.37837636,0.596662,0.58638731,-0.39778817,0.601809,0.58485695,-0.4149576,0.607718,0.62078358,-0.35320453,0.585646,0.57363902,-0.31568268,0.559344,0.55894745,-0.33792366,0.563518,0.57130735,-0.35900717,0.574561,0.61955941,-0.355903,0.570774,0.57977081,-0.32401404,0.544938,0.54840697,-0.32795212,0.53182,0.53663791,-0.3411072,0.528788,0.62467122,-0.36596808,0.557416,0.57388554,-0.359951,0.544577,0.55061594,-0.35727275,0.538802,0.53412156,-0.36699484,0.533707
0.70079653,-0.4361297,0.630895,0.66911468,-0.39441157,0.608668,0.69405774,-0.42570045,0.640036,0.66273704,-0.43351476,0.640125,0.63887924,-0.42300051,0.647165,0.62429624,-0.40645578,0.647079,0.63628235,-0.35342646,0.605481,0.59248553,-0.37438956,0.591181,0.59544372,-0.39646602,0.600415,0.59927461,-0.4171324,0.609748,0.63380083,-0.35362511,0.587499,0.59293671,-0.30266069,0.555872,0.57759272,-0.32013728,0.561956,0.58788849,-0.34543544,0.576401,0.63548057,-0.35769779,0.575086,0.60193356,-0.31380336,0.545265,0.56813651,-0.31617126,0.530008,0.55973629,-0.33066255,0.528842,0.6443826,-0.36975671,0.564856,0.61274645,-0.32596043,0.54582,0.58745189,-0.31934296,0.537074,0.56545523,-0.32532712,0.529356
0.7014802,-0.43203269,0.62757,0.67402866,-0.38449123,0.602789,0.70032029,-0.42048893,0.637067,0.67360187,-0.38595021,0.631473,0.64601525,-0.37661443,0.631862,0.62461135,-0.35825796,0.623127,0.64336637,-0.34097941,0.598333,0.59324373,-0.30553616,0.567833,0.58003126,-0.32043619,0.570722,0.57847747,-0.34033444,0.58405,0.6391721,-0.34161605,0.579189,0.5914246,-0.29865139,0.552464,0.57627197,-0.31759341,0.557956,0.58509317,-0.34101905,0.569346,0.63941786,-0.34620789,0.566094,0.60200482,-0.30218604,0.531672,0.58285515,-0.27977719,0.51406,0.5652393,-0.27518052,0.508042,0.6466273,-0.35919367,0.555554,0.58676,-0.34413745,0.538861,0.55976944,-0.3374318,0.531191,0.53602002,-0.33422899,0.524424
0.70996949,-0.40409986,0.61981,0.67708491,-0.35873015,0.597944,0.70781172,-0.39436509,0.631524,0.68304574,-0.36485116,0.631522,0.66031647,-0.35051652,0.635474,0.64235612,-0.32940854,0.628382,0.65274601,-0.31607532,0.598354,0.60717044,-0.27942808,0.572371,0.58904165,-0.29108033,0.571075,0.58341058,-0.30735307,0.580667,0.6454774,-0.31437492,0.577119,0.60550841,-0.26875681,0.555395,0.58565292,-0.2857135,0.556458,0.59238332,-0.30787501,0.56465,0.64279331,-0.31706897,0.561989,0.61450529,-0.27419112,0.535769,0.60003692,-0.2521569,0.522353,0.57500263,-0.24218293,0.510158,0.64590519,-0.32788309,0.548538,0.59069428,-0.312931,0.536308,0.56570012,-0.30629305,0.530688,0.54353876,-0.30321039,0.52573
0.72337685,-0.4244053,0.635117,0.69316387,-0.38371633,0.61969,0.71072284,-0.42528883,0.645588,0.70807538,-0.46248744,0.671896,0.67959748,-0.46234783,0.675549,0.6614596,-0.46950061,0.679742,0.6587714,-0.35312047,0.622853,0.63660043,-0.30815088,0.607003,0.62552105,-0.28570646,0.599078,0.61064982,-0.280369,0.591873,0.66337669,-0.34259929,0.604997,0.62615115,-0.28931888,0.579788,0.59942234,-0.28457366,0.565082,0.60063056,-0.30365094,0.568716,0.67002831,-0.33770602,0.591955,0.64361012,-0.29496615,0.570621,0.63008092,-0.27295974,0.559705,0.61777677,-0.25286381,0.549783,0.68338493,-0.33886482,0.579718,0.63897601,-0.31918057,0.567629,0.61838974,-0.31006027,0.562075,0.60013709,-0.30219819,0.557174
0.72399553,-0.42931561,0.633819,0.70553091,-0.38637726,0.622789,0.7168988,-0.42543888,0.645735,0.717008,-0.46479092,0.673784,0.69430626,-0.46533879,0.679937,0.67503748,-0.47212946,0.682917,0.67698624,-0.35527953,0.63082,0.65815403,-0.30860467,0.616905,0.64186868,-0.29793629,0.609948,0.62658062,-0.28997065,0.603623,0.67971026,-0.34296675,0.612283,0.66338308,-0.30021824,0.611558,0.6538812,-0.27534265,0.611135,0.65927031,-0.26244501,0.622317,0.68438647,-0.33671607,0.598207,0.64762795,-0.29844915,0.577849,0.62878635,-0.27880162,0.567433,0.61163466,-0.26089612,0.557963,0.69473565,-0.3365356,0.583943,0.65589176,-0.32273253,0.575559,0.63764853,-0.31626754,0.571707,0.62133037,-0.31049436,0.568308
0.71790187,-0.41067276,0.62693,0.69815355,-0.35801387,0.615853,0.7139882,-0.39962703,0.638566,0.70929059,-0.43647324,0.668757,0.69368808,-0.44299294,0.679925,0.67524466,-0.4511209,0.683469,0.67223626,-0.32445857,0.623487,0.65639936,-0.28166103,0.612768,0.64846073,-0.26009076,0.607408,0.64123258,-0.24037798,0.602536,0.67591449,-0.31381114,0.605302,0.66693525,-0.27158676,0.607946,0.66155894,-0.24674729,0.609489,0.6576834,-0.22889596,0.61059,0.68105394,-0.30899021,0.591522,0.6610902,-0.27402936,0.593159,0.65077567,-0.25597697,0.593997,0.64133818,-0.2394674,0.594758,0.69134741,-0.3105855,0.577608,0.65015282,-0.29216933,0.568944,0.63095346,-0.28358642,0.564963,0.61386377,-0.27594672,0.561451
0.72233247,-0.39370827,0.627957,0.69897544,-0.33838007,0.616578,0.71317514,-0.38080173,0.639351,0.70964378,-0.41606504,0.66909,0.69565205,-0.42403273,0.68185,0.6744533,-0.43049271,0.682668,0.67245836,-0.30453259,0.623693,0.64916028,-0.26256868,0.608575,0.6374802,-0.24143314,0.601016,0.62684263,-0.22212459,0.594144,0.67640471,-0.29406572,0.605741,0.66668841,-0.25142137,0.607721,0.66089357,-0.22637676,0.608876,0.65672584,-0.20839902,0.609701,0.68181614,-0.28939808,0.592184,0.66174888,-0.25424753,0.59375,0.65138372,-0.23610115,0.594552,0.64190106,-0.2195078,0.59528,0.69251919,-0.29117942,0.578587,0.65083047,-0.27229968,0.569537,0.63141805,-0.26350536,0.565379,0.61414695,-0.25567954,0.56171
0.72797217,-0.38237856,0.628286,0.70794498,-0.33581317,0.617116,0.71795581,-0.37992172,0.639243,0.71885735,-0.4140029,0.668101,0.71370183,-0.42282397,0.685815,0.69571689,-0.42961203,0.690218,0.67873045,-0.30349267,0.623804,0.65444994,-0.26137999,0.608948,0.64009118,-0.2410177,0.60152,0.62923669,-0.22180631,0.594767,0.68351635,-0.29181098,0.606478,0.67541062,-0.24859055,0.608025,0.67062836,-0.22313997,0.608927,0.667189,-0.2048529,0.609572,0.68977261,-0.28611248,0.593415,0.68030019,-0.25324322,0.603008,0.67535723,-0.23625071,0.607916,0.67080809,-0.22070183,0.612378,0.70176837,-0.28660689,0.580351,0.66098919,-0.27101055,0.571042,0.64192542,-0.26372271,0.566765,0.6249234,-0.25722486,0.562992
0.77357964,-0.36376415,0.650408,0.74502234,-0.3172788,0.636049,0.75809306,-0.36092067,0.657578,0.74794585,-0.39350703,0.680151,0.73334214,-0.40201565,0.693291,0.71120342,-0.40668826,0.693903,0.7072377,-0.28288219,0.635637,0.68749199,-0.24098701,0.622417,0.67754211,-0.21998525,0.615806,0.66847712,-0.20074904,0.609797,0.7175814,-0.27219392,0.622373,0.70970283,-0.22956557,0.624881,0.70503336,-0.20440008,0.626344,0.70166456,-0.18628896,0.627389,0.72880688,-0.26742219,0.612998,0.71724949,-0.23476725,0.621907,0.71120524,-0.21784383,0.626465,0.70563489,-0.20233369,0.630609,0.74730972,-0.26916908,0.604816,0.70781054,-0.25068656,0.590703,0.69030242,-0.24366303,0.584218,0.67527318,-0.23837566,0.578497
0.77754729,-0.33725971,0.651303,0.74686798,-0.29141626,0.638622,0.76097009,-0.33608736,0.658213,0.74916695,-0.36717531,0.679845,0.73644632,-0.38218506,0.692737,0.71453069,-0.38747073,0.693414,0.70691122,-0.26006534,0.639013,0.68206877,-0.22047824,0.624644,0.66958452,-0.20044885,0.617459,0.65819757,-0.18209545,0.610928,0.71755161,-0.24750777,0.626545,0.71443639,-0.20966462,0.637246,0.71249757,-0.18726006,0.643487,0.71039557,-0.17078016,0.647946,0.72913418,-0.24104367,0.617645,0.72409087,-0.20441639,0.62489,0.72106911,-0.18531854,0.628597,0.71821742,-0.16766346,0.631968,0.74833409,-0.2404943,0.609698,0.71595196,-0.23145103,0.596434,0.70075292,-0.22722013,0.59034,0.68717996,-0.2234724,0.584962
0.7757076,-0.33135794,0.649762,0.74671068,-0.28092453,0.638053,0.75937946,-0.33015821,0.65681,0.74744195,-0.35548525,0.678453,0.73619125,-0.37125442,0.692777,0.7154047,-0.37703949,0.694612,0.70812939,-0.24965583,0.639283,0.68924997,-0.20893159,0.629669,0.67975016,-0.18829941,0.624862,0.6710774,-0.16937884,0.620492,0.71895726,-0.23739151,0.626902,0.71067713,-0.19742789,0.633237,0.70571741,-0.17376109,0.636933,0.70162758,-0.15676323,0.639572,0.73053363,-0.23112478,0.617967,0.72581807,-0.19421705,0.62505,0.72297122,-0.17491267,0.628674,0.72028216,-0.15707246,0.631968,0.74942787,-0.23073423,0.609798,0.7179158,-0.22130046,0.597235,0.70310266,-0.21686854,0.591462,0.68986464,-0.21293188,0.586369
0.76258245,-0.3169481,0.681489,0.74137094,-0.26547591,0.661255,0.74999258,-0.3076888,0.68781,0.73740203,-0.27609593,0.687259,0.71455582,-0.24761855,0.683528,0.70676641,-0.23017061,0.682808,0.71233958,-0.22099058,0.655749,0.72269582,-0.18421787,0.665987,0.72786663,-0.16544534,0.671106,0.7325635,-0.1481572,0.67576,0.72116866,-0.21643117,0.641983,0.72978923,-0.17435609,0.649843,0.73481568,-0.14934927,0.654428,0.73840511,-0.13127875,0.657703,0.73084435,-0.21702205,0.632829,0.7320378,-0.17964631,0.641182,0.73260482,-0.16031467,0.645456,0.73309431,-0.14261887,0.649341,0.74690498,-0.22579725,0.626006,0.71246312,-0.21041868,0.607913,0.69491895,-0.20525383,0.599601,0.67917447,-0.20083937,0.592266
0.76209412,-0.32010094,0.727218,0.7472118,-0.26862622,0.698444,0.74668782,-0.30263826,0.726575,0.74604536,-0.27568311,0.714969,0.71595749,-0.23984942,0.698852,0.70126501,-0.21811591,0.690672,0.71785534,-0.21361462,0.678069,0.73271429,-0.17382352,0.677149,0.74032717,-0.15347335,0.67669,0.74735611,-0.13470119,0.676272,0.73314879,-0.21932088,0.67104,0.74460664,-0.17400394,0.668446,0.75145564,-0.14705558,0.666933,0.75642437,-0.12756741,0.665852,0.74791314,-0.22852086,0.668352,0.75111135,-0.18548299,0.666166,0.75274805,-0.16318823,0.665048,0.75425353,-0.14275496,0.664031,0.76920635,-0.24775139,0.670642,0.74695689,-0.22847699,0.643355,0.73170062,-0.22275404,0.630818,0.71593219,-0.21918734,0.619756
0.76653148,-0.32168018,0.730468,0.75201158,-0.27042287,0.703143,0.74995333,-0.30451869,0.729327,0.75078264,-0.27784029,0.718915,0.71876662,-0.24213705,0.701877,0.70305442,-0.22057667,0.69361,0.7214365,-0.21582347,0.683103,0.73500381,-0.17566729,0.682223,0.74194451,-0.15515401,0.681782,0.74834956,-0.13624629,0.681382,0.73832645,-0.22120536,0.677118,0.74777427,-0.17541201,0.674096,0.75341519,-0.1482426,0.672333,0.75750513,-0.12862353,0.671074,0.75435564,-0.23012905,0.675135,0.75412261,-0.18645897,0.671229,0.75381071,-0.16392342,0.669231,0.75342617,-0.14333115,0.667414,0.77701517,-0.24900183,0.677969,0.75714697,-0.22842759,0.651161,0.7436068,-0.22303947,0.638844,0.72946972,-0.21989178,0.627976
0.76829985,-0.32174842,0.731827,0.75348865,-0.27042938,0.704714,0.75140487,-0.30478469,0.73065,0.75305131,-0.27830706,0.721005,0.72046538,-0.24273639,0.703836,0.7037045,-0.22103749,0.69491,0.72234159,-0.21601436,0.684771,0.73607801,-0.17587467,0.684584,0.74026716,-0.15539622,0.68449,0.74958952,-0.13640873,0.684405,0.7395253,-0.22114259,0.678892,0.74387444,-0.17438337,0.674264,0.74580738,-0.1455581,0.671563,0.74956361,-0.12690171,0.669635,0.75581032,-0.22985754,0.676973,0.75410848,-0.18582424,0.674066,0.75329496,-0.16346057,0.672578,0.75232816,-0.143007,0.671225,0.77833294,-0.2471676,0.679842,0.75965465,-0.22681668,0.652035,0.75099561,-0.21691285,0.639258,0.74124733,-0.21045276,0.627985
0.77297612,-0.32475535,0.736089,0.75846324,-0.27344245,0.710627,0.75711441,-0.30894408,0.736535,0.76130023,-0.28317857,0.730448,0.73187064,-0.24786994,0.716035,0.71533566,-0.22586084,0.707531,0.72011604,-0.2244302,0.693919,0.72818666,-0.18376792,0.689428,0.73239785,-0.16287811,0.687182,0.73633625,-0.14354653,0.685141,0.73627693,-0.22560227,0.686376,0.73354645,-0.17906423,0.678674,0.72602296,-0.16202168,0.674181,0.72056256,-0.14933886,0.670971,0.75202226,-0.23107107,0.68291,0.75532274,-0.18679122,0.678534,0.75560733,-0.16456372,0.676296,0.75431122,-0.1438842,0.674261,0.77874951,-0.24668107,0.683672,0.7635743,-0.22459666,0.656316,0.75307631,-0.21681198,0.643748,0.74331453,-0.21029144,0.632657
0.77219267,-0.32505885,0.735613,0.76036847,-0.27488336,0.713664,0.75994659,-0.31127429,0.739929,0.75286346,-0.28380677,0.736566,0.72536269,-0.25159077,0.726313,0.71344521,-0.23244138,0.722196,0.72932464,-0.22751309,0.704382,0.71798125,-0.18316123,0.685145,0.71209231,-0.16211422,0.675527,0.70606763,-0.14370648,0.666783,0.74152234,-0.22724864,0.69276,0.72379739,-0.17611257,0.674401,0.70862351,-0.16143498,0.663692,0.69770211,-0.15068237,0.656043,0.75339406,-0.23139164,0.685555,0.74356997,-0.1863397,0.675317,0.73907909,-0.16357579,0.670079,0.73467726,-0.14309715,0.665317,0.77096124,-0.24433453,0.681318,0.75813444,-0.22169677,0.655122,0.74761602,-0.21427665,0.643085,0.73813919,-0.20783948,0.632465
0.76979906,-0.32449613,0.733548,0.75949961,-0.27512255,0.713809,0.75895765,-0.31172914,0.739459,0.7545442,-0.28471007,0.738584,0.72763947,-0.25283092,0.729154,0.71611212,-0.23387757,0.725588,0.7321598,-0.22872566,0.708106,0.71926912,-0.18385904,0.687266,0.7127382,-0.16220817,0.676846,0.70632801,-0.14301133,0.667373,0.74294111,-0.22784052,0.695011,0.72397737,-0.17645204,0.675481,0.70803443,-0.16158009,0.664088,0.69656708,-0.15070448,0.65595,0.75332989,-0.23138701,0.686354,0.7434975,-0.18645267,0.676082,0.7388498,-0.16367907,0.670826,0.73430922,-0.14319488,0.666048,0.76864924,-0.24344325,0.680017,0.75637767,-0.22091132,0.654379,0.7461559,-0.21355441,0.6426,0.73694244,-0.20717101,0.632206
0.77387356,-0.32985436,0.73767,0.76136331,-0.29548201,0.722451,0.7613838,-0.33499061,0.744758,0.76164117,-0.30578674,0.747294,0.73020044,-0.27755666,0.738294,0.71760181,-0.26247802,0.736675,0.73841014,-0.25103732,0.721348,0.72513728,-0.2049759,0.699603,0.71825666,-0.18243221,0.68873,0.71186036,-0.16220957,0.678846,0.7497758,-0.24805972,0.707956,0.73302276,-0.19812932,0.692167,0.72198587,-0.18159355,0.682957,0.71406937,-0.16942926,0.676378,0.76025151,-0.24976195,0.698567,0.75120263,-0.20559008,0.689487,0.74653503,-0.18299669,0.684842,0.74224097,-0.16266601,0.680619,0.77507479,-0.25935171,0.690531,0.76925928,-0.2356826,0.666956,0.76272835,-0.22800998,0.656125,0.75686624,-0.22134134,0.646567
0.77904303,-0.33350516,0.744011,0.75154165,-0.29571937,0.721637,0.76524791,-0.32588385,0.749785,0.74672444,-0.30751778,0.745561,0.72018625,-0.27868083,0.738777,0.71497583,-0.26216048,0.737509,0.726231,-0.24748756,0.713967,0.71912711,-0.20360555,0.694492,0.71432709,-0.1815345,0.684754,0.70991576,-0.16152858,0.675902,0.73636926,-0.2472006,0.700329,0.72191526,-0.19598112,0.681459,0.70654423,-0.17989917,0.670452,0.69548591,-0.16813649,0.66259,0.74644462,-0.25127945,0.691509,0.73761408,-0.20757053,0.684381,0.73304938,-0.18491058,0.680734,0.72870028,-0.16425495,0.677419,0.76175984,-0.26401308,0.685478,0.74214613,-0.23831537,0.658395,0.73080693,-0.22911265,0.645951,0.72002524,-0.22186284,0.634971
0.77764568,-0.35226775,0.749803,0.7543008,-0.30745828,0.725336,0.76360794,-0.34047343,0.754257,0.74682843,-0.3190173,0.74669,0.72040772,-0.29040198,0.740352,0.71253418,-0.27352399,0.740101,0.72516541,-0.25820036,0.714525,0.71925714,-0.21358399,0.695992,0.71587227,-0.19156925,0.686726,0.71306463,-0.16694195,0.678302,0.73655437,-0.25801563,0.702034,0.72120525,-0.20652909,0.682837,0.70549119,-0.19072796,0.671639,0.69418512,-0.17918163,0.66364,0.74800362,-0.26229616,0.694385,0.72891,-0.21900707,0.679911,0.71908156,-0.1966611,0.672506,0.70994742,-0.17652078,0.665774,0.76550739,-0.27549851,0.690106,0.74496542,-0.24976528,0.662307,0.73322144,-0.24060511,0.649535,0.72209036,-0.23341209,0.638266
0.77934886,-0.35738269,0.752556,0.75567975,-0.31685168,0.726662,0.76134153,-0.35159422,0.756031,0.74750717,-0.32717269,0.746571,0.72201463,-0.29873107,0.74101,0.71474645,-0.28228762,0.741435,0.72423273,-0.26662149,0.713606,0.71947312,-0.22242924,0.696201,0.71667704,-0.20059662,0.687498,0.71388678,-0.18089287,0.679587,0.73651975,-0.2667325,0.702001,0.72120419,-0.21513345,0.682836,0.7055101,-0.19947912,0.671657,0.69421859,-0.18804323,0.663672,0.74891926,-0.27134326,0.695235,0.72041807,-0.23043568,0.673686,0.70577501,-0.20942095,0.662662,0.69227866,-0.19072042,0.652639,0.76788453,-0.28510727,0.692249,0.74671562,-0.25926562,0.663863,0.73467313,-0.25007584,0.650821,0.72327486,-0.24286264,0.639313
0.77306435,-0.37710497,0.749794,0.75470091,-0.33571382,0.72579,0.75927087,-0.37449508,0.753996,0.74931928,-0.34818512,0.748485,0.72009556,-0.31617122,0.738104,0.70856329,-0.29470046,0.733689,0.72545616,-0.2863158,0.714965,0.7187649,-0.2415129,0.695727,0.71498017,-0.2194886,0.686109,0.7112751,-0.19967876,0.677364,0.73735534,-0.28620913,0.702929,0.72026436,-0.23369485,0.68213,0.70351691,-0.21819938,0.669997,0.69147815,-0.20691308,0.66133,0.74920033,-0.29058783,0.695606,0.7178865,-0.2490088,0.671506,0.70181859,-0.22774994,0.659176,0.68703847,-0.20890488,0.647967,0.76709405,-0.30396652,0.691617,0.74736315,-0.27930411,0.66458,0.73598889,-0.2706722,0.652157,0.7251828,-0.26395753,0.641196
0.75386855,-0.37261257,0.746806,0.74639997,-0.32189242,0.723117,0.73810566,-0.35562653,0.745572,0.74907843,-0.32226004,0.742918,0.74537902,-0.28640286,0.729835,0.75505536,-0.26810307,0.722996,0.72147588,-0.27010952,0.705425,0.74591338,-0.24399151,0.72709,0.75576121,-0.22722538,0.737922,0.76467142,-0.21128708,0.74777,0.73882769,-0.27467685,0.700557,0.76143643,-0.24039526,0.7087,0.76610319,-0.22269712,0.71345,0.76941808,-0.2092284,0.716843,0.75480618,-0.28277657,0.6991,0.71944422,-0.25151052,0.672228,0.70248121,-0.23870319,0.658479,0.68631472,-0.22492566,0.64598,0.77663116,-0.30052199,0.701862,0.76253835,-0.26642988,0.67707,0.74018018,-0.26123547,0.665679,0.71886398,-0.25537024,0.655628
0.75319827,-0.37812989,0.746247,0.74901379,-0.33380333,0.72344,0.73817214,-0.36162211,0.74588,0.74973098,-0.33496845,0.744873,0.74727418,-0.29977743,0.733711,0.75687169,-0.2813219,0.727103,0.72180755,-0.28154885,0.707476,0.74567608,-0.25544613,0.729212,0.75506556,-0.23892242,0.74008,0.76354284,-0.22321039,0.74996,0.73836379,-0.28546208,0.701719,0.76177583,-0.25132075,0.711238,0.76670845,-0.23428212,0.716791,0.77018666,-0.22127583,0.720757,0.75360903,-0.29303489,0.699436,0.72026953,-0.26046802,0.67377,0.70397115,-0.24155564,0.660638,0.6883884,-0.22702561,0.6487,0.77602148,-0.30915046,0.701073,0.75446441,-0.27962626,0.677259,0.72884606,-0.27442582,0.666318,0.70567443,-0.27033779,0.656663
0.75380188,-0.38327188,0.74688,0.74631611,-0.34159941,0.723985,0.73862647,-0.37208064,0.74658,0.74855164,-0.34552456,0.745718,0.74866747,-0.30918504,0.735079,0.75825094,-0.29075612,0.728428,0.72239317,-0.28981244,0.70805,0.74600842,-0.26367528,0.729537,0.75527063,-0.24726163,0.740281,0.76363244,-0.23165678,0.750048,0.73884886,-0.2937461,0.70218,0.76201039,-0.25947944,0.711457,0.76679189,-0.24267409,0.716869,0.77016208,-0.22984866,0.720734,0.7540163,-0.30137265,0.699814,0.72065651,-0.26887411,0.674132,0.70353966,-0.25205996,0.660993,0.6879452,-0.23665267,0.649047,0.77480212,-0.31863848,0.701371,0.7583375,-0.28651383,0.677542,0.72914796,-0.28304515,0.666594,0.70596458,-0.27894176,0.656933
0.74864171,-0.33942165,0.743289,0.75456115,-0.30698979,0.72543,0.73893323,-0.32792658,0.744948,0.7583166,-0.29405836,0.748243,0.76357508,-0.26577243,0.746951,0.77624595,-0.24866322,0.744185,0.74568622,-0.27338615,0.715466,0.77756554,-0.24879072,0.739925,0.78795833,-0.24251352,0.752154,0.79723491,-0.23607977,0.763272,0.75918787,-0.27647156,0.708422,0.78753682,-0.24186966,0.719209,0.79492991,-0.22083113,0.725502,0.80022868,-0.20492278,0.729996,0.77088791,-0.28182182,0.704547,0.7449614,-0.24778475,0.683853,0.7316541,-0.23003168,0.673266,0.71952824,-0.21367398,0.663641,0.78572296,-0.2935126,0.703405,0.75360769,-0.25501172,0.683707,0.74207371,-0.26055064,0.674656,0.73142595,-0.26264079,0.66667
0.73771894,-0.34055362,0.736312,0.75198057,-0.31861593,0.725279,0.72968045,-0.3273344,0.737602,0.75342283,-0.29942423,0.744586,0.77779083,-0.27364624,0.752749,0.794085,-0.25838256,0.75311,0.7567945,-0.2819137,0.719468,0.79640993,-0.25315947,0.743917,0.80637191,-0.25226201,0.756142,0.81519955,-0.25107698,0.767255,0.77056906,-0.29060532,0.714772,0.8054408,-0.25481194,0.724358,0.81226573,-0.23834243,0.72995,0.81716838,-0.22572575,0.733944,0.78115422,-0.30032136,0.712094,0.7630818,-0.27061868,0.696359,0.75269904,-0.25671317,0.688309,0.74253661,-0.2449424,0.680991,0.79204665,-0.31665423,0.711059,0.7713483,-0.28528651,0.695615,0.75435225,-0.29267993,0.688519,0.74646248,-0.30234862,0.683895
0.73992075,-0.34450637,0.739934,0.7580536,-0.32047603,0.730775,0.73568151,-0.33132125,0.744294,0.75938602,-0.30152843,0.75042,0.78197512,-0.27500922,0.758424,0.79464227,-0.25723264,0.758374,0.76902352,-0.28357133,0.730234,0.76621701,-0.2455988,0.716738,0.76456399,-0.22731101,0.70999,0.76329649,-0.21033947,0.703952,0.77916891,-0.29192622,0.722052,0.7727823,-0.24910709,0.705469,0.76918518,-0.22438015,0.696084,0.76686046,-0.20633792,0.689485,0.78630768,-0.3013326,0.716301,0.77262573,-0.27265761,0.704105,0.76339795,-0.25945066,0.697866,0.7542854,-0.24793096,0.692194,0.79250752,-0.31726466,0.711347,0.77471976,-0.28604375,0.698795,0.76094836,-0.29502549,0.693028,0.7503483,-0.30420156,0.68794
0.73613604,-0.34405745,0.736552,0.75870407,-0.31839754,0.729984,0.7343043,-0.33118095,0.742939,0.76007067,-0.29981438,0.750724,0.78010242,-0.27363815,0.75897,0.79578479,-0.25806745,0.760379,0.77338296,-0.2837904,0.733844,0.77191458,-0.24862182,0.723646,0.76824448,-0.23250322,0.718548,0.76753803,-0.21707978,0.714833,0.78151533,-0.29176339,0.723729,0.77672333,-0.25239641,0.710516,0.77099308,-0.23181736,0.702808,0.76916011,-0.21581912,0.698219,0.78658804,-0.30073987,0.716108,0.77592169,-0.27398978,0.707407,0.76786732,-0.26171651,0.702955,0.7597909,-0.25088945,0.698908,0.78972955,-0.31595647,0.708497,0.78334214,-0.27899556,0.698872,0.76663121,-0.28902043,0.69445,0.75585152,-0.29668141,0.690548
0.72857035,-0.35659891,0.728903,0.74267398,-0.33081349,0.719285,0.72593642,-0.35092661,0.736678,0.74303871,-0.31731911,0.743001,0.75970001,-0.2918065,0.75175,0.77316526,-0.27747482,0.754858,0.7536734,-0.2971194,0.722882,0.74313159,-0.26068957,0.710691,0.73789987,-0.24189926,0.704595,0.75048625,-0.22975829,0.715565,0.76025911,-0.30132587,0.710125,0.74552046,-0.2602659,0.694527,0.73755791,-0.23573427,0.685978,0.73199166,-0.21783873,0.679963,0.76459742,-0.30743167,0.700656,0.74721653,-0.27766623,0.690681,0.73246545,-0.26276767,0.685578,0.72269091,-0.25010497,0.680938,0.7679673,-0.31972898,0.691473,0.75010562,-0.28132042,0.680724,0.73882917,-0.28727482,0.675785,0.7280634,-0.29366282,0.671428
0.69127262,-0.35810364,0.718381,0.71582389,-0.3293007,0.713935,0.69119649,-0.34675767,0.726885,0.7162069,-0.31620584,0.738111,0.73541133,-0.29190154,0.749477,0.74944151,-0.27777563,0.753034,0.73198649,-0.29767661,0.721993,0.72651846,-0.26332444,0.71528,0.72381641,-0.24538204,0.711923,0.73794748,-0.23384028,0.725151,0.73898765,-0.30207113,0.709701,0.72585476,-0.2668784,0.699522,0.71884366,-0.24557672,0.694293,0.71390657,-0.22986316,0.690669,0.74303116,-0.30809874,0.700058,0.72978274,-0.28022116,0.694636,0.71985032,-0.26752006,0.691863,0.71002185,-0.25605702,0.689341,0.74487348,-0.31984849,0.689701,0.73074073,-0.28315725,0.682836,0.72067582,-0.29024275,0.679682,0.71164994,-0.29704876,0.676899
