sluyters/QuantumLeap/backend/src/datasets/gesture/HandGestureDataset_SHREC2017_csv/Gesture13/finger_2/subject_22_essai_3_skeletons_world.csv
Wrist_x,Wrist_y,Wrist_z,Palm_x,Palm_y,Palm_z,thumb_base_x,thumb_base_y,thumb_base_z,thumb_first_joint_x,thumb_first_joint_y,thumb_first_joint_z,thumb_second_joint_x,thumb_second_joint_y,thumb_second_joint_z,thumb_tip_x,thumb_tip_y,thumb_tip_z,index_base_x,index_base_y,index_base_z,index_first_joint_x,index_first_joint_y,index_first_joint_z,index_second_joint_x,index_second_joint_y,index_second_joint_z,index_tip_x,index_tip_y,index_tip_z,middle_base_x,middle_base_y,middle_base_z,middle_first_joint_x,middle_first_joint_y,middle_first_joint_z,middle_second_joint_x,middle_second_joint_y,middle_second_joint_z,middle_tip_x,middle_tip_y,middle_tip_z,ring_base_x,ring_base_y,ring_base_z,ring_first_joint_x,ring_first_joint_y,ring_first_joint_z,ring_second_joint_x,ring_second_joint_y,ring_second_joint_z,ring_tip_x,ring_tip_y,ring_tip_z,pinky_base_x,pinky_base_y,pinky_base_z,pinky_first_joint_x,pinky_first_joint_y,pinky_first_joint_z,pinky_second_joint_x,pinky_second_joint_y,pinky_second_joint_z,pinky_tip_x,pinky_tip_y,pinky_tip_z,
0.457967291,-0.250676871,0.462389,0.476160981,-0.20511799,0.462412,0.441817147,-0.234543215,0.460316,0.423144441,-0.197091725,0.4561,0.404834457,-0.169915596,0.453632,0.402418866,-0.153775741,0.455448,0.46183463,-0.162400798,0.459748,0.471109447,-0.122965185,0.453153,0.475812237,-0.103096204,0.449856,0.481371358,-0.0851892571,0.446859,0.487074921,-0.171516386,0.462431,0.500873674,-0.12993224,0.456343,0.508943937,-0.105634785,0.452792,0.516111079,-0.0881021894,0.450255,0.506700371,-0.182873257,0.464638,0.521754367,-0.141953238,0.459318,0.529482573,-0.12096847,0.456596,0.536524659,-0.101862013,0.454122,0.527528747,-0.202950883,0.467206,0.548635801,-0.173233744,0.46478,0.558236397,-0.159696203,0.463665,0.569627028,-0.148448597,0.462682
0.461895621,-0.239119111,0.461004,0.478739742,-0.194937934,0.460806,0.445135332,-0.222886291,0.458489,0.423269728,-0.185226696,0.454543,0.404515182,-0.158714544,0.45249,0.400204175,-0.141029101,0.455361,0.467671578,-0.151166272,0.457443,0.475502554,-0.111142767,0.450185,0.479539853,-0.0908304604,0.446556,0.483284484,-0.072181586,0.443257,0.492859035,-0.162089759,0.460638,0.505055276,-0.119763887,0.453302,0.512196513,-0.0950191527,0.449022,0.51856779,-0.0775068408,0.447049,0.512120606,-0.174895205,0.463289,0.524588047,-0.133575943,0.458218,0.530917118,-0.112545352,0.455624,0.537915588,-0.0978696129,0.453266,0.531881202,-0.196568863,0.46641,0.550811777,-0.16691224,0.463459,0.562059629,-0.153092908,0.462103,0.570066982,-0.144398992,0.460907
0.46244014,-0.237412888,0.460439,0.479196036,-0.194746124,0.459941,0.445621613,-0.220973238,0.457515,0.42362145,-0.185462185,0.453305,0.404586021,-0.158892704,0.45099,0.399805348,-0.140583422,0.453068,0.467517489,-0.150526673,0.455872,0.473729568,-0.110164188,0.448254,0.477457548,-0.0898381282,0.444444,0.480914663,-0.0711914388,0.440981,0.492859039,-0.161452618,0.459517,0.503611386,-0.118755189,0.45186,0.509943332,-0.093880543,0.447393,0.516760138,-0.0764653796,0.446188,0.5122388,-0.174284673,0.462567,0.522703904,-0.132069242,0.456523,0.528013299,-0.110575988,0.453431,0.535265757,-0.0949025956,0.45062,0.532159455,-0.196013181,0.466205,0.550324668,-0.165593151,0.463031,0.561562805,-0.151745791,0.461573,0.572435026,-0.139832392,0.460286
0.463096783,-0.236758512,0.46054,0.479341599,-0.19467942,0.459646,0.446229858,-0.220197942,0.457403,0.423689741,-0.185519232,0.45284,0.404563771,-0.158934049,0.450439,0.399530976,-0.140385097,0.452143,0.467182851,-0.150221387,0.45507,0.472574518,-0.109707714,0.447077,0.476054061,-0.0893749727,0.44308,0.479278988,-0.070737524,0.439447,0.492581748,-0.161148943,0.458884,0.504476151,-0.118735962,0.452587,0.511543401,-0.0939333691,0.448913,0.516607003,-0.0761847773,0.446289,0.512040882,-0.174000381,0.462112,0.521803379,-0.131498012,0.45572,0.526754194,-0.109858317,0.45245,0.534154773,-0.0934566472,0.449477,0.532124385,-0.195781349,0.466025,0.549763731,-0.165033998,0.462553,0.560863956,-0.15115268,0.460958,0.571689222,-0.139312242,0.45955
0.458970832,-0.239238008,0.459626,0.476966241,-0.196978407,0.459169,0.444450175,-0.219434021,0.456636,0.422344392,-0.185503981,0.452764,0.403456489,-0.158783051,0.450355,0.398907923,-0.140258341,0.452345,0.467458957,-0.15079465,0.45504,0.47171358,-0.10996639,0.446895,0.474419038,-0.0895113768,0.442822,0.476917491,-0.0708100637,0.43912,0.492598216,-0.162170633,0.45878,0.5047364,-0.119864378,0.452603,0.511917276,-0.0951497273,0.449,0.516125336,-0.0794200548,0.446427,0.507471157,-0.180729843,0.461904,0.516847684,-0.138125864,0.454488,0.520910219,-0.113409556,0.450693,0.529850007,-0.0931032832,0.447244,0.527402543,-0.202542768,0.465622,0.544921214,-0.1708852,0.462258,0.552325497,-0.154161884,0.460712,0.559913499,-0.140618936,0.459348
0.457791958,-0.239183112,0.45953,0.472475024,-0.200505289,0.458654,0.441778553,-0.222349278,0.456641,0.416530752,-0.18707311,0.452566,0.39878642,-0.159797032,0.450359,0.397475078,-0.14055876,0.451935,0.461672758,-0.15531217,0.454411,0.463903751,-0.117392539,0.445947,0.465456382,-0.0928938694,0.441716,0.468465558,-0.072537627,0.438214,0.484273179,-0.168726508,0.457908,0.497140043,-0.126893528,0.451921,0.504946521,-0.102425262,0.448429,0.513867681,-0.083515779,0.445934,0.503650982,-0.181432131,0.460873,0.513351239,-0.136437672,0.452803,0.517067031,-0.114083607,0.448674,0.521781183,-0.0938062489,0.444921,0.52507905,-0.202788261,0.464477,0.538590235,-0.169117457,0.458981,0.545229028,-0.154598315,0.456456,0.553664453,-0.140228369,0.454228
0.45375784,-0.241333311,0.458722,0.467097389,-0.202470754,0.455863,0.437516074,-0.226951749,0.456818,0.409128096,-0.196888279,0.450982,0.391427557,-0.173980169,0.452347,0.388806526,-0.155320175,0.454461,0.45420092,-0.16118176,0.451733,0.453431285,-0.118931666,0.44191,0.453249543,-0.0978763277,0.4372,0.453221557,-0.0787575962,0.433049,0.47776339,-0.171854842,0.45343,0.486401734,-0.128153083,0.445262,0.491580654,-0.10271037,0.44063,0.495427027,-0.0844967552,0.437321,0.495665884,-0.184519623,0.455105,0.500159099,-0.140714111,0.44791,0.504361636,-0.118347379,0.444229,0.508986291,-0.0979239325,0.440883,0.513901011,-0.206119869,0.457544,0.52812422,-0.171542868,0.453,0.535030738,-0.155687544,0.450912,0.544245536,-0.140756323,0.44907
0.447702539,-0.248146493,0.458989,0.449858471,-0.212366406,0.45476,0.427685524,-0.23503294,0.456339,0.403352761,-0.20448573,0.454311,0.38817967,-0.176801794,0.452753,0.386844686,-0.159272875,0.456585,0.44057887,-0.164827636,0.448866,0.440982741,-0.122739912,0.438889,0.441521771,-0.10181428,0.434242,0.442065937,-0.0827965667,0.430069,0.465057174,-0.174651541,0.451161,0.472562249,-0.130501676,0.440801,0.4772225,-0.104805433,0.434758,0.480563448,-0.086423395,0.430441,0.483949965,-0.186756868,0.453461,0.48666752,-0.141733525,0.442291,0.48896776,-0.119014599,0.436577,0.494233052,-0.102271551,0.431382,0.503735287,-0.207927816,0.456862,0.51959863,-0.174139438,0.450779,0.527438378,-0.158807081,0.448466,0.53759133,-0.143428823,0.447614
0.438258633,-0.259025979,0.460868,0.444684691,-0.223139468,0.454029,0.420953753,-0.242232528,0.456993,0.391118095,-0.21633359,0.450561,0.371466882,-0.189688749,0.447617,0.362397529,-0.168117243,0.442531,0.428981759,-0.176679521,0.445018,0.423486875,-0.133104691,0.431749,0.421991103,-0.112056073,0.425115,0.422030093,-0.0946040237,0.419084,0.45397158,-0.186817656,0.448184,0.45580571,-0.140735409,0.433786,0.457211037,-0.114154292,0.425388,0.460076872,-0.0969439747,0.419389,0.473500104,-0.199257828,0.451451,0.478138723,-0.154343357,0.4409,0.480749091,-0.131465913,0.435502,0.48317358,-0.110659714,0.430595,0.494438529,-0.220989108,0.456422,0.503847602,-0.184201716,0.447242,0.508735051,-0.167633292,0.443024,0.515301505,-0.156062697,0.439302
0.428743885,-0.270850332,0.459574,0.437377607,-0.234814856,0.453243,0.412476603,-0.254377063,0.456532,0.384967561,-0.228095528,0.451835,0.365786029,-0.201644452,0.449414,0.358482919,-0.181293374,0.447622,0.423831008,-0.188748272,0.445606,0.418691584,-0.145550285,0.434602,0.416702851,-0.12427107,0.4291,0.41490979,-0.104837928,0.424098,0.447990562,-0.199054818,0.44783,0.452254081,-0.153621218,0.43554,0.455125009,-0.127358131,0.428371,0.45719099,-0.108562744,0.42325,0.466689421,-0.211565225,0.450269,0.47143739,-0.166797156,0.441565,0.474474003,-0.144075989,0.437112,0.47726062,-0.123347373,0.433063,0.486392688,-0.233252673,0.454189,0.495762361,-0.196197455,0.444473,0.500031555,-0.179230346,0.440009,0.504875958,-0.164981225,0.43607
0.421092555,-0.280419966,0.4605,0.422475419,-0.239066032,0.450859,0.403972365,-0.264223407,0.45714,0.370651811,-0.236357793,0.450052,0.348832653,-0.210520866,0.446411,0.336682522,-0.188750001,0.438676,0.403241225,-0.192907566,0.440849,0.396978183,-0.148328497,0.425293,0.395621073,-0.128980391,0.417514,0.394505983,-0.111059308,0.410443,0.427685209,-0.20090296,0.442579,0.430126404,-0.154922952,0.427838,0.43160389,-0.128232582,0.419239,0.432886838,-0.109299582,0.413097,0.44717408,-0.211718097,0.444928,0.447097956,-0.165086987,0.429881,0.447705046,-0.14186843,0.422182,0.449755251,-0.12262903,0.415183,0.468849069,-0.231805126,0.449301,0.479359234,-0.195826456,0.437216,0.485169896,-0.180509523,0.431664,0.490411988,-0.166870262,0.426765
0.410389726,-0.290973779,0.458964,0.410289447,-0.254297506,0.44893,0.388157514,-0.284595161,0.456426,0.360876288,-0.253420685,0.45031,0.33922101,-0.227913614,0.447162,0.333470437,-0.209986216,0.44911,0.390234456,-0.208927815,0.439751,0.382000985,-0.164008877,0.4251,0.379084569,-0.144385333,0.417775,0.3765046,-0.126215082,0.411115,0.414105689,-0.215789828,0.440317,0.414018874,-0.169267972,0.423539,0.414016855,-0.142278169,0.413751,0.414061486,-0.123019345,0.406807,0.433276775,-0.225716666,0.441746,0.436011667,-0.180133269,0.428866,0.437504098,-0.156912647,0.422277,0.438864706,-0.135790493,0.416286,0.454842419,-0.244837931,0.44511,0.465573662,-0.209569158,0.432573,0.470544104,-0.193316939,0.426813,0.474952176,-0.17895041,0.421731
0.389516854,-0.317503499,0.461515,0.393134193,-0.27249019,0.448482,0.37138318,-0.301846148,0.45775,0.34681177,-0.27215767,0.454917,0.326253028,-0.246943677,0.452993,0.321504186,-0.228988847,0.455412,0.371928834,-0.225742049,0.435933,0.364856801,-0.181865792,0.420038,0.361465882,-0.160038924,0.412265,0.358390892,-0.140213242,0.40521,0.396247553,-0.233726787,0.437257,0.394430506,-0.186792623,0.419445,0.393561672,-0.15956035,0.409277,0.392973984,-0.140135523,0.402053,0.415925664,-0.244608021,0.439594,0.414655018,-0.197569388,0.423371,0.41416728,-0.173951877,0.41507,0.414315991,-0.15367227,0.407525,0.438277787,-0.264912764,0.444524,0.445805572,-0.228126975,0.429638,0.449273961,-0.211299226,0.422798,0.45236462,-0.196472262,0.416795
0.369482675,-0.337050699,0.460631,0.373783136,-0.291763176,0.44706,0.351916428,-0.321059572,0.457101,0.330833687,-0.288702968,0.454173,0.313401737,-0.261583943,0.452386,0.30385695,-0.239732443,0.446275,0.353775277,-0.24448299,0.434483,0.346795843,-0.200704381,0.418996,0.343302835,-0.178843975,0.411254,0.34012473,-0.15898835,0.404216,0.377438575,-0.252809506,0.435348,0.37612339,-0.206432159,0.416864,0.375353631,-0.179388506,0.406083,0.37480077,-0.160075531,0.398381,0.396486756,-0.263953663,0.437356,0.395345178,-0.217458418,0.42027,0.394923993,-0.194257152,0.411528,0.394572789,-0.173092823,0.403582,0.417995717,-0.284547894,0.441989,0.423105898,-0.248281246,0.425315,0.425518605,-0.231659862,0.417654,0.42768063,-0.216953223,0.410894
0.368118591,-0.342256669,0.462824,0.36194836,-0.298456552,0.443752,0.348966248,-0.326270748,0.458029,0.314657331,-0.30068371,0.450618,0.295765778,-0.278350768,0.452557,0.293026454,-0.262056767,0.457248,0.334876024,-0.25125538,0.426296,0.326379939,-0.205912103,0.411482,0.322227054,-0.185590133,0.404076,0.318472944,-0.166900075,0.397342,0.359244105,-0.257758184,0.427296,0.356406591,-0.210877386,0.408018,0.354736574,-0.183567892,0.396772,0.353536456,-0.164079816,0.388739,0.379564389,-0.267587272,0.429939,0.378039012,-0.220903176,0.413683,0.377342741,-0.197297104,0.405366,0.376718531,-0.175812459,0.397805,0.403804082,-0.286980153,0.43624,0.40505465,-0.250002192,0.41566,0.405694332,-0.233579791,0.406204,0.406288442,-0.219057978,0.397861
0.354714637,-0.348872754,0.458323,0.351281334,-0.307433279,0.442988,0.336002901,-0.332913954,0.454022,0.30349789,-0.30353151,0.447143,0.287515869,-0.279647987,0.449509,0.287581098,-0.261523324,0.454083,0.329971338,-0.257580665,0.428371,0.318946849,-0.213907467,0.41099,0.313436167,-0.192054746,0.4023,0.308427195,-0.17217828,0.3944,0.353999491,-0.266666371,0.429754,0.348013181,-0.219743949,0.408032,0.344517397,-0.192383647,0.395361,0.342018177,-0.172845938,0.38631,0.373582157,-0.278671528,0.432358,0.368229245,-0.231577412,0.411466,0.365621998,-0.207606624,0.400938,0.363276445,-0.185843222,0.391399,0.396097773,-0.300763701,0.437988,0.397068908,-0.25685014,0.419233,0.393762602,-0.252834938,0.410616,0.382704831,-0.260200232,0.403012
0.34642268,-0.359853941,0.459034,0.342744083,-0.318740303,0.44173,0.328177537,-0.343934301,0.455288,0.300020508,-0.32124266,0.452826,0.277935484,-0.296632853,0.450338,0.271847137,-0.278178929,0.451737,0.31762784,-0.272806383,0.426639,0.305297773,-0.227156558,0.408799,0.298681362,-0.206318716,0.399879,0.292666084,-0.187255189,0.391769,0.341259635,-0.279711888,0.426758,0.333543381,-0.232100405,0.40367,0.329297027,-0.204589219,0.390538,0.32625695,-0.18495944,0.381158,0.36087928,-0.289710395,0.428508,0.355430031,-0.242242888,0.408725,0.352622268,-0.218204076,0.398603,0.350066138,-0.196363994,0.389402,0.384035898,-0.308984882,0.433468,0.384026261,-0.270879596,0.413527,0.384017533,-0.253377735,0.404365,0.384007443,-0.237938398,0.396281
0.343843078,-0.370984774,0.459975,0.33591586,-0.328437419,0.440847,0.325631393,-0.357276646,0.457724,0.294150484,-0.33322002,0.451691,0.271446926,-0.309931815,0.450082,0.261003726,-0.29078947,0.448441,0.308031756,-0.281829123,0.42656,0.29260066,-0.237052756,0.405017,0.284633734,-0.215561478,0.394245,0.277390558,-0.195999258,0.384452,0.330180551,-0.286040286,0.42424,0.320457708,-0.238851184,0.39975,0.314774191,-0.211362625,0.385464,0.310708835,-0.191747676,0.37526,0.34902282,-0.294126412,0.42415,0.340702225,-0.246922732,0.402305,0.336439186,-0.222790251,0.391128,0.332560822,-0.200864199,0.380968,0.372173145,-0.311768916,0.427263,0.371477401,-0.274098999,0.4061,0.371154922,-0.256795718,0.396377,0.370868582,-0.241530567,0.387798
0.334171286,-0.377844181,0.457633,0.323670669,-0.332246484,0.439613,0.316475346,-0.364288904,0.456275,0.283160597,-0.334378021,0.450386,0.262038319,-0.308917591,0.447926,0.255210914,-0.289601893,0.445234,0.299134783,-0.28585791,0.427134,0.283820595,-0.241504068,0.40643,0.275982385,-0.219766251,0.396078,0.26885637,-0.199997117,0.386667,0.320157247,-0.291005321,0.423967,0.310314731,-0.244039608,0.399198,0.304565777,-0.216670131,0.38475,0.30045534,-0.197134164,0.37443,0.337832393,-0.299744314,0.423074,0.330737087,-0.252685895,0.401658,0.327099776,-0.228632327,0.390701,0.323788396,-0.206780268,0.38074,0.359162895,-0.317927564,0.425063,0.361440581,-0.278596451,0.404615,0.361481695,-0.263940675,0.39522,0.360102388,-0.254562634,0.38693
0.33287054,-0.379348472,0.45855,0.321664686,-0.332012787,0.438654,0.314550369,-0.365674348,0.456669,0.279549635,-0.338932902,0.450615,0.255784839,-0.316019488,0.448477,0.242913512,-0.296387228,0.444615,0.29120288,-0.287120239,0.424383,0.273917636,-0.241829883,0.402349,0.264645405,-0.220932433,0.391333,0.256207431,-0.201871837,0.381317,0.315554679,-0.289956985,0.421378,0.299598669,-0.243287037,0.395103,0.292015756,-0.215814739,0.380008,0.286596513,-0.196201576,0.369225,0.333780845,-0.298163585,0.420797,0.320127857,-0.250602154,0.398009,0.314288418,-0.226275255,0.38635,0.308926125,-0.204367774,0.375751,0.356287788,-0.315891841,0.423467,0.352988166,-0.276078581,0.401352,0.352127101,-0.258242044,0.391191,0.347364985,-0.253701342,0.382226
0.328387346,-0.377731454,0.455926,0.315425848,-0.330999546,0.436591,0.307184424,-0.365990916,0.455142,0.274241221,-0.338158005,0.451256,0.248685814,-0.315119505,0.447389,0.239000614,-0.296268122,0.444001,0.284061392,-0.285861213,0.424067,0.266985945,-0.24071819,0.403144,0.257594054,-0.21981098,0.392683,0.249044056,-0.200733565,0.383173,0.304464081,-0.289232471,0.419804,0.290466654,-0.24158538,0.393994,0.282309572,-0.213849995,0.378959,0.276479711,-0.19406191,0.36822,0.322090753,-0.296583568,0.418133,0.309934059,-0.248528415,0.395414,0.303705275,-0.223994769,0.38379,0.297953381,-0.201908235,0.373222,0.34416285,-0.313280101,0.419436,0.34387347,-0.272676937,0.39817,0.343617119,-0.254198937,0.388399,0.342077936,-0.250082351,0.379778
0.321069608,-0.377681738,0.454998,0.308561699,-0.329601176,0.435252,0.303625086,-0.364379131,0.45401,0.267221043,-0.332560962,0.449016,0.244512649,-0.30803253,0.446269,0.232497478,-0.291097721,0.440836,0.281835688,-0.283732576,0.422219,0.266199485,-0.240050682,0.405097,0.256194836,-0.216358779,0.397182,0.248990197,-0.196497935,0.389986,0.302053872,-0.288108372,0.418107,0.287782342,-0.240307565,0.393228,0.276729793,-0.211295684,0.378716,0.273506574,-0.19269373,0.36841,0.319425662,-0.296254468,0.4166,0.305126579,-0.247826623,0.397651,0.299271088,-0.223334981,0.38887,0.293947759,-0.201085727,0.380888,0.341006946,-0.313820582,0.418162,0.333190843,-0.272800237,0.396547,0.330496569,-0.253437037,0.386616,0.325067126,-0.243795679,0.377853
0.304484417,-0.369297611,0.451688,0.29485566,-0.318573475,0.43288,0.288124137,-0.355200319,0.451024,0.256463117,-0.321991113,0.44804,0.233707681,-0.297752788,0.445475,0.222871167,-0.277361285,0.442077,0.271513885,-0.272463401,0.420823,0.254630065,-0.226550532,0.401585,0.244281514,-0.206417241,0.391967,0.234833288,-0.187974876,0.383223,0.291153334,-0.278332508,0.416551,0.27715494,-0.230001857,0.39197,0.26895757,-0.201920457,0.377631,0.263239305,-0.181994698,0.367585,0.30772516,-0.28757376,0.414822,0.295848896,-0.235434557,0.391497,0.286996689,-0.213921186,0.379564,0.276321806,-0.200798027,0.368715,0.327781858,-0.306160382,0.415969,0.329465871,-0.265323332,0.398888,0.330142897,-0.246738733,0.391039,0.327717372,-0.236541547,0.384114
0.305299829,-0.364547758,0.451872,0.296312963,-0.308588107,0.432851,0.285677296,-0.346716752,0.451013,0.257059778,-0.319280996,0.446935,0.234057086,-0.295964747,0.444968,0.222828682,-0.276333181,0.442199,0.266509487,-0.265615903,0.420415,0.248885651,-0.220213452,0.403644,0.238278611,-0.200206624,0.395259,0.228579269,-0.181859515,0.387635,0.28732898,-0.268298152,0.416336,0.272188695,-0.218901824,0.394225,0.262629282,-0.191491213,0.381327,0.255799261,-0.171857287,0.372114,0.30543605,-0.274923725,0.414786,0.291440785,-0.225947539,0.394625,0.283775731,-0.201972441,0.38431,0.276807561,-0.180113629,0.374933,0.328266085,-0.290455018,0.416178,0.321277456,-0.24867434,0.394274,0.317227254,-0.231994255,0.38421,0.311633837,-0.223081633,0.375329
0.298582897,-0.346420734,0.447988,0.283634501,-0.293228537,0.430684,0.275022563,-0.329173681,0.447688,0.246834166,-0.301885359,0.444582,0.224885387,-0.279181988,0.444065,0.213923205,-0.259773862,0.441869,0.254923594,-0.249665701,0.41999,0.239419591,-0.203588077,0.401347,0.229753949,-0.183174247,0.392026,0.219775476,-0.166590157,0.383552,0.275473739,-0.251786639,0.415659,0.260090528,-0.202152807,0.39409,0.250134194,-0.174748138,0.381507,0.243018017,-0.155109594,0.37252,0.293322309,-0.258080887,0.41374,0.284158554,-0.207467437,0.395309,0.276901402,-0.185749882,0.385879,0.270294623,-0.165685105,0.377306,0.315790102,-0.273488491,0.41441,0.31253612,-0.229178385,0.393881,0.307638544,-0.216313989,0.384449,0.303375171,-0.204795819,0.376126
0.287089075,-0.333821448,0.447411,0.273650371,-0.279045418,0.430442,0.263508225,-0.315192459,0.447054,0.23629626,-0.287718442,0.444591,0.214992488,-0.265258358,0.444743,0.205733188,-0.246327952,0.444059,0.245896272,-0.23528817,0.419876,0.230768307,-0.190694293,0.405154,0.221686693,-0.170086347,0.397793,0.213283704,-0.151319612,0.391101,0.266807228,-0.237500414,0.41571,0.255470191,-0.188447591,0.39856,0.247600708,-0.161415715,0.388555,0.241970489,-0.141962586,0.381409,0.284731357,-0.2438531,0.413893,0.274155681,-0.194597744,0.397415,0.266881103,-0.172366904,0.388985,0.260240592,-0.151830007,0.38132,0.306966131,-0.25929196,0.414628,0.300242261,-0.217197841,0.394281,0.294935773,-0.203346603,0.384933,0.290291704,-0.190938604,0.376684
0.273797731,-0.318330714,0.443389,0.262946411,-0.265703677,0.4297,0.257362892,-0.307490486,0.444988,0.228907034,-0.274164752,0.445534,0.210328947,-0.251363564,0.447264,0.201748043,-0.232034482,0.446401,0.23882369,-0.223281105,0.423601,0.223961021,-0.178920308,0.409548,0.21498629,-0.157931744,0.402522,0.205096085,-0.140526972,0.396134,0.258057866,-0.225043285,0.417815,0.247545456,-0.176912466,0.402793,0.241289646,-0.148985672,0.394031,0.236826567,-0.129061059,0.38778,0.274411683,-0.230944535,0.414354,0.263581161,-0.182916083,0.399124,0.258042003,-0.158448407,0.391332,0.252016645,-0.136918199,0.384249,0.294429451,-0.245700663,0.412616,0.290208608,-0.203806171,0.397175,0.287388949,-0.18561415,0.390081,0.284574058,-0.169915701,0.383822
0.257479272,-0.291883273,0.439249,0.252700343,-0.244598328,0.428351,0.241402898,-0.281312777,0.44125,0.220538055,-0.256886487,0.445645,0.203796742,-0.236845715,0.450755,0.193686089,-0.218149034,0.450019,0.229367439,-0.203255655,0.424397,0.215199484,-0.161825941,0.416257,0.206781401,-0.141603537,0.412188,0.198781357,-0.123193735,0.408488,0.248518005,-0.203666322,0.418843,0.235586072,-0.155349562,0.401587,0.226547685,-0.128197359,0.391522,0.218579,-0.110026707,0.384332,0.264818057,-0.208454217,0.415303,0.256242269,-0.160377482,0.402054,0.24875023,-0.137749303,0.395276,0.241138535,-0.117580377,0.389114,0.284801123,-0.221982741,0.412998,0.285434002,-0.181450878,0.40382,0.284306975,-0.163390881,0.399604,0.280375666,-0.150748324,0.395883
0.255690814,-0.281478011,0.436237,0.248501297,-0.226636361,0.428324,0.240651029,-0.273028162,0.440214,0.218304533,-0.24355773,0.445646,0.200892136,-0.225765376,0.451741,0.190504729,-0.208285734,0.452124,0.224954793,-0.189757879,0.428695,0.210550212,-0.148099034,0.419737,0.200894636,-0.128216553,0.415258,0.19201501,-0.109890124,0.411186,0.242273858,-0.186585003,0.421421,0.23009334,-0.138604489,0.406071,0.219988663,-0.11209239,0.397117,0.212705297,-0.0928492873,0.390721,0.257312673,-0.188316121,0.416183,0.246038194,-0.140914443,0.402571,0.24027319,-0.116699506,0.395608,0.234231224,-0.0948805504,0.389277,0.276259373,-0.198103261,0.411392,0.275896526,-0.156506942,0.39774,0.271180237,-0.139745909,0.391467,0.261246846,-0.137256483,0.385932
0.258254874,-0.273686135,0.442297,0.246154869,-0.227010174,0.435253,0.242873227,-0.26701456,0.446845,0.220020951,-0.242785643,0.45374,0.20295639,-0.223013693,0.458987,0.191842236,-0.206647911,0.455852,0.219045629,-0.192714371,0.436877,0.207492267,-0.151402794,0.430118,0.200208759,-0.13102102,0.426739,0.193553891,-0.112378657,0.423667,0.236318711,-0.188395546,0.429108,0.225851166,-0.140622363,0.416089,0.218174082,-0.113268692,0.408495,0.212413241,-0.0937006209,0.403071,0.251638824,-0.189062127,0.423379,0.241486085,-0.141564451,0.410866,0.234205156,-0.118018328,0.404465,0.22597333,-0.0972916251,0.398645,0.271391127,-0.197306822,0.417871,0.265377774,-0.155664972,0.404864,0.262023483,-0.136877786,0.398889,0.255788959,-0.123471702,0.393616
0.2521868,-0.259182639,0.453631,0.239722832,-0.212881399,0.442775,0.237105791,-0.252420596,0.458357,0.214520362,-0.227099146,0.461378,0.198645548,-0.206380755,0.466335,0.188916077,-0.18732981,0.465314,0.212911462,-0.176535739,0.442345,0.202435737,-0.134986394,0.43536,0.195517828,-0.114397821,0.431868,0.189198818,-0.0955709956,0.428693,0.228849369,-0.172489444,0.433304,0.219217706,-0.124710952,0.419997,0.211804673,-0.0972341101,0.412234,0.206195801,-0.0775558746,0.406689,0.243175888,-0.173548723,0.42689,0.234035712,-0.126058518,0.414063,0.226940508,-0.102361729,0.4075,0.218621477,-0.0813997892,0.401534,0.262032628,-0.182574025,0.42122,0.256110687,-0.140691418,0.407009,0.252681908,-0.121781103,0.400479,0.24576134,-0.108071389,0.394717
0.251111856,-0.252117727,0.457551,0.233222619,-0.197079645,0.446461,0.232248882,-0.236819086,0.462128,0.205665716,-0.214216182,0.464648,0.18916634,-0.196165876,0.470858,0.17959483,-0.178788243,0.471572,0.204275138,-0.16172411,0.445701,0.193784978,-0.120436658,0.438608,0.185441526,-0.100099101,0.435061,0.177789435,-0.0814179786,0.431837,0.220396818,-0.156968898,0.436786,0.211948888,-0.109528256,0.424183,0.20268267,-0.0826011799,0.416831,0.196004181,-0.0630991497,0.41158,0.23508388,-0.157418822,0.430498,0.225986305,-0.11000708,0.416887,0.216452133,-0.0870983302,0.409923,0.206375117,-0.0667638841,0.403592,0.254717008,-0.16567955,0.425015,0.249301469,-0.123860171,0.410792,0.245855773,-0.104994492,0.404257,0.236442515,-0.0960499001,0.398491
0.244386526,-0.242825677,0.458136,0.231724851,-0.197070405,0.448525,0.229133027,-0.236731169,0.462921,0.205881829,-0.213772843,0.467073,0.190538537,-0.195537844,0.47412,0.18291979,-0.178480905,0.476042,0.204571007,-0.161922142,0.448916,0.195758066,-0.12156352,0.444418,0.188503183,-0.101115042,0.442169,0.181807119,-0.0828900418,0.440124,0.220675625,-0.157137151,0.44014,0.210708052,-0.109877036,0.430335,0.203026564,-0.083052996,0.424616,0.198866403,-0.064094657,0.420531,0.235173356,-0.157538333,0.433826,0.223498715,-0.111332893,0.426636,0.217040929,-0.0882198361,0.422958,0.211138834,-0.0670553179,0.419614,0.25204538,-0.164575494,0.428064,0.243231381,-0.122905593,0.414229,0.236578391,-0.10483505,0.407873,0.228999562,-0.0901256829,0.402265
0.239308671,-0.240411917,0.457949,0.22501396,-0.190333359,0.451117,0.221299961,-0.232579095,0.464038,0.200041334,-0.207613131,0.4733,0.187695983,-0.190912354,0.483086,0.184394436,-0.175775358,0.488238,0.205938686,-0.15374342,0.454846,0.197165564,-0.115126942,0.452169,0.188837542,-0.0956664216,0.450831,0.181169366,-0.0777354477,0.449614,0.221250212,-0.150816952,0.445156,0.210222301,-0.104584608,0.43578,0.202039147,-0.0776856084,0.430311,0.196171387,-0.0583686341,0.426404,0.234262617,-0.152694619,0.437826,0.223076964,-0.107385571,0.429861,0.21586689,-0.0842619226,0.425786,0.210829312,-0.0652892911,0.422081,0.251810442,-0.163979835,0.430411,0.241351524,-0.122141065,0.420858,0.234028375,-0.104463511,0.416469,0.227506803,-0.0886615089,0.412596
0.236679361,-0.239114359,0.457683,0.225007476,-0.190327874,0.451104,0.219571963,-0.231056975,0.463811,0.200118679,-0.207693404,0.473483,0.187824976,-0.191043558,0.483418,0.184586672,-0.175958609,0.488747,0.206023806,-0.153806967,0.455034,0.197297249,-0.115203834,0.452471,0.188987914,-0.0957426014,0.45119,0.181334573,-0.0778063342,0.450024,0.221353591,-0.150887421,0.445364,0.210271989,-0.104609327,0.435883,0.202058867,-0.0776931908,0.430353,0.196170467,-0.0583683603,0.426402,0.234369628,-0.15276437,0.438026,0.223239396,-0.107463763,0.430174,0.216054981,-0.0843353425,0.426157,0.210526245,-0.0646376888,0.422505,0.251359144,-0.163537852,0.430559,0.24153733,-0.122235096,0.421182,0.234255959,-0.104565097,0.416874,0.227769822,-0.0887640099,0.413073
0.234300974,-0.236660045,0.455727,0.224194391,-0.188698139,0.450338,0.218504086,-0.22922133,0.462948,0.20013755,-0.206890903,0.473204,0.18802121,-0.190697205,0.483639,0.184800832,-0.175823695,0.489233,0.205866573,-0.153424013,0.456384,0.197036783,-0.114534266,0.453102,0.188581212,-0.094975942,0.45146,0.180806261,-0.0769773424,0.449968,0.220512991,-0.149678378,0.445636,0.210518624,-0.103605136,0.436802,0.202816277,-0.076752053,0.431649,0.197295036,-0.0574736478,0.427969,0.230782394,-0.147463457,0.437298,0.217499648,-0.101684221,0.427668,0.20757956,-0.0787311815,0.422742,0.20486455,-0.0611746065,0.419525,0.245968262,-0.155406621,0.428463,0.23329845,-0.115357861,0.418985,0.227303601,-0.0969959457,0.41463,0.221343824,-0.0808730557,0.410788
0.233318398,-0.235633,0.455591,0.223962798,-0.18803095,0.450306,0.218054907,-0.228321416,0.462835,0.200266039,-0.206612764,0.473346,0.188168904,-0.19057424,0.483877,0.184937023,-0.175783833,0.489553,0.205510318,-0.15302541,0.456445,0.196900093,-0.114195551,0.453403,0.188498123,-0.0946531354,0.451883,0.180767208,-0.0766587573,0.4505,0.220054921,-0.149048096,0.445696,0.210698552,-0.103130855,0.437379,0.203303537,-0.0763223669,0.432528,0.198000551,-0.057067707,0.429063,0.230807726,-0.147479644,0.437346,0.217531179,-0.101698962,0.42773,0.20761295,-0.0787438458,0.42281,0.202692831,-0.0602009594,0.418337,0.245979169,-0.155413512,0.428482,0.233282859,-0.115350152,0.418957,0.227276191,-0.096984249,0.41458,0.221306645,-0.0808594715,0.410719
0.232605932,-0.234888653,0.455474,0.223813462,-0.187621825,0.450266,0.217732987,-0.22769794,0.462712,0.200331646,-0.206433925,0.473404,0.188246724,-0.190489445,0.483992,0.185013066,-0.17575445,0.48973,0.205279787,-0.152773803,0.456444,0.196776987,-0.11396846,0.453489,0.188396121,-0.0944331797,0.452012,0.180683787,-0.0764420088,0.45067,0.219775615,-0.148666906,0.445723,0.210784238,-0.102835306,0.437679,0.203563774,-0.0760522783,0.432987,0.198385017,-0.0568126424,0.429635,0.230830947,-0.147494481,0.43739,0.217405562,-0.101640234,0.427483,0.207418516,-0.0786701087,0.422414,0.20147632,-0.0596421548,0.417806,0.246007299,-0.155431285,0.428531,0.233290654,-0.115354007,0.418971,0.227275094,-0.0969837811,0.414578,0.221297485,-0.0808561247,0.410702
