sluyters/QuantumLeap/src/datasets/gesture/HandGestureDataset_SHREC2017_csv/Gesture6/finger_1/subject_28_essai_5_skeletons_world.csv
Wrist_x,Wrist_y,Wrist_z,Palm_x,Palm_y,Palm_z,thumb_base_x,thumb_base_y,thumb_base_z,thumb_first_joint_x,thumb_first_joint_y,thumb_first_joint_z,thumb_second_joint_x,thumb_second_joint_y,thumb_second_joint_z,thumb_tip_x,thumb_tip_y,thumb_tip_z,index_base_x,index_base_y,index_base_z,index_first_joint_x,index_first_joint_y,index_first_joint_z,index_second_joint_x,index_second_joint_y,index_second_joint_z,index_tip_x,index_tip_y,index_tip_z,middle_base_x,middle_base_y,middle_base_z,middle_first_joint_x,middle_first_joint_y,middle_first_joint_z,middle_second_joint_x,middle_second_joint_y,middle_second_joint_z,middle_tip_x,middle_tip_y,middle_tip_z,ring_base_x,ring_base_y,ring_base_z,ring_first_joint_x,ring_first_joint_y,ring_first_joint_z,ring_second_joint_x,ring_second_joint_y,ring_second_joint_z,ring_tip_x,ring_tip_y,ring_tip_z,pinky_base_x,pinky_base_y,pinky_base_z,pinky_first_joint_x,pinky_first_joint_y,pinky_first_joint_z,pinky_second_joint_x,pinky_second_joint_y,pinky_second_joint_z,pinky_tip_x,pinky_tip_y,pinky_tip_z,
0.351968393,-0.328121862,0.477684,0.35825309,-0.272534672,0.456596,0.345510931,-0.310468159,0.48212,0.324974154,-0.281953311,0.475335,0.299242998,-0.247965508,0.458076,0.286792766,-0.224045364,0.446499,0.348469113,-0.223861499,0.449269,0.34711711,-0.183819283,0.426988,0.3453624,-0.164258882,0.415848,0.343608082,-0.146542888,0.405721,0.359128611,-0.229085443,0.437739,0.329560658,-0.1979468,0.410372,0.304023083,-0.209997268,0.394409,0.305270821,-0.223989356,0.397747,0.367738604,-0.237920961,0.430277,0.330160621,-0.219593727,0.400413,0.334932401,-0.247314849,0.413851,0.341418272,-0.27184866,0.426066,0.379697696,-0.254378043,0.425159,0.337549838,-0.246901785,0.407035,0.335090335,-0.256840006,0.417175,0.331041846,-0.26764436,0.427485
0.353689018,-0.327161027,0.478231,0.358628976,-0.272120899,0.456733,0.346426558,-0.310037376,0.482598,0.325551626,-0.281706033,0.475678,0.299295943,-0.248032162,0.458447,0.286701927,-0.224069504,0.446742,0.348367359,-0.22327779,0.449064,0.346762005,-0.183134687,0.426508,0.344869319,-0.163549498,0.41523,0.342888336,-0.145862742,0.404978,0.359090701,-0.228456968,0.43751,0.329430627,-0.197372652,0.409798,0.303744053,-0.20933374,0.393633,0.304798769,-0.223090243,0.396757,0.367788875,-0.237270903,0.430067,0.329727351,-0.21850404,0.399866,0.334241362,-0.246113927,0.413117,0.340476059,-0.270628509,0.425163,0.379504345,-0.254042608,0.425041,0.337467064,-0.24629785,0.406667,0.334270494,-0.256366981,0.416661,0.330866965,-0.267150865,0.427003
0.354511223,-0.32441866,0.47806,0.357532247,-0.266791546,0.454798,0.34659767,-0.304554003,0.480569,0.320593738,-0.269020867,0.470613,0.292980435,-0.238571753,0.451414,0.281161235,-0.218150951,0.439046,0.344697264,-0.211514467,0.443653,0.343554055,-0.170771956,0.420206,0.340970354,-0.151531823,0.408483,0.348238037,-0.144132449,0.409798,0.35732894,-0.218543853,0.433998,0.325424631,-0.194933535,0.404714,0.299280296,-0.20634672,0.387632,0.300322727,-0.219451094,0.39063,0.367300788,-0.232405741,0.428289,0.328273487,-0.214783479,0.397138,0.33269572,-0.242447324,0.41076,0.338989795,-0.268289935,0.423143,0.379687663,-0.252300881,0.425589,0.337394699,-0.24262972,0.405096,0.333074185,-0.253813914,0.415262,0.332872939,-0.265499446,0.426417
0.353329481,-0.319178169,0.475549,0.354242065,-0.260854646,0.45279,0.343850131,-0.301402656,0.477654,0.317389401,-0.267049333,0.467112,0.28953492,-0.237530907,0.447143,0.276217479,-0.212694689,0.432751,0.343055172,-0.210067963,0.441436,0.341266012,-0.16912554,0.418513,0.33864147,-0.149694546,0.407052,0.344371715,-0.135199149,0.406213,0.356122864,-0.217598333,0.432439,0.324724346,-0.194531751,0.403566,0.299543866,-0.206208053,0.386724,0.299531916,-0.219661724,0.390207,0.366445227,-0.230944774,0.427223,0.333093221,-0.208175738,0.396659,0.334899105,-0.238367673,0.410833,0.339379812,-0.265838785,0.423719,0.379010347,-0.251242524,0.425013,0.337347149,-0.242274453,0.404518,0.333359062,-0.253910094,0.415081,0.329678609,-0.265518705,0.42639
0.352657048,-0.31473094,0.471939,0.354070665,-0.257861028,0.450276,0.342511146,-0.298778355,0.474595,0.323671974,-0.270451442,0.464982,0.293567257,-0.243724213,0.444515,0.276288208,-0.216754163,0.430801,0.341208462,-0.20839421,0.440308,0.331273679,-0.164075268,0.419438,0.325886997,-0.144027662,0.409003,0.32728881,-0.129018149,0.408227,0.353540122,-0.209206733,0.430905,0.319147787,-0.192505464,0.402969,0.298013361,-0.206300671,0.386673,0.300533967,-0.219075038,0.390557,0.365738424,-0.216522227,0.42525,0.329939136,-0.205927663,0.395463,0.33438145,-0.233938152,0.409884,0.339687834,-0.261528117,0.422993,0.381097838,-0.233769893,0.42234,0.340587008,-0.225371054,0.402752,0.334787283,-0.238066145,0.413534,0.334418003,-0.250393879,0.424609
0.36038891,-0.298735888,0.463385,0.356187035,-0.241307464,0.444137,0.346615111,-0.286359032,0.46653,0.324540433,-0.264168922,0.457891,0.289685519,-0.238796093,0.43618,0.273223658,-0.216051783,0.422179,0.331400677,-0.196727958,0.436288,0.321125116,-0.154735999,0.416729,0.315585852,-0.134085732,0.40695,0.317858875,-0.117969513,0.40742,0.347169828,-0.195811811,0.426926,0.315602654,-0.180841263,0.401073,0.300823692,-0.197415871,0.385992,0.307617563,-0.209181864,0.391018,0.361031691,-0.199817812,0.421072,0.327887098,-0.195717684,0.393291,0.338909001,-0.225047831,0.408624,0.34992269,-0.252309683,0.422563,0.379172137,-0.213060419,0.417518,0.342600118,-0.208682451,0.399506,0.338443918,-0.223843869,0.411012,0.337625135,-0.23809449,0.421813
0.3686259,-0.290254768,0.464683,0.353666625,-0.231327015,0.44292,0.351025119,-0.279073099,0.465884,0.32241499,-0.260580839,0.454081,0.287335844,-0.237043264,0.431706,0.269880336,-0.215375932,0.41739,0.320924326,-0.187127982,0.43102,0.305173871,-0.145804261,0.408414,0.296970812,-0.125582837,0.39711,0.295288362,-0.109250512,0.394548,0.338770512,-0.185286428,0.42346,0.30904737,-0.17706904,0.395447,0.294795048,-0.192893333,0.379106,0.301334708,-0.203102796,0.383512,0.355012548,-0.188626555,0.419331,0.32420282,-0.192025381,0.390012,0.336309198,-0.220988414,0.405215,0.348252738,-0.247459999,0.419036,0.377044077,-0.201224282,0.41822,0.33991774,-0.201440518,0.397705,0.336723986,-0.22016186,0.408999,0.336970767,-0.234768223,0.420599
0.371391126,-0.288733587,0.464625,0.354963151,-0.231224931,0.442412,0.35293995,-0.278195515,0.465498,0.323504394,-0.260428862,0.453168,0.288770968,-0.237654775,0.43076,0.269299204,-0.21594751,0.416216,0.320129149,-0.187604325,0.429812,0.303892104,-0.144882789,0.408109,0.302762544,-0.125804894,0.408849,0.302655816,-0.108503723,0.409522,0.338316761,-0.184925026,0.422548,0.308359133,-0.176097735,0.394157,0.2941492,-0.191758648,0.377596,0.30024484,-0.201491651,0.381867,0.355019268,-0.187596629,0.418708,0.323881576,-0.187789456,0.389114,0.336179873,-0.216651985,0.404258,0.347429595,-0.245119801,0.418026,0.377938183,-0.199444074,0.41801,0.341536,-0.199813361,0.397067,0.338852636,-0.216398194,0.408298,0.33833397,-0.233505005,0.420024
0.371454807,-0.285138324,0.461209,0.354576227,-0.229762241,0.441542,0.351513428,-0.27504384,0.460796,0.3237919,-0.258568969,0.446949,0.285630602,-0.237066967,0.422739,0.263342319,-0.216162232,0.407725,0.31370448,-0.188990753,0.428863,0.292234584,-0.144638816,0.407194,0.288636555,-0.128333151,0.407464,0.285169926,-0.112664614,0.407709,0.333571502,-0.182805787,0.423956,0.309350461,-0.17635704,0.397896,0.298127091,-0.193764925,0.382694,0.305652247,-0.204340622,0.388659,0.352303379,-0.182431363,0.421811,0.325679362,-0.18198666,0.395144,0.33862476,-0.209894894,0.411927,0.351865579,-0.227849191,0.427185,0.378730712,-0.190447345,0.422658,0.34614668,-0.191601616,0.402424,0.349058059,-0.210027348,0.414835,0.353676257,-0.225921514,0.426769
0.374659559,-0.279514318,0.458739,0.353659989,-0.227820224,0.440122,0.352733086,-0.271046141,0.457173,0.323800796,-0.256413017,0.441913,0.283889758,-0.235638666,0.416752,0.260196727,-0.214312621,0.402811,0.310249281,-0.188409919,0.426609,0.284209548,-0.144548925,0.404953,0.280367735,-0.128105225,0.405974,0.280728767,-0.113450219,0.406902,0.331268519,-0.181681486,0.423474,0.308547876,-0.173414411,0.398497,0.303317599,-0.188266782,0.383926,0.308127839,-0.203331697,0.39062,0.349205181,-0.17869265,0.422687,0.32890074,-0.18119565,0.397582,0.34322791,-0.209470957,0.415057,0.358139453,-0.221151736,0.430944,0.377473694,-0.184369639,0.42494,0.3509776,-0.186089335,0.404748,0.357023007,-0.206654446,0.417626,0.359895535,-0.225947589,0.429727
0.385952763,-0.274198085,0.459514,0.358428034,-0.222485884,0.441504,0.365410377,-0.268305437,0.456937,0.339332431,-0.252003785,0.44044,0.295946172,-0.23229818,0.414319,0.27034357,-0.215731521,0.401321,0.310761029,-0.189179935,0.427067,0.280195651,-0.148108816,0.406454,0.274981139,-0.132964019,0.409255,0.270428406,-0.119107327,0.411802,0.332435736,-0.18150328,0.425399,0.319333452,-0.169363666,0.401127,0.317467057,-0.185567073,0.386968,0.324947471,-0.198415225,0.394078,0.351744488,-0.177456071,0.425761,0.341856384,-0.171780038,0.401767,0.36035879,-0.200611458,0.419617,0.372073474,-0.216972932,0.435844,0.380708892,-0.177203035,0.429253,0.361585188,-0.181046218,0.408959,0.368716377,-0.20189317,0.422071,0.376001735,-0.217525609,0.434297
0.392305903,-0.260770281,0.453517,0.359632328,-0.216024525,0.438873,0.368506422,-0.260085715,0.450889,0.335854611,-0.247101848,0.434968,0.296939947,-0.227123767,0.408025,0.271201947,-0.20964986,0.391081,0.310186599,-0.188295831,0.42645,0.274924638,-0.148378186,0.408184,0.267986239,-0.134393018,0.410383,0.261188616,-0.120819719,0.412381,0.33114957,-0.177345827,0.425778,0.323969927,-0.169760579,0.404667,0.323268899,-0.186562772,0.392352,0.329589012,-0.193915529,0.40088,0.350000666,-0.169777423,0.426635,0.347255747,-0.166823916,0.405968,0.371282724,-0.195411644,0.424779,0.384444095,-0.213097977,0.441879,0.378622997,-0.170744521,0.430132,0.365821051,-0.168745224,0.411862,0.378024224,-0.190829357,0.425714,0.387844463,-0.208737762,0.437514
0.395561476,-0.248049786,0.448128,0.362172264,-0.204491897,0.436846,0.373226273,-0.250759374,0.446679,0.348110698,-0.236968548,0.432995,0.307288814,-0.220835958,0.405859,0.274630062,-0.208315734,0.390855,0.311264832,-0.188834602,0.428014,0.27242179,-0.156789057,0.412881,0.262958247,-0.145439226,0.416891,0.253640907,-0.1343619,0.420537,0.329583733,-0.174002618,0.426757,0.322733745,-0.162258734,0.408648,0.328866561,-0.177634559,0.398085,0.337597135,-0.188390176,0.407809,0.345704038,-0.163200482,0.426809,0.34518758,-0.159177675,0.408849,0.373992074,-0.185631853,0.428336,0.390601116,-0.203241973,0.446051,0.372490251,-0.158241548,0.428793,0.362349027,-0.157907727,0.413129,0.378688473,-0.17943104,0.427569,0.390926421,-0.19624451,0.438681
0.415201221,-0.244316497,0.459298,0.366205758,-0.204362499,0.439464,0.388220813,-0.247366258,0.452394,0.351525733,-0.232586393,0.430152,0.308668456,-0.219435037,0.40488,0.280833691,-0.20765492,0.392181,0.30562872,-0.184629544,0.418342,0.280064541,-0.168700599,0.42564,0.268597584,-0.159204501,0.429289,0.25776985,-0.150062833,0.432606,0.325466644,-0.171636004,0.421729,0.312398007,-0.156601355,0.396653,0.344394202,-0.183993548,0.416506,0.358606972,-0.197767309,0.431808,0.345149729,-0.162465932,0.426428,0.339314202,-0.154995579,0.403172,0.366999003,-0.179464656,0.42045,0.38274121,-0.196027555,0.436158,0.377497668,-0.158733133,0.435296,0.359472531,-0.15244871,0.412215,0.375742751,-0.172485313,0.424668,0.390587587,-0.192753697,0.437621
0.416797533,-0.240361212,0.459001,0.368831123,-0.201194242,0.44015,0.390461601,-0.244453925,0.452112,0.353104272,-0.230451655,0.430077,0.313424392,-0.217219417,0.405192,0.292410425,-0.204341076,0.393545,0.306775763,-0.185393654,0.419653,0.275309054,-0.175464362,0.424602,0.258915317,-0.169263264,0.427077,0.243742014,-0.163317986,0.429327,0.326223475,-0.171736123,0.423293,0.314315597,-0.157099653,0.399135,0.348203283,-0.182163179,0.419303,0.362067537,-0.197422559,0.434372,0.344891096,-0.160961791,0.428106,0.34136607,-0.1551973,0.405805,0.369760831,-0.177699299,0.423359,0.385898933,-0.19647879,0.439317,0.374080474,-0.151977956,0.436939,0.361344374,-0.15315416,0.414461,0.377817709,-0.173277336,0.427128,0.392503351,-0.189557637,0.439951
0.426346542,-0.228648121,0.462587,0.371676624,-0.197805008,0.44312,0.401414194,-0.236019927,0.454879,0.365097362,-0.222021164,0.431761,0.325484158,-0.212015846,0.406855,0.296761877,-0.20390773,0.394854,0.308501638,-0.187568292,0.421191,0.276413436,-0.185392845,0.427923,0.259220775,-0.182583049,0.431289,0.242996863,-0.17989776,0.434349,0.32638032,-0.171957478,0.425712,0.308166893,-0.151830636,0.401193,0.346836766,-0.171204679,0.420981,0.366156576,-0.185625654,0.436062,0.339817487,-0.159462086,0.43131,0.337757611,-0.147826636,0.408928,0.370300669,-0.167386144,0.426168,0.390083416,-0.184668642,0.44184,0.368537878,-0.148808454,0.441165,0.355233165,-0.140849521,0.418042,0.37571989,-0.158260377,0.430429,0.393820619,-0.174208114,0.44337
0.421164553,-0.21544298,0.456636,0.369453669,-0.195380648,0.444807,0.398860319,-0.230916317,0.451609,0.365676531,-0.216119942,0.433333,0.325283678,-0.209768115,0.407349,0.297033933,-0.202422833,0.394702,0.311334837,-0.20078157,0.431039,0.276496504,-0.201699556,0.436301,0.258680788,-0.201665893,0.438931,0.241952061,-0.201479868,0.441323,0.320597508,-0.180818542,0.434229,0.308288155,-0.165614937,0.416336,0.349809048,-0.183914012,0.438588,0.367064289,-0.195379663,0.452045,0.333029641,-0.165714799,0.437995,0.330237671,-0.152738353,0.421567,0.36769393,-0.166508673,0.440909,0.393038649,-0.180717913,0.458492,0.356314118,-0.150270982,0.444408,0.347477034,-0.146950563,0.427003,0.373493218,-0.160526552,0.44115,0.394165042,-0.171358936,0.452762
0.418306924,-0.211908073,0.45344,0.369374766,-0.19704715,0.444366,0.399115127,-0.224310856,0.448654,0.365452648,-0.214700595,0.431352,0.324779802,-0.208053817,0.405994,0.296869358,-0.201222701,0.393645,0.315366187,-0.20737821,0.432611,0.281696713,-0.212257031,0.439674,0.264308864,-0.214067095,0.443205,0.247924421,-0.21555075,0.446415,0.32303702,-0.187442912,0.436252,0.311130668,-0.169103295,0.421007,0.353631588,-0.186605935,0.443768,0.370871769,-0.197979879,0.456428,0.334313921,-0.169246225,0.440124,0.332599284,-0.155582299,0.426372,0.370793244,-0.168491682,0.446159,0.397198643,-0.182876008,0.464147,0.35645145,-0.153076217,0.446192,0.348743707,-0.149099471,0.430678,0.375523083,-0.162179123,0.445189,0.396237246,-0.17253583,0.456276
0.420774294,-0.210563714,0.456055,0.369050194,-0.196064299,0.445758,0.400780205,-0.222805131,0.449454,0.364846018,-0.213378905,0.429714,0.325216577,-0.205564815,0.40509,0.298302751,-0.198765289,0.39217,0.314888601,-0.207101065,0.430913,0.283640178,-0.21946947,0.438956,0.266776066,-0.225227089,0.442978,0.250814097,-0.230582522,0.446634,0.322893213,-0.187992068,0.436549,0.310659496,-0.169384299,0.420586,0.352925721,-0.185499232,0.442717,0.370348866,-0.196864421,0.455437,0.334268697,-0.172943705,0.442181,0.333316165,-0.156593201,0.428338,0.371090662,-0.169283786,0.447611,0.395853265,-0.183555303,0.465132,0.356267328,-0.156435957,0.450513,0.337328312,-0.142707516,0.433603,0.363222029,-0.155293855,0.44763,0.37959235,-0.165308525,0.459021
0.419089659,-0.208200419,0.454673,0.36649263,-0.196041593,0.445374,0.39972093,-0.220877765,0.447998,0.363496547,-0.212537615,0.428437,0.323751047,-0.204270995,0.403336,0.296136465,-0.199120803,0.39112,0.314639865,-0.208642219,0.431052,0.283064031,-0.226293828,0.440358,0.26669051,-0.232865426,0.445011,0.251716001,-0.235469703,0.449241,0.321613482,-0.190728929,0.437058,0.310473021,-0.171780027,0.42211,0.353567958,-0.186223846,0.444346,0.370927947,-0.197567834,0.456733,0.331891803,-0.175549383,0.442899,0.312282962,-0.157244033,0.430141,0.348999671,-0.166214267,0.449511,0.379758111,-0.180109976,0.467119,0.35243604,-0.158340375,0.451305,0.330943891,-0.145862569,0.43504,0.357404153,-0.156288329,0.449143,0.377942211,-0.165814115,0.460335
0.420563678,-0.205225953,0.457367,0.366408435,-0.1967698,0.445847,0.401316762,-0.220256462,0.449253,0.36268265,-0.213992916,0.427494,0.324218973,-0.211351394,0.403456,0.299296317,-0.211222099,0.391909,0.31426295,-0.216227939,0.428304,0.28620937,-0.236925469,0.43876,0.270952337,-0.246175874,0.443988,0.256385287,-0.254825542,0.448741,0.318590778,-0.198414435,0.435545,0.291496488,-0.177178169,0.418834,0.332206928,-0.182535775,0.440241,0.355871447,-0.192359722,0.453005,0.326971184,-0.183711187,0.442616,0.310835989,-0.15914662,0.428537,0.347039655,-0.165897403,0.447211,0.377279391,-0.178567706,0.464188,0.345457561,-0.1661842,0.452838,0.336507818,-0.153377804,0.434682,0.36364116,-0.157789538,0.448176,0.377361084,-0.166179225,0.459798
0.419059551,-0.203462345,0.4557,0.367234476,-0.200262347,0.444414,0.400572988,-0.218609304,0.447491,0.365204641,-0.215242109,0.425689,0.330530768,-0.21433141,0.400674,0.305703334,-0.21806775,0.390121,0.317514975,-0.222156349,0.426894,0.291188756,-0.246272859,0.437092,0.276621528,-0.257010854,0.442192,0.262679187,-0.267077688,0.446827,0.319966875,-0.204707809,0.434321,0.293329932,-0.184006655,0.417873,0.334225685,-0.188474516,0.439271,0.356462598,-0.194789764,0.451938,0.326742415,-0.189995926,0.441523,0.315491352,-0.16775553,0.427752,0.352482474,-0.172486567,0.446421,0.378212826,-0.180266942,0.463394,0.34320456,-0.171896878,0.451857,0.334312396,-0.158396547,0.433832,0.362392847,-0.16161395,0.44732,0.376974647,-0.166967327,0.458893
0.419026572,-0.202520744,0.45568,0.367327264,-0.201889107,0.443509,0.401410744,-0.216143902,0.446813,0.368623991,-0.215297828,0.424061,0.332607074,-0.213572505,0.400307,0.308895394,-0.21797453,0.390721,0.321840932,-0.227497274,0.424597,0.300522678,-0.257460799,0.436257,0.288290756,-0.271816341,0.442087,0.276499092,-0.285159874,0.447388,0.321255873,-0.210834073,0.432625,0.299050267,-0.191025117,0.415518,0.340294741,-0.194166427,0.436498,0.363949247,-0.198917952,0.449271,0.325492407,-0.196326244,0.440407,0.321243842,-0.174845295,0.426185,0.358446609,-0.179795851,0.444503,0.385739434,-0.191229611,0.461155,0.338911856,-0.17778175,0.451569,0.333057209,-0.164695347,0.432785,0.36009465,-0.169899895,0.44597,0.377120663,-0.173103252,0.457693
0.419651325,-0.201658344,0.456109,0.368045802,-0.203023039,0.443664,0.403754677,-0.214481915,0.446872,0.37213741,-0.214428049,0.423649,0.336304621,-0.211775985,0.399334,0.313617812,-0.217112993,0.390197,0.323922902,-0.228419622,0.424108,0.305526322,-0.260411612,0.434345,0.293468833,-0.274079984,0.439463,0.278139736,-0.284641026,0.444116,0.32297781,-0.212285729,0.432536,0.301034337,-0.192123574,0.415286,0.342022887,-0.194597387,0.436046,0.364463162,-0.200135738,0.448802,0.326878504,-0.198079738,0.440674,0.321760624,-0.176436502,0.426434,0.358813805,-0.181361364,0.444568,0.386985013,-0.192244107,0.461054,0.339836278,-0.179631844,0.452297,0.33296792,-0.166174951,0.43324,0.359868199,-0.171107794,0.446267,0.378175872,-0.177315777,0.458026
0.417743165,-0.199551583,0.45389,0.36844021,-0.204788487,0.444409,0.405503562,-0.212476592,0.446624,0.377788974,-0.213835171,0.426348,0.34184039,-0.212795522,0.40145,0.319595844,-0.218497271,0.39232,0.336736654,-0.236347405,0.429215,0.311725265,-0.261703303,0.434951,0.298400928,-0.274973197,0.437819,0.282661133,-0.285641654,0.440426,0.33140098,-0.220058799,0.43593,0.311888362,-0.207838032,0.42098,0.351770918,-0.207466436,0.442984,0.37373344,-0.207924861,0.455298,0.330244877,-0.202762394,0.442372,0.323034142,-0.190231461,0.429825,0.36017079,-0.19446409,0.449005,0.389792453,-0.199262409,0.46644,0.33897876,-0.182630528,0.451511,0.327343574,-0.175477133,0.434954,0.354384355,-0.176723253,0.448883,0.378666289,-0.178089806,0.460111
0.418673933,-0.198984525,0.454712,0.368987753,-0.205044536,0.444211,0.407268909,-0.212272116,0.447468,0.379548546,-0.213758994,0.426945,0.345369673,-0.213170956,0.401513,0.321460669,-0.218586826,0.392024,0.336205435,-0.235958482,0.428415,0.311368016,-0.261946043,0.434575,0.298171159,-0.27550881,0.437655,0.283655603,-0.286766439,0.440455,0.330615716,-0.219477113,0.434821,0.310337764,-0.206743995,0.418849,0.350345959,-0.206402464,0.440734,0.37270273,-0.207980195,0.453381,0.329627606,-0.202872901,0.441107,0.318630886,-0.189648702,0.427485,0.35561506,-0.193234317,0.446559,0.386958098,-0.197016906,0.463899,0.33783623,-0.18257356,0.450236,0.325922091,-0.174493028,0.433001,0.35288995,-0.175701845,0.446845,0.37662756,-0.177248334,0.458279
0.421506992,-0.196411423,0.457667,0.370676288,-0.204364725,0.446193,0.411966331,-0.209603395,0.448194,0.380195119,-0.20617739,0.424976,0.346457222,-0.206185808,0.400232,0.324676612,-0.217214687,0.39243,0.335401313,-0.233945983,0.426934,0.311805929,-0.260950619,0.434433,0.299180486,-0.275071084,0.438183,0.287196726,-0.288299903,0.441592,0.330558333,-0.218088572,0.435933,0.309060993,-0.204452671,0.417054,0.347265696,-0.201402238,0.437649,0.369474031,-0.205437128,0.450942,0.332272432,-0.204021765,0.444448,0.312816385,-0.186363884,0.423533,0.34838003,-0.188363355,0.441248,0.380823734,-0.193691542,0.457353,0.342198849,-0.183616374,0.456347,0.33198849,-0.173577297,0.437884,0.359628084,-0.174606711,0.450912,0.37995711,-0.17360695,0.462461
0.42458435,-0.196628856,0.460392,0.375696383,-0.20568682,0.447763,0.416002413,-0.208801028,0.450312,0.383206088,-0.205110554,0.426146,0.348959503,-0.19908068,0.399041,0.326538849,-0.202832411,0.388958,0.33758123,-0.230529562,0.427008,0.314714041,-0.258499742,0.435293,0.30154197,-0.274018656,0.439435,0.28927802,-0.288296693,0.443201,0.334140995,-0.215714631,0.436469,0.315101696,-0.199990803,0.416525,0.354580111,-0.1990333,0.436627,0.372754337,-0.205478072,0.450152,0.335601078,-0.201779082,0.445475,0.318897111,-0.18503316,0.42341,0.354935729,-0.185759976,0.440694,0.380781243,-0.192858024,0.456407,0.345428839,-0.181477008,0.458145,0.33616919,-0.169979489,0.43877,0.362617754,-0.172686398,0.451452,0.382128689,-0.173339794,0.463189
