sluyters/QuantumLeap/src/datasets/gesture/HandGestureDataset_SHREC2017_csv/Gesture6/finger_1/subject_13_essai_5_skeletons_world.csv
Wrist_x,Wrist_y,Wrist_z,Palm_x,Palm_y,Palm_z,thumb_base_x,thumb_base_y,thumb_base_z,thumb_first_joint_x,thumb_first_joint_y,thumb_first_joint_z,thumb_second_joint_x,thumb_second_joint_y,thumb_second_joint_z,thumb_tip_x,thumb_tip_y,thumb_tip_z,index_base_x,index_base_y,index_base_z,index_first_joint_x,index_first_joint_y,index_first_joint_z,index_second_joint_x,index_second_joint_y,index_second_joint_z,index_tip_x,index_tip_y,index_tip_z,middle_base_x,middle_base_y,middle_base_z,middle_first_joint_x,middle_first_joint_y,middle_first_joint_z,middle_second_joint_x,middle_second_joint_y,middle_second_joint_z,middle_tip_x,middle_tip_y,middle_tip_z,ring_base_x,ring_base_y,ring_base_z,ring_first_joint_x,ring_first_joint_y,ring_first_joint_z,ring_second_joint_x,ring_second_joint_y,ring_second_joint_z,ring_tip_x,ring_tip_y,ring_tip_z,pinky_base_x,pinky_base_y,pinky_base_z,pinky_first_joint_x,pinky_first_joint_y,pinky_first_joint_z,pinky_second_joint_x,pinky_second_joint_y,pinky_second_joint_z,pinky_tip_x,pinky_tip_y,pinky_tip_z,
0.43875156,-0.32844673,0.513822,0.44244798,-0.27662495,0.518517,0.41443931,-0.30929458,0.509576,0.40094282,-0.2628968,0.508778,0.38448494,-0.23234591,0.506167,0.3781345,-0.21055847,0.504623,0.4142355,-0.22244805,0.517642,0.41731882,-0.18458472,0.524699,0.42099516,-0.16460151,0.528227,0.42436791,-0.1457021,0.531435,0.44461823,-0.22796222,0.524634,0.45425026,-0.20508236,0.520847,0.45390683,-0.22694973,0.518639,0.46361995,-0.25540189,0.533959,0.46982215,-0.23518841,0.530047,0.47658622,-0.22136535,0.523888,0.46966688,-0.24301313,0.520737,0.47635188,-0.26829159,0.536701,0.50033801,-0.24928062,0.535871,0.49828308,-0.24160802,0.529082,0.49693016,-0.26011737,0.525962,0.50957969,-0.28425164,0.537968
0.44194441,-0.3298779,0.516498,0.44355865,-0.27781159,0.519303,0.41654577,-0.30935281,0.5121,0.40144182,-0.26502334,0.510564,0.38463116,-0.23398514,0.507056,0.37743658,-0.21214883,0.505089,0.41485677,-0.22194125,0.516527,0.41699608,-0.18320493,0.522179,0.41993156,-0.16323416,0.525005,0.42262498,-0.14431124,0.527574,0.44496152,-0.22727884,0.522956,0.45100003,-0.20581148,0.517101,0.44742702,-0.23100754,0.513685,0.45785746,-0.25590969,0.528651,0.47001266,-0.23446483,0.528043,0.47353412,-0.22285885,0.52013,0.4643414,-0.24713677,0.516081,0.47176767,-0.26753024,0.53174,0.50047873,-0.24872801,0.533745,0.49517578,-0.24174989,0.525335,0.49293286,-0.25995579,0.521471,0.50515991,-0.28364995,0.533196
0.44429424,-0.32939774,0.51837,0.44441306,-0.27851118,0.520131,0.4179233,-0.3092401,0.513744,0.40178464,-0.26585059,0.511385,0.38469273,-0.23454095,0.50737,0.37715478,-0.21265195,0.505179,0.41504635,-0.22176272,0.516133,0.41695455,-0.18277362,0.521421,0.41968631,-0.16282001,0.524066,0.42219245,-0.14389721,0.52647,0.445102,-0.22706382,0.522426,0.44954393,-0.20588341,0.515425,0.44538536,-0.22995343,0.511341,0.45522564,-0.2556684,0.526056,0.47016714,-0.23426822,0.527475,0.47207458,-0.22296275,0.518536,0.46243484,-0.24612204,0.513962,0.4695781,-0.26719793,0.529374,0.5007574,-0.24865804,0.53328,0.49400422,-0.24173083,0.523942,0.49129553,-0.25973715,0.519652,0.50326905,-0.28320706,0.531165
0.4431803,-0.32685054,0.51774,0.44379326,-0.27825216,0.519458,0.41751582,-0.30806866,0.513117,0.40072356,-0.26551944,0.51016,0.38336055,-0.23410414,0.505805,0.37598991,-0.21195869,0.503369,0.41408413,-0.22151092,0.515421,0.41601899,-0.18318962,0.521436,0.41893533,-0.16332684,0.524443,0.42166872,-0.14452256,0.527176,0.44412199,-0.22671326,0.521695,0.44878834,-0.20583727,0.514647,0.44429318,-0.23079872,0.510535,0.45370159,-0.25523206,0.525242,0.46917853,-0.23383773,0.526731,0.47125778,-0.22154955,0.517753,0.46245295,-0.24273019,0.51316,0.46898567,-0.26696314,0.528566,0.49978194,-0.24813234,0.532527,0.49332403,-0.24129124,0.523153,0.49068691,-0.25929261,0.518846,0.5026882,-0.28271037,0.530354
0.4439733,-0.32548207,0.518091,0.44377488,-0.27831849,0.519468,0.4181279,-0.30672533,0.513332,0.40028873,-0.26545454,0.509682,0.38264692,-0.23389431,0.504979,0.37530825,-0.21155244,0.502306,0.41347778,-0.22134451,0.514958,0.41550184,-0.18345844,0.5215,0.41856598,-0.16366266,0.524771,0.42146966,-0.14493806,0.527745,0.44353773,-0.2265049,0.521261,0.44803393,-0.20567159,0.513835,0.44320156,-0.23093123,0.509503,0.4522375,-0.25465739,0.524109,0.46863998,-0.23360666,0.526346,0.47063294,-0.22128066,0.517005,0.46172954,-0.2423799,0.512226,0.46814406,-0.26655235,0.527524,0.49935971,-0.2478979,0.532249,0.49279746,-0.24096957,0.522554,0.49007254,-0.25889428,0.518099,0.50200826,-0.28222621,0.529518
0.44474983,-0.3244105,0.518579,0.44388417,-0.27843906,0.519617,0.41871361,-0.30566531,0.513676,0.4000575,-0.26545028,0.509438,0.38218227,-0.23376123,0.504443,0.37484689,-0.21127769,0.501588,0.41305387,-0.22122311,0.514625,0.41517413,-0.1836451,0.521564,0.41835489,-0.16390045,0.525034,0.42138718,-0.1452328,0.528188,0.4431459,-0.22636485,0.520969,0.44741973,-0.20550996,0.513166,0.44231359,-0.2308864,0.508615,0.45106069,-0.25415945,0.523117,0.46830105,-0.23346268,0.526112,0.47012767,-0.22106085,0.516406,0.46110557,-0.24207338,0.51144,0.4674064,-0.26618112,0.526626,0.49914232,-0.24777341,0.532132,0.49240897,-0.24073685,0.522115,0.48957958,-0.25858477,0.517513,0.50144039,-0.28183917,0.52884
0.44583766,-0.32377033,0.519854,0.44442059,-0.27881279,0.52026,0.41953132,-0.30490486,0.514681,0.40014377,-0.26561422,0.509584,0.38196237,-0.2337347,0.504208,0.37456584,-0.21110877,0.50114,0.41273729,-0.22112906,0.51437,0.41500318,-0.18380633,0.521689,0.41830525,-0.16411005,0.525349,0.42146469,-0.14549067,0.528676,0.44289107,-0.22627765,0.52079,0.44663302,-0.20523455,0.512289,0.44111943,-0.23054044,0.50733,0.44955709,-0.25342907,0.521637,0.4681463,-0.23340336,0.526043,0.46947671,-0.2207681,0.515658,0.46018174,-0.24160411,0.510345,0.46629077,-0.26558233,0.525319,0.49920699,-0.24779364,0.532283,0.49200565,-0.2405091,0.521668,0.48894039,-0.25821211,0.516791,0.50064611,-0.28134443,0.527946
0.44700096,-0.32318375,0.521217,0.44502083,-0.27921734,0.520974,0.42041261,-0.30418852,0.515764,0.40030856,-0.26580377,0.509821,0.38183173,-0.23373584,0.504077,0.37436178,-0.21098589,0.500813,0.4124792,-0.22104742,0.514153,0.41489976,-0.18393833,0.521814,0.41831463,-0.16428566,0.525644,0.42158946,-0.14570736,0.529126,0.44270106,-0.22621278,0.520657,0.44587279,-0.20494966,0.511436,0.43995887,-0.2301313,0.506058,0.44811378,-0.25270259,0.520159,0.46805933,-0.2333734,0.526024,0.46884635,-0.22048205,0.51494,0.45926073,-0.24113281,0.509269,0.46517313,-0.26497413,0.524021,0.49934804,-0.24785474,0.532495,0.49164019,-0.24030754,0.521266,0.48832513,-0.25786093,0.516106,0.49986302,-0.28086816,0.527078
0.446527,-0.32270793,0.520729,0.44464114,-0.27894073,0.520601,0.41999201,-0.30373682,0.515323,0.39993383,-0.26551354,0.509436,0.38147951,-0.23344304,0.503692,0.37407754,-0.21066469,0.500418,0.41222709,-0.22086115,0.513942,0.41471358,-0.18389115,0.521763,0.41818953,-0.16425515,0.525673,0.42152916,-0.14569655,0.529227,0.44243519,-0.22602536,0.520434,0.44577215,-0.20478336,0.511341,0.43987826,-0.23003578,0.506036,0.44796639,-0.25254095,0.520173,0.46777301,-0.23318041,0.525783,0.4687453,-0.22034146,0.514822,0.45922289,-0.24102306,0.509214,0.46514732,-0.26489791,0.524004,0.49901981,-0.24764455,0.532216,0.4914679,-0.24011588,0.521095,0.48820299,-0.25769892,0.515985,0.49976577,-0.28072245,0.526989
0.4457433,-0.32111412,0.519991,0.44412516,-0.27858631,0.520054,0.41930826,-0.30207495,0.514623,0.39949828,-0.26519124,0.508955,0.38098496,-0.23307864,0.503103,0.37367677,-0.21031013,0.49987,0.41189694,-0.2206433,0.513613,0.41454385,-0.18384416,0.521696,0.41812275,-0.16424379,0.525738,0.42156389,-0.14571657,0.529412,0.44211994,-0.22582307,0.520135,0.44567676,-0.20464349,0.511248,0.43985476,-0.22998202,0.506064,0.44790535,-0.25244376,0.52025,0.46745929,-0.23298384,0.525495,0.46873593,-0.22057337,0.514717,0.45923209,-0.24135459,0.509203,0.46515294,-0.26522298,0.524041,0.49868339,-0.24743978,0.531914,0.49133079,-0.23996292,0.520959,0.48814011,-0.25758764,0.515925,0.49973748,-0.28063367,0.52697
0.44508343,-0.32083847,0.519311,0.44355183,-0.27829085,0.519391,0.41875642,-0.30185406,0.514046,0.39885139,-0.26505887,0.5084,0.38032859,-0.2329096,0.50245,0.37303562,-0.21005979,0.499123,0.41150814,-0.22034276,0.513091,0.41405767,-0.18370304,0.521265,0.41761949,-0.16413687,0.525352,0.42106743,-0.1456514,0.529067,0.44165312,-0.2254609,0.519494,0.44510898,-0.20464515,0.510635,0.4392977,-0.22965759,0.505467,0.44692846,-0.25240171,0.519683,0.46691946,-0.23257548,0.524756,0.46812907,-0.22041432,0.514042,0.45864398,-0.2412482,0.50856,0.46464305,-0.26508906,0.523443,0.49803585,-0.24698187,0.531054,0.49062597,-0.23971604,0.520145,0.48745523,-0.25736465,0.515133,0.49906514,-0.28037767,0.52621
0.44417839,-0.3200725,0.518196,0.44281469,-0.27779342,0.51864,0.4179364,-0.30121701,0.513045,0.39815005,-0.26452889,0.507544,0.37966159,-0.23242265,0.501643,0.37253466,-0.20949077,0.498283,0.41100792,-0.22015088,0.512809,0.41365477,-0.18384583,0.521361,0.41734996,-0.16431168,0.525637,0.42094236,-0.1458727,0.529524,0.44114165,-0.22524821,0.519218,0.44517972,-0.20449691,0.510758,0.43947651,-0.23000394,0.505823,0.44706277,-0.25226901,0.520144,0.46637584,-0.23232973,0.524458,0.46820914,-0.22010479,0.514116,0.45900006,-0.24101497,0.508825,0.46502327,-0.26500017,0.523814,0.49741395,-0.24666217,0.530679,0.49056209,-0.23945074,0.520101,0.48757237,-0.25717944,0.515241,0.49928051,-0.28025153,0.526407
0.44325781,-0.3192956,0.517063,0.44206914,-0.27729077,0.517879,0.41710661,-0.30057299,0.512032,0.3974409,-0.26399377,0.506678,0.37898635,-0.2319307,0.500825,0.37202554,-0.20891713,0.497432,0.41051001,-0.21996025,0.51253,0.41325062,-0.18398785,0.521455,0.41707752,-0.1644852,0.525918,0.42081257,-0.14609232,0.529975,0.44062929,-0.22503509,0.518941,0.44525734,-0.20435161,0.510889,0.43966757,-0.23035652,0.506193,0.44720918,-0.25214385,0.520618,0.46582965,-0.2320827,0.524157,0.46829377,-0.2197971,0.514195,0.45936448,-0.24078519,0.509099,0.46541425,-0.26491653,0.524197,0.4967829,-0.24633798,0.530294,0.49049727,-0.23918491,0.520056,0.48769238,-0.25699548,0.515352,0.49950063,-0.2801277,0.526609
0.44304011,-0.31910906,0.516896,0.44191347,-0.27713907,0.517753,0.41691674,-0.30038608,0.511884,0.39730122,-0.26380778,0.506564,0.3788865,-0.23174349,0.500736,0.37195635,-0.2087388,0.497364,0.41044218,-0.21983807,0.512465,0.4132369,-0.18388918,0.521424,0.4170909,-0.16438682,0.525904,0.42085052,-0.14599278,0.529976,0.44055334,-0.2249273,0.518869,0.44523018,-0.20418558,0.510863,0.43965102,-0.23018722,0.506193,0.44719517,-0.25200529,0.520631,0.4657402,-0.23198355,0.524074,0.46824775,-0.21967379,0.514158,0.45932405,-0.24066384,0.509085,0.46537748,-0.26481092,0.524199,0.49667066,-0.24624604,0.530195,0.49042119,-0.239067,0.519996,0.48762373,-0.25688971,0.515311,0.49943354,-0.28003326,0.52658
0.44283273,-0.31892991,0.516741,0.44176381,-0.27699113,0.517634,0.41673587,-0.30020566,0.511747,0.39716626,-0.26362492,0.506456,0.37879043,-0.23155859,0.500652,0.37188944,-0.20856175,0.497299,0.41037352,-0.2197155,0.512399,0.41322474,-0.18379124,0.521395,0.41710588,-0.1642891,0.525892,0.42089172,-0.14589433,0.529981,0.44047651,-0.22481908,0.518796,0.44519692,-0.20401678,0.51083,0.43962582,-0.23001329,0.506183,0.44717171,-0.25186134,0.520633,0.46565346,-0.23188577,0.523994,0.46819808,-0.21954875,0.514117,0.45927737,-0.24053915,0.509064,0.46533188,-0.26470019,0.524191,0.49656215,-0.24615595,0.5301,0.49034508,-0.23894909,0.519936,0.48755127,-0.25678192,0.515266,0.49936079,-0.27993561,0.526545
0.44296894,-0.31872216,0.516748,0.4414912,-0.27656542,0.517252,0.41669958,-0.29993223,0.511586,0.39672417,-0.26341885,0.506158,0.37787342,-0.2312078,0.499844,0.37085182,-0.20820749,0.49641,0.40956942,-0.21912115,0.511461,0.41286037,-0.18337135,0.521035,0.41692812,-0.16394449,0.525821,0.42086072,-0.14557845,0.530173,0.43968048,-0.2242006,0.517908,0.44351781,-0.1950336,0.50951,0.43942508,-0.21927424,0.504612,0.44587065,-0.24967649,0.518941,0.46489658,-0.23125517,0.523174,0.46783396,-0.21202986,0.512878,0.46068321,-0.23102912,0.50761,0.46421335,-0.2632998,0.522605,0.49592228,-0.24553099,0.529418,0.48935932,-0.23815497,0.518885,0.48643615,-0.25586924,0.514045,0.49817209,-0.27892267,0.525217
0.4430555,-0.31847858,0.516697,0.44146436,-0.27629374,0.517158,0.4167236,-0.29970219,0.511499,0.39632136,-0.26323885,0.50591,0.37721994,-0.23101793,0.499384,0.37003579,-0.20797735,0.495817,0.40937639,-0.21885398,0.511286,0.41250309,-0.18295456,0.520684,0.41645931,-0.16348528,0.525383,0.42026602,-0.1450674,0.529655,0.43951187,-0.22390235,0.517759,0.44334633,-0.19495819,0.509313,0.43922827,-0.21917604,0.504386,0.44583912,-0.24883301,0.518698,0.46475824,-0.23093252,0.52305,0.4676725,-0.21195668,0.512701,0.46049716,-0.23093582,0.507405,0.46430311,-0.26258431,0.522379,0.49583878,-0.24518176,0.52933,0.48923838,-0.23778219,0.518751,0.48633065,-0.25548827,0.513891,0.4980807,-0.27852485,0.525046
0.44293026,-0.3182083,0.516462,0.44144532,-0.27611892,0.517091,0.41664911,-0.29950279,0.511341,0.39586462,-0.26312638,0.505641,0.37654479,-0.23092945,0.498958,0.36912768,-0.20791269,0.495328,0.40949767,-0.21879681,0.511465,0.41247767,-0.18244703,0.520199,0.41620955,-0.1628212,0.524567,0.41987097,-0.14432138,0.528537,0.43963135,-0.22380619,0.517911,0.44371361,-0.19553683,0.509652,0.43956638,-0.21987805,0.504834,0.44639185,-0.24864053,0.519199,0.46486733,-0.23080078,0.523168,0.46739025,-0.21690124,0.513002,0.45879625,-0.23733454,0.5078,0.46488567,-0.26225876,0.522833,0.49591434,-0.2449982,0.529382,0.48944802,-0.23769545,0.518964,0.48663883,-0.25545427,0.514178,0.49846128,-0.27852916,0.525381
0.44318998,-0.31824473,0.516589,0.44155547,-0.27607918,0.517119,0.41684927,-0.29955118,0.511435,0.39558825,-0.26322679,0.505538,0.37596585,-0.23102554,0.498616,0.36828837,-0.20802548,0.494906,0.40940889,-0.21871316,0.511362,0.41247033,-0.1820397,0.51975,0.41608781,-0.16231159,0.523944,0.41970529,-0.14376804,0.527756,0.43955093,-0.22367719,0.51781,0.44356598,-0.19568028,0.509441,0.43930184,-0.22001224,0.50456,0.44629424,-0.2478955,0.518896,0.46480463,-0.23063827,0.523075,0.46729603,-0.21630173,0.512806,0.45875867,-0.23663801,0.507552,0.46485534,-0.2616716,0.522554,0.49589598,-0.24480459,0.529313,0.48932538,-0.23752806,0.518804,0.48651406,-0.25526257,0.513976,0.49834824,-0.27831449,0.525154
0.44344719,-0.31827933,0.516713,0.44166395,-0.27603834,0.517145,0.41704788,-0.2995984,0.511527,0.39531119,-0.26332666,0.505434,0.37538552,-0.23112058,0.498272,0.36744873,-0.20813764,0.494483,0.40932016,-0.21862953,0.511259,0.41246176,-0.18163139,0.519299,0.41596405,-0.16180172,0.523319,0.41953799,-0.14321511,0.526974,0.43946884,-0.22354731,0.517707,0.44340393,-0.19573387,0.50923,0.43904679,-0.22004437,0.504285,0.44619677,-0.24715002,0.518593,0.46473929,-0.23047443,0.522979,0.46720083,-0.21570206,0.512609,0.45872015,-0.23594096,0.507303,0.46482607,-0.26108471,0.522276,0.49587395,-0.24460907,0.52924,0.48919993,-0.23735934,0.518641,0.48638648,-0.25506942,0.513771,0.49823321,-0.2780988,0.524925
0.44438594,-0.31877756,0.517313,0.44233603,-0.27627652,0.517468,0.41787328,-0.30006768,0.512054,0.3955907,-0.26377073,0.50567,0.37549691,-0.23163369,0.498464,0.36720499,-0.2085891,0.494474,0.40961974,-0.21861057,0.511244,0.41333239,-0.18160177,0.518945,0.41685721,-0.16165646,0.522796,0.41963703,-0.14283956,0.526296,0.43979608,-0.22345381,0.51767,0.44394035,-0.20297076,0.508892,0.43797545,-0.22875965,0.503771,0.44584479,-0.24813106,0.518005,0.46511315,-0.23033778,0.522945,0.46693717,-0.21938429,0.5123,0.4577844,-0.24009235,0.506853,0.46375862,-0.26462459,0.521751,0.4963458,-0.24445688,0.529248,0.4893233,-0.23739674,0.518402,0.48643349,-0.25505842,0.513419,0.49826633,-0.27803795,0.52451
0.44570052,-0.31954487,0.518349,0.44302869,-0.27652712,0.517814,0.41887188,-0.30066102,0.512792,0.39592036,-0.26424861,0.50597,0.37541462,-0.23202794,0.498399,0.36675318,-0.20892266,0.494185,0.40941879,-0.21832438,0.510604,0.41359034,-0.18127068,0.518374,0.41717037,-0.16128603,0.522259,0.41987345,-0.14251115,0.525791,0.43968624,-0.2231379,0.517118,0.44324138,-0.20264051,0.507578,0.43694157,-0.2283102,0.502013,0.44453957,-0.2473953,0.516027,0.46513547,-0.23002652,0.522515,0.46630188,-0.21981897,0.511129,0.45697215,-0.24030283,0.505304,0.46288005,-0.26520017,0.519962,0.49663768,-0.24421522,0.529063,0.4888824,-0.23716038,0.517565,0.48573748,-0.25465782,0.512283,0.49742859,-0.27749132,0.523179
0.4470305,-0.32032252,0.519401,0.4437283,-0.27678163,0.518167,0.41988227,-0.30126244,0.513543,0.3962533,-0.26472902,0.506274,0.37533005,-0.23242113,0.498331,0.36629548,-0.20925285,0.493888,0.40921211,-0.21803518,0.509957,0.41385207,-0.18094091,0.517807,0.41749063,-0.16091842,0.521731,0.42011987,-0.14218639,0.525299,0.43957051,-0.22281898,0.516559,0.44253038,-0.20230475,0.50625,0.43589004,-0.22785133,0.500236,0.44320913,-0.24664556,0.514022,0.46515279,-0.22971251,0.522079,0.46565523,-0.22024901,0.509945,0.45614391,-0.24050517,0.503737,0.46198139,-0.26576609,0.518149,0.49692664,-0.24397142,0.528874,0.48843278,-0.23691978,0.516719,0.48502923,-0.25425089,0.511135,0.49657242,-0.27693464,0.52183
0.45124471,-0.32376256,0.52392,0.44495285,-0.27800017,0.519405,0.42168767,-0.30310031,0.51544,0.39771853,-0.26782094,0.506558,0.37615544,-0.23540638,0.49811,0.3651909,-0.21036493,0.493384,0.40359421,-0.22108786,0.505041,0.40690615,-0.18297896,0.512264,0.41023665,-0.16289604,0.515876,0.41590342,-0.14172161,0.520664,0.43591177,-0.2225299,0.513522,0.43493036,-0.20502967,0.499551,0.4287418,-0.22582349,0.491402,0.43463782,-0.24562405,0.503695,0.46285275,-0.22960073,0.520824,0.46108912,-0.21834785,0.504662,0.45095081,-0.2378656,0.496392,0.45563388,-0.26348902,0.509039,0.49827586,-0.24480141,0.530221,0.48823602,-0.23883697,0.514665,0.48344838,-0.25538257,0.507517,0.49207056,-0.27486408,0.516832
0.45161629,-0.32444951,0.523974,0.44490332,-0.27842436,0.519155,0.42199229,-0.30386204,0.515501,0.39748062,-0.26857812,0.506507,0.37598996,-0.23614299,0.498121,0.36528314,-0.21095361,0.493487,0.40318186,-0.22086198,0.504525,0.40660748,-0.18284466,0.511888,0.40999252,-0.1627991,0.515569,0.41542051,-0.14173664,0.51979,0.43528927,-0.22298573,0.512877,0.43409019,-0.20463361,0.498586,0.42747851,-0.22607672,0.49025,0.43382146,-0.24640864,0.502479,0.46221855,-0.2296881,0.520095,0.46044668,-0.2183033,0.503675,0.45010684,-0.23671744,0.495274,0.45479617,-0.26253798,0.507867,0.49761995,-0.24464691,0.529434,0.48691547,-0.23901767,0.513638,0.48208293,-0.25545369,0.50638,0.49119463,-0.27481461,0.515645
0.44935435,-0.32345122,0.521187,0.44400758,-0.27840127,0.517942,0.42117592,-0.3038929,0.514341,0.39687324,-0.26843421,0.505663,0.37535003,-0.23584026,0.497051,0.36507105,-0.21128866,0.492928,0.40654945,-0.21804824,0.506709,0.41115116,-0.18053773,0.514204,0.41479655,-0.16145049,0.517952,0.41796594,-0.14174423,0.521359,0.43722233,-0.22276401,0.513714,0.43903147,-0.20015524,0.501193,0.43175669,-0.22489421,0.493889,0.43761296,-0.24426642,0.506963,0.46323476,-0.22968505,0.51971,0.46234526,-0.21868297,0.505379,0.45314497,-0.23754922,0.498047,0.45865909,-0.26418648,0.511671,0.49586186,-0.24415739,0.527361,0.48670562,-0.23927065,0.513292,0.48260148,-0.25609889,0.506828,0.49265631,-0.2762889,0.516889
0.44996899,-0.3245216,0.521737,0.44424654,-0.27905664,0.517994,0.42155361,-0.3047483,0.514617,0.39710244,-0.26866246,0.5058,0.37578891,-0.23602066,0.4973,0.36546492,-0.21184281,0.493031,0.40618542,-0.21815307,0.50598,0.41071559,-0.1804269,0.513519,0.41451061,-0.16126681,0.517289,0.41835951,-0.14181267,0.520715,0.43697271,-0.22294296,0.513119,0.43670681,-0.20560643,0.500053,0.42931958,-0.23071664,0.492431,0.43669077,-0.2479038,0.505315,0.46311384,-0.22995096,0.519262,0.46184733,-0.21803151,0.504378,0.45240409,-0.23672433,0.496763,0.45762862,-0.2631354,0.510174,0.49595938,-0.24458097,0.527159,0.48628575,-0.2393136,0.512612,0.48191595,-0.25601041,0.505929,0.49196703,-0.27657785,0.515819
0.44951834,-0.32469713,0.520988,0.44383482,-0.27921103,0.517269,0.42113379,-0.30492526,0.513869,0.39683418,-0.2685359,0.505342,0.37572103,-0.2359065,0.496961,0.3656606,-0.21206415,0.492638,0.40580999,-0.21821006,0.505275,0.41018985,-0.18047492,0.512707,0.41400146,-0.16101439,0.516424,0.41786448,-0.14187949,0.519802,0.43660464,-0.22300624,0.512423,0.43679014,-0.20551563,0.499381,0.42923604,-0.23064703,0.491773,0.4361962,-0.24805664,0.504663,0.4627439,-0.23002517,0.518571,0.46154611,-0.21757777,0.503707,0.45212251,-0.23625004,0.496102,0.45727271,-0.26258806,0.509517,0.49557272,-0.24467852,0.526472,0.4858197,-0.23927106,0.511943,0.48141414,-0.25595008,0.505268,0.49167997,-0.27695492,0.515163
0.44902082,-0.32483791,0.520185,0.44340156,-0.27935161,0.516519,0.42069163,-0.30508549,0.513094,0.39657542,-0.26840353,0.504922,0.37565285,-0.23580807,0.496677,0.3658772,-0.21229762,0.492273,0.40546606,-0.2182843,0.504609,0.40967767,-0.18052888,0.511912,0.41345521,-0.16075969,0.515564,0.41736497,-0.14194508,0.518883,0.43625042,-0.22307679,0.511743,0.43664903,-0.20537134,0.49876,0.42901844,-0.2305153,0.491187,0.43575963,-0.24814529,0.504096,0.46237052,-0.23009783,0.517876,0.46120777,-0.21717625,0.503072,0.45182026,-0.23583807,0.495497,0.45693181,-0.26212605,0.508935,0.49515411,-0.24476028,0.525751,0.48531587,-0.23916808,0.511274,0.48089797,-0.25583592,0.504622,0.49141954,-0.27734672,0.514535
0.44897614,-0.32526287,0.519549,0.44320338,-0.27965386,0.515715,0.42046013,-0.30537791,0.512216,0.39607137,-0.26940329,0.503806,0.37567085,-0.23679287,0.495879,0.36638402,-0.21282335,0.49201,0.40434314,-0.21958267,0.503359,0.40947463,-0.18006555,0.510172,0.41312406,-0.1609313,0.513578,0.41744356,-0.14269728,0.516675,0.43529305,-0.22444856,0.510721,0.43762156,-0.20582153,0.497542,0.42836343,-0.23030283,0.489855,0.43465311,-0.24842882,0.502656,0.46156229,-0.23154754,0.517053,0.4625066,-0.22461619,0.501992,0.45189527,-0.24447781,0.494287,0.45580551,-0.26212332,0.507587,0.49455567,-0.24633543,0.52519,0.48492177,-0.24057406,0.510506,0.48040541,-0.2571488,0.50376,0.4910892,-0.27771415,0.513568
0.44884886,-0.32565488,0.519136,0.44319433,-0.28014942,0.515495,0.42037643,-0.30580748,0.511852,0.39640438,-0.26955079,0.503785,0.37607168,-0.23697931,0.495938,0.36672347,-0.21325368,0.49191,0.40473345,-0.21976862,0.503373,0.40930599,-0.18046734,0.509761,0.41301483,-0.16113819,0.512956,0.41724357,-0.14306557,0.515859,0.43569997,-0.22465216,0.510751,0.43808846,-0.20622331,0.497779,0.42903879,-0.23076542,0.490212,0.43528297,-0.24951185,0.503072,0.46197311,-0.23175978,0.517083,0.46270745,-0.22471374,0.50221,0.45218143,-0.24463262,0.4946,0.45639957,-0.26281843,0.50796,0.49494608,-0.24654573,0.525193,0.4854396,-0.24085327,0.510677,0.48098588,-0.25746907,0.504007,0.4916437,-0.27851018,0.513865
0.44773449,-0.32540239,0.517909,0.44271024,-0.28028898,0.51485,0.41965624,-0.30572076,0.510965,0.39627192,-0.26883034,0.503492,0.37577302,-0.23620966,0.495403,0.36656886,-0.21314557,0.491137,0.4062535,-0.21909393,0.503667,0.40941086,-0.1804977,0.508535,0.4126921,-0.16023516,0.510969,0.41551449,-0.14144873,0.513181,0.43706535,-0.22413457,0.510864,0.43852765,-0.19900795,0.498531,0.43155367,-0.22321135,0.491338,0.43701838,-0.24969247,0.504426,0.46313221,-0.23135263,0.517004,0.46360269,-0.22519061,0.502787,0.45309676,-0.24523981,0.495514,0.45765502,-0.26395392,0.509132,0.49562982,-0.24683214,0.524801,0.48681608,-0.24139542,0.510851,0.48163934,-0.25791265,0.504441,0.49242846,-0.27956217,0.514505
0.44749221,-0.32585754,0.517785,0.44252588,-0.28067132,0.514645,0.41928213,-0.30595955,0.510605,0.39582466,-0.26898399,0.502908,0.37524892,-0.23629507,0.494625,0.36604534,-0.21317555,0.490275,0.40520319,-0.21946342,0.503103,0.409117,-0.17989683,0.50762,0.41225993,-0.15954649,0.509879,0.41513284,-0.14100543,0.511932,0.43619995,-0.22457247,0.510554,0.43969512,-0.1988721,0.498118,0.4327377,-0.22269473,0.490864,0.43690699,-0.24951529,0.503866,0.46244386,-0.23185193,0.516909,0.46332979,-0.22515004,0.502513,0.45259281,-0.24512678,0.495148,0.45733956,-0.26423155,0.508649,0.49526302,-0.2468144,0.524975,0.4861766,-0.24135164,0.510889,0.48173567,-0.25807658,0.504417,0.49242227,-0.28021014,0.514393
0.44728022,-0.32573891,0.517577,0.44263511,-0.28059934,0.51451,0.41920191,-0.30574384,0.510429,0.39563531,-0.26870064,0.502485,0.37491647,-0.23594099,0.493948,0.36566925,-0.21274215,0.489451,0.40572925,-0.21929242,0.503073,0.40909279,-0.17953233,0.507177,0.41207095,-0.15908261,0.509229,0.41475919,-0.14043307,0.511094,0.43670995,-0.22453869,0.510514,0.44003158,-0.19905258,0.498158,0.43299895,-0.22290561,0.49095,0.43757592,-0.24914642,0.503978,0.46291554,-0.23193127,0.516855,0.46334068,-0.22521057,0.502538,0.45255059,-0.24519985,0.495213,0.45739666,-0.26503471,0.508741,0.49564142,-0.24702932,0.524896,0.48666804,-0.24160153,0.510878,0.48212712,-0.25835013,0.504437,0.49273341,-0.28051651,0.514436
0.44705531,-0.32561078,0.517354,0.4427365,-0.28052243,0.514366,0.41911428,-0.30552278,0.510244,0.39544436,-0.26841629,0.50206,0.374587,-0.23558883,0.493275,0.36529607,-0.21231051,0.488631,0.40626026,-0.219124,0.503049,0.4090722,-0.17924782,0.50683,0.41192106,-0.1587208,0.50872,0.41447225,-0.13998008,0.510439,0.43722008,-0.22450491,0.510474,0.44025473,-0.1991705,0.498206,0.43319756,-0.22305373,0.491049,0.43826009,-0.24878444,0.504106,0.4633845,-0.23200924,0.516798,0.46335931,-0.22525646,0.502567,0.4525495,-0.24526327,0.495286,0.45746549,-0.26584228,0.508846,0.49600837,-0.24723853,0.524805,0.4871548,-0.24184903,0.510862,0.48251766,-0.25862323,0.504456,0.49304558,-0.28082353,0.51448
0.44678024,-0.32550118,0.517055,0.442785,-0.2804547,0.51414,0.41902865,-0.30537691,0.51005,0.39520504,-0.2682432,0.501606,0.37410215,-0.2353388,0.492477,0.3647428,-0.21198224,0.48767,0.40678663,-0.21898767,0.503017,0.40922746,-0.17900775,0.506661,0.41201898,-0.15842973,0.508483,0.41500076,-0.13835915,0.510139,0.43767284,-0.22444299,0.510344,0.44154386,-0.19965307,0.498161,0.43414975,-0.2236861,0.491054,0.43868823,-0.24905555,0.504157,0.46374715,-0.23201001,0.516581,0.46353662,-0.22534635,0.502461,0.45267817,-0.2454185,0.495238,0.45699794,-0.26923376,0.508858,0.49620773,-0.24731534,0.524474,0.48740605,-0.24209467,0.510621,0.4826846,-0.25888989,0.504257,0.49316338,-0.28111912,0.514326
0.44687843,-0.32566352,0.517188,0.44294612,-0.28049156,0.514103,0.41914097,-0.30541232,0.510119,0.39500675,-0.26818013,0.501277,0.37359662,-0.23519191,0.491772,0.36409044,-0.21172818,0.486731,0.40700758,-0.21877795,0.502747,0.40947406,-0.17868923,0.506269,0.4122247,-0.15807011,0.50803,0.41525884,-0.13785054,0.509631,0.43790194,-0.22432719,0.510084,0.44141008,-0.1995162,0.497716,0.43384681,-0.22356302,0.4905,0.43864545,-0.24829508,0.503547,0.46398177,-0.23198149,0.516342,0.46336032,-0.2252634,0.502046,0.45234516,-0.24530211,0.494732,0.45655904,-0.26902506,0.508292,0.49644487,-0.24741158,0.524285,0.48745985,-0.24224606,0.510276,0.48256955,-0.25899798,0.50384,0.49292896,-0.28119513,0.513861
0.44692045,-0.32578495,0.517256,0.44308145,-0.28051207,0.514036,0.419218,-0.30542197,0.510145,0.39479193,-0.26810584,0.500927,0.37308656,-0.23504209,0.491061,0.36344104,-0.21147584,0.485796,0.40725286,-0.21858127,0.502507,0.40972099,-0.17837062,0.505877,0.4124181,-0.15770584,0.507562,0.41549221,-0.13733466,0.509094,0.43814568,-0.22421888,0.509841,0.44125151,-0.19938996,0.497327,0.43356201,-0.22343986,0.490027,0.43868566,-0.24758122,0.503032,0.46421917,-0.23195434,0.516106,0.46317871,-0.22517726,0.501675,0.45204365,-0.24518852,0.494292,0.45617827,-0.26883951,0.507808,0.49666314,-0.24749842,0.524076,0.48752981,-0.24240545,0.509948,0.48248688,-0.25912334,0.503457,0.49273754,-0.28129545,0.513441
0.44731575,-0.3255514,0.517025,0.44337303,-0.28024956,0.51374,0.41965287,-0.30526536,0.509972,0.39475066,-0.26806131,0.500468,0.37278702,-0.23511303,0.490409,0.36289904,-0.21147206,0.484923,0.40748875,-0.21833878,0.50222,0.40983527,-0.17822677,0.50563,0.41257786,-0.15763761,0.507334,0.41546636,-0.13885454,0.508884,0.43830405,-0.2238953,0.50946,0.4410193,-0.19941308,0.496881,0.43341162,-0.2235502,0.489543,0.43896533,-0.24710616,0.50255,0.46431252,-0.231566,0.515652,0.46262173,-0.22391877,0.501191,0.45171729,-0.244504,0.493792,0.45572581,-0.26720661,0.507321,0.49668089,-0.24703396,0.523543,0.49010731,-0.23578028,0.50938,0.48292317,-0.25642999,0.502873,0.49248586,-0.28064274,0.512864
0.44742208,-0.32515228,0.516816,0.44339331,-0.27980271,0.513455,0.41974475,-0.30488022,0.50974,0.3943322,-0.26772377,0.499859,0.37199085,-0.23478241,0.489404,0.36184197,-0.2110456,0.483646,0.40740417,-0.21782907,0.501839,0.40966669,-0.17780571,0.505306,0.41243918,-0.15724064,0.50704,0.41539153,-0.138555,0.508616,0.43821273,-0.22336247,0.509076,0.44073295,-0.19938322,0.496415,0.43317341,-0.22357328,0.48903,0.43897201,-0.24640801,0.502013,0.4642182,-0.23101904,0.515272,0.46277877,-0.22304765,0.500735,0.45141041,-0.24389448,0.493298,0.45534627,-0.26586789,0.506801,0.49658831,-0.24647758,0.523179,0.48969166,-0.23558032,0.508948,0.48309459,-0.25437027,0.50241,0.49206926,-0.27988226,0.51238
0.44751609,-0.3247445,0.516593,0.44340661,-0.27935158,0.513162,0.41982911,-0.30448977,0.509499,0.39391053,-0.2673841,0.499246,0.37119547,-0.2344522,0.4884,0.36078789,-0.21062086,0.482373,0.40732299,-0.21732094,0.501462,0.40949891,-0.17738508,0.504983,0.41229811,-0.15684273,0.506743,0.41531355,-0.13825423,0.508344,0.43812323,-0.22283042,0.508694,0.44042993,-0.19932586,0.495959,0.4329032,-0.22355047,0.48853,0.43899404,-0.24571778,0.501493,0.46412203,-0.23047118,0.51489,0.4629426,-0.22217931,0.500286,0.45111229,-0.2432909,0.492814,0.45497979,-0.26454236,0.506296,0.49648806,-0.24591753,0.522807,0.489276,-0.23538035,0.508516,0.48327045,-0.25230414,0.501949,0.49165945,-0.27912547,0.511903
0.44930211,-0.32496784,0.517491,0.4444446,-0.27926204,0.513635,0.4209776,-0.30453284,0.509851,0.39461247,-0.26741351,0.498543,0.37076868,-0.23468514,0.48773,0.35987873,-0.21066867,0.481196,0.40698709,-0.21690342,0.500887,0.40915886,-0.17726872,0.504622,0.41218062,-0.15702243,0.506489,0.41583228,-0.14307872,0.508186,0.43821123,-0.22242573,0.508612,0.44016714,-0.20932705,0.495389,0.43280563,-0.23483539,0.487675,0.43977853,-0.2487928,0.500381,0.46464726,-0.23009416,0.515244,0.46297469,-0.22251138,0.500024,0.45070553,-0.24268702,0.492237,0.45444696,-0.26469142,0.505399,0.49901538,-0.24269091,0.523744,0.48953993,-0.23548141,0.508952,0.48330865,-0.25228607,0.502156,0.49171247,-0.27850556,0.511864
0.45014802,-0.32443526,0.517211,0.44499275,-0.2788113,0.513451,0.4216794,-0.30417921,0.509557,0.39476004,-0.26730569,0.49818,0.37064423,-0.23471605,0.48707,0.35950099,-0.21067196,0.480327,0.40710575,-0.21669603,0.500772,0.40939624,-0.17738841,0.504872,0.4127069,-0.15744247,0.506922,0.41697746,-0.14411434,0.508786,0.43839306,-0.2220417,0.508553,0.44020268,-0.20934395,0.495429,0.43289349,-0.23488307,0.487774,0.43978848,-0.24998293,0.500497,0.46490354,-0.22955929,0.515224,0.46330745,-0.22209305,0.500079,0.45099583,-0.24241877,0.492331,0.45481471,-0.26415753,0.505504,0.49914716,-0.2422341,0.523757,0.48952843,-0.23546038,0.509037,0.48332559,-0.25227209,0.502274,0.49199809,-0.27797159,0.511993
0.45001924,-0.32336503,0.516313,0.44462232,-0.27772142,0.512423,0.42137075,-0.30306148,0.508481,0.39356071,-0.26636986,0.497101,0.36894338,-0.23343402,0.485667,0.35786203,-0.20981249,0.478414,0.40633608,-0.21561272,0.499411,0.40908016,-0.17707196,0.50458,0.41302347,-0.15779694,0.507165,0.42015981,-0.14810446,0.509515,0.43793687,-0.22073837,0.507354,0.43953414,-0.19870022,0.494081,0.43194911,-0.22289631,0.486339,0.43787781,-0.24488121,0.498978,0.46457759,-0.22820768,0.514169,0.46352314,-0.21859314,0.498832,0.4506347,-0.23936423,0.490985,0.45393602,-0.2627832,0.504053,0.49849118,-0.24170533,0.522893,0.48874335,-0.23482683,0.508018,0.48248399,-0.25157038,0.501183,0.49120382,-0.27668494,0.510822
0.45013069,-0.32246788,0.515691,0.44472256,-0.27692631,0.511938,0.42141128,-0.30219573,0.507827,0.3930685,-0.26560339,0.496109,0.3677488,-0.23273941,0.48432,0.35653536,-0.20913592,0.476918,0.4063493,-0.21494608,0.499013,0.40918191,-0.17693693,0.504803,0.41357736,-0.15824249,0.507699,0.42080386,-0.14848389,0.510331,0.43781115,-0.22030848,0.507049,0.43990997,-0.19862033,0.49392,0.43260902,-0.22291329,0.486262,0.43864858,-0.24502586,0.498922,0.46449702,-0.22783102,0.513929,0.46358995,-0.21834868,0.498697,0.45078937,-0.23915717,0.490904,0.45430012,-0.26213201,0.503984,0.49843917,-0.24152981,0.522713,0.48880667,-0.23467435,0.507939,0.48260215,-0.25144436,0.501151,0.4915177,-0.27602157,0.510803
0.45021899,-0.32156855,0.515089,0.44480517,-0.27619756,0.51155,0.42150629,-0.30141715,0.507306,0.39269239,-0.26497842,0.495375,0.36671478,-0.23224089,0.483366,0.3553967,-0.20866804,0.475846,0.40644981,-0.21450456,0.498917,0.40923166,-0.17686579,0.505064,0.4139739,-0.15871393,0.508137,0.42128121,-0.14874404,0.510931,0.43789738,-0.21979806,0.506939,0.44026475,-0.19860908,0.494042,0.43336276,-0.22295838,0.486519,0.43959382,-0.24530812,0.499251,0.46456876,-0.22725093,0.513793,0.46381329,-0.21824684,0.498782,0.4511431,-0.23912784,0.491102,0.45484881,-0.261588,0.504258,0.49834013,-0.24136908,0.522515,0.48890735,-0.23458549,0.507935,0.48279587,-0.25140443,0.501236,0.491865,-0.27534871,0.510951
0.45029998,-0.32066444,0.514479,0.44488665,-0.27546849,0.511161,0.42159286,-0.30063282,0.506775,0.39230986,-0.26434925,0.494633,0.36567654,-0.23173954,0.482406,0.35425614,-0.20819887,0.474771,0.40655274,-0.21406445,0.498824,0.40928816,-0.17679776,0.505333,0.4143804,-0.15919015,0.508587,0.4217759,-0.14897999,0.511545,0.43799131,-0.21929168,0.506838,0.44063317,-0.19860377,0.494179,0.43413458,-0.22301198,0.486795,0.44055872,-0.24560058,0.4996,0.46465125,-0.22667643,0.513669,0.46401948,-0.2181828,0.498883,0.45147623,-0.23913559,0.491319,0.45541518,-0.26105523,0.504552,0.49823536,-0.24123069,0.522332,0.48900409,-0.23452516,0.507951,0.48298696,-0.25139432,0.501344,0.49223405,-0.27468544,0.511121
0.44992038,-0.31964866,0.513191,0.44468796,-0.27486206,0.510452,0.42146188,-0.3000057,0.505895,0.39202679,-0.26399691,0.493957,0.36561096,-0.23211824,0.481688,0.35360688,-0.2080822,0.47418,0.4068008,-0.21414682,0.499134,0.40924427,-0.17672886,0.505382,0.41520881,-0.15952711,0.508506,0.41928952,-0.14401852,0.511476,0.43804231,-0.21912699,0.506883,0.44118285,-0.19908213,0.494865,0.4352568,-0.22384496,0.487854,0.44199438,-0.24636229,0.500908,0.4645056,-0.22628203,0.513455,0.46437162,-0.21846652,0.499353,0.45218888,-0.23964285,0.492138,0.45662166,-0.26097328,0.505661,0.49761316,-0.24105642,0.521725,0.48891816,-0.2345875,0.507926,0.48319451,-0.25159573,0.501586,0.49280803,-0.27421961,0.511592
0.44908332,-0.31890806,0.512078,0.44405888,-0.27437875,0.509678,0.42064346,-0.29930738,0.50481,0.3913166,-0.26342289,0.493029,0.36483254,-0.23174126,0.481043,0.35296925,-0.20773949,0.473606,0.40638186,-0.21393218,0.498703,0.4077825,-0.17657707,0.503277,0.41269683,-0.15830714,0.505563,0.41745143,-0.14496987,0.507642,0.43769009,-0.21895485,0.506553,0.44120438,-0.1991176,0.494898,0.43570309,-0.22392062,0.488099,0.44206713,-0.24828478,0.501234,0.46419633,-0.22612843,0.513182,0.46440237,-0.21852659,0.499388,0.45246143,-0.23981911,0.49233,0.45700827,-0.2612853,0.505927,0.49733043,-0.24089485,0.521473,0.48893647,-0.23462003,0.507956,0.48337277,-0.25169613,0.501746,0.49305792,-0.27429381,0.511816
0.44838383,-0.31826525,0.511122,0.44354652,-0.27396761,0.509038,0.41999746,-0.29873186,0.503932,0.39069848,-0.26291092,0.492217,0.36403932,-0.23135471,0.480378,0.35229076,-0.20737272,0.472977,0.40610231,-0.21379092,0.498443,0.40712073,-0.17583332,0.502196,0.41151636,-0.15773281,0.504073,0.41628942,-0.14440615,0.505779,0.43742342,-0.21882554,0.506322,0.4412937,-0.19918366,0.495007,0.43620631,-0.22402507,0.488407,0.44265259,-0.24855628,0.501632,0.46392776,-0.22599469,0.512954,0.464474,-0.21860597,0.499467,0.45277544,-0.24001735,0.492567,0.45745017,-0.26162907,0.506254,0.49702958,-0.2407245,0.521202,0.48893162,-0.2346415,0.507962,0.48352407,-0.2517825,0.501878,0.49329243,-0.27435944,0.512024
0.44851302,-0.31749501,0.510399,0.4436309,-0.27342877,0.508635,0.4201397,-0.2981629,0.503297,0.39164378,-0.26374243,0.491412,0.36513453,-0.23238125,0.479117,0.35150589,-0.20720451,0.471928,0.40614874,-0.21359054,0.498437,0.39868107,-0.17388332,0.499763,0.40034914,-0.15498647,0.500426,0.40968253,-0.13965057,0.501029,0.43746402,-0.21851321,0.506337,0.44206788,-0.19943767,0.495369,0.43744416,-0.22441805,0.488972,0.44382232,-0.24907715,0.502289,0.4639519,-0.22557597,0.512962,0.46509239,-0.21863074,0.499794,0.45361631,-0.24017481,0.493056,0.4583441,-0.26210817,0.506838,0.49701898,-0.24014694,0.521157,0.4894065,-0.23448175,0.508201,0.48408369,-0.25170271,0.502249,0.49386661,-0.27431537,0.512473
0.44827739,-0.31697982,0.509757,0.44331257,-0.27297486,0.508058,0.41977841,-0.29761955,0.502498,0.39107467,-0.26303937,0.490043,0.36414846,-0.23177289,0.477495,0.35052339,-0.20678232,0.470721,0.40559931,-0.21312644,0.49773,0.39850238,-0.17380538,0.499539,0.40036354,-0.15499204,0.500444,0.40845446,-0.13992482,0.501266,0.43704382,-0.21810875,0.505845,0.44194655,-0.19944833,0.494938,0.4374517,-0.22448805,0.488575,0.44409778,-0.24829206,0.501857,0.4636439,-0.22521832,0.512642,0.46519447,-0.21828414,0.499461,0.45369592,-0.23983709,0.492717,0.45827365,-0.26189976,0.506437,0.49685475,-0.23984087,0.521034,0.48960401,-0.23419903,0.508087,0.48424356,-0.25143004,0.502138,0.49391795,-0.27398218,0.51232
0.44877736,-0.31664266,0.50972,0.44249684,-0.27209967,0.507028,0.41886284,-0.29653903,0.500913,0.3892941,-0.26159612,0.487142,0.36253932,-0.23152064,0.472952,0.34847657,-0.20611555,0.46851,0.40113995,-0.21237775,0.493925,0.3935429,-0.17189867,0.495289,0.39451367,-0.15689859,0.495971,0.40284487,-0.14155564,0.500364,0.43319434,-0.21555357,0.503521,0.43796864,-0.19703856,0.491482,0.43381647,-0.22005125,0.484459,0.44041194,-0.24472538,0.497012,0.46078446,-0.22188999,0.511609,0.46283726,-0.21654956,0.496892,0.45076774,-0.23766015,0.489363,0.45457489,-0.25950973,0.502158,0.49288329,-0.23295894,0.521689,0.4869867,-0.22716955,0.507522,0.48120347,-0.24425434,0.501013,0.49209571,-0.27229649,0.510494
0.44928196,-0.31615923,0.509201,0.44237314,-0.27172097,0.506581,0.41911356,-0.29633186,0.500298,0.38903346,-0.26129439,0.486294,0.36156396,-0.23129846,0.471972,0.34774294,-0.20634319,0.46742,0.40025536,-0.21204068,0.493426,0.39198027,-0.17134548,0.494315,0.3935496,-0.15651518,0.494759,0.40052721,-0.14148652,0.497874,0.4320878,-0.21517725,0.503168,0.4373151,-0.19643855,0.491203,0.4338009,-0.21912443,0.484224,0.44040216,-0.24431511,0.496754,0.45977575,-0.22136953,0.511369,0.4624514,-0.21604829,0.496676,0.45054652,-0.2372116,0.489158,0.45437143,-0.25923829,0.501914,0.49277653,-0.23290848,0.521576,0.48691186,-0.22713464,0.507444,0.48114392,-0.24422411,0.500951,0.49177818,-0.27158983,0.510406
0.44914899,-0.31455815,0.506901,0.44231254,-0.27014518,0.504931,0.41876364,-0.29526397,0.497965,0.39290716,-0.25881504,0.477841,0.36298801,-0.22880666,0.463771,0.34528688,-0.20716149,0.461152,0.39897183,-0.21168859,0.492327,0.38717736,-0.17122515,0.491919,0.39063107,-0.15664161,0.491715,0.394005,-0.14244153,0.491529,0.43178892,-0.21621142,0.502365,0.43791373,-0.19707649,0.491102,0.43618222,-0.22270071,0.484532,0.44203056,-0.24476373,0.497166,0.45885421,-0.22077893,0.510763,0.46219794,-0.21048555,0.49663,0.45708699,-0.22900253,0.489399,0.45624374,-0.25851684,0.502231,0.4925694,-0.23196953,0.521114,0.48819999,-0.2262283,0.507509,0.48315225,-0.2434002,0.501258,0.49252452,-0.26552808,0.510789
0.45652928,-0.30976777,0.502156,0.44714057,-0.26759522,0.49984,0.42958002,-0.29378735,0.490669,0.39723504,-0.26184673,0.472358,0.36414273,-0.23315739,0.456644,0.34627839,-0.21186835,0.449274,0.39253799,-0.21570899,0.483834,0.38289832,-0.17773169,0.486927,0.38641102,-0.15901182,0.488473,0.39161732,-0.14230717,0.489879,0.42489651,-0.21317996,0.496822,0.43353407,-0.19653145,0.485224,0.43732933,-0.22074352,0.478459,0.44487906,-0.24334446,0.489873,0.45600773,-0.21949239,0.507672,0.46189754,-0.20544681,0.492282,0.45504504,-0.22702785,0.484408,0.46037332,-0.25178742,0.495626,0.49294426,-0.23130261,0.521012,0.4915129,-0.22339294,0.50661,0.48806617,-0.24017605,0.499993,0.49776714,-0.26100482,0.508341
0.4640258,-0.30753994,0.498658,0.44586745,-0.26581877,0.496627,0.4290979,-0.29194442,0.487011,0.39619856,-0.26008184,0.469438,0.36341545,-0.2318068,0.453928,0.34608232,-0.20988509,0.445822,0.38979484,-0.21400004,0.480688,0.37959721,-0.17621308,0.48395,0.3833559,-0.15810372,0.485581,0.38846043,-0.14140974,0.487064,0.42304679,-0.21354255,0.493982,0.43334666,-0.19528124,0.482711,0.43918334,-0.21994062,0.476137,0.44461194,-0.24204298,0.487502,0.45223072,-0.21745809,0.505064,0.46046994,-0.2038345,0.489882,0.45437662,-0.22541077,0.482114,0.45988054,-0.25014823,0.493245,0.49067197,-0.22940305,0.518641,0.49025994,-0.22117518,0.504459,0.48943186,-0.23691714,0.497943,0.49739071,-0.25861218,0.506236
0.4643704,-0.30664198,0.497462,0.44571457,-0.26522045,0.495562,0.42938737,-0.2913868,0.48579,0.39579563,-0.2594561,0.468397,0.36306182,-0.23128527,0.452883,0.34594437,-0.20917835,0.444575,0.38893778,-0.2134619,0.47971,0.37841767,-0.17567012,0.482857,0.38206199,-0.15774609,0.484431,0.38689568,-0.14100726,0.485861,0.42224553,-0.21325014,0.493086,0.4330966,-0.19491796,0.481962,0.43899853,-0.21935518,0.475472,0.4449556,-0.24165216,0.48684,0.4514602,-0.21699882,0.504226,0.46019934,-0.20322507,0.489154,0.45449021,-0.2248251,0.481443,0.46011095,-0.2495888,0.492567,0.48990709,-0.22848886,0.517853,0.49001712,-0.22024075,0.503779,0.48902657,-0.23608249,0.497313,0.49761541,-0.25763216,0.505605
0.47094089,-0.31084016,0.503879,0.44968169,-0.26690048,0.497397,0.43350434,-0.29421733,0.489538,0.39820729,-0.26139278,0.469095,0.36533022,-0.23587675,0.448732,0.34674667,-0.21342263,0.437937,0.38524964,-0.21114181,0.474155,0.37173267,-0.17406578,0.476417,0.37228562,-0.16004776,0.477548,0.37473156,-0.14434102,0.478576,0.41951462,-0.21185736,0.488953,0.42664043,-0.18893912,0.472991,0.43084192,-0.20682036,0.46368,0.43482776,-0.23332418,0.472881,0.449926,-0.21576821,0.501592,0.45965757,-0.20495375,0.48155,0.45348118,-0.22502896,0.471295,0.45852189,-0.25011191,0.479982,0.48998187,-0.22792957,0.517669,0.48788502,-0.2183683,0.499363,0.48362911,-0.2338626,0.490952,0.49150753,-0.25254908,0.497328
0.47148294,-0.30993746,0.503695,0.44933521,-0.265819,0.496789,0.43418458,-0.2937454,0.489312,0.39967945,-0.25983886,0.470022,0.37193276,-0.22985182,0.45249,0.34858145,-0.21023746,0.443014,0.38454239,-0.21017274,0.47311,0.3608571,-0.17331855,0.472244,0.35969423,-0.15586868,0.471811,0.36045215,-0.14042967,0.471418,0.41847434,-0.21045271,0.487793,0.4260075,-0.18814514,0.47137,0.42775941,-0.2112087,0.46179,0.43349558,-0.23201964,0.470903,0.44852801,-0.21356661,0.500368,0.45573424,-0.20276728,0.479932,0.45199799,-0.22371801,0.469476,0.45747475,-0.24876561,0.478083,0.48735061,-0.21839661,0.516428,0.4857837,-0.21779235,0.49776,0.48217897,-0.23268795,0.489183,0.48968611,-0.25109506,0.495488
0.47264919,-0.30904504,0.503846,0.449609,-0.2649587,0.496694,0.43735248,-0.29364224,0.489329,0.40366276,-0.25992044,0.469534,0.36870203,-0.23539982,0.449867,0.34950446,-0.21182978,0.440226,0.38401536,-0.20980804,0.47263,0.35974856,-0.17446999,0.472535,0.35971873,-0.15832966,0.472488,0.36123223,-0.14390492,0.472445,0.41780193,-0.2096598,0.487378,0.42544777,-0.18789161,0.470699,0.42739634,-0.21072942,0.460971,0.43302495,-0.23125983,0.469963,0.44681344,-0.20902437,0.500024,0.45328335,-0.20063983,0.479329,0.44754747,-0.22051828,0.46874,0.45730532,-0.24740941,0.477214,0.48648453,-0.21689446,0.516204,0.48552853,-0.21561844,0.497316,0.48150827,-0.23017342,0.488637,0.48901671,-0.24998038,0.494837
0.47816443,-0.30935026,0.506022,0.45143339,-0.26524608,0.497933,0.43976672,-0.29404982,0.490435,0.40970622,-0.26233189,0.467702,0.37567174,-0.2355169,0.446807,0.35199652,-0.21344424,0.43661,0.38348338,-0.20993971,0.471724,0.35602583,-0.18140319,0.471952,0.35651954,-0.16650449,0.472066,0.35900914,-0.14947401,0.47217,0.41768873,-0.20975535,0.487397,0.4246758,-0.18914393,0.469824,0.42960777,-0.20979982,0.459573,0.43247445,-0.22943397,0.467727,0.447625,-0.21197601,0.500871,0.45421391,-0.20071507,0.479048,0.45094508,-0.22134198,0.467883,0.45687845,-0.24591321,0.475365,0.48757605,-0.21763595,0.518177,0.48711502,-0.21479072,0.498413,0.48231828,-0.22984867,0.489332,0.48904983,-0.24837344,0.494779
0.47927318,-0.30859857,0.506335,0.45249776,-0.26364069,0.498118,0.44065223,-0.29354945,0.490438,0.40736192,-0.26113142,0.468162,0.37562394,-0.23419383,0.446672,0.35295361,-0.21261649,0.435798,0.38309175,-0.20990554,0.471418,0.35480604,-0.18048033,0.471812,0.35516551,-0.16564549,0.472009,0.35735175,-0.14976796,0.472189,0.4168783,-0.20918985,0.487415,0.42457406,-0.18808651,0.469746,0.4278524,-0.20924324,0.459439,0.43247484,-0.22888278,0.46736,0.44669669,-0.20965618,0.501165,0.45315394,-0.1999483,0.47915,0.45110876,-0.2197951,0.467887,0.45701587,-0.24494741,0.475084,0.48661142,-0.21640644,0.51882,0.48723747,-0.21211543,0.49893,0.48236658,-0.22685364,0.489791,0.48850961,-0.24503227,0.495026
0.47910332,-0.30733764,0.505421,0.45178651,-0.26339526,0.49724,0.44056192,-0.29265459,0.489509,0.4067978,-0.26056576,0.46711,0.37506897,-0.2336204,0.445743,0.35133949,-0.21266313,0.435516,0.38259122,-0.20978161,0.470554,0.35315625,-0.17963036,0.47028,0.35321563,-0.1647488,0.470143,0.35328078,-0.15023396,0.470019,0.41591572,-0.20865631,0.486582,0.42425742,-0.1872037,0.468956,0.42744512,-0.20875538,0.458674,0.43209345,-0.22827885,0.466588,0.44557621,-0.20905242,0.500357,0.45360986,-0.19995206,0.478371,0.44822303,-0.21911426,0.467123,0.45208121,-0.24260535,0.47431,0.48548427,-0.21558302,0.518036,0.48618585,-0.21283785,0.498175,0.48152885,-0.22599055,0.48905,0.48759065,-0.24389851,0.494279
0.47967602,-0.30678607,0.505439,0.45185148,-0.26294792,0.497051,0.44105484,-0.29231172,0.48939,0.40668164,-0.26035656,0.466693,0.37454068,-0.23315953,0.444894,0.35337993,-0.21196847,0.43315,0.38203825,-0.20961022,0.47001,0.35253478,-0.17920812,0.469687,0.352574,-0.16435603,0.469525,0.35388098,-0.14911389,0.469378,0.4153703,-0.20831126,0.486124,0.42320249,-0.18628085,0.46829,0.42741457,-0.20667324,0.457887,0.432514,-0.22627862,0.465675,0.44502276,-0.20869678,0.499983,0.45313399,-0.19955353,0.477778,0.44762407,-0.2186185,0.466417,0.45136516,-0.24191501,0.47346,0.48507482,-0.21515983,0.517793,0.48579718,-0.21224321,0.49775,0.48102196,-0.2254615,0.488542,0.48689319,-0.24309412,0.493659
0.49005058,-0.3062538,0.512616,0.45713641,-0.26195622,0.500834,0.45055618,-0.29334913,0.495315,0.41407018,-0.26334424,0.472433,0.38497349,-0.23642229,0.449814,0.36144212,-0.21405253,0.436417,0.38132723,-0.21000633,0.469198,0.34829971,-0.17779676,0.464906,0.34060636,-0.16311737,0.46276,0.34455006,-0.14861084,0.461472,0.41433162,-0.20715911,0.485487,0.41945256,-0.18351974,0.464148,0.42224839,-0.20382482,0.451701,0.42593557,-0.22206272,0.45805,0.44308753,-0.20684997,0.499734,0.44902489,-0.19551309,0.474205,0.44678262,-0.2080962,0.461144,0.45189196,-0.23361463,0.466649,0.48212048,-0.20680958,0.518492,0.48358669,-0.20948978,0.495559,0.47721752,-0.22334682,0.485022,0.48101051,-0.2380933,0.488911
0.4891242,-0.30437575,0.51141,0.4560838,-0.26164765,0.500379,0.44922672,-0.29414286,0.495555,0.41874928,-0.26494406,0.475571,0.38824366,-0.23862851,0.453008,0.36872571,-0.21745438,0.440067,0.38026214,-0.21464756,0.471176,0.34665537,-0.17799182,0.463464,0.34091992,-0.16755483,0.459608,0.33748062,-0.15277404,0.456102,0.41281924,-0.20745337,0.48601,0.40842693,-0.1914992,0.465274,0.42192203,-0.20572199,0.453178,0.42864137,-0.22305484,0.460663,0.43934507,-0.20442805,0.499008,0.44319923,-0.20199749,0.474498,0.43956553,-0.21663209,0.461958,0.4335206,-0.22562634,0.468834,0.47885554,-0.20583458,0.51616,0.47852488,-0.20776535,0.49393,0.47486302,-0.22127627,0.483716,0.4806187,-0.23715137,0.488629
0.49295799,-0.3035846,0.513839,0.45603817,-0.26036159,0.499916,0.45320671,-0.29336186,0.497319,0.42336314,-0.26480877,0.477763,0.39171199,-0.2395421,0.4552,0.37247399,-0.21793979,0.441806,0.37443147,-0.21498663,0.467281,0.34167312,-0.18046444,0.460517,0.33801059,-0.16779709,0.457136,0.3351618,-0.15355055,0.454061,0.40446017,-0.207012,0.481779,0.40215047,-0.1874675,0.458041,0.41440036,-0.20000749,0.444195,0.42103398,-0.216183,0.450649,0.43243704,-0.20285499,0.494707,0.43664683,-0.19721333,0.467507,0.4630209,-0.22595159,0.483873,0.46707862,-0.24220691,0.502733,0.47226284,-0.20304025,0.512188,0.46958459,-0.20402137,0.487566,0.46574963,-0.21522194,0.476254,0.47115182,-0.22813235,0.480309
0.49707533,-0.30139586,0.516266,0.45755262,-0.25678774,0.500895,0.45706057,-0.29241649,0.498488,0.42988212,-0.26018811,0.474641,0.39743807,-0.23542319,0.450742,0.37614508,-0.21445595,0.437259,0.3735392,-0.21485674,0.465421,0.33823584,-0.18244917,0.457653,0.33432901,-0.16931361,0.453769,0.33142998,-0.1555377,0.450238,0.40344799,-0.2067675,0.480871,0.40077384,-0.18563677,0.455774,0.41265319,-0.19629392,0.441135,0.42012763,-0.21013655,0.446417,0.43148768,-0.20245702,0.494687,0.43569134,-0.19301026,0.465921,0.46185522,-0.22188745,0.481092,0.46565864,-0.23966809,0.499642,0.46997807,-0.20119286,0.513438,0.46901881,-0.19961471,0.487575,0.46472855,-0.20945924,0.475691,0.47072149,-0.22142681,0.478714
0.50017781,-0.30152513,0.519034,0.45732856,-0.25850368,0.501001,0.45856752,-0.29323421,0.500432,0.43162867,-0.2609396,0.475869,0.3992952,-0.23641438,0.451199,0.377434,-0.2154625,0.437345,0.37031698,-0.21499431,0.462114,0.33636192,-0.18154864,0.454783,0.33265982,-0.16866082,0.451117,0.32971694,-0.15529838,0.447785,0.39911389,-0.20589636,0.47751,0.39413352,-0.18662986,0.449766,0.40444993,-0.19426891,0.433582,0.40987785,-0.20938174,0.437616,0.426471,-0.20068753,0.491474,0.41722665,-0.17627183,0.460261,0.44514569,-0.20275124,0.474569,0.45884119,-0.22366768,0.492889,0.46501622,-0.19840556,0.51078,0.46381674,-0.19768681,0.482795,0.45960856,-0.20626751,0.469937,0.46586199,-0.21735746,0.471912
0.47427705,-0.29204239,0.518044,0.43632186,-0.24186489,0.496508,0.43981364,-0.28192753,0.510004,0.41525269,-0.25354631,0.498894,0.39825375,-0.22886348,0.490559,0.38455493,-0.2055581,0.482718,0.3635146,-0.18776109,0.467223,0.3196695,-0.15612067,0.442882,0.31782455,-0.16193939,0.430712,0.3155765,-0.16786813,0.419648,0.3883488,-0.1795669,0.468453,0.36992894,-0.18452805,0.437718,0.36805993,-0.19866012,0.419789,0.37737007,-0.20599233,0.426229,0.41184879,-0.17603921,0.471016,0.39692586,-0.17997409,0.441585,0.42876157,-0.20441866,0.460439,0.44948118,-0.21720924,0.481026,0.44607924,-0.17838807,0.477149,0.41187442,-0.18612709,0.44945,0.39609552,-0.18982173,0.436724,0.39514529,-0.20813738,0.441502
0.46657015,-0.28586878,0.506231,0.43172441,-0.2391544,0.489585,0.43565779,-0.27893277,0.502008,0.42350366,-0.25448466,0.498579,0.41086257,-0.22846193,0.491825,0.40130353,-0.20590249,0.48825,0.36495237,-0.19057563,0.469361,0.32308938,-0.15974777,0.448177,0.32308516,-0.16572838,0.437586,0.32325467,-0.17138735,0.427957,0.38744402,-0.18042707,0.467902,0.3753897,-0.18579021,0.44228,0.37693986,-0.20149699,0.427334,0.38807666,-0.2105106,0.436118,0.40852846,-0.17520428,0.467901,0.39925381,-0.17889022,0.442625,0.43344871,-0.20183759,0.463023,0.45379409,-0.21748667,0.484092,0.43899229,-0.17518205,0.470264,0.41134145,-0.18380735,0.447483,0.398529,-0.18806262,0.437017,0.4004405,-0.20747808,0.443991
0.46649357,-0.28530479,0.504899,0.43105077,-0.23867343,0.488148,0.43623969,-0.27917034,0.501521,0.4303965,-0.25861586,0.506506,0.42145833,-0.23319642,0.501524,0.41602424,-0.21149904,0.501279,0.36451387,-0.19098521,0.468851,0.32176997,-0.15941128,0.447275,0.32146093,-0.16462999,0.436487,0.32135893,-0.16959227,0.426679,0.38605947,-0.18012274,0.466327,0.37409712,-0.18464796,0.439967,0.37743615,-0.20004417,0.42459,0.387327,-0.21058892,0.433061,0.40629693,-0.17433531,0.465458,0.39593144,-0.1761377,0.43921,0.42980114,-0.20107114,0.459401,0.4510614,-0.21510421,0.480404,0.43567705,-0.17361313,0.466795,0.40906583,-0.18205091,0.444364,0.39673673,-0.18623069,0.434058,0.39898424,-0.20559145,0.441034
0.47623381,-0.28045484,0.503287,0.43408735,-0.22933667,0.484082,0.44077955,-0.27598844,0.499049,0.42799687,-0.25665099,0.502318,0.41709946,-0.23733981,0.495484,0.41075194,-0.21853621,0.493793,0.35545594,-0.1951494,0.461517,0.31444756,-0.16321943,0.436767,0.30754568,-0.16410364,0.424392,0.3018727,-0.16567149,0.413143,0.37353229,-0.17870182,0.459066,0.36193453,-0.18456382,0.430234,0.36661025,-0.19692594,0.413415,0.3796822,-0.20910883,0.420729,0.39185161,-0.16779765,0.458433,0.38192544,-0.17216338,0.42984,0.4181403,-0.19503448,0.449232,0.44108395,-0.21009914,0.470486,0.42075781,-0.15994953,0.460402,0.39790726,-0.17241964,0.435971,0.38896871,-0.18016579,0.424745,0.39069551,-0.2001094,0.430744
0.47738318,-0.27834075,0.503276,0.42973859,-0.23373063,0.483769,0.44327948,-0.27475116,0.499141,0.42832922,-0.25685748,0.502005,0.4167092,-0.23788991,0.494965,0.41010572,-0.2191358,0.49304,0.35474106,-0.19567839,0.461053,0.31344271,-0.16391769,0.435949,0.3065616,-0.16482275,0.423397,0.30091193,-0.166401,0.411986,0.37250941,-0.17900067,0.458359,0.36097492,-0.1848576,0.429197,0.36406168,-0.19849633,0.412185,0.37826994,-0.20916497,0.419315,0.39058759,-0.16790871,0.457548,0.38062264,-0.1722358,0.42856,0.41419714,-0.19567133,0.4478,0.43971715,-0.20840347,0.469004,0.41923729,-0.15982182,0.459346,0.39660033,-0.1724118,0.434777,0.38740242,-0.1794819,0.423489,0.39009831,-0.1992993,0.429369
0.48418364,-0.27242941,0.503194,0.43358033,-0.22873051,0.483229,0.45130862,-0.27012096,0.499056,0.42789718,-0.25607883,0.500631,0.41519042,-0.23650587,0.492669,0.40839806,-0.2178664,0.490771,0.35411131,-0.195427,0.460092,0.31313989,-0.1659926,0.434403,0.30943841,-0.17027337,0.421559,0.30578987,-0.17347539,0.410138,0.37151028,-0.17849373,0.45722,0.35280698,-0.17554803,0.427581,0.35699589,-0.18954227,0.410291,0.37514707,-0.20745377,0.417165,0.38932181,-0.16718252,0.456297,0.37901187,-0.17104456,0.426795,0.41378109,-0.19379828,0.445833,0.43753564,-0.20704353,0.467066,0.41773881,-0.15879751,0.458025,0.39507771,-0.17118557,0.43317,0.3856058,-0.17818496,0.42175,0.38889183,-0.19788324,0.427441
0.48305149,-0.26720326,0.502885,0.43262118,-0.22766048,0.48241,0.45009291,-0.2682028,0.496983,0.4223333,-0.25162466,0.491219,0.40580368,-0.23209658,0.481949,0.3853975,-0.21610037,0.473935,0.35082149,-0.19483862,0.456677,0.31059164,-0.1682449,0.430757,0.30653765,-0.17035262,0.417798,0.30352425,-0.17294422,0.406016,0.369208,-0.1782741,0.455739,0.35168459,-0.1751752,0.42643,0.35700576,-0.18834376,0.409333,0.37424957,-0.20292452,0.41636,0.38728933,-0.16715763,0.456441,0.37107021,-0.16272954,0.427775,0.40762873,-0.18540899,0.446945,0.4336357,-0.20393096,0.466179,0.41252362,-0.15652261,0.460193,0.39539651,-0.17062471,0.434141,0.38553475,-0.17726839,0.422172,0.39092739,-0.19664188,0.427581
0.48257949,-0.26569381,0.502192,0.43177137,-0.22663313,0.481676,0.44910624,-0.26672527,0.495574,0.41887727,-0.24981297,0.488502,0.40118308,-0.22952942,0.476533,0.38760418,-0.21027632,0.469681,0.34909601,-0.1942956,0.455039,0.30878954,-0.16751944,0.428942,0.30496317,-0.16944123,0.415893,0.30216345,-0.17185198,0.404031,0.36787895,-0.17783063,0.454951,0.35073202,-0.17421912,0.425442,0.35622076,-0.18709091,0.408228,0.37364052,-0.201745,0.41523,0.38539963,-0.16619664,0.456357,0.37166234,-0.16216069,0.428499,0.40831087,-0.18497764,0.447754,0.43293903,-0.20056809,0.466696,0.41329091,-0.15599739,0.460956,0.39477467,-0.1683051,0.434543,0.38537762,-0.17600733,0.422408,0.39147496,-0.19611173,0.427741
0.48217021,-0.2645157,0.501745,0.43118092,-0.22575893,0.481174,0.44860607,-0.26569614,0.49491,0.41951377,-0.24892967,0.487117,0.39991617,-0.228641,0.474862,0.38539809,-0.20944559,0.467516,0.34819037,-0.19382659,0.454224,0.30812002,-0.1668622,0.428012,0.30451048,-0.16877136,0.414905,0.30190917,-0.17116499,0.40299,0.36702488,-0.17729723,0.454378,0.35039435,-0.1734216,0.424771,0.35594567,-0.18620771,0.4075,0.37337105,-0.20090006,0.41447,0.384782,-0.16547519,0.455986,0.37412636,-0.16337461,0.427958,0.40932341,-0.18526594,0.447196,0.43314321,-0.20195039,0.466199,0.41344119,-0.15531285,0.460836,0.39469422,-0.16758802,0.434289,0.38537129,-0.17534634,0.422091,0.3916351,-0.19546244,0.427382
0.48418278,-0.26356544,0.502398,0.43176156,-0.225021,0.481032,0.44938177,-0.26455861,0.494071,0.4193669,-0.24614275,0.483187,0.39999797,-0.22472123,0.469552,0.38226587,-0.20610216,0.461678,0.34621467,-0.19358322,0.451556,0.30726087,-0.16817184,0.424289,0.30896897,-0.1683574,0.410656,0.3095599,-0.1689612,0.398999,0.36597292,-0.17695576,0.453201,0.34994258,-0.17007759,0.422567,0.3604615,-0.17689753,0.404698,0.37898179,-0.19118529,0.411199,0.3845825,-0.16530604,0.456093,0.37764104,-0.15765608,0.426519,0.41433189,-0.17826286,0.445412,0.43244004,-0.19552547,0.464902,0.41453641,-0.15516057,0.462595,0.39709499,-0.15983829,0.434884,0.39025589,-0.16465668,0.422151,0.40061295,-0.18290327,0.426955
0.47094568,-0.26283486,0.492467,0.42360646,-0.22167292,0.473717,0.43606263,-0.26164659,0.483533,0.40346552,-0.23593475,0.469441,0.37778932,-0.2135474,0.462272,0.36029249,-0.19307611,0.457038,0.33448027,-0.19384611,0.445881,0.30385742,-0.16504565,0.420318,0.30585402,-0.16858628,0.407536,0.30713093,-0.17113978,0.396729,0.35469331,-0.17770616,0.449293,0.31594926,-0.14917828,0.420994,0.32046533,-0.15089508,0.404486,0.34375395,-0.16582261,0.412104,0.3750926,-0.16668591,0.453451,0.36901916,-0.16033166,0.425571,0.40556283,-0.1832551,0.445221,0.43187166,-0.20128553,0.464749,0.40718593,-0.15801682,0.461099,0.38702028,-0.1512033,0.43487,0.38609307,-0.16378924,0.422818,0.39456576,-0.17270013,0.428452
0.47991223,-0.26842203,0.502211,0.42315617,-0.22872009,0.478672,0.43907971,-0.26533642,0.487904,0.39932143,-0.23648825,0.466641,0.36227865,-0.21719592,0.454315,0.33513554,-0.20115353,0.445736,0.33033292,-0.18965296,0.439984,0.31884344,-0.17610268,0.40833,0.34627243,-0.19721673,0.423211,0.3647976,-0.21270621,0.441646,0.35778784,-0.17547436,0.448009,0.3480408,-0.1661461,0.414631,0.35368371,-0.17502741,0.39516,0.37507428,-0.19274165,0.399456,0.38192965,-0.16650803,0.456306,0.37351612,-0.15934892,0.422205,0.40325793,-0.18395054,0.438837,0.43334593,-0.20753135,0.45925,0.41947842,-0.16496738,0.469598,0.39905827,-0.16562915,0.438357,0.39653194,-0.17444023,0.424004,0.40073637,-0.18303494,0.426578
0.47725239,-0.26534743,0.498656,0.4201668,-0.22786586,0.476401,0.43704194,-0.26231909,0.484399,0.39772565,-0.23586809,0.465398,0.35950046,-0.2149185,0.450891,0.33333718,-0.19963149,0.443413,0.32928607,-0.18831519,0.438939,0.30939102,-0.16542606,0.408087,0.33454726,-0.18931772,0.423295,0.35480167,-0.21086258,0.441545,0.35569796,-0.17535184,0.447411,0.34898098,-0.16673035,0.415251,0.35525709,-0.17615769,0.396491,0.37410289,-0.19089466,0.401349,0.38135927,-0.16652394,0.455982,0.37421525,-0.15962993,0.42287,0.40370415,-0.18296151,0.439873,0.43058739,-0.20353218,0.460037,0.41812067,-0.16228868,0.469421,0.40023257,-0.16428354,0.439064,0.39722556,-0.17415233,0.425116,0.40197567,-0.18283844,0.428136
0.45163978,-0.2519938,0.472671,0.40353456,-0.21908845,0.457732,0.41607171,-0.25068474,0.461924,0.3801219,-0.22547508,0.444739,0.34726037,-0.20613965,0.433832,0.32416563,-0.19200293,0.428818,0.32476451,-0.18440166,0.431163,0.3094017,-0.1660492,0.406942,0.33655483,-0.19032023,0.424774,0.35698834,-0.21234422,0.441455,0.34996795,-0.17153806,0.438273,0.34266852,-0.1653502,0.41346,0.35459264,-0.17353376,0.398985,0.37990877,-0.1925971,0.407676,0.37260973,-0.16237522,0.445198,0.37133643,-0.15848416,0.419362,0.40353086,-0.18285695,0.439297,0.4306294,-0.20426863,0.458628,0.40601274,-0.15786655,0.455624,0.39352642,-0.16112898,0.431446,0.39280083,-0.1719821,0.420337,0.40025512,-0.18110024,0.42666
0.47221926,-0.26445236,0.495113,0.41842205,-0.22741514,0.474887,0.4325667,-0.26161329,0.481129,0.39433776,-0.2359415,0.462641,0.3578469,-0.21512579,0.448554,0.33370082,-0.19846951,0.441151,0.33161829,-0.18799075,0.439597,0.31187862,-0.16771679,0.410147,0.33743359,-0.19117456,0.425884,0.35867213,-0.21355197,0.443792,0.3579567,-0.17559209,0.448539,0.34718291,-0.1657457,0.418342,0.3554444,-0.17424105,0.400727,0.37450981,-0.19299653,0.406486,0.38264429,-0.1670165,0.457351,0.3770799,-0.16109241,0.425912,0.40748245,-0.18470558,0.443514,0.43607498,-0.20675717,0.463241,0.41950888,-0.1634673,0.470791,0.40306133,-0.16483595,0.441913,0.40027943,-0.17528046,0.428645,0.40520695,-0.18300426,0.432395
0.47128416,-0.26526216,0.495198,0.41846179,-0.22743749,0.474743,0.43127605,-0.26209698,0.480721,0.39383886,-0.23605516,0.461661,0.3586613,-0.21767683,0.446876,0.33304683,-0.1984364,0.439149,0.3304491,-0.18747412,0.438648,0.31177807,-0.16766655,0.408782,0.33706441,-0.19051447,0.42424,0.36045425,-0.21437522,0.442201,0.35766786,-0.17542783,0.448096,0.34871513,-0.16640928,0.417663,0.35672085,-0.17592923,0.39991,0.37675355,-0.19127608,0.405397,0.38277489,-0.16714984,0.457342,0.37736011,-0.16189687,0.42552,0.40852614,-0.1852163,0.442814,0.43698618,-0.20757379,0.462572,0.4210356,-0.16424079,0.471334,0.40487535,-0.16607863,0.442172,0.40096745,-0.17601964,0.428774,0.40533859,-0.18301477,0.432268
0.46908291,-0.2656599,0.493966,0.41798919,-0.22684785,0.474062,0.42901374,-0.26205566,0.479358,0.392657,-0.23586709,0.460752,0.35075663,-0.22137766,0.447164,0.32878892,-0.20091196,0.438045,0.33058689,-0.1864427,0.43831,0.31603522,-0.17000468,0.408719,0.34336522,-0.19408914,0.424201,0.36357343,-0.21608033,0.442063,0.35799157,-0.17487485,0.448133,0.34866786,-0.16431277,0.418236,0.35635449,-0.17456408,0.400795,0.37651378,-0.19095625,0.406435,0.38351485,-0.1670326,0.457647,0.37825332,-0.16136921,0.426203,0.40949454,-0.185292,0.443529,0.43785687,-0.20749615,0.463147,0.42207261,-0.16322987,0.471884,0.40557339,-0.16520156,0.443082,0.40239194,-0.17645077,0.429849,0.4066215,-0.18319795,0.433452
0.46757872,-0.26654432,0.493421,0.41773016,-0.22645129,0.473639,0.42731856,-0.26245748,0.478557,0.39178386,-0.2357163,0.460017,0.35014278,-0.22100301,0.446126,0.32876788,-0.2000892,0.436549,0.33026084,-0.18591995,0.437687,0.31678353,-0.171562,0.408036,0.34153421,-0.19252127,0.423399,0.36374826,-0.21629591,0.441237,0.35768466,-0.17459603,0.447869,0.34889182,-0.16400772,0.418088,0.35703205,-0.17510617,0.400716,0.37714223,-0.19111313,0.406295,0.38355358,-0.16710319,0.457669,0.37901764,-0.16106451,0.426219,0.4096835,-0.1851138,0.443415,0.43798824,-0.20721566,0.462984,0.42244554,-0.16386835,0.472231,0.40667808,-0.16497541,0.443458,0.40311233,-0.17670636,0.430238,0.40708605,-0.1831241,0.43377
0.46509597,-0.26697632,0.491822,0.41703228,-0.22599382,0.472859,0.42504157,-0.26265674,0.477073,0.39084541,-0.23557507,0.459203,0.3515505,-0.2193562,0.445179,0.32863824,-0.20003847,0.435914,0.32968364,-0.18640367,0.437792,0.31726251,-0.17202153,0.408725,0.34335912,-0.19440865,0.424266,0.36474118,-0.21724479,0.441945,0.35723527,-0.17507781,0.448158,0.3502687,-0.1650064,0.419187,0.35841046,-0.17574419,0.402286,0.37819161,-0.19149214,0.408204,0.38316656,-0.16765654,0.458051,0.38006889,-0.16153884,0.427294,0.41104352,-0.18564662,0.444692,0.43905996,-0.20757287,0.464061,0.42193245,-0.1644489,0.472606,0.40771298,-0.16556778,0.44445,0.40435409,-0.1773561,0.431513,0.40849146,-0.18366162,0.43532
0.46537579,-0.26699652,0.492253,0.41729506,-0.22605977,0.473274,0.42538491,-0.2627375,0.477555,0.39104075,-0.23622048,0.459916,0.35176815,-0.21977149,0.445773,0.32893757,-0.20038827,0.436277,0.32998218,-0.18656226,0.438254,0.31649154,-0.17173577,0.409203,0.34014342,-0.19258573,0.42477,0.36541219,-0.21773543,0.442453,0.35700936,-0.17511904,0.448552,0.34987092,-0.16433889,0.419565,0.3581415,-0.17532759,0.402655,0.37846739,-0.19171939,0.408589,0.38312424,-0.16800377,0.45839,0.38036086,-0.16207865,0.42764,0.41118639,-0.18567157,0.445067,0.43854521,-0.20687787,0.464444,0.42202816,-0.16446936,0.472882,0.40800263,-0.16604497,0.444725,0.40445125,-0.17753467,0.431788,0.40875174,-0.183916,0.435612
0.46529618,-0.26757396,0.49309,0.41748206,-0.22626622,0.473856,0.4252978,-0.26304136,0.478281,0.39107468,-0.23617815,0.460123,0.35185404,-0.21975526,0.446007,0.32956626,-0.19973981,0.436423,0.33024167,-0.18607527,0.438469,0.31595648,-0.1710673,0.409196,0.34015489,-0.19251549,0.424667,0.36563452,-0.21771541,0.442399,0.35744589,-0.17479692,0.448801,0.34969566,-0.16419301,0.419561,0.35781303,-0.17505262,0.402504,0.37735623,-0.19061081,0.408301,0.38368914,-0.16786009,0.458685,0.38027654,-0.16193855,0.42769,0.41101857,-0.18541345,0.445009,0.43917053,-0.20723284,0.464443,0.42270735,-0.16461902,0.47327,0.40806071,-0.16605606,0.444904,0.40445121,-0.17747931,0.43187,0.4087384,-0.18387504,0.435578
0.46657737,-0.26769286,0.494538,0.41839171,-0.22636614,0.474988,0.42648696,-0.26322449,0.479621,0.39161769,-0.2367502,0.461232,0.35221788,-0.2198585,0.446841,0.33000474,-0.20019988,0.437048,0.33075345,-0.18624201,0.439184,0.31620736,-0.17147407,0.409653,0.34046588,-0.19275014,0.425021,0.36614534,-0.21802481,0.442814,0.35790178,-0.17488754,0.449522,0.34981129,-0.16432518,0.419971,0.35779904,-0.17505205,0.402732,0.37723369,-0.19048278,0.408372,0.3841262,-0.16788268,0.459434,0.38053663,-0.16197616,0.428147,0.41120531,-0.18521156,0.44535,0.43950962,-0.20689415,0.464856,0.42317574,-0.16455165,0.474096,0.40847982,-0.16637467,0.445479,0.40477609,-0.17764348,0.43233,0.40906699,-0.18387061,0.435905
0.46833831,-0.26836564,0.496476,0.41966336,-0.22690585,0.476457,0.42814331,-0.26395264,0.481486,0.39181769,-0.23839658,0.463149,0.35227233,-0.22112472,0.448273,0.33005437,-0.20198398,0.437874,0.33152579,-0.18674666,0.440139,0.31689358,-0.173489,0.410272,0.34115259,-0.1936125,0.425531,0.36734855,-0.21924976,0.443412,0.3585791,-0.17528619,0.45038,0.34988907,-0.16487827,0.420367,0.35761841,-0.17551844,0.40286,0.37686238,-0.19079914,0.4083,0.38475927,-0.16819551,0.460245,0.38078409,-0.16249299,0.428561,0.41135379,-0.18553517,0.44564,0.43978537,-0.20709508,0.465257,0.42382963,-0.16476739,0.474919,0.40886547,-0.16714603,0.44595,0.40501264,-0.17823479,0.43264,0.40920371,-0.18424048,0.436052
0.46925253,-0.2686099,0.497601,0.42024975,-0.22709599,0.477237,0.42895183,-0.26422157,0.482495,0.39252451,-0.23883429,0.463683,0.35257516,-0.22150414,0.448859,0.33144678,-0.20168551,0.438226,0.33172199,-0.18692453,0.440465,0.31636353,-0.17438665,0.410319,0.34176072,-0.19446153,0.42546,0.36735296,-0.21964153,0.443405,0.35875191,-0.17540962,0.450711,0.34980801,-0.16525113,0.42036,0.3572959,-0.17578501,0.402656,0.37636483,-0.19093436,0.407922,0.38494326,-0.16826959,0.460605,0.38071859,-0.16279461,0.428605,0.41115287,-0.18565982,0.445552,0.43963508,-0.20709543,0.465244,0.42408561,-0.16478055,0.475363,0.40898607,-0.16772781,0.446122,0.40504644,-0.17871537,0.432687,0.40926199,-0.18475029,0.435953
0.46994717,-0.26869545,0.49842,0.42062252,-0.22712355,0.4777,0.429614,-0.26437595,0.483275,0.39276381,-0.23930442,0.464432,0.3529207,-0.22186852,0.449455,0.33213973,-0.20201286,0.438672,0.33177282,-0.18697233,0.440556,0.31617354,-0.17470917,0.410164,0.34138613,-0.19460847,0.425226,0.36722114,-0.21987507,0.443236,0.35870864,-0.1753574,0.450708,0.34954946,-0.16548813,0.420008,0.35682714,-0.17594132,0.4021,0.37563607,-0.19092498,0.407218,0.38484725,-0.16813618,0.460551,0.38043037,-0.16294001,0.428256,0.41075427,-0.18564106,0.445114,0.43927632,-0.20694634,0.464888,0.42397362,-0.16455262,0.475297,0.40878098,-0.16810753,0.445794,0.4047388,-0.17898934,0.432239,0.40898298,-0.18504946,0.435385
0.46905623,-0.26786173,0.497668,0.42001663,-0.22667197,0.477281,0.43070945,-0.26481853,0.484682,0.39447461,-0.24069496,0.467219,0.35575304,-0.22374447,0.453173,0.33529168,-0.20389711,0.442911,0.33338655,-0.18804054,0.443053,0.31921928,-0.17673177,0.414074,0.35253407,-0.1953748,0.43021,0.37249814,-0.20647534,0.448092,0.3583965,-0.17530714,0.450724,0.3494969,-0.16581035,0.42042,0.35702218,-0.17635214,0.402743,0.37662429,-0.19168994,0.408775,0.38277485,-0.16726177,0.458503,0.37923214,-0.16265329,0.427374,0.41065337,-0.18570205,0.44541,0.43922124,-0.20689216,0.465185,0.41950985,-0.16273286,0.470725,0.40234984,-0.16824858,0.442006,0.38648153,-0.18143054,0.42881,0.38852563,-0.19718528,0.432861
0.46960205,-0.26784218,0.498297,0.42032232,-0.22675262,0.477754,0.43117998,-0.26488153,0.485218,0.39465499,-0.24095051,0.467429,0.35585107,-0.22415851,0.452833,0.33678899,-0.20362805,0.441667,0.33340344,-0.18830389,0.443273,0.31973079,-0.1765762,0.414144,0.3532301,-0.19480528,0.430212,0.37321503,-0.20591273,0.448126,0.35839035,-0.17549905,0.450994,0.34936295,-0.16620577,0.420535,0.3569049,-0.17659553,0.402767,0.37658792,-0.19184065,0.408708,0.38277595,-0.16737914,0.458825,0.37911317,-0.16292829,0.427536,0.41050992,-0.18581896,0.445497,0.43914068,-0.20687785,0.465306,0.41957037,-0.16274065,0.471134,0.40285475,-0.16684219,0.44228,0.38730233,-0.18094717,0.429022,0.38927811,-0.19666547,0.432994
0.47029485,-0.26790633,0.499082,0.42071912,-0.22685527,0.478323,0.431836,-0.26504068,0.485947,0.39519393,-0.2412003,0.468101,0.35651911,-0.22400339,0.453455,0.33767371,-0.20354055,0.442017,0.33351513,-0.18854745,0.443578,0.31984823,-0.17696308,0.414284,0.35399573,-0.19418101,0.430286,0.37387008,-0.20544615,0.448238,0.35842074,-0.17565361,0.451281,0.34928604,-0.16640033,0.42061,0.35680525,-0.17659433,0.402719,0.37657108,-0.19173749,0.408556,0.38275915,-0.16745459,0.459113,0.37900454,-0.16301756,0.427633,0.4103564,-0.18577278,0.445519,0.43903984,-0.20674372,0.465376,0.41953658,-0.16270957,0.471453,0.40317652,-0.16667529,0.442433,0.38795022,-0.18040764,0.4291,0.38978315,-0.19615754,0.432985
0.47083958,-0.26772068,0.499661,0.42102572,-0.22671925,0.478732,0.43232394,-0.26492776,0.486449,0.39556169,-0.2411557,0.468529,0.35682379,-0.22405183,0.45385,0.33864177,-0.20329196,0.442271,0.33355725,-0.18853745,0.443739,0.32202167,-0.17803952,0.414296,0.35483657,-0.19398211,0.430232,0.37429006,-0.20515812,0.448217,0.35842785,-0.17557764,0.451469,0.34922581,-0.16638077,0.42063,0.35668629,-0.17648222,0.402641,0.37631603,-0.19148921,0.408386,0.38275636,-0.16731586,0.459335,0.37893655,-0.16290824,0.42769,0.41024303,-0.18554034,0.445503,0.43896478,-0.20642725,0.465396,0.41955978,-0.16248319,0.47174,0.40215454,-0.16585846,0.442581,0.38815483,-0.17989194,0.429183,0.38992833,-0.19564664,0.432989
0.47126377,-0.26735214,0.499851,0.42132403,-0.22639586,0.478795,0.43260739,-0.26453815,0.486446,0.39575484,-0.24077755,0.468366,0.35693584,-0.22368562,0.453535,0.34016196,-0.20240576,0.441502,0.33357269,-0.18822944,0.443455,0.3244477,-0.17694514,0.413823,0.35609432,-0.19302436,0.429655,0.37450072,-0.20456802,0.447673,0.35854772,-0.17529145,0.451368,0.35019353,-0.16472861,0.420397,0.35764096,-0.17470095,0.40233,0.37623538,-0.19112559,0.407963,0.38298351,-0.16703539,0.459393,0.37984219,-0.16121179,0.427566,0.41080269,-0.18418377,0.445264,0.43905652,-0.20601765,0.465185,0.41995242,-0.16219857,0.472007,0.40198936,-0.16553686,0.442706,0.38913803,-0.17886669,0.429244,0.39036675,-0.1951499,0.432946
0.4716423,-0.26701967,0.499814,0.42157612,-0.22604314,0.478595,0.43278915,-0.26411595,0.486168,0.39700518,-0.23938272,0.467614,0.35837613,-0.22162751,0.452638,0.34017808,-0.20159914,0.44071,0.33429049,-0.18691144,0.442814,0.32592131,-0.17617496,0.412942,0.3581586,-0.19183365,0.428639,0.37451826,-0.20377825,0.446771,0.35933763,-0.17397226,0.450954,0.35170071,-0.16387524,0.419812,0.35822094,-0.17384585,0.401647,0.3759264,-0.19064321,0.407135,0.38384382,-0.16571264,0.459178,0.38061808,-0.16040562,0.427119,0.41136311,-0.18326282,0.444668,0.43901934,-0.20556439,0.464624,0.42092094,-0.16086229,0.472053,0.40230416,-0.16490463,0.442573,0.38969986,-0.17836736,0.429027,0.39071689,-0.19458854,0.432595
0.47196598,-0.26665632,0.499719,0.4218172,-0.22562416,0.478337,0.43308803,-0.26373631,0.486028,0.39762341,-0.23893888,0.467227,0.35921307,-0.22124276,0.45206,0.34040777,-0.20110115,0.440376,0.33473816,-0.18622536,0.442354,0.3259556,-0.17563904,0.412356,0.35812558,-0.19130923,0.428,0.37456436,-0.20323433,0.446169,0.3598027,-0.17327463,0.450485,0.351696,-0.16334401,0.419186,0.35875765,-0.17333051,0.400928,0.3756824,-0.19014814,0.406336,0.38432931,-0.16501018,0.458713,0.38135548,-0.15983339,0.426511,0.4117503,-0.18268457,0.444,0.43897156,-0.20507014,0.46399,0.42144249,-0.16016572,0.471618,0.40192905,-0.1643207,0.442012,0.38964509,-0.17783828,0.42841,0.39057409,-0.19399263,0.43191
0.47198332,-0.26582721,0.499382,0.42202108,-0.22491685,0.478199,0.43317031,-0.26295542,0.485727,0.39779304,-0.23777468,0.467174,0.35912772,-0.220686,0.452036,0.34066833,-0.20011307,0.440528,0.33483031,-0.18577775,0.442439,0.32520296,-0.17533429,0.412583,0.35747996,-0.19107949,0.428284,0.37484197,-0.20286312,0.446337,0.35993727,-0.17284972,0.450605,0.35193547,-0.16296483,0.419498,0.35907185,-0.17307663,0.401352,0.37719898,-0.18876385,0.406852,0.38448755,-0.16460057,0.458849,0.38160566,-0.15947091,0.426813,0.41249441,-0.18191156,0.444366,0.43967988,-0.20447725,0.464314,0.42159867,-0.15976822,0.471743,0.40240776,-0.16276138,0.442284,0.39026834,-0.17707844,0.428749,0.39160646,-0.19234088,0.432324
0.47155862,-0.2646351,0.498627,0.42194367,-0.22395834,0.477808,0.43290139,-0.26184376,0.485082,0.3975038,-0.23647433,0.46662,0.35883353,-0.21934988,0.451451,0.34052961,-0.19889203,0.439659,0.33580884,-0.18402284,0.442514,0.32427599,-0.17175198,0.412946,0.35674749,-0.18759178,0.428768,0.37563682,-0.20204715,0.446756,0.36047943,-0.17158642,0.450689,0.35246725,-0.16211427,0.419939,0.35970663,-0.17250097,0.402001,0.37829635,-0.18810077,0.407683,0.38501131,-0.16333047,0.458914,0.38212691,-0.15860718,0.427207,0.41316547,-0.18111627,0.444896,0.44103358,-0.20282379,0.464766,0.42204159,-0.15847881,0.471734,0.4028386,-0.1618457,0.442559,0.39070883,-0.17627961,0.429154,0.39245666,-0.19054193,0.432882
0.47103328,-0.2638952,0.498192,0.42233429,-0.22324487,0.477926,0.43314398,-0.26129293,0.485499,0.39701173,-0.2343169,0.468057,0.35801316,-0.21679469,0.453058,0.34134237,-0.19707079,0.439829,0.33922935,-0.17669219,0.444164,0.32614114,-0.17161376,0.415432,0.35878547,-0.18835275,0.431705,0.37793377,-0.20275948,0.449544,0.36585123,-0.16547676,0.451526,0.35520231,-0.16285253,0.421359,0.36103079,-0.17477321,0.403761,0.37977364,-0.18973431,0.40993,0.3914061,-0.15886013,0.459043,0.3831447,-0.15935649,0.42814,0.41414813,-0.18267313,0.446327,0.44203943,-0.20392673,0.466071,0.42535297,-0.15790139,0.470934,0.40337775,-0.16202004,0.442384,0.39072379,-0.17675854,0.429267,0.39236423,-0.19156066,0.43345
0.47104544,-0.26354534,0.498352,0.42259313,-0.22251019,0.477867,0.43337233,-0.26079794,0.485925,0.39720872,-0.23509961,0.468283,0.35798581,-0.21682671,0.453795,0.34130472,-0.19740334,0.44051,0.33938848,-0.1767693,0.444228,0.32630832,-0.17119247,0.41552,0.35924069,-0.18928881,0.431844,0.37806412,-0.20242445,0.449694,0.36570872,-0.16538541,0.451183,0.35369983,-0.16133073,0.420825,0.36052249,-0.17333447,0.403116,0.37941975,-0.18898945,0.409274,0.39099423,-0.15865306,0.45838,0.38331262,-0.15890075,0.427433,0.41377986,-0.18248779,0.445672,0.44191041,-0.20336491,0.465455,0.42838967,-0.15613363,0.469919,0.40367106,-0.1617871,0.441297,0.38959396,-0.17671146,0.428147,0.39137073,-0.19080927,0.432344
0.47169069,-0.26383401,0.499187,0.4232728,-0.22232545,0.478359,0.43377226,-0.26071827,0.486567,0.39802136,-0.23677226,0.468678,0.35874721,-0.21751116,0.45529,0.34233471,-0.19794958,0.44239,0.33861266,-0.17872752,0.444174,0.32703327,-0.17255754,0.415141,0.35914977,-0.19063956,0.431323,0.37797908,-0.2016953,0.449243,0.36342328,-0.1688113,0.451227,0.35326778,-0.16199079,0.420525,0.35983769,-0.1730914,0.402616,0.37854221,-0.18830536,0.408579,0.38933625,-0.16102036,0.458529,0.3831741,-0.15962359,0.42723,0.41403229,-0.18268398,0.445311,0.44198991,-0.20321777,0.465172,0.42633868,-0.15743862,0.470243,0.40349109,-0.16242363,0.441327,0.38984725,-0.17646082,0.428041,0.39145973,-0.18932574,0.432069
0.47194649,-0.26390473,0.49961,0.42367743,-0.22205688,0.478576,0.43401143,-0.26057769,0.487045,0.39848384,-0.2365978,0.469365,0.35907797,-0.21797839,0.456037,0.34279691,-0.19785609,0.443467,0.33843107,-0.17974161,0.444272,0.32685571,-0.17360131,0.415147,0.35931613,-0.19034039,0.431303,0.37818275,-0.20132848,0.44925,0.36364644,-0.16869566,0.451177,0.35321868,-0.16142861,0.420284,0.35939657,-0.1727861,0.402263,0.37760768,-0.18796491,0.408157,0.38944177,-0.16096365,0.458372,0.38346828,-0.15948522,0.426943,0.41414659,-0.18261831,0.444994,0.44201054,-0.20317183,0.464895,0.42642943,-0.15745708,0.469987,0.40426037,-0.16261004,0.440947,0.38969005,-0.17622911,0.427604,0.39097492,-0.18886929,0.431582
0.48024154,-0.27493878,0.515309,0.43062534,-0.22594308,0.486178,0.44728002,-0.26952981,0.506558,0.39583578,-0.24158243,0.490602,0.36675997,-0.22031334,0.474452,0.35117657,-0.20188439,0.459471,0.3611157,-0.16914399,0.449138,0.31286276,-0.1372131,0.418107,0.31515266,-0.15198163,0.418883,0.33870396,-0.17498601,0.434941,0.38591716,-0.16621229,0.448231,0.35420023,-0.18224569,0.410732,0.34267727,-0.19516189,0.388857,0.34970124,-0.21049297,0.390984,0.40923851,-0.16734685,0.449583,0.37726486,-0.18440857,0.414579,0.39321439,-0.21170778,0.429712,0.4136615,-0.23704937,0.449892,0.4428127,-0.17590158,0.455343,0.39951658,-0.19052158,0.422815,0.38115651,-0.20056335,0.40787,0.38027262,-0.21259513,0.409178
0.46896706,-0.28940324,0.522303,0.43582536,-0.23264036,0.491196,0.44742458,-0.27254836,0.51216,0.39809618,-0.24277524,0.49334,0.36839755,-0.21993307,0.475265,0.35117477,-0.20094807,0.459244,0.36839252,-0.16997287,0.450678,0.32089427,-0.13538861,0.417663,0.32193149,-0.15046685,0.418704,0.34127986,-0.17472197,0.43496,0.39410417,-0.1700484,0.450675,0.35588813,-0.18385586,0.411238,0.3419422,-0.19633221,0.388233,0.34691046,-0.21105156,0.389053,0.41805268,-0.17381853,0.452914,0.37949659,-0.18736396,0.415817,0.39316056,-0.21412409,0.429759,0.41298584,-0.23968942,0.450308,0.45209473,-0.18585656,0.460017,0.40399372,-0.19814417,0.425774,0.38304377,-0.20430765,0.410041,0.38040509,-0.21556481,0.410202
0.46946723,-0.29077913,0.523565,0.43592729,-0.2351028,0.491704,0.44640018,-0.2731646,0.51317,0.3985279,-0.24318495,0.493858,0.36909616,-0.22028076,0.475779,0.35141579,-0.20053091,0.459811,0.36593664,-0.16989764,0.450194,0.31994415,-0.13555653,0.416642,0.32093437,-0.15075838,0.417578,0.34112623,-0.17462448,0.433751,0.39368121,-0.17015103,0.450199,0.35534369,-0.1842416,0.410103,0.34058816,-0.19642046,0.386714,0.34478703,-0.21077936,0.387001,0.41772455,-0.17393551,0.452498,0.37973683,-0.18992539,0.41479,0.39174427,-0.21628777,0.42821,0.41132263,-0.23999246,0.448797,0.45199466,-0.18602199,0.459781,0.40340593,-0.19836723,0.425034,0.38210085,-0.20698522,0.409069,0.37889118,-0.2159101,0.408787
0.48226584,-0.28261958,0.522472,0.44577172,-0.23785341,0.490652,0.4473887,-0.27238749,0.511628,0.4084347,-0.24274477,0.492337,0.37963442,-0.21968547,0.47402,0.36095903,-0.19626843,0.45899,0.37710768,-0.16977261,0.448637,0.32881923,-0.13544866,0.414774,0.33194999,-0.15158392,0.417923,0.35491541,-0.17592417,0.43504,0.40349026,-0.17005735,0.449202,0.36575145,-0.18554582,0.409036,0.34946837,-0.19554652,0.385606,0.35304984,-0.20674508,0.385921,0.42811203,-0.17400607,0.451959,0.38973024,-0.19020894,0.414001,0.40178915,-0.21648624,0.427472,0.42094643,-0.24187096,0.44818,0.4631618,-0.1862853,0.459784,0.41407852,-0.19884996,0.424848,0.39207444,-0.20736211,0.408796,0.38806031,-0.21793184,0.4085
0.47056116,-0.29118346,0.519114,0.45238002,-0.24728188,0.494236,0.44925341,-0.27260284,0.50854,0.42144369,-0.25850403,0.488945,0.39048543,-0.23227543,0.468262,0.37048883,-0.20857677,0.455375,0.38703483,-0.18031193,0.458851,0.34130733,-0.13620114,0.428753,0.34221084,-0.14344831,0.429088,0.36309333,-0.16558264,0.445692,0.41536152,-0.17947162,0.461829,0.38659681,-0.18917857,0.427617,0.37001109,-0.20683752,0.40766,0.37378921,-0.22152773,0.412177,0.44132576,-0.18243477,0.46607,0.41104191,-0.19233082,0.432836,0.42329679,-0.2206919,0.450134,0.44024536,-0.23502275,0.471223,0.47748617,-0.19346721,0.47469,0.44144234,-0.20291898,0.443833,0.42992485,-0.21113069,0.429655,0.43536274,-0.2237826,0.432713
0.48605465,-0.30345732,0.516837,0.46085134,-0.24983544,0.49105,0.45101188,-0.28504751,0.505659,0.42208169,-0.26048399,0.480126,0.3891742,-0.23469601,0.454081,0.36618163,-0.21050558,0.437533,0.39160709,-0.18215232,0.454109,0.34420173,-0.13717659,0.423104,0.34528557,-0.1408617,0.42324,0.3597689,-0.1501048,0.439767,0.41957544,-0.18054111,0.457459,0.3901058,-0.18138407,0.422339,0.37449554,-0.19816178,0.401853,0.37552768,-0.21647588,0.405814,0.44552249,-0.18285325,0.462072,0.41461291,-0.18406739,0.427873,0.42796131,-0.21353042,0.444691,0.44537518,-0.22945532,0.465219,0.48236129,-0.19313541,0.471266,0.44596066,-0.19545572,0.43961,0.43456082,-0.20520006,0.425065,0.43974247,-0.20665097,0.427635
0.49346796,-0.30902439,0.512556,0.46600843,-0.25791495,0.49003,0.46016844,-0.29260732,0.504306,0.4418532,-0.26247416,0.48236,0.40468918,-0.22944785,0.461961,0.38430806,-0.20812665,0.454584,0.40004942,-0.19386397,0.459592,0.36080351,-0.14805493,0.432413,0.36270354,-0.14547071,0.435869,0.37639258,-0.14748375,0.453538,0.42584642,-0.19046987,0.460686,0.40173627,-0.18592027,0.429011,0.38873013,-0.20334791,0.410533,0.39284509,-0.22193258,0.416469,0.44964183,-0.19121268,0.463209,0.42562009,-0.18785436,0.432948,0.44184096,-0.22001681,0.451413,0.45780972,-0.23900791,0.471009,0.48339276,-0.19928397,0.469433,0.45257413,-0.1978597,0.441015,0.44208987,-0.20909849,0.427958,0.44636362,-0.2111294,0.432321
0.49542873,-0.31430711,0.514875,0.46901762,-0.26387787,0.494846,0.46318507,-0.3013633,0.505525,0.4400689,-0.26444822,0.482341,0.40422558,-0.23110065,0.462522,0.38444544,-0.20971262,0.455256,0.40506292,-0.19924619,0.465345,0.37140617,-0.15396216,0.438858,0.37683736,-0.1529958,0.443249,0.394069,-0.15668842,0.461437,0.43272794,-0.20091219,0.468755,0.41237004,-0.1913195,0.439188,0.40028542,-0.20962037,0.42194,0.40772642,-0.23003544,0.428941,0.45778661,-0.2033989,0.473004,0.43767468,-0.19982289,0.443944,0.45299691,-0.23209394,0.463156,0.46797409,-0.24771224,0.482565,0.49246152,-0.21349973,0.480943,0.46537432,-0.20876295,0.453694,0.45376047,-0.22077857,0.441174,0.46087145,-0.22357393,0.446289
0.48109042,-0.3084795,0.501455,0.46525779,-0.26662216,0.492095,0.45569459,-0.29559267,0.500372,0.44229628,-0.27001587,0.488268,0.41760153,-0.24082976,0.479496,0.40214444,-0.21907271,0.47575,0.4274792,-0.2075447,0.482286,0.4083797,-0.16142117,0.46732,0.40156224,-0.15550244,0.459837,0.4116447,-0.15613268,0.471706,0.45106858,-0.20660229,0.479902,0.43578424,-0.20425931,0.461795,0.42759154,-0.22717465,0.451233,0.43876012,-0.24991831,0.462998,0.47137853,-0.20915205,0.478615,0.45769254,-0.21457602,0.462485,0.47364528,-0.24573939,0.484675,0.48925344,-0.26446071,0.505481,0.49756271,-0.21883022,0.478402,0.47601625,-0.22087208,0.462082,0.49308808,-0.24832446,0.479448,0.51054668,-0.25582637,0.49561
0.4864715,-0.31770873,0.507357,0.4692545,-0.26991758,0.495028,0.45930036,-0.30210419,0.50379,0.44218183,-0.27085766,0.488246,0.41775123,-0.24094589,0.479146,0.40360555,-0.21968811,0.475913,0.43172813,-0.20898155,0.479517,0.42719208,-0.16730685,0.477974,0.42513359,-0.16455759,0.477203,0.43432626,-0.16544624,0.493342,0.45676868,-0.21025006,0.478968,0.43524554,-0.21100019,0.457796,0.4207021,-0.23284557,0.445445,0.4294569,-0.25213059,0.456149,0.47859076,-0.21475282,0.479405,0.45580476,-0.21525315,0.459462,0.4704935,-0.24885163,0.481131,0.48617571,-0.26638168,0.50083,0.50705958,-0.22714664,0.48168,0.47723979,-0.2235946,0.462118,0.49347074,-0.25095861,0.479002,0.51072668,-0.26202058,0.493794
0.48662777,-0.32497926,0.509837,0.47610738,-0.28351887,0.497223,0.46169528,-0.30855178,0.507649,0.44645761,-0.2820548,0.493855,0.42687468,-0.24855307,0.488055,0.41362985,-0.22492956,0.484764,0.43983201,-0.21888963,0.483122,0.4409753,-0.18427865,0.491699,0.44137353,-0.17950553,0.495988,0.45375327,-0.17947567,0.513842,0.46288876,-0.22005354,0.480791,0.43705248,-0.21461579,0.459672,0.42172313,-0.23586522,0.447353,0.43025266,-0.25836718,0.457927,0.48301327,-0.22447145,0.479782,0.45786422,-0.22008002,0.460477,0.47181784,-0.25407497,0.481979,0.48879279,-0.27255629,0.501527,0.50938344,-0.23680265,0.480363,0.47737604,-0.23287589,0.461265,0.4928393,-0.26138833,0.478018,0.50989206,-0.27660141,0.491235
0.48824752,-0.32735152,0.509418,0.47910226,-0.28412874,0.495735,0.46675467,-0.31530315,0.508944,0.45021814,-0.28610692,0.497372,0.42749156,-0.25937904,0.493086,0.4192243,-0.23458566,0.491308,0.44618049,-0.22156958,0.482738,0.44327274,-0.18467385,0.487421,0.43765028,-0.17899368,0.489763,0.44852537,-0.17706515,0.506519,0.463423,-0.21977103,0.477911,0.43452793,-0.21844813,0.456269,0.41896773,-0.24206393,0.443644,0.42726884,-0.26120297,0.453596,0.48157008,-0.2229608,0.474927,0.45412967,-0.22260551,0.455959,0.46821719,-0.25661421,0.476819,0.48700706,-0.27489298,0.495783,0.50964812,-0.23440163,0.473291,0.47165853,-0.23147416,0.454378,0.48719826,-0.2595414,0.470609,0.50507078,-0.27401388,0.483559
0.48826608,-0.33446609,0.507728,0.47923741,-0.28655506,0.492076,0.47037088,-0.32142779,0.509589,0.45230162,-0.29264921,0.501337,0.43030275,-0.26398846,0.498522,0.41998542,-0.24220469,0.49687,0.44484199,-0.22254455,0.480118,0.44609027,-0.18741133,0.484591,0.43844182,-0.18157287,0.486828,0.44543255,-0.18256201,0.502424,0.4621758,-0.22339286,0.471687,0.42328742,-0.22280022,0.448911,0.4044191,-0.2426443,0.435625,0.41349937,-0.26350836,0.444062,0.47678031,-0.22589364,0.465879,0.44070946,-0.22691878,0.447203,0.45371347,-0.25980431,0.466411,0.4766226,-0.27345038,0.483872,0.49677679,-0.23620299,0.461138,0.45517342,-0.23454463,0.442375,0.4684141,-0.26214227,0.45727,0.48746634,-0.27813389,0.469649
0.48691001,-0.33535798,0.505797,0.47743137,-0.28721187,0.490396,0.46837742,-0.32139342,0.506982,0.4551877,-0.29474504,0.504186,0.43504168,-0.2660035,0.502749,0.42498471,-0.24085416,0.499113,0.44399636,-0.22458023,0.477847,0.44662484,-0.18859412,0.485027,0.44216274,-0.18504282,0.488618,0.44846069,-0.18466174,0.504965,0.46111456,-0.22369299,0.470333,0.42599613,-0.21413066,0.447683,0.40503939,-0.23176365,0.434471,0.41420391,-0.25379102,0.44326,0.47645787,-0.22655582,0.465262,0.44087603,-0.22706274,0.446251,0.45412382,-0.26017627,0.46588,0.47518362,-0.27743401,0.483725,0.49734662,-0.23728608,0.461369,0.4561523,-0.2351894,0.442334,0.47021532,-0.26282294,0.457565,0.48978423,-0.27762825,0.470169
0.48790894,-0.33952092,0.505305,0.47686523,-0.28996389,0.490035,0.46823864,-0.32218322,0.50651,0.45564032,-0.29514682,0.504316,0.43797294,-0.26576664,0.503701,0.42620165,-0.24132749,0.499619,0.44432255,-0.224983,0.477629,0.44747422,-0.18918762,0.485185,0.44334767,-0.18562349,0.488964,0.44980892,-0.18549854,0.5054,0.46147523,-0.22421618,0.470143,0.42594215,-0.21036599,0.447616,0.40568055,-0.2291808,0.434475,0.41276222,-0.25289881,0.44333,0.47681451,-0.22717106,0.465085,0.44157684,-0.22751476,0.44618,0.45471322,-0.26065426,0.465858,0.47564285,-0.27801996,0.483748,0.4976386,-0.23799589,0.461189,0.45675398,-0.23572324,0.442246,0.47062841,-0.26342641,0.457519,0.48991906,-0.27862694,0.470107
