sluyters/QuantumLeap/src/datasets/gesture/HandGestureDataset_SHREC2017_csv/Gesture5/finger_2/subject_15_essai_1_skeletons_world.csv
Wrist_x,Wrist_y,Wrist_z,Palm_x,Palm_y,Palm_z,thumb_base_x,thumb_base_y,thumb_base_z,thumb_first_joint_x,thumb_first_joint_y,thumb_first_joint_z,thumb_second_joint_x,thumb_second_joint_y,thumb_second_joint_z,thumb_tip_x,thumb_tip_y,thumb_tip_z,index_base_x,index_base_y,index_base_z,index_first_joint_x,index_first_joint_y,index_first_joint_z,index_second_joint_x,index_second_joint_y,index_second_joint_z,index_tip_x,index_tip_y,index_tip_z,middle_base_x,middle_base_y,middle_base_z,middle_first_joint_x,middle_first_joint_y,middle_first_joint_z,middle_second_joint_x,middle_second_joint_y,middle_second_joint_z,middle_tip_x,middle_tip_y,middle_tip_z,ring_base_x,ring_base_y,ring_base_z,ring_first_joint_x,ring_first_joint_y,ring_first_joint_z,ring_second_joint_x,ring_second_joint_y,ring_second_joint_z,ring_tip_x,ring_tip_y,ring_tip_z,pinky_base_x,pinky_base_y,pinky_base_z,pinky_first_joint_x,pinky_first_joint_y,pinky_first_joint_z,pinky_second_joint_x,pinky_second_joint_y,pinky_second_joint_z,pinky_tip_x,pinky_tip_y,pinky_tip_z,
0.61926869,-0.41576035,0.623864,0.59795417,-0.36900291,0.610628,0.59497359,-0.40458926,0.624567,0.55769969,-0.3926924,0.611816,0.50977012,-0.36904257,0.586987,0.48305756,-0.34906651,0.571674,0.55092693,-0.31670035,0.602557,0.51768859,-0.27582929,0.582994,0.50456842,-0.26181626,0.573212,0.49330969,-0.2504562,0.56432,0.5711839,-0.30988996,0.598022,0.53808481,-0.26564263,0.576176,0.52210882,-0.24629546,0.563432,0.53010885,-0.24403049,0.573868,0.59131692,-0.30776511,0.595715,0.56442421,-0.27031106,0.575943,0.55241831,-0.25299117,0.565826,0.56049923,-0.24531717,0.576201,0.61840186,-0.31377647,0.595525,0.59340909,-0.28681369,0.578309,0.58382937,-0.27643835,0.570399,0.57574702,-0.26831244,0.563419
0.62125129,-0.41793498,0.62522,0.59765738,-0.36921701,0.610556,0.59580861,-0.40616504,0.6248,0.55515346,-0.39125586,0.61012,0.50538015,-0.36844306,0.587754,0.48469897,-0.34871643,0.570453,0.54811781,-0.31578261,0.600054,0.51305337,-0.27656692,0.578877,0.50076014,-0.26653955,0.568288,0.48999821,-0.25758102,0.558662,0.56937762,-0.30959582,0.596591,0.53460046,-0.26455065,0.57301,0.51698361,-0.24626771,0.559255,0.52520254,-0.24259345,0.569135,0.59048194,-0.30812934,0.59532,0.56180846,-0.2693209,0.574034,0.54892418,-0.25150765,0.563143,0.55633046,-0.24347284,0.572974,0.61904922,-0.31370436,0.5966,0.59280546,-0.28683938,0.57789,0.58256039,-0.27629598,0.569293,0.57389033,-0.26802879,0.561707
0.61918474,-0.41742083,0.622496,0.59666672,-0.36890836,0.609733,0.59492668,-0.40659346,0.623222,0.55566847,-0.39168807,0.610619,0.50573535,-0.36837978,0.587901,0.48512725,-0.34870088,0.570601,0.5495734,-0.31702783,0.602012,0.51674141,-0.27695653,0.582847,0.50359139,-0.26210634,0.573265,0.49231048,-0.25078428,0.564553,0.57002471,-0.31035811,0.597577,0.5372034,-0.26617074,0.576207,0.52146996,-0.24726016,0.563741,0.52946914,-0.24500357,0.574386,0.59017392,-0.3080353,0.595301,0.56319678,-0.27013115,0.576031,0.54985323,-0.25196601,0.566171,0.55911818,-0.24470124,0.576778,0.61713713,-0.3130278,0.595057,0.59326456,-0.28463141,0.578169,0.58285762,-0.27397364,0.570409,0.57501033,-0.26657957,0.563562
0.61906309,-0.41815086,0.621865,0.5961958,-0.36885997,0.609403,0.59488056,-0.40746549,0.622631,0.5552934,-0.39147312,0.610159,0.50566136,-0.3680958,0.587625,0.48511969,-0.34847994,0.570355,0.54928462,-0.31713271,0.601939,0.51657203,-0.27696574,0.583056,0.50338594,-0.2623989,0.573614,0.49212566,-0.25110899,0.565031,0.5697877,-0.31050291,0.597534,0.53722523,-0.26638104,0.576475,0.52161388,-0.24759151,0.56419,0.52965411,-0.24535337,0.574964,0.58987004,-0.30816633,0.59525,0.56306146,-0.27015313,0.57624,0.5499652,-0.25208362,0.566513,0.55902571,-0.24466583,0.577243,0.61677505,-0.31307157,0.594941,0.59307492,-0.28443849,0.578274,0.58274253,-0.27325168,0.570616,0.5749258,-0.2655558,0.563858
0.61833608,-0.41822725,0.621542,0.59525672,-0.36879928,0.608794,0.59409752,-0.40752676,0.622219,0.55443063,-0.39111016,0.609549,0.50554894,-0.3674419,0.586092,0.48525616,-0.34784517,0.568407,0.54833486,-0.31658617,0.601018,0.51488275,-0.2776509,0.582178,0.50073301,-0.26304052,0.572758,0.48875677,-0.25141745,0.564194,0.56887794,-0.31012686,0.596652,0.5360153,-0.26551968,0.575281,0.5201945,-0.24716953,0.562815,0.52790092,-0.24484658,0.57347,0.58881436,-0.30816721,0.59443,0.5618184,-0.2696062,0.57522,0.54850315,-0.25123267,0.565391,0.55756422,-0.24523614,0.576026,0.61575407,-0.31382053,0.594248,0.59159372,-0.28517804,0.577344,0.58238874,-0.27659179,0.569577,0.57355304,-0.26586433,0.562725
0.61672065,-0.41765871,0.620333,0.59328232,-0.3683411,0.607644,0.59276428,-0.40729606,0.621333,0.55220165,-0.39059398,0.60914,0.50503329,-0.36736182,0.585695,0.48275561,-0.34796313,0.569543,0.54649074,-0.31672517,0.600332,0.51377844,-0.27792263,0.582156,0.49624236,-0.26332444,0.573068,0.48242085,-0.25032521,0.564807,0.56678021,-0.31030689,0.59556,0.53421678,-0.26511962,0.574345,0.51843014,-0.24747536,0.56197,0.5258493,-0.24518483,0.57262,0.58552137,-0.30848612,0.592997,0.55945657,-0.26891645,0.574095,0.54649727,-0.25055022,0.564424,0.5538817,-0.25057546,0.575105,0.61216709,-0.31311487,0.592408,0.58961244,-0.28595095,0.575706,0.57944571,-0.27631263,0.568032,0.57167329,-0.26836319,0.56126
0.61420393,-0.41639697,0.617903,0.58998454,-0.36831556,0.605802,0.59028056,-0.40630342,0.618975,0.55106874,-0.38987909,0.607029,0.5052572,-0.36654118,0.582149,0.48318389,-0.34693672,0.565822,0.5443456,-0.31596261,0.598982,0.50804337,-0.27865669,0.581414,0.49271641,-0.26398321,0.57263,0.48184296,-0.25421859,0.564645,0.56467165,-0.30965458,0.594277,0.53217772,-0.26478949,0.573668,0.51388212,-0.248347,0.561647,0.52422721,-0.24534189,0.572549,0.58339897,-0.30788784,0.591707,0.55456286,-0.2688964,0.573423,0.54126298,-0.24990682,0.564069,0.55205164,-0.25090772,0.575025,0.60903024,-0.31320881,0.590999,0.58507694,-0.28320179,0.5747,0.57386694,-0.26853307,0.567212,0.56873294,-0.2599927,0.560604
0.61194548,-0.41631385,0.617086,0.58572745,-0.368306,0.604811,0.58739528,-0.40570274,0.617403,0.54638179,-0.38918932,0.604344,0.50103954,-0.36552679,0.578831,0.48095431,-0.34542729,0.561418,0.53731475,-0.31573504,0.59689,0.50284277,-0.2784442,0.57869,0.4880077,-0.26528258,0.569589,0.4760753,-0.25649773,0.561316,0.55852085,-0.30989568,0.59312,0.52543833,-0.26446779,0.572118,0.50988762,-0.25010681,0.559867,0.51668988,-0.24885157,0.570759,0.57938466,-0.30833707,0.591339,0.55056764,-0.26755453,0.572625,0.53678252,-0.24768798,0.56305,0.54561287,-0.24766123,0.573972,0.60703367,-0.31368559,0.591579,0.58273305,-0.28090131,0.574772,0.57268198,-0.26864451,0.567049,0.5670524,-0.25958144,0.560235
0.61056581,-0.41636202,0.616625,0.5846478,-0.36826914,0.604415,0.58576268,-0.40566523,0.616755,0.54534543,-0.38890706,0.603449,0.50015582,-0.36505418,0.577691,0.47988673,-0.34490056,0.560169,0.5362803,-0.31557045,0.596294,0.50182974,-0.27821266,0.578022,0.48710428,-0.26517969,0.568886,0.47535242,-0.25664539,0.56058,0.55772392,-0.30987183,0.592787,0.52475276,-0.26464361,0.571797,0.5094036,-0.25063023,0.559552,0.51638595,-0.24967995,0.570485,0.57858202,-0.308432,0.591214,0.54989715,-0.26709004,0.572481,0.53607826,-0.24692821,0.562897,0.54486254,-0.24644354,0.573851,0.60646979,-0.3138553,0.591685,0.58242124,-0.28103406,0.574848,0.57240633,-0.26873775,0.567113,0.56631898,-0.25946103,0.560287
0.61272982,-0.41753117,0.619009,0.58923791,-0.36751391,0.605794,0.58688557,-0.40644573,0.618269,0.54747356,-0.38848789,0.603496,0.50103434,-0.36519973,0.578162,0.47964537,-0.3454482,0.561802,0.53542332,-0.31465183,0.595856,0.50023082,-0.27729102,0.576043,0.48538461,-0.26442841,0.566136,0.47309634,-0.25519021,0.55713,0.55667683,-0.30860304,0.593208,0.52210683,-0.26373183,0.570977,0.50719352,-0.25123576,0.558009,0.51454848,-0.25134972,0.568548,0.5760504,-0.30219139,0.59245,0.54810527,-0.26496728,0.572507,0.53342298,-0.24408783,0.562304,0.54332667,-0.24540525,0.572835,0.60529028,-0.30540829,0.594056,0.58327422,-0.28133029,0.576162,0.57276407,-0.26924146,0.56794,0.56372592,-0.25958048,0.560686
0.61265688,-0.41692837,0.619099,0.58891683,-0.36688544,0.605748,0.58655377,-0.40592256,0.618187,0.54682613,-0.38805496,0.603141,0.50062458,-0.36509146,0.577505,0.47935783,-0.34534434,0.560849,0.53482031,-0.31404882,0.595494,0.49977974,-0.27701982,0.575441,0.485148,-0.26441073,0.565414,0.47279371,-0.25488441,0.556299,0.55627482,-0.30761818,0.593032,0.52122713,-0.26297635,0.570621,0.50656869,-0.25100967,0.557547,0.51409649,-0.25142974,0.568033,0.57604457,-0.30218833,0.592444,0.54757114,-0.26422013,0.572344,0.53270117,-0.24337996,0.56206,0.54270329,-0.24491739,0.572539,0.60551036,-0.30551934,0.594272,0.58303147,-0.28114385,0.576206,0.5724432,-0.26929252,0.567906,0.56336655,-0.25988161,0.560582
0.61203081,-0.41597592,0.618486,0.58699975,-0.36680629,0.60537,0.58627948,-0.40546036,0.618026,0.54714683,-0.38838868,0.603668,0.50101944,-0.36549275,0.577804,0.47922,-0.34576841,0.560588,0.53503483,-0.31410182,0.595867,0.50224757,-0.27671865,0.575836,0.48853584,-0.26287756,0.565821,0.47736905,-0.25036906,0.556717,0.55668267,-0.30753032,0.59288,0.52229025,-0.2627529,0.570823,0.50749517,-0.25021711,0.557957,0.51494161,-0.25032068,0.568529,0.57559695,-0.30216995,0.591833,0.54806489,-0.26489384,0.572029,0.53487657,-0.24664218,0.561896,0.54739516,-0.25182844,0.572454,0.60447875,-0.3052224,0.593084,0.58213133,-0.28065497,0.575388,0.57169051,-0.26891692,0.567257,0.56272145,-0.25951701,0.560083
0.61274467,-0.41592877,0.61918,0.58638727,-0.3662182,0.605091,0.58633368,-0.40523013,0.618164,0.54630004,-0.38792746,0.602792,0.50032261,-0.36518565,0.577019,0.4780166,-0.3456766,0.559459,0.53350983,-0.3131307,0.594203,0.50022101,-0.27537632,0.573167,0.48666072,-0.26292206,0.56265,0.47345225,-0.25060893,0.553088,0.55550033,-0.3066528,0.591674,0.52029472,-0.26149071,0.568501,0.50484815,-0.24926692,0.554984,0.51222483,-0.24889797,0.56515,0.57511877,-0.30196195,0.59111,0.54651316,-0.2641073,0.570349,0.53273624,-0.24561428,0.559727,0.54453898,-0.25077387,0.569892,0.60477023,-0.30541245,0.593104,0.58130738,-0.28021246,0.574496,0.57048252,-0.26848009,0.565946,0.56175246,-0.26022667,0.558403
0.61270654,-0.4153647,0.619065,0.58554121,-0.36547216,0.604526,0.58601488,-0.40473839,0.617866,0.54568089,-0.38747947,0.60213,0.49976718,-0.36472263,0.576514,0.477153,-0.34548889,0.558732,0.53252711,-0.31247665,0.593092,0.49825674,-0.27474889,0.571593,0.48566764,-0.26179951,0.560844,0.4721655,-0.25012801,0.551072,0.55457566,-0.30594819,0.590679,0.51865895,-0.26057529,0.567011,0.50349424,-0.24830115,0.553204,0.51084268,-0.24883026,0.563175,0.5745136,-0.30162139,0.590259,0.54539442,-0.26350188,0.569082,0.5317498,-0.24558587,0.558247,0.54279036,-0.25005472,0.568226,0.60442663,-0.30521032,0.592504,0.58043403,-0.27971901,0.57351,0.56946046,-0.26805684,0.564783,0.56052451,-0.25974517,0.557083
0.60993323,-0.41264893,0.615748,0.58517908,-0.36320553,0.603151,0.58426492,-0.40301397,0.615626,0.54720422,-0.38681503,0.601869,0.49930986,-0.36426593,0.575703,0.47613541,-0.34489372,0.558119,0.53457304,-0.31302448,0.594438,0.5100898,-0.26750475,0.573887,0.49807569,-0.25410612,0.563611,0.48709043,-0.24173666,0.554269,0.55590092,-0.30619613,0.591153,0.52855332,-0.25856069,0.569175,0.5138517,-0.24299209,0.556355,0.51738346,-0.24254062,0.56699,0.57524,-0.3023017,0.589806,0.54690111,-0.26330542,0.570663,0.53254552,-0.24250687,0.560869,0.54402883,-0.24682724,0.571671,0.60324098,-0.3044211,0.59061,0.58082697,-0.27962306,0.573421,0.57071367,-0.26845819,0.565524,0.56243125,-0.26049127,0.558556
0.61016239,-0.41176417,0.615187,0.58506599,-0.36233533,0.602603,0.58441886,-0.40239251,0.6151,0.54710003,-0.38640483,0.601395,0.49936916,-0.36390449,0.575163,0.47605981,-0.34451605,0.557595,0.53393214,-0.31267098,0.593946,0.50960539,-0.26725071,0.573342,0.49757108,-0.25384868,0.56304,0.48656842,-0.2414776,0.553675,0.55517683,-0.30559154,0.590619,0.527972,-0.25827632,0.568549,0.51322365,-0.2426951,0.555675,0.51813091,-0.24124514,0.566283,0.57506573,-0.3019585,0.589236,0.54670046,-0.26270925,0.57007,0.53262268,-0.24200679,0.560265,0.5432333,-0.24620553,0.571057,0.6031468,-0.30423746,0.589995,0.58061824,-0.27929426,0.572833,0.5705378,-0.26822455,0.564948,0.56190067,-0.25953339,0.55799
0.61055845,-0.41099157,0.614794,0.58516508,-0.36148073,0.602135,0.5848272,-0.40186958,0.614812,0.54746514,-0.38603916,0.601235,0.49932249,-0.36373547,0.575182,0.47578106,-0.34439254,0.557785,0.53361977,-0.31226016,0.593562,0.50917608,-0.26702557,0.572859,0.49710094,-0.25360883,0.562508,0.48606048,-0.24122551,0.553097,0.55468772,-0.3049255,0.590078,0.52728667,-0.25794106,0.567811,0.51243582,-0.24232254,0.554822,0.51999872,-0.23938855,0.565351,0.57445224,-0.3009464,0.588573,0.54627221,-0.26210436,0.569317,0.53232755,-0.24149034,0.559465,0.54263956,-0.24539045,0.570204,0.60274087,-0.30393067,0.589206,0.58003407,-0.27883352,0.572043,0.56999962,-0.26796182,0.564157,0.56141129,-0.25948029,0.557199
0.61128903,-0.4100993,0.614424,0.58502096,-0.36131721,0.601766,0.5856345,-0.40126973,0.61461,0.54769515,-0.38600841,0.60127,0.49970885,-0.36364466,0.575432,0.47592451,-0.34439023,0.558237,0.53381836,-0.31188356,0.593414,0.50903831,-0.26695332,0.572704,0.49696043,-0.25353714,0.562349,0.48591899,-0.24115529,0.552936,0.55465085,-0.30425983,0.58971,0.52695237,-0.25777753,0.567451,0.51210701,-0.24216706,0.554466,0.51965108,-0.23922849,0.564973,0.57421061,-0.30070083,0.588025,0.5460612,-0.26134728,0.568772,0.5323002,-0.24074049,0.558922,0.54274379,-0.24547648,0.569638,0.60227713,-0.30361751,0.588448,0.57979858,-0.2783704,0.571366,0.56982024,-0.2677334,0.563518,0.56128663,-0.25949397,0.556593
0.61190285,-0.40888354,0.614094,0.58469798,-0.36080527,0.601467,0.58618105,-0.40029058,0.614321,0.54728385,-0.38583508,0.601045,0.49962392,-0.36379167,0.575415,0.47560764,-0.34473787,0.558198,0.53368928,-0.31110072,0.593188,0.50312944,-0.2638467,0.573028,0.49654646,-0.25406629,0.562948,0.47909222,-0.24927505,0.553784,0.55445208,-0.30325204,0.589441,0.52366034,-0.25126485,0.567245,0.51344533,-0.24834922,0.554298,0.52454635,-0.25526074,0.564821,0.57388494,-0.30015509,0.587716,0.5467136,-0.26084933,0.568473,0.53306441,-0.24221691,0.558627,0.5444374,-0.24816975,0.569345,0.60188968,-0.30304923,0.588087,0.57970828,-0.2780038,0.571046,0.56976536,-0.26761845,0.563216,0.56127787,-0.25962154,0.556307
0.61080103,-0.4079237,0.612772,0.58316061,-0.35955878,0.599692,0.58485463,-0.3991668,0.612762,0.54384539,-0.38514676,0.599041,0.49338897,-0.3662343,0.573137,0.46994873,-0.34759248,0.555325,0.53214698,-0.30936367,0.590798,0.50039362,-0.26304372,0.570394,0.488835,-0.2563402,0.560193,0.4774127,-0.24816043,0.550919,0.55309466,-0.30168264,0.587235,0.52082214,-0.25021852,0.564603,0.51045776,-0.24738722,0.551401,0.52146467,-0.2543894,0.561764,0.57242153,-0.29884689,0.58571,0.54344944,-0.26063099,0.566102,0.52970997,-0.24257734,0.55607,0.54198004,-0.24728047,0.566635,0.59919803,-0.30095827,0.5864,0.57868776,-0.27699188,0.56894,0.56871438,-0.26697952,0.560918,0.55971872,-0.25936143,0.55384
0.61038436,-0.40700599,0.611604,0.58245804,-0.35878611,0.598506,0.58553793,-0.39917996,0.612789,0.54795492,-0.38615132,0.60076,0.4994918,-0.3673927,0.575179,0.47133916,-0.34999868,0.55753,0.53205615,-0.30990089,0.591156,0.4997704,-0.26459675,0.570937,0.48770119,-0.25918014,0.560828,0.47747161,-0.24889574,0.551638,0.55171614,-0.30110924,0.586032,0.51675237,-0.25747095,0.564469,0.49932405,-0.24011195,0.551891,0.50544842,-0.23780182,0.562336,0.57005571,-0.29735894,0.583225,0.54128592,-0.25968837,0.563744,0.52799647,-0.24169015,0.553777,0.5393111,-0.24920403,0.564173,0.5953801,-0.29819923,0.582428,0.57545435,-0.27545153,0.565546,0.56475265,-0.2678194,0.557789,0.55799151,-0.26541111,0.550945
0.61026015,-0.40627742,0.610829,0.58114724,-0.35763432,0.5968,0.58590959,-0.39898645,0.612596,0.54827474,-0.38671821,0.601197,0.49988831,-0.37192831,0.575474,0.46974125,-0.35383138,0.558612,0.53066818,-0.30954767,0.589578,0.49616658,-0.26497207,0.568582,0.48406388,-0.2585247,0.558083,0.47354247,-0.24837732,0.548539,0.54765024,-0.29931716,0.58344,0.51309612,-0.25512829,0.56115,0.49577256,-0.2395863,0.548147,0.50160713,-0.23780332,0.558081,0.56523194,-0.29434766,0.579898,0.53727238,-0.2572742,0.55939,0.52360192,-0.24109698,0.548897,0.53483086,-0.2516889,0.558668,0.59129212,-0.29543724,0.578423,0.569937,-0.27379749,0.56123,0.56061563,-0.26954167,0.553331,0.55322596,-0.26831502,0.546361
0.6080214,-0.40405724,0.608059,0.57800958,-0.35552475,0.593603,0.58393303,-0.39728693,0.610115,0.5450769,-0.38762888,0.599043,0.49787246,-0.3722124,0.574046,0.46877327,-0.35478307,0.558202,0.51969983,-0.31154571,0.586466,0.48389046,-0.26772336,0.565422,0.47115495,-0.25949338,0.5549,0.45948252,-0.2519293,0.545334,0.53684488,-0.29922629,0.579836,0.50492864,-0.25589741,0.563561,0.49221364,-0.24565558,0.554068,0.50024508,-0.24766853,0.566144,0.55371279,-0.29241965,0.575935,0.52344283,-0.25503512,0.555013,0.50910162,-0.23910511,0.544309,0.51988499,-0.24901058,0.553789,0.57961013,-0.29070887,0.574123,0.5572831,-0.27135114,0.556806,0.54882803,-0.26997705,0.548849,0.54562585,-0.27114924,0.541829
0.60722472,-0.40289695,0.606922,0.57694724,-0.354798,0.592715,0.58334327,-0.39664134,0.60927,0.54452311,-0.38866414,0.598686,0.49705436,-0.3727789,0.573692,0.46781177,-0.35546797,0.558069,0.51873574,-0.31149017,0.586127,0.48318176,-0.26735892,0.565355,0.47036061,-0.25843746,0.554969,0.45860707,-0.25022716,0.545528,0.53561647,-0.29898367,0.579185,0.50387694,-0.25574584,0.563073,0.4914459,-0.24562567,0.553674,0.49960928,-0.24770045,0.565738,0.55220653,-0.29201597,0.574999,0.52236088,-0.25483422,0.554231,0.50826559,-0.2390078,0.543606,0.5192581,-0.24900903,0.553106,0.57767956,-0.29009117,0.57281,0.55603935,-0.27105661,0.555813,0.54791454,-0.2698267,0.548003,0.54218364,-0.27415684,0.541112
0.61108671,-0.40512577,0.610797,0.57550946,-0.3543464,0.593245,0.58397201,-0.39724795,0.610084,0.53943246,-0.38847254,0.594336,0.49200317,-0.37363147,0.570268,0.46245228,-0.35797614,0.555671,0.51236213,-0.30931053,0.5804,0.48590027,-0.27021145,0.570236,0.47736921,-0.26340448,0.565154,0.46964204,-0.25745836,0.560535,0.53181091,-0.29834781,0.57653,0.49536592,-0.25698854,0.558502,0.48259123,-0.24789033,0.547986,0.49325756,-0.24695467,0.559961,0.55105189,-0.29275865,0.575234,0.51788952,-0.25410797,0.55103,0.50170593,-0.23910334,0.538646,0.51242916,-0.25036526,0.547033,0.58053476,-0.29270388,0.57703,0.55510901,-0.26997704,0.556292,0.5424447,-0.26252496,0.546764,0.53518868,-0.26378169,0.538356
0.606775,-0.40174466,0.606353,0.57242551,-0.35400842,0.592008,0.58025542,-0.39487798,0.606262,0.53630604,-0.38861213,0.592117,0.48776675,-0.37541953,0.567161,0.45857123,-0.35876749,0.552914,0.50937185,-0.31262726,0.582149,0.47603651,-0.2756598,0.571383,0.46881625,-0.27078554,0.566,0.46213444,-0.2662561,0.561107,0.52854096,-0.30072827,0.578346,0.48679968,-0.25905508,0.558059,0.47351338,-0.24948785,0.546225,0.48465942,-0.25040418,0.557373,0.54728459,-0.29416855,0.576761,0.51222661,-0.2527802,0.555468,0.49551945,-0.23185985,0.544574,0.5057497,-0.236851,0.554415,0.57571008,-0.29256299,0.577618,0.55334467,-0.26822296,0.559252,0.54456552,-0.26306142,0.550813,0.53820118,-0.26399427,0.543367
0.60221151,-0.39789097,0.600992,0.56940499,-0.35193089,0.588075,0.57375251,-0.39045089,0.598914,0.53059773,-0.38239973,0.582392,0.48569184,-0.362979,0.554991,0.45394714,-0.34539376,0.539383,0.50314847,-0.31189108,0.576597,0.47499499,-0.27523939,0.568102,0.46829314,-0.26890321,0.563854,0.46369993,-0.26172986,0.559993,0.52564529,-0.30006501,0.575773,0.48484565,-0.25788668,0.553507,0.47233875,-0.24558207,0.540519,0.47955705,-0.24694426,0.551187,0.54629647,-0.29418201,0.576486,0.51385003,-0.25224196,0.556389,0.49836606,-0.23142404,0.546107,0.50981215,-0.23673634,0.55673,0.57529237,-0.29211882,0.579742,0.5538149,-0.26629521,0.561454,0.54541651,-0.25575662,0.553051,0.53910374,-0.25384446,0.545637
0.60191259,-0.39715012,0.600126,0.56678034,-0.35221769,0.587146,0.57396114,-0.39075525,0.598817,0.53012166,-0.38388705,0.583321,0.47885596,-0.36805235,0.557584,0.44868633,-0.35431738,0.543252,0.50440043,-0.31093214,0.576627,0.47395137,-0.27415624,0.565261,0.46635483,-0.26601036,0.559578,0.46095025,-0.25854984,0.554411,0.52491269,-0.2994956,0.574784,0.48817091,-0.25566876,0.552323,0.47396832,-0.24353596,0.539221,0.48336784,-0.24315517,0.549786,0.5447545,-0.29317595,0.574665,0.51447671,-0.25320652,0.554477,0.49809267,-0.23157282,0.544148,0.51237048,-0.23789793,0.554692,0.57444549,-0.29159253,0.576967,0.55325351,-0.26885839,0.558973,0.54487776,-0.26416344,0.550705,0.54122723,-0.26949013,0.543411
0.60317015,-0.39705685,0.599874,0.5715317,-0.35154525,0.586333,0.57459689,-0.39082663,0.598173,0.53264639,-0.38202538,0.582,0.48487425,-0.36357205,0.55474,0.45321013,-0.34589051,0.538243,0.51150584,-0.30518598,0.574924,0.48297895,-0.26817683,0.565145,0.47576741,-0.26192018,0.560256,0.47107132,-0.25538032,0.555812,0.53403974,-0.29558281,0.573437,0.49812992,-0.25280027,0.550593,0.48308668,-0.2367898,0.537268,0.48670206,-0.236884,0.547667,0.55371885,-0.29113612,0.573672,0.52326384,-0.25220882,0.553063,0.51039466,-0.23092542,0.542519,0.52723587,-0.24102568,0.552875,0.58270494,-0.2912023,0.576491,0.56380813,-0.26781111,0.557942,0.55647031,-0.26560811,0.54942,0.54915918,-0.2662304,0.541901
0.59679919,-0.39266734,0.59274,0.57056336,-0.34622101,0.579699,0.56759589,-0.38629826,0.590205,0.52359331,-0.37138277,0.57393,0.47342058,-0.35260584,0.548563,0.44660579,-0.33781743,0.532172,0.51790514,-0.29220942,0.567543,0.4890548,-0.24993554,0.549333,0.48050207,-0.24195171,0.540228,0.47315832,-0.2356632,0.531951,0.54210381,-0.28683406,0.567278,0.51105788,-0.24064178,0.544675,0.5006224,-0.23398146,0.531489,0.51209609,-0.23797994,0.542058,0.56452816,-0.28579527,0.568466,0.52516648,-0.24331265,0.54858,0.50786134,-0.2242758,0.538406,0.52143783,-0.23316111,0.549086,0.59630972,-0.29122764,0.572296,0.56295733,-0.25428411,0.553729,0.5551859,-0.24742301,0.545199,0.55341163,-0.24974831,0.537672
0.59768291,-0.39213717,0.592569,0.57803038,-0.33700277,0.577263,0.56893075,-0.38529491,0.590521,0.53712292,-0.36147741,0.573434,0.49722989,-0.34691841,0.55992,0.47200005,-0.3299065,0.548713,0.52305706,-0.28269811,0.564202,0.51313904,-0.24263359,0.561487,0.50968453,-0.23776215,0.560129,0.5066555,-0.23439378,0.558894,0.54659382,-0.27678441,0.562686,0.52037367,-0.26430246,0.537903,0.51576622,-0.27908537,0.523446,0.52978549,-0.29328902,0.533045,0.56882053,-0.27543806,0.563087,0.54558403,-0.26327214,0.541645,0.54438407,-0.27781926,0.530675,0.55936902,-0.29222046,0.540505,0.60090957,-0.28081424,0.56643,0.5753638,-0.27181061,0.546541,0.56641008,-0.28529194,0.537404,0.57566057,-0.29994685,0.544164
0.59259365,-0.38713447,0.585007,0.56305697,-0.32797789,0.561914,0.56302149,-0.37580102,0.580015,0.51339987,-0.34569397,0.55728,0.46890418,-0.32451241,0.531792,0.44170129,-0.30406582,0.514485,0.509039,-0.26373704,0.539733,0.49871952,-0.22439149,0.536278,0.49787294,-0.2215498,0.53455,0.49714861,-0.21884002,0.532979,0.5343363,-0.26240913,0.539921,0.50831479,-0.21455053,0.518735,0.49890641,-0.21104379,0.506376,0.51197762,-0.21693659,0.517484,0.55832625,-0.26534892,0.542565,0.53406285,-0.24933696,0.513814,0.52418419,-0.26265118,0.499105,0.52660032,-0.27426315,0.505067,0.59299277,-0.27678308,0.549975,0.56554515,-0.26404559,0.523798,0.55065539,-0.27507195,0.511771,0.54918209,-0.28629692,0.51551
0.57951351,-0.3777471,0.571484,0.55450697,-0.32067353,0.552163,0.55223893,-0.35946544,0.567461,0.50254066,-0.33129681,0.546787,0.45856809,-0.30735664,0.523166,0.43165926,-0.28519011,0.508803,0.51037773,-0.25401399,0.533806,0.50468484,-0.21329529,0.528325,0.50464975,-0.20927784,0.525584,0.50476688,-0.2054574,0.523092,0.53544167,-0.25495804,0.533763,0.51238594,-0.20900537,0.504617,0.49779035,-0.21435026,0.487615,0.5043699,-0.23444306,0.495304,0.55488906,-0.26083481,0.53581,0.52993811,-0.21428198,0.520774,0.52435492,-0.2048901,0.513082,0.53955271,-0.20369843,0.525749,0.58731236,-0.27275059,0.541818,0.56360915,-0.23694198,0.51844,0.55523433,-0.23138554,0.507699,0.56627179,-0.24357969,0.512929
0.57774067,-0.37661363,0.570165,0.5538932,-0.32007169,0.551276,0.5499238,-0.36055298,0.566456,0.50236136,-0.33060921,0.546296,0.45893409,-0.30596171,0.522996,0.4330385,-0.28373788,0.508548,0.51019997,-0.25455986,0.53362,0.50319675,-0.21288943,0.526525,0.50239075,-0.2094786,0.522977,0.50180003,-0.20626871,0.519751,0.53496428,-0.25536722,0.533287,0.51234588,-0.20965676,0.504569,0.49796332,-0.2153148,0.487816,0.50464897,-0.23547294,0.495712,0.55527906,-0.26048306,0.535048,0.53022002,-0.21501598,0.521051,0.52518078,-0.20584838,0.51389,0.54076904,-0.20483351,0.526934,0.58708178,-0.27261484,0.540643,0.56277961,-0.23725003,0.517677,0.55460659,-0.23179026,0.507125,0.56584027,-0.24408443,0.512538
0.5671235,-0.36550021,0.558506,0.56689955,-0.31118261,0.548508,0.54077154,-0.34787175,0.554461,0.5029538,-0.31335338,0.53696,0.46398661,-0.28914682,0.520564,0.44179935,-0.26725185,0.508334,0.52885526,-0.24812929,0.536452,0.53826971,-0.21121466,0.538541,0.54391522,-0.20343219,0.539586,0.54629179,-0.21532853,0.542191,0.55664482,-0.25166057,0.538986,0.54627511,-0.233537,0.519419,0.53499085,-0.2520663,0.508005,0.54374312,-0.26842367,0.519677,0.58101164,-0.25795935,0.542151,0.57370113,-0.23720851,0.524174,0.56365511,-0.25461395,0.514976,0.5746626,-0.28074495,0.526513,0.61289837,-0.27230903,0.547704,0.59688809,-0.26146223,0.530664,0.58736205,-0.27623019,0.522835,0.59502683,-0.28834932,0.530899
0.55623526,-0.35758101,0.546394,0.55701612,-0.30692845,0.537855,0.53276919,-0.33870491,0.543229,0.49801224,-0.30612943,0.527441,0.46307302,-0.27934886,0.510566,0.44480092,-0.25657538,0.498811,0.5297712,-0.24399122,0.527936,0.530225,-0.20118023,0.511691,0.52824864,-0.19686701,0.503568,0.54160605,-0.21305889,0.515926,0.55571011,-0.25016846,0.529724,0.55086026,-0.20465336,0.511815,0.54730973,-0.20355207,0.501368,0.55960961,-0.22384465,0.513675,0.5778013,-0.25854408,0.532116,0.57410163,-0.22691655,0.516015,0.5752413,-0.23281979,0.507778,0.5959644,-0.25679137,0.520068,0.60565298,-0.27516208,0.536497,0.59447423,-0.2711982,0.52083,0.5823182,-0.28530596,0.513632,0.58823367,-0.29516841,0.522221
0.55669438,-0.35737965,0.54742,0.5556973,-0.30585996,0.536185,0.53584588,-0.33578157,0.544288,0.49872058,-0.29457277,0.52683,0.46091639,-0.26165725,0.50385,0.44704142,-0.2408731,0.486851,0.53864967,-0.24076434,0.524477,0.52710232,-0.21691511,0.505646,0.51893062,-0.23026707,0.49623,0.52867583,-0.25181609,0.507577,0.56281018,-0.25056102,0.525485,0.55869639,-0.20907169,0.504708,0.54400981,-0.21139247,0.492588,0.54880413,-0.23175779,0.503872,0.58346923,-0.26193856,0.527526,0.56835785,-0.21308561,0.508901,0.56314902,-0.20917394,0.499372,0.57633871,-0.23108317,0.510652,0.60939716,-0.28227275,0.532006,0.592912,-0.26269598,0.514445,0.5788132,-0.27556995,0.506376,0.58180412,-0.29079519,0.514246
0.55007044,-0.35125266,0.540612,0.55488936,-0.30232491,0.530444,0.53424785,-0.32824875,0.539138,0.507013,-0.2855574,0.524177,0.47489876,-0.25040778,0.504293,0.46038869,-0.2280753,0.48565,0.55306528,-0.24020761,0.521621,0.54087395,-0.21473879,0.503679,0.52987996,-0.22751397,0.494708,0.53892296,-0.24957756,0.506438,0.57407539,-0.2514998,0.52076,0.57353584,-0.21119436,0.501429,0.55659604,-0.21179428,0.490153,0.56010427,-0.23134363,0.501948,0.59166354,-0.26392724,0.521147,0.58254547,-0.21626369,0.504074,0.57620428,-0.21145287,0.495339,0.58753469,-0.23287048,0.507208,0.61297075,-0.28518733,0.523508,0.59585846,-0.2633658,0.507377,0.57968684,-0.27541464,0.499966,0.58156752,-0.28962134,0.508327
0.52896018,-0.33428031,0.523095,0.54937392,-0.30031458,0.52602,0.51797387,-0.31220719,0.524367,0.50563792,-0.27805615,0.517264,0.49605994,-0.25050648,0.514003,0.49167629,-0.22542147,0.510343,0.56140923,-0.24532856,0.529664,0.57101141,-0.23403323,0.524767,0.56208678,-0.25164575,0.522318,0.57008266,-0.27535632,0.538401,0.58053744,-0.26100044,0.528806,0.60157335,-0.22980488,0.523914,0.59438309,-0.23733683,0.52106,0.60102176,-0.25957091,0.537264,0.59492317,-0.27478494,0.527785,0.61780013,-0.2503251,0.523556,0.61334013,-0.25135725,0.521392,0.61824423,-0.26749243,0.537643,0.60926857,-0.29561355,0.526049,0.61123631,-0.28119299,0.520642,0.60220734,-0.2959571,0.518158,0.60933945,-0.31609024,0.529911
0.52515154,-0.33168919,0.519855,0.54772353,-0.29887391,0.522168,0.51532107,-0.3090498,0.520936,0.50867817,-0.27207152,0.513358,0.50041956,-0.24121179,0.506829,0.49868517,-0.21755343,0.498454,0.56768546,-0.24795677,0.525146,0.57868589,-0.23718628,0.519643,0.56769234,-0.25396247,0.516891,0.57390139,-0.27678185,0.532811,0.58508286,-0.2643057,0.524371,0.60761575,-0.23119442,0.51873,0.61088603,-0.22921818,0.51544,0.62183435,-0.24912409,0.531459,0.59765338,-0.27970766,0.523484,0.62879923,-0.2544152,0.518383,0.63364306,-0.24898419,0.515773,0.64074933,-0.26522749,0.531777,0.60933771,-0.30224308,0.522019,0.61426494,-0.28732254,0.516065,0.60509564,-0.29861063,0.51333,0.60657141,-0.31628124,0.524942
0.53030273,-0.33455463,0.521354,0.54952148,-0.2994895,0.522624,0.51710123,-0.30895835,0.521526,0.51100182,-0.27291954,0.512374,0.50292399,-0.24162154,0.505909,0.50085054,-0.2169885,0.498806,0.56665066,-0.24650135,0.523711,0.5779828,-0.23547631,0.517403,0.56671789,-0.25176043,0.514249,0.57250495,-0.27501186,0.529957,0.58499238,-0.26317439,0.523833,0.60631146,-0.22982375,0.516916,0.6086381,-0.22904917,0.512881,0.61944371,-0.24918585,0.528579,0.59852296,-0.27894794,0.523797,0.62462593,-0.25758483,0.517601,0.63025814,-0.25296928,0.514431,0.65247518,-0.26192157,0.530129,0.61166107,-0.30212199,0.523516,0.61468126,-0.28886625,0.516393,0.60508827,-0.29933485,0.513121,0.60685606,-0.31757078,0.524424
0.5273112,-0.3330327,0.518286,0.54993933,-0.30031697,0.517598,0.51554962,-0.30981802,0.518718,0.51377447,-0.27365159,0.509237,0.51375538,-0.24310651,0.503928,0.51582321,-0.21976584,0.496195,0.56796267,-0.25004986,0.517692,0.5753537,-0.24152088,0.50913,0.56043116,-0.25669966,0.504849,0.56552435,-0.28074442,0.519887,0.58471892,-0.26697703,0.516942,0.60444659,-0.23258232,0.507856,0.60013947,-0.23682408,0.502556,0.60922544,-0.25706296,0.517662,0.59706037,-0.28298195,0.516398,0.62334714,-0.25623835,0.508247,0.62314579,-0.25528978,0.504077,0.64640346,-0.26440967,0.51918,0.60903319,-0.30652162,0.515897,0.61306383,-0.29678491,0.507414,0.61552338,-0.29210874,0.503517,0.63338141,-0.30452367,0.514434
0.52034661,-0.32987029,0.512937,0.54735353,-0.30361375,0.512032,0.51213243,-0.30654892,0.513433,0.50900322,-0.27190753,0.503968,0.50496231,-0.24053109,0.495394,0.50560559,-0.21725136,0.486095,0.56704128,-0.25240207,0.512064,0.57427177,-0.24490971,0.503242,0.55552294,-0.25629156,0.498831,0.55980298,-0.27972431,0.513786,0.58179026,-0.27074105,0.51117,0.60431258,-0.23882512,0.501888,0.60122347,-0.24111606,0.496473,0.60657889,-0.25681308,0.511521,0.59227569,-0.28775246,0.510532,0.61942665,-0.26512766,0.502161,0.61699487,-0.26543165,0.497879,0.63807033,-0.27630782,0.51291,0.60159828,-0.31219256,0.509961,0.60574582,-0.30329724,0.501346,0.60827542,-0.29905167,0.497387,0.62533764,-0.31193534,0.508263
0.51287963,-0.32485601,0.506798,0.54199703,-0.29876327,0.508165,0.50677304,-0.30030446,0.507184,0.50910903,-0.26484835,0.498349,0.51146953,-0.23452204,0.492248,0.51663215,-0.21482374,0.482506,0.56260264,-0.24897024,0.509598,0.57570132,-0.24372959,0.503314,0.55809897,-0.25691722,0.500173,0.56279812,-0.28049213,0.515887,0.57937936,-0.26941842,0.509468,0.60651396,-0.24067293,0.502677,0.61645413,-0.23642361,0.498715,0.64115696,-0.24497115,0.514447,0.58982451,-0.28681362,0.509214,0.61512884,-0.27150986,0.503135,0.62913952,-0.26371166,0.500024,0.65641277,-0.27047196,0.515757,0.59862218,-0.31134426,0.508662,0.60579076,-0.3027082,0.501701,0.60956486,-0.29906937,0.498503,0.62692558,-0.31241266,0.509851
0.51142869,-0.32469919,0.505835,0.54127931,-0.30105856,0.507362,0.50548737,-0.29988683,0.505878,0.50521033,-0.26716198,0.496644,0.50734476,-0.23528283,0.488483,0.51188209,-0.21600954,0.477887,0.56268,-0.2508451,0.508455,0.57471544,-0.2442891,0.502483,0.5587618,-0.25866268,0.499497,0.56250121,-0.28094716,0.515299,0.57793782,-0.27025387,0.508816,0.60649963,-0.24410753,0.5022,0.61546913,-0.23838123,0.49834,0.64045757,-0.24687836,0.514115,0.58859606,-0.2879601,0.50895,0.61404585,-0.273692,0.502988,0.62524787,-0.26621008,0.499938,0.65072652,-0.27460861,0.515702,0.59627989,-0.31348266,0.508817,0.60509477,-0.30400411,0.501836,0.60895106,-0.30045133,0.498628,0.62614181,-0.31391009,0.509967
0.50996258,-0.32436439,0.504753,0.54018326,-0.30108772,0.50673,0.50447265,-0.29954394,0.504848,0.50449085,-0.26678501,0.495843,0.5056464,-0.23537885,0.486916,0.5099528,-0.21624829,0.476025,0.56217425,-0.2512193,0.508196,0.57494815,-0.24487685,0.502702,0.55926081,-0.25929176,0.499955,0.56335441,-0.28173722,0.51589,0.57735617,-0.27073547,0.508612,0.60663488,-0.24498399,0.502504,0.61603736,-0.23938131,0.498941,0.64127283,-0.24791885,0.514846,0.5878943,-0.2884898,0.508742,0.61404123,-0.27457842,0.503231,0.62633699,-0.26701638,0.500412,0.65241054,-0.27515686,0.516304,0.59557231,-0.31399817,0.50852,0.60474467,-0.30465151,0.501902,0.608852,-0.30124568,0.498861,0.62608229,-0.31482633,0.510296
0.50974973,-0.32473081,0.504873,0.53988504,-0.30140185,0.506527,0.50412412,-0.29949165,0.504413,0.50345599,-0.26613994,0.494566,0.50792568,-0.23790142,0.482219,0.5127031,-0.22187648,0.469518,0.56150226,-0.25199131,0.507051,0.57386998,-0.24577227,0.501422,0.55817618,-0.2591595,0.498607,0.56221988,-0.2815148,0.514495,0.57718718,-0.27196743,0.508103,0.60618809,-0.24746647,0.501542,0.61611433,-0.24609785,0.497715,0.63978041,-0.25078494,0.513489,0.58747737,-0.29126983,0.50879,0.61373142,-0.27691018,0.502764,0.62720231,-0.26972518,0.499681,0.64997988,-0.27741883,0.51541,0.59636122,-0.31679322,0.509277,0.6041842,-0.30768761,0.50219,0.60470851,-0.31309986,0.498934,0.61394634,-0.33436151,0.510232
0.50891615,-0.32478387,0.50411,0.54000757,-0.30210487,0.505734,0.50436742,-0.29944724,0.503909,0.5128372,-0.26900444,0.494389,0.51137328,-0.238265,0.484405,0.51336058,-0.21354491,0.475913,0.5721199,-0.25745824,0.506575,0.58463695,-0.25115783,0.500808,0.56623444,-0.26372982,0.497924,0.56358322,-0.2832354,0.513781,0.58581577,-0.27833697,0.507281,0.61602186,-0.25654326,0.500712,0.61782551,-0.25588688,0.496881,0.6401048,-0.26649922,0.512662,0.59501264,-0.29707962,0.507687,0.61923476,-0.28506011,0.501735,0.63201555,-0.27890285,0.49869,0.66261415,-0.28529515,0.514451,0.60186518,-0.32280118,0.507853,0.60934598,-0.31344932,0.500847,0.60832826,-0.31616879,0.497627,0.61482335,-0.33462781,0.508955
0.50811872,-0.324822,0.502679,0.54318668,-0.30384423,0.5045,0.50453357,-0.29930186,0.502468,0.51210552,-0.26870945,0.493003,0.50930155,-0.2371042,0.481851,0.50883349,-0.21498227,0.471435,0.57265592,-0.25714647,0.50546,0.58493899,-0.25104378,0.499915,0.56653903,-0.26369808,0.497142,0.57035381,-0.28541732,0.513059,0.58648081,-0.27805764,0.506234,0.61677812,-0.25638599,0.499859,0.6194303,-0.25524365,0.496141,0.64298198,-0.26514726,0.51197,0.59574088,-0.29683016,0.506675,0.61969512,-0.28494736,0.500816,0.6307971,-0.27937003,0.497819,0.65489338,-0.28464862,0.513603,0.60257367,-0.32257755,0.506844,0.60973603,-0.3134081,0.499983,0.60852632,-0.31621699,0.49683,0.61536549,-0.33490443,0.508194
0.50904908,-0.32599962,0.502649,0.54712095,-0.30666982,0.504554,0.50572338,-0.30002032,0.501939,0.51356481,-0.26838247,0.491857,0.51359228,-0.23520016,0.480825,0.51145973,-0.21271543,0.468684,0.57915004,-0.2610734,0.504924,0.59237992,-0.25707719,0.499675,0.57288155,-0.26868502,0.497051,0.5721594,-0.28678645,0.513034,0.59272546,-0.28279937,0.506369,0.62500106,-0.26347411,0.500138,0.62781019,-0.26368816,0.496503,0.65373973,-0.27381038,0.512349,0.60169173,-0.30219392,0.507353,0.62540549,-0.29357828,0.501576,0.63641515,-0.28979898,0.498621,0.66206433,-0.29963297,0.514407,0.60798482,-0.32857783,0.508137,0.61529385,-0.32087746,0.501144,0.61201377,-0.32490242,0.497931,0.61903838,-0.33882017,0.509242
0.50841539,-0.32656726,0.501588,0.54865497,-0.30877722,0.504066,0.5061228,-0.30059751,0.50104,0.51363099,-0.26866174,0.491372,0.51206306,-0.23533736,0.479418,0.5155228,-0.21576923,0.46801,0.57949083,-0.26274547,0.505033,0.59325889,-0.25891359,0.500356,0.57396964,-0.27054865,0.498018,0.57554809,-0.28978571,0.51416,0.5929023,-0.28452973,0.506426,0.6259504,-0.2656198,0.500783,0.6290948,-0.26590114,0.497492,0.6551399,-0.27607525,0.513487,0.60164775,-0.30392194,0.507305,0.62591521,-0.29555732,0.502047,0.63721089,-0.29187381,0.499357,0.6629535,-0.30173108,0.515291,0.60752115,-0.33019813,0.50786,0.61531767,-0.32265393,0.501367,0.61100631,-0.32776161,0.498384,0.61743848,-0.34712401,0.509828
0.50793266,-0.32676664,0.500856,0.54849008,-0.30928734,0.503676,0.50648392,-0.30080818,0.500403,0.51351057,-0.2687205,0.490984,0.51106625,-0.23515754,0.478493,0.51430522,-0.21606012,0.466635,0.57952598,-0.26326713,0.505001,0.59365025,-0.25956941,0.500666,0.57451516,-0.27125717,0.498499,0.57651898,-0.29083972,0.514735,0.59286413,-0.28505989,0.506362,0.6263944,-0.2663903,0.5011,0.62978643,-0.26675187,0.49803,0.65593141,-0.27696902,0.514121,0.60150385,-0.30443266,0.50718,0.6261537,-0.29625036,0.502259,0.63765417,-0.29264849,0.499742,0.66348685,-0.30253996,0.51577,0.60716363,-0.33062777,0.507598,0.61528085,-0.32322336,0.501405,0.61069985,-0.32873048,0.498559,0.61667803,-0.34841291,0.510082
0.50837513,-0.32755406,0.50052,0.54794253,-0.3111801,0.501943,0.51232066,-0.30425757,0.500307,0.51440172,-0.27082219,0.490701,0.51103978,-0.23619296,0.478323,0.51379332,-0.21944316,0.465276,0.57994112,-0.26890356,0.502633,0.58973694,-0.26022478,0.496647,0.56959774,-0.2712018,0.493655,0.57207698,-0.29067273,0.50945,0.59239481,-0.29055894,0.503299,0.62294287,-0.27216311,0.496495,0.62249864,-0.27265632,0.492526,0.64599948,-0.28349603,0.508247,0.60042931,-0.30986239,0.503694,0.62098848,-0.29650075,0.497422,0.63141421,-0.29236996,0.494213,0.65657216,-0.30068526,0.50988,0.605586,-0.3360748,0.503885,0.61016811,-0.32330473,0.496722,0.6040439,-0.32897452,0.493431,0.60863241,-0.34889638,0.504716
0.50909963,-0.32897002,0.500371,0.54807123,-0.31204618,0.501813,0.51256159,-0.30505354,0.500156,0.51441375,-0.27146542,0.490552,0.51103574,-0.23682025,0.478232,0.51365678,-0.22038643,0.464974,0.57980036,-0.26883829,0.502511,0.59002198,-0.26105354,0.496547,0.5698364,-0.27200267,0.493565,0.57223913,-0.29151542,0.509366,0.59226181,-0.2904937,0.503186,0.62281991,-0.27210939,0.496397,0.62238489,-0.27260649,0.492436,0.64589017,-0.28344806,0.508161,0.60030057,-0.30979595,0.503586,0.62135017,-0.29744715,0.497343,0.63178953,-0.29327263,0.494149,0.65689901,-0.30161636,0.509824,0.60545981,-0.33600477,0.50378,0.61045558,-0.32425927,0.496629,0.60426577,-0.32988929,0.493343,0.60880511,-0.34981906,0.504632
0.51058416,-0.33051325,0.500954,0.54783861,-0.31262562,0.501675,0.51039073,-0.30441417,0.500387,0.51373651,-0.27157623,0.490069,0.50912572,-0.23641569,0.477099,0.51084705,-0.21983517,0.4634,0.57839879,-0.26840596,0.501425,0.58897002,-0.26299012,0.494805,0.56747007,-0.2714555,0.491495,0.56965703,-0.29085689,0.507104,0.59104662,-0.29025406,0.502361,0.6203608,-0.27221786,0.494705,0.61990259,-0.27182242,0.490238,0.6349125,-0.28578529,0.505729,0.59932731,-0.30976997,0.503054,0.61974018,-0.30029865,0.495992,0.62513194,-0.29768159,0.492379,0.64771735,-0.30755423,0.507808,0.60490518,-0.33632899,0.503723,0.61023421,-0.32724393,0.495886,0.60303429,-0.33277341,0.492285,0.60663326,-0.3500072,0.503382
0.51118065,-0.33148277,0.500664,0.54739894,-0.3128842,0.501326,0.51142432,-0.30538209,0.500097,0.51329749,-0.27165695,0.489759,0.50909538,-0.23667669,0.477063,0.51096858,-0.22009107,0.463451,0.57787684,-0.26827274,0.501037,0.58833332,-0.26285243,0.494352,0.56692466,-0.27158362,0.491009,0.56906049,-0.29102229,0.506599,0.59044784,-0.29013857,0.501956,0.61960267,-0.27247937,0.494235,0.61940884,-0.27175814,0.48973,0.6342534,-0.28548861,0.505204,0.59866665,-0.30966718,0.502642,0.61849576,-0.30034814,0.495521,0.62449586,-0.29737869,0.491878,0.64705664,-0.3072405,0.50729,0.60416934,-0.33623662,0.503313,0.60941511,-0.32714844,0.495432,0.60198735,-0.33278082,0.49181,0.60560469,-0.35037308,0.502896
0.51182583,-0.33246118,0.500387,0.54707101,-0.31307947,0.501066,0.51241693,-0.30636902,0.499833,0.51296337,-0.27170385,0.489518,0.5091273,-0.23690569,0.477087,0.51221775,-0.22065918,0.463908,0.57756571,-0.26819377,0.500806,0.58801534,-0.26279843,0.494134,0.56669348,-0.27175114,0.490799,0.56880709,-0.29124572,0.506393,0.59008857,-0.29006928,0.501713,0.61922164,-0.27266918,0.494012,0.61923139,-0.27177183,0.489519,0.63399603,-0.28537277,0.504999,0.59826094,-0.3096007,0.502387,0.61780203,-0.30040373,0.495281,0.62420131,-0.29723843,0.491646,0.64676703,-0.30710302,0.507063,0.60369786,-0.33616452,0.503042,0.60894636,-0.3271033,0.495178,0.60140817,-0.33281226,0.491565,0.60499909,-0.35070897,0.502656
0.51165335,-0.33320218,0.499872,0.54665024,-0.31313656,0.500712,0.51250801,-0.30713533,0.499354,0.51250927,-0.2716312,0.489143,0.50883775,-0.23694236,0.476811,0.51184942,-0.22064945,0.463614,0.57730753,-0.26811757,0.500608,0.58793466,-0.26282112,0.494099,0.56675503,-0.27198972,0.490845,0.56889555,-0.29156608,0.506487,0.58980318,-0.29000054,0.501512,0.61912755,-0.27286645,0.493991,0.61939861,-0.27190639,0.489604,0.63416175,-0.28544736,0.505131,0.59792978,-0.30952495,0.502166,0.6174579,-0.30049851,0.495216,0.62421909,-0.2972469,0.49166,0.64684363,-0.30713936,0.507123,0.60327036,-0.3360534,0.502767,0.60867114,-0.32709327,0.495039,0.60112769,-0.33289166,0.491488,0.60471322,-0.35105872,0.502616
0.51213143,-0.33451613,0.500288,0.54665716,-0.31410251,0.500664,0.51389571,-0.30880544,0.500405,0.51405095,-0.27276273,0.490867,0.5098681,-0.23925503,0.477889,0.51269066,-0.22122635,0.464894,0.57818651,-0.26848689,0.501071,0.58726891,-0.26136557,0.493798,0.56604357,-0.27177289,0.490162,0.56787679,-0.29128471,0.505591,0.58959545,-0.28987842,0.501022,0.61856447,-0.27243974,0.493114,0.61805554,-0.271352,0.488501,0.63232169,-0.28475158,0.503937,0.59684194,-0.30896969,0.500941,0.61001785,-0.308445,0.493852,0.61442658,-0.30975965,0.490225,0.63577768,-0.32831979,0.50566,0.60121377,-0.33497158,0.500776,0.60621323,-0.3258338,0.492957,0.59699421,-0.33264455,0.489364,0.59956755,-0.35279385,0.500476
0.51100464,-0.33467511,0.499481,0.54596961,-0.3138957,0.50001,0.51316414,-0.30914867,0.49983,0.51358841,-0.27276493,0.490654,0.50919752,-0.23918087,0.477674,0.5118901,-0.22102822,0.464645,0.57816706,-0.26847868,0.500824,0.58720913,-0.2613702,0.49363,0.56593745,-0.27181651,0.490033,0.56776861,-0.29201721,0.505484,0.58929318,-0.28973518,0.500514,0.61857017,-0.27230139,0.492801,0.61781797,-0.2712457,0.488302,0.63185812,-0.28457545,0.50379,0.59626818,-0.30869148,0.500201,0.60926556,-0.30795882,0.493248,0.61368161,-0.30918764,0.489691,0.63501816,-0.32764334,0.505165,0.60026026,-0.33449281,0.499739,0.60528257,-0.32535103,0.492131,0.59570287,-0.33245618,0.488636,0.59816253,-0.35266218,0.499806
0.51023617,-0.33482815,0.498968,0.54559732,-0.31429516,0.4996,0.51253873,-0.30934752,0.499343,0.5128311,-0.27295824,0.490236,0.50853237,-0.23905365,0.477469,0.51076357,-0.22110391,0.464235,0.57799352,-0.26844864,0.500518,0.58721773,-0.26178066,0.493428,0.56586558,-0.27224909,0.489883,0.56761562,-0.29247144,0.505364,0.5891421,-0.2897019,0.500203,0.61858892,-0.27220904,0.492609,0.61759591,-0.27113148,0.488179,0.63142179,-0.2843634,0.503699,0.59611516,-0.30865338,0.499875,0.60885713,-0.30766473,0.493035,0.61324549,-0.30877317,0.489535,0.63453699,-0.32709495,0.505043,0.60005909,-0.33443583,0.499375,0.60497535,-0.32517708,0.491856,0.59490687,-0.3325667,0.488402,0.59716356,-0.35282259,0.499596
0.50927155,-0.33476049,0.498263,0.54503947,-0.31446631,0.498993,0.51203625,-0.30953981,0.498988,0.51254047,-0.27333835,0.490385,0.50753917,-0.23892913,0.477712,0.50555567,-0.2194335,0.46425,0.57808442,-0.26838962,0.500434,0.58727861,-0.26206515,0.493319,0.56576809,-0.27253994,0.489761,0.56738561,-0.29276831,0.505227,0.58878669,-0.28939325,0.499689,0.61836222,-0.27182518,0.492246,0.61715124,-0.2707225,0.487905,0.63076274,-0.28381168,0.503458,0.59535977,-0.3081112,0.498996,0.60781554,-0.30661215,0.492239,0.61205349,-0.30758607,0.488782,0.63318583,-0.32575384,0.504309,0.59884751,-0.33392686,0.498055,0.60367624,-0.3242784,0.490758,0.59331097,-0.33186326,0.487405,0.59548841,-0.35217425,0.498656
0.50886295,-0.33462929,0.498203,0.54463174,-0.31428421,0.4987,0.51167756,-0.30941615,0.498907,0.5117937,-0.27309035,0.490194,0.50688864,-0.23869097,0.477582,0.50490809,-0.21902093,0.464201,0.57776775,-0.26818635,0.499954,0.58635619,-0.26148693,0.492589,0.56461912,-0.27191095,0.488907,0.5660898,-0.29209444,0.5043,0.58846859,-0.28917715,0.499173,0.61767354,-0.27143448,0.491473,0.615944,-0.27004168,0.486981,0.62924145,-0.28292904,0.502465,0.5950571,-0.3079056,0.498476,0.6068593,-0.305814,0.491493,0.61082619,-0.30661719,0.487921,0.6317609,-0.32463402,0.503379,0.59858491,-0.33358958,0.497574,0.60282631,-0.32376556,0.490092,0.59210033,-0.33133279,0.486654,0.59410279,-0.35161984,0.497854
0.50836318,-0.33442662,0.497995,0.5441562,-0.31404378,0.498286,0.51138197,-0.30931315,0.498831,0.50971849,-0.27300427,0.490308,0.50104975,-0.23764652,0.477368,0.50006193,-0.21820188,0.46364,0.57762704,-0.2680355,0.499571,0.58560293,-0.26095304,0.491931,0.56361878,-0.27132244,0.488111,0.56492075,-0.29145773,0.503417,0.58810562,-0.28891345,0.498562,0.61697626,-0.27101918,0.490632,0.61477727,-0.26934295,0.486006,0.62782906,-0.28209889,0.501423,0.59451843,-0.30755541,0.4977,0.61065681,-0.29832246,0.490496,0.60983878,-0.30469743,0.486811,0.62998307,-0.32347209,0.502197,0.59779202,-0.33297668,0.496645,0.60161308,-0.32305034,0.489065,0.59065912,-0.33061759,0.485583,0.59254348,-0.35088581,0.496751
0.50797909,-0.33417404,0.497681,0.54379732,-0.31375783,0.497834,0.51113025,-0.30915785,0.498626,0.50929281,-0.27297158,0.490268,0.50000485,-0.23773701,0.477107,0.4985955,-0.21847222,0.463153,0.57750651,-0.26782824,0.499167,0.58498083,-0.26038979,0.491334,0.56282841,-0.27074806,0.487418,0.56402275,-0.29086767,0.502662,0.58784756,-0.28859378,0.497978,0.61652836,-0.27035591,0.48991,0.61373852,-0.26860928,0.485203,0.62650389,-0.28127797,0.500576,0.59415162,-0.30715069,0.496983,0.60997,-0.29781676,0.489629,0.60904249,-0.3035734,0.485867,0.62852527,-0.32254658,0.501202,0.59730345,-0.3324846,0.495799,0.6007097,-0.32229528,0.488163,0.58917314,-0.33010595,0.484655,0.59084962,-0.35038621,0.495803
0.50769097,-0.33380659,0.497461,0.54334812,-0.31320559,0.497328,0.51083751,-0.30881993,0.49842,0.50892108,-0.27275385,0.490302,0.49640424,-0.23740905,0.476338,0.49367228,-0.21865457,0.461716,0.57696165,-0.26719016,0.498486,0.58388836,-0.25888687,0.490336,0.56140524,-0.26964758,0.486261,0.56248351,-0.28973578,0.501407,0.58729192,-0.28786324,0.497201,0.61620981,-0.2678217,0.488878,0.61182657,-0.26563234,0.484023,0.62434912,-0.2791902,0.499324,0.59361509,-0.30636912,0.496157,0.60893439,-0.29652454,0.488572,0.60931771,-0.29904211,0.484691,0.62674802,-0.32109796,0.499953,0.596837,-0.33168858,0.49497,0.59992805,-0.32083908,0.487128,0.5874403,-0.32914861,0.483525,0.58888793,-0.34941661,0.494612
0.50742238,-0.33345201,0.49726,0.54305183,-0.31274159,0.496962,0.51059605,-0.30851311,0.498264,0.50726354,-0.27215837,0.490371,0.49557897,-0.23736697,0.476424,0.49260833,-0.21862978,0.461794,0.57672115,-0.2666931,0.498068,0.58305134,-0.25819538,0.48972,0.56049262,-0.26879344,0.485546,0.56148102,-0.28888161,0.50063,0.58703632,-0.28727977,0.496678,0.61516816,-0.2671088,0.48825,0.61091701,-0.26480337,0.483333,0.62363511,-0.27824088,0.498601,0.59335875,-0.30573193,0.495565,0.60831745,-0.29543306,0.48785,0.60823611,-0.29798932,0.483902,0.62553997,-0.32006253,0.49912,0.59659899,-0.33101903,0.49433,0.5990554,-0.31997122,0.486385,0.58612129,-0.32842314,0.482735,0.58736799,-0.34870824,0.49379
0.50666466,-0.33273596,0.496657,0.5423546,-0.31199574,0.496305,0.5100719,-0.30798629,0.497906,0.50558047,-0.27176873,0.490131,0.49537912,-0.23739137,0.476833,0.49214044,-0.21861285,0.462045,0.57645066,-0.26610933,0.497693,0.58195443,-0.25655573,0.489196,0.55954351,-0.26767493,0.484948,0.56054705,-0.28801494,0.499973,0.58653966,-0.28626509,0.495969,0.61384781,-0.26627627,0.487427,0.60967928,-0.26390109,0.482444,0.62256273,-0.27722659,0.497666,0.59264117,-0.30453469,0.494588,0.60701702,-0.2939322,0.486704,0.60549356,-0.29830393,0.48267,0.62335663,-0.31901126,0.497823,0.59561265,-0.32960605,0.493051,0.59765107,-0.31778792,0.485174,0.58424726,-0.32736214,0.481554,0.58534779,-0.3476782,0.492617
0.50557961,-0.33166448,0.495795,0.54151403,-0.31106949,0.495844,0.50901039,-0.30714868,0.4973,0.50233002,-0.27047533,0.489761,0.49167792,-0.2360093,0.478487,0.48973751,-0.2176137,0.464761,0.57217178,-0.26187414,0.497837,0.5734193,-0.24953323,0.489686,0.5570256,-0.26327418,0.485611,0.560677,-0.28707222,0.500727,0.58309199,-0.28150603,0.49589,0.60075083,-0.25933836,0.487953,0.60656302,-0.25022137,0.483323,0.61571168,-0.26298056,0.4987,0.58995564,-0.29923714,0.494282,0.60538949,-0.2802809,0.487548,0.60737661,-0.27994205,0.484103,0.62542835,-0.29739521,0.499594,0.59394006,-0.32378628,0.492406,0.59404656,-0.30810695,0.48494,0.58257416,-0.32164853,0.481509,0.58532534,-0.34653501,0.492679
0.50496592,-0.33100935,0.495538,0.54098627,-0.31012604,0.495846,0.50872532,-0.30686769,0.49759,0.50119233,-0.27043426,0.49065,0.49008106,-0.23550567,0.480485,0.49092363,-0.21827759,0.467275,0.56916467,-0.26128072,0.498728,0.57388808,-0.25002985,0.490667,0.55486993,-0.26212966,0.486637,0.56115099,-0.28727811,0.501739,0.58019103,-0.28007787,0.496139,0.60091289,-0.25969667,0.488618,0.60702685,-0.25069068,0.48423,0.616201,-0.26350046,0.499679,0.58718398,-0.2971424,0.493973,0.60459817,-0.28024368,0.487446,0.60669422,-0.27996737,0.484106,0.62472248,-0.29744194,0.499618,0.59143751,-0.32095234,0.491402,0.59268014,-0.30779321,0.484376,0.58039521,-0.31892304,0.481148,0.58464867,-0.34543577,0.49241
0.50433089,-0.33018375,0.495238,0.53928111,-0.30778489,0.495552,0.50827118,-0.30633812,0.49769,0.49951963,-0.2705218,0.491922,0.4878803,-0.23593319,0.482092,0.48423685,-0.21713066,0.469001,0.56933188,-0.26119898,0.498958,0.57361433,-0.24950293,0.490766,0.554397,-0.26161889,0.486669,0.56053806,-0.28677405,0.501691,0.57982484,-0.27966367,0.495851,0.60041248,-0.25900888,0.48844,0.60640859,-0.24979455,0.484117,0.61545434,-0.26245532,0.499554,0.58636264,-0.29642829,0.493258,0.60343787,-0.27914196,0.486715,0.60535444,-0.27862737,0.483368,0.62318314,-0.29583493,0.498834,0.59007064,-0.31984508,0.490189,0.59122255,-0.3064377,0.483352,0.57942982,-0.31699594,0.48021,0.58318859,-0.33866978,0.491494
0.50381048,-0.32965373,0.495224,0.53731278,-0.3063794,0.495358,0.50769758,-0.30592675,0.497823,0.49588724,-0.2692576,0.492828,0.48331699,-0.23539636,0.4827,0.47870637,-0.21746461,0.469417,0.56897399,-0.26098113,0.498835,0.57258773,-0.24893966,0.490397,0.55302643,-0.26110944,0.486178,0.55772931,-0.28435214,0.501105,0.57924401,-0.27928765,0.495486,0.59934153,-0.25833346,0.487924,0.6043683,-0.24846478,0.483513,0.61377483,-0.26149039,0.498888,0.58560882,-0.29592937,0.492714,0.60235466,-0.27842359,0.486202,0.60142978,-0.27780589,0.482871,0.61079759,-0.299878,0.498325,0.58913363,-0.31921735,0.489471,0.58980815,-0.305552,0.48257,0.57766986,-0.31634844,0.479399,0.58203778,-0.34052095,0.490649
0.50361063,-0.32924934,0.495952,0.53276493,-0.30253372,0.495726,0.50662866,-0.305135,0.497997,0.48725986,-0.26535921,0.491701,0.47278671,-0.23296248,0.480083,0.4704276,-0.21569311,0.466045,0.55967512,-0.25184172,0.498235,0.5647647,-0.2393464,0.489594,0.54546911,-0.25242121,0.485274,0.54770545,-0.27436184,0.500194,0.57125499,-0.27016896,0.495511,0.5900303,-0.24964184,0.487317,0.59499848,-0.24104721,0.482537,0.60668134,-0.25676659,0.497793,0.57877522,-0.28695421,0.493291,0.59385634,-0.27017981,0.485823,0.59194955,-0.27342456,0.482002,0.60679216,-0.2971998,0.497219,0.58383552,-0.31066589,0.490758,0.5835788,-0.29861531,0.483333,0.57540811,-0.31380878,0.479921,0.5796555,-0.33655932,0.491064
0.50654462,-0.33117487,0.500024,0.53668127,-0.30515146,0.498666,0.50992489,-0.30732343,0.502763,0.48892221,-0.27286287,0.498276,0.46832178,-0.23854257,0.483686,0.45916966,-0.21511868,0.470491,0.562664,-0.25250696,0.501313,0.56518297,-0.23292317,0.491211,0.5484481,-0.24576048,0.48616,0.55022247,-0.27175192,0.500524,0.57339795,-0.26993136,0.497374,0.58914133,-0.24854818,0.488188,0.59661896,-0.23343428,0.482829,0.60979766,-0.2430135,0.497691,0.58027729,-0.28607533,0.494277,0.59167828,-0.26851204,0.485902,0.58454201,-0.26985413,0.481618,0.5991927,-0.2930162,0.496436,0.58471315,-0.3092347,0.490937,0.58205421,-0.2966566,0.483009,0.56990652,-0.30881097,0.479366,0.57723232,-0.33354014,0.490272
0.50518433,-0.32983691,0.500156,0.53180352,-0.29986129,0.499158,0.50547437,-0.30443759,0.501799,0.48880063,-0.2658935,0.49488,0.47356799,-0.23283477,0.482408,0.46416542,-0.214006,0.468551,0.5609072,-0.2487704,0.500622,0.56496682,-0.23157272,0.491281,0.54813619,-0.24472065,0.486611,0.55211845,-0.26786323,0.501341,0.5734706,-0.26686828,0.498208,0.58791023,-0.24547812,0.489192,0.58699611,-0.23737545,0.483933,0.59284913,-0.25341266,0.498982,0.58180484,-0.28368805,0.496328,0.59049083,-0.26896173,0.48866,0.58166322,-0.27463421,0.484737,0.59462277,-0.29520069,0.49991,0.58773454,-0.30778494,0.494333,0.583632,-0.29541938,0.486156,0.57237587,-0.30743729,0.482399,0.57952822,-0.3327613,0.493343
0.50621176,-0.33001679,0.502716,0.5298101,-0.29455763,0.499452,0.50686493,-0.30493941,0.505373,0.48840094,-0.26587177,0.499117,0.46558842,-0.23314599,0.485589,0.45674637,-0.21437417,0.470074,0.56005422,-0.24394264,0.500696,0.55513553,-0.2229244,0.488571,0.53624659,-0.23600815,0.482508,0.54234567,-0.26114425,0.496177,0.57068218,-0.25818968,0.496344,0.57780101,-0.23419163,0.485218,0.5722387,-0.22690863,0.478728,0.57578542,-0.2427238,0.492968,0.57797451,-0.27396133,0.493111,0.57841761,-0.25990997,0.484339,0.56978212,-0.26299004,0.479851,0.57737251,-0.28343543,0.494453,0.58308137,-0.29717226,0.489973,0.57248868,-0.28373626,0.480625,0.56012603,-0.29533644,0.476331,0.56705287,-0.3208485,0.486764
0.50512542,-0.32863612,0.503351,0.52892484,-0.29299859,0.498989,0.50556623,-0.30316895,0.50698,0.4868849,-0.26563123,0.50162,0.46763731,-0.23014496,0.491292,0.45944272,-0.2153643,0.477187,0.5598736,-0.24103493,0.500753,0.55333714,-0.22198484,0.487161,0.53369445,-0.23489483,0.480364,0.53822374,-0.25885025,0.493323,0.56893865,-0.25696612,0.494834,0.57474746,-0.23219652,0.482678,0.56789825,-0.22482493,0.475587,0.57062836,-0.24043483,0.489272,0.57465846,-0.27212208,0.49043,0.57226436,-0.25643268,0.479238,0.56178776,-0.25939185,0.473511,0.56823536,-0.27948909,0.487105,0.57810445,-0.29456091,0.486138,0.56882377,-0.27863223,0.476497,0.56481532,-0.27128379,0.472068,0.57061337,-0.29030114,0.482209
0.50361827,-0.32757552,0.503774,0.52891144,-0.29257619,0.5015,0.50310958,-0.30195521,0.507324,0.48285579,-0.26663934,0.502287,0.45854751,-0.23669659,0.489893,0.45213324,-0.21399308,0.476278,0.55105462,-0.23941161,0.504579,0.54736125,-0.22144405,0.493234,0.53138006,-0.23623277,0.487562,0.54219507,-0.26098787,0.501369,0.56269183,-0.25443769,0.499334,0.57014063,-0.23142815,0.489154,0.57386826,-0.21819239,0.483215,0.58272086,-0.22945563,0.497619,0.57048563,-0.26892906,0.495259,0.57794045,-0.24342568,0.486082,0.56308803,-0.25657252,0.481387,0.56780058,-0.28024478,0.495773,0.57638803,-0.29072431,0.490958,0.57370707,-0.27751853,0.482765,0.56955329,-0.27319477,0.479001,0.57696092,-0.29248969,0.489688
0.51331175,-0.33534948,0.521344,0.51752994,-0.30058464,0.512187,0.4971526,-0.30734783,0.518823,0.4686366,-0.27304921,0.505423,0.44039921,-0.2380785,0.480466,0.43403018,-0.21083497,0.466907,0.5344267,-0.23938389,0.502687,0.53746159,-0.19690772,0.485784,0.53273419,-0.19762827,0.477333,0.55093158,-0.20682202,0.489476,0.55072493,-0.25810345,0.503466,0.56261668,-0.231122,0.484978,0.56506545,-0.22383371,0.474193,0.57199221,-0.23871697,0.486322,0.56294618,-0.2759868,0.505095,0.57201009,-0.24899749,0.488512,0.56220219,-0.25639115,0.480027,0.56413654,-0.27958511,0.49215,0.57499972,-0.3024187,0.508707,0.55656751,-0.2995939,0.492852,0.54808423,-0.29849328,0.485568,0.54533207,-0.31469762,0.494088
0.50533843,-0.34071511,0.528629,0.52103049,-0.30512549,0.519115,0.49232025,-0.31487458,0.52568,0.46610871,-0.28053777,0.510897,0.43850541,-0.24751755,0.486632,0.42668385,-0.22185873,0.472168,0.52684417,-0.24186929,0.508813,0.52860263,-0.20205681,0.491377,0.52538294,-0.19942554,0.48266,0.54407358,-0.20639091,0.494597,0.54545854,-0.25948694,0.510053,0.55456949,-0.23370702,0.491145,0.55744204,-0.22227983,0.480115,0.57361778,-0.23615055,0.492083,0.55999158,-0.27674979,0.5121,0.56078911,-0.26636572,0.495077,0.56202612,-0.26100262,0.486368,0.56597307,-0.27749773,0.498311,0.57555203,-0.30300972,0.516264,0.56245267,-0.30122883,0.499986,0.55404076,-0.30068039,0.492507,0.55333815,-0.31869514,0.500872
0.50429564,-0.34242793,0.529827,0.52035688,-0.30573317,0.520245,0.49163003,-0.31624771,0.526534,0.4649592,-0.28175977,0.512736,0.43142575,-0.24836789,0.488658,0.41801575,-0.22265699,0.475184,0.52546659,-0.24154748,0.509449,0.52651744,-0.20153513,0.491757,0.52327941,-0.19902288,0.48291,0.54189813,-0.20610313,0.494748,0.54481151,-0.25906304,0.511119,0.55384026,-0.23279856,0.492068,0.55680008,-0.22115724,0.480955,0.57243541,-0.23109668,0.49286,0.5600005,-0.27629191,0.513527,0.55430785,-0.26847881,0.496245,0.55280883,-0.26522234,0.487404,0.55435519,-0.28338583,0.499244,0.5764331,-0.30259657,0.518123,0.56123064,-0.29852941,0.501663,0.55467741,-0.30044107,0.4941,0.55485727,-0.31913236,0.502397
0.51410854,-0.34232974,0.53037,0.52039278,-0.30551738,0.520354,0.49392458,-0.31869189,0.528634,0.46235426,-0.28712305,0.517252,0.42875879,-0.25897655,0.489172,0.41124721,-0.23418778,0.473595,0.52294431,-0.24048343,0.511292,0.51757657,-0.19783886,0.494129,0.5133183,-0.19373976,0.485548,0.53000137,-0.20014757,0.497533,0.54062269,-0.25287841,0.510815,0.54457852,-0.22272032,0.491524,0.54478163,-0.20925524,0.48027,0.55767897,-0.22069443,0.4921,0.55674339,-0.26720603,0.511502,0.54946919,-0.2595922,0.494345,0.54623368,-0.25575428,0.485567,0.55018624,-0.27885549,0.497435,0.5751017,-0.29051541,0.514182,0.55688193,-0.28743954,0.498046,0.54773918,-0.28798397,0.490632,0.55086654,-0.31217611,0.49901
0.50428677,-0.34808202,0.534453,0.5174198,-0.30672906,0.522342,0.49613291,-0.32195333,0.532866,0.45640025,-0.28666318,0.519533,0.42561383,-0.25782591,0.493645,0.41224468,-0.23485115,0.477217,0.5119562,-0.23953459,0.512053,0.5067671,-0.19732689,0.493066,0.50113089,-0.1927545,0.483573,0.51612915,-0.19871467,0.494755,0.53128814,-0.2528618,0.510808,0.53225445,-0.2215168,0.489306,0.52894353,-0.20964101,0.476763,0.53746827,-0.22327714,0.487731,0.54700461,-0.26697211,0.511089,0.53938287,-0.2555006,0.491837,0.53599411,-0.2495757,0.481987,0.54037508,-0.27030508,0.492958,0.56528581,-0.2902336,0.513691,0.5447692,-0.28614627,0.496168,0.53456246,-0.28620183,0.488116,0.53688752,-0.30616208,0.495905
0.5066811,-0.35124817,0.536725,0.52008223,-0.31014415,0.525835,0.49860255,-0.32814219,0.537629,0.46445186,-0.30263508,0.529216,0.42898032,-0.2730592,0.502378,0.41164039,-0.24977998,0.485935,0.51512319,-0.24956303,0.519618,0.50763891,-0.20501653,0.503586,0.50219664,-0.19705405,0.49557,0.51654684,-0.19936721,0.507541,0.53458535,-0.2573913,0.515463,0.53062258,-0.22654343,0.495477,0.52543766,-0.21386051,0.483818,0.53340186,-0.22774705,0.495111,0.54847525,-0.26955453,0.513216,0.53986158,-0.25772471,0.49499,0.53174662,-0.25168032,0.485665,0.53759852,-0.2702095,0.49686,0.56454054,-0.29039972,0.512654,0.54457408,-0.28714885,0.497117,0.53468476,-0.28762548,0.489978,0.53806594,-0.30810442,0.498257
0.51377571,-0.36081444,0.538501,0.52544432,-0.32136864,0.533256,0.50100397,-0.34279268,0.539833,0.46875685,-0.31665663,0.532424,0.43489905,-0.28601117,0.508488,0.41905837,-0.25836769,0.495077,0.51692795,-0.26232966,0.531431,0.50967359,-0.21843599,0.520261,0.5082175,-0.20938179,0.514676,0.52604794,-0.2105825,0.528668,0.53728486,-0.26982474,0.528261,0.54027547,-0.234976,0.514322,0.54024308,-0.22092628,0.506191,0.55379847,-0.2346746,0.519706,0.55374597,-0.27895779,0.526217,0.55313446,-0.26427969,0.513697,0.55341368,-0.25639053,0.507291,0.56163494,-0.2764027,0.520797,0.57308857,-0.29595891,0.524829,0.5614774,-0.29189906,0.513431,0.55596075,-0.29206786,0.508195,0.56858146,-0.31702142,0.518081
0.53162658,-0.38051986,0.548465,0.53106746,-0.33585067,0.537901,0.51462564,-0.3597661,0.549198,0.47588257,-0.33383233,0.537165,0.43974015,-0.29978861,0.510215,0.41963884,-0.27322849,0.49434,0.50794242,-0.27474356,0.531682,0.49199589,-0.2293982,0.51635,0.48932825,-0.21761067,0.508684,0.50608586,-0.21652987,0.520937,0.52774513,-0.27895189,0.527839,0.52285676,-0.23851147,0.508671,0.51972931,-0.22082641,0.49749,0.53387468,-0.23169518,0.509079,0.54472144,-0.28558891,0.525814,0.54106784,-0.26337699,0.508458,0.53969006,-0.25157389,0.499578,0.54990644,-0.26881552,0.511111,0.5667749,-0.29999698,0.525448,0.55510226,-0.2897074,0.510049,0.54999587,-0.28682601,0.502974,0.55951781,-0.30816342,0.511349
0.56892004,-0.39563441,0.560425,0.55090759,-0.34295756,0.547166,0.54639787,-0.38054653,0.561015,0.49878006,-0.35461806,0.548098,0.45859921,-0.32481179,0.52219,0.43290922,-0.30082128,0.508073,0.51383444,-0.28110702,0.538933,0.49114398,-0.23617293,0.519636,0.48656609,-0.2244234,0.509988,0.50366732,-0.21977242,0.520656,0.53354582,-0.28241196,0.534539,0.51917427,-0.24015112,0.511898,0.51266444,-0.22028543,0.49869,0.53102634,-0.2306368,0.508925,0.5509494,-0.28688971,0.53235,0.5442188,-0.26252821,0.511582,0.54119619,-0.24968789,0.500956,0.55226818,-0.26665071,0.511044,0.57497097,-0.29430035,0.532301,0.56081509,-0.29041536,0.515014,0.55450573,-0.292791,0.507072,0.56422332,-0.30993577,0.514603
0.57058526,-0.39475607,0.558253,0.55335861,-0.34420701,0.547796,0.54738783,-0.38045203,0.558716,0.50253213,-0.3586834,0.546334,0.46119437,-0.32908455,0.519938,0.43414763,-0.30365098,0.507514,0.51455268,-0.28711397,0.5413,0.49164911,-0.24311477,0.524429,0.49003582,-0.22910841,0.515993,0.50593007,-0.22795525,0.527843,0.53613157,-0.28500378,0.537838,0.52297921,-0.24388801,0.518703,0.51151648,-0.21992818,0.507541,0.52942624,-0.2252271,0.519192,0.55427604,-0.28856274,0.536113,0.54982994,-0.26299923,0.518084,0.54830419,-0.25011674,0.50886,0.56381692,-0.26794768,0.520241,0.57875986,-0.2960652,0.536077,0.56732701,-0.29043318,0.520623,0.562133,-0.29809778,0.513523,0.57310144,-0.32047775,0.521923
0.57177114,-0.39490174,0.55815,0.55415753,-0.34461223,0.547988,0.54818005,-0.38074289,0.558426,0.50209613,-0.3583722,0.54586,0.46089101,-0.32886809,0.519596,0.43434342,-0.3044414,0.507075,0.51452547,-0.28790737,0.541447,0.49196411,-0.24327053,0.524765,0.48969594,-0.229977,0.516424,0.50561883,-0.22877647,0.528392,0.53625001,-0.28567651,0.53831,0.52267835,-0.2444064,0.519422,0.51238624,-0.22030214,0.508404,0.53043881,-0.22565787,0.520185,0.55472549,-0.28876722,0.536821,0.55064358,-0.26343613,0.519205,0.54925853,-0.25046464,0.510192,0.56518723,-0.26827871,0.521762,0.5796643,-0.2964698,0.537004,0.56849363,-0.29066566,0.521664,0.56351891,-0.29925559,0.514616,0.57438947,-0.32119801,0.523096
0.57506615,-0.39474815,0.558994,0.55849769,-0.34505284,0.549323,0.5516326,-0.38131384,0.559775,0.50897984,-0.35929993,0.548047,0.46405822,-0.33085364,0.522247,0.43784951,-0.30858345,0.509356,0.51741062,-0.28924362,0.543773,0.4957693,-0.24332406,0.527587,0.49193805,-0.23169452,0.519494,0.50754368,-0.23054113,0.531608,0.53847934,-0.28642509,0.540112,0.52240439,-0.24447971,0.52186,0.51010136,-0.2163074,0.511214,0.52642176,-0.21918682,0.523166,0.55643204,-0.28781447,0.53814,0.55279214,-0.26592113,0.521052,0.55177938,-0.25577127,0.51231,0.56535846,-0.274683,0.524039,0.58460166,-0.29197487,0.537668,0.57043864,-0.28935149,0.522906,0.56604123,-0.30073039,0.516123,0.57670374,-0.3204385,0.524764
0.57894803,-0.39526769,0.560663,0.56495881,-0.34360595,0.550795,0.55788257,-0.3828761,0.562051,0.51292955,-0.36120871,0.551129,0.47040426,-0.33440007,0.526429,0.44180873,-0.31127519,0.512882,0.52236238,-0.2905804,0.545903,0.4979537,-0.24457603,0.529821,0.49362885,-0.23299662,0.52178,0.50863157,-0.23190145,0.533804,0.54144373,-0.2859321,0.541397,0.52340392,-0.24426787,0.523121,0.51099487,-0.21682334,0.512461,0.52664212,-0.21984094,0.524285,0.56060028,-0.28518288,0.53875,0.55266709,-0.26480177,0.52148,0.55036334,-0.25279274,0.512644,0.56550684,-0.27220621,0.524196,0.58584763,-0.29082829,0.537532,0.57085527,-0.28855822,0.52293,0.56648071,-0.30046851,0.516221,0.57727997,-0.31940665,0.524815
