sluyters/QuantumLeap/backend/src/datasets/dynamic/HandGestureDataset_SHREC2017_csv/Gesture1/finger_1/subject_26_essai_6_skeletons_world.csv
Wrist_x,Wrist_y,Wrist_z,Palm_x,Palm_y,Palm_z,thumb_base_x,thumb_base_y,thumb_base_z,thumb_first_joint_x,thumb_first_joint_y,thumb_first_joint_z,thumb_second_joint_x,thumb_second_joint_y,thumb_second_joint_z,thumb_tip_x,thumb_tip_y,thumb_tip_z,index_base_x,index_base_y,index_base_z,index_first_joint_x,index_first_joint_y,index_first_joint_z,index_second_joint_x,index_second_joint_y,index_second_joint_z,index_tip_x,index_tip_y,index_tip_z,middle_base_x,middle_base_y,middle_base_z,middle_first_joint_x,middle_first_joint_y,middle_first_joint_z,middle_second_joint_x,middle_second_joint_y,middle_second_joint_z,middle_tip_x,middle_tip_y,middle_tip_z,ring_base_x,ring_base_y,ring_base_z,ring_first_joint_x,ring_first_joint_y,ring_first_joint_z,ring_second_joint_x,ring_second_joint_y,ring_second_joint_z,ring_tip_x,ring_tip_y,ring_tip_z,pinky_base_x,pinky_base_y,pinky_base_z,pinky_first_joint_x,pinky_first_joint_y,pinky_first_joint_z,pinky_second_joint_x,pinky_second_joint_y,pinky_second_joint_z,pinky_tip_x,pinky_tip_y,pinky_tip_z,
0.403685112,-0.4347955,0.487099,0.387104516,-0.391484691,0.483154,0.407369508,-0.430611937,0.502431,0.386751666,-0.42551758,0.519169,0.36382088,-0.428250976,0.527425,0.347712835,-0.420251341,0.529929,0.381801164,-0.356105855,0.499347,0.352258861,-0.382273452,0.504492,0.347084114,-0.405084617,0.507064,0.364800156,-0.427136859,0.515576,0.37176049,-0.346577455,0.479075,0.335618786,-0.321233422,0.475107,0.309638897,-0.326857637,0.472792,0.303475367,-0.348042156,0.478667,0.367891892,-0.342816997,0.462704,0.329286489,-0.333505102,0.465032,0.313850995,-0.341671408,0.466223,0.310175269,-0.365493936,0.474346,0.362566705,-0.344180096,0.443845,0.328383445,-0.355710752,0.443928,0.325559973,-0.363627648,0.443966,0.329725482,-0.374636822,0.449517
0.404890607,-0.435398073,0.488531,0.391526306,-0.392224722,0.486281,0.408475416,-0.431251159,0.503873,0.389362528,-0.424884768,0.520599,0.367160102,-0.419131457,0.533027,0.352708666,-0.407932453,0.536895,0.388001812,-0.355796187,0.50368,0.35881834,-0.377818013,0.509573,0.352988735,-0.398770731,0.512519,0.369139143,-0.426874983,0.522077,0.379318553,-0.342334642,0.483955,0.341680054,-0.317064737,0.481166,0.316532392,-0.327573893,0.479539,0.311045712,-0.351668983,0.486554,0.373488302,-0.337263324,0.467901,0.331836754,-0.328186679,0.471132,0.317169272,-0.338329036,0.472785,0.312562406,-0.366391316,0.482056,0.368651643,-0.337559626,0.44917,0.336859436,-0.350477392,0.449969,0.334085102,-0.359523306,0.450337,0.337379314,-0.375806971,0.456745
0.402769409,-0.431390754,0.485908,0.392999012,-0.37532775,0.486054,0.409551449,-0.425950601,0.502933,0.391604836,-0.412177087,0.52162,0.369383992,-0.409530036,0.533757,0.355307706,-0.399215586,0.538543,0.392376405,-0.344981498,0.507223,0.365011978,-0.371837516,0.516526,0.359829188,-0.393714438,0.521177,0.373785472,-0.418173226,0.530189,0.380746599,-0.333451956,0.486204,0.34436115,-0.312520346,0.486689,0.318996255,-0.310491242,0.486972,0.312045355,-0.329281186,0.493328,0.37212941,-0.327154662,0.468898,0.341307968,-0.310596808,0.47555,0.333672073,-0.331062288,0.478954,0.350605707,-0.353618239,0.48761,0.363690586,-0.325701345,0.448327,0.334240221,-0.340512097,0.452125,0.335970668,-0.352305498,0.45387,0.340803625,-0.366009357,0.459886
0.420357376,-0.439910167,0.539667,0.401851397,-0.389455925,0.519816,0.41815926,-0.426154934,0.548513,0.39084616,-0.413193215,0.552067,0.364304045,-0.404111063,0.553574,0.347503244,-0.390836489,0.54966,0.386302621,-0.337890624,0.516787,0.345433734,-0.351307728,0.507422,0.342982206,-0.36727447,0.50274,0.347741507,-0.387040665,0.506142,0.382766234,-0.337802363,0.499296,0.341792756,-0.299253298,0.479758,0.309746631,-0.294892718,0.468361,0.299134711,-0.311888051,0.4692,0.383692784,-0.340576388,0.486461,0.341669859,-0.308573096,0.473679,0.325076335,-0.321069959,0.46714,0.33484397,-0.339451664,0.46982,0.382539079,-0.353899878,0.474138,0.34011624,-0.347906464,0.461592,0.334965337,-0.352897864,0.455828,0.336032207,-0.361722774,0.457178
0.419160176,-0.4335669,0.53813,0.401552994,-0.379030853,0.51943,0.417328298,-0.420238904,0.547423,0.390544565,-0.402382431,0.551641,0.363967759,-0.392913279,0.553063,0.347157422,-0.379431458,0.549113,0.387032937,-0.328479722,0.517764,0.346734671,-0.342531391,0.509333,0.344603857,-0.358997955,0.505117,0.34976485,-0.379214599,0.509087,0.38338259,-0.32825988,0.5001,0.343087236,-0.290310652,0.481575,0.311338481,-0.286377716,0.470768,0.303438459,-0.302501435,0.472173,0.38181666,-0.331997347,0.487032,0.344519798,-0.298637086,0.475226,0.326130553,-0.310555744,0.469186,0.333775966,-0.330035175,0.472472,0.382639931,-0.343816937,0.474263,0.339669998,-0.338707285,0.462509,0.333461158,-0.343164631,0.457108,0.334564165,-0.351348805,0.458914
0.401511744,-0.419643577,0.540534,0.395085314,-0.367259058,0.524641,0.396039332,-0.405417331,0.547211,0.36886452,-0.381751448,0.545959,0.343455806,-0.360811644,0.543282,0.329550872,-0.340938248,0.538015,0.38394311,-0.315192448,0.521714,0.344779207,-0.321444993,0.511394,0.341916791,-0.337558538,0.506234,0.347705275,-0.360534671,0.513964,0.388255354,-0.314498453,0.508212,0.391186586,-0.269145057,0.500514,0.368226767,-0.264150169,0.496023,0.365331871,-0.283841601,0.505746,0.392525207,-0.318008705,0.498349,0.351815728,-0.29459017,0.485258,0.335211471,-0.306740595,0.478561,0.34573793,-0.329855736,0.486044,0.39890165,-0.329978956,0.488973,0.35460394,-0.323807114,0.475927,0.347153521,-0.326353257,0.469933,0.353439373,-0.334392788,0.47481
0.398461815,-0.409991035,0.534686,0.393668542,-0.354661431,0.520416,0.393297969,-0.39668549,0.54224,0.367096173,-0.370005478,0.542497,0.34047858,-0.350403335,0.539424,0.325492218,-0.334612169,0.532756,0.382598008,-0.304510958,0.519716,0.345147437,-0.311685232,0.51106,0.343508413,-0.328316931,0.506731,0.350266712,-0.351331134,0.514962,0.387271408,-0.303652587,0.505664,0.389572091,-0.25855799,0.498468,0.370395958,-0.244939246,0.49427,0.364167836,-0.258735502,0.503896,0.391751113,-0.306872752,0.49522,0.353441583,-0.283887855,0.483824,0.337377925,-0.296276318,0.477994,0.347793195,-0.319844332,0.485997,0.398226405,-0.318158493,0.484918,0.356066628,-0.314081716,0.473282,0.359247602,-0.327730624,0.483627,0.367925958,-0.337614699,0.491733
0.397206545,-0.391310496,0.528407,0.393081321,-0.333795971,0.517015,0.388838167,-0.370280365,0.534633,0.358260114,-0.349738037,0.532685,0.329519208,-0.330470905,0.528505,0.312595902,-0.31170224,0.521854,0.375858439,-0.2857073,0.516699,0.344631794,-0.296321096,0.508206,0.345714654,-0.310962548,0.50396,0.356182491,-0.33258087,0.514019,0.386540116,-0.284232621,0.505238,0.385159054,-0.239185344,0.498655,0.370236816,-0.22327149,0.494815,0.369362066,-0.217432056,0.506016,0.395956766,-0.286800294,0.496701,0.369858836,-0.248433785,0.485928,0.35608212,-0.257820188,0.480416,0.366743611,-0.28270212,0.490498,0.40829174,-0.297010586,0.48824,0.370231016,-0.29703234,0.477105,0.374134162,-0.312585654,0.489334,0.390707295,-0.319781233,0.49995
0.400544262,-0.380565575,0.529719,0.393628848,-0.330959134,0.516573,0.389299167,-0.367459167,0.534955,0.357462206,-0.346161276,0.531306,0.328088831,-0.326610963,0.526218,0.311280885,-0.307051932,0.519668,0.376506426,-0.278389639,0.513798,0.344414622,-0.288123701,0.503467,0.343670724,-0.301946762,0.498302,0.352317476,-0.325673231,0.507831,0.388022683,-0.278146768,0.502984,0.386798043,-0.232549704,0.495188,0.372483925,-0.216182355,0.49064,0.369355926,-0.212812415,0.50171,0.396405027,-0.283839673,0.495118,0.368379116,-0.246550107,0.48248,0.354724389,-0.256797766,0.476015,0.365629201,-0.280992054,0.485547,0.409556273,-0.295027941,0.48771,0.370458195,-0.2941219,0.475023,0.373891096,-0.309338283,0.487158,0.390396868,-0.316671756,0.498075
0.407415766,-0.380470893,0.534647,0.393571005,-0.315861544,0.50766,0.386679219,-0.360814659,0.529092,0.345718321,-0.324494752,0.508724,0.311167602,-0.301625377,0.49562,0.291616762,-0.280122561,0.485203,0.351080445,-0.256867814,0.481786,0.322201029,-0.261609393,0.451845,0.339484585,-0.284746988,0.465058,0.359524416,-0.307652577,0.482151,0.372614916,-0.258931326,0.479762,0.369442506,-0.216163901,0.477307,0.367585078,-0.190989407,0.475875,0.364413308,-0.174445617,0.474852,0.392226555,-0.264927539,0.480214,0.356493919,-0.220050283,0.451003,0.34232622,-0.22522349,0.436058,0.349057824,-0.244998414,0.43959,0.419096583,-0.280283984,0.484718,0.377782753,-0.279814366,0.459106,0.374403487,-0.295131486,0.46938,0.381653858,-0.304378613,0.482378
0.401713505,-0.357139282,0.518163,0.382416671,-0.294550654,0.491021,0.377447687,-0.339390718,0.511725,0.33134158,-0.305744182,0.490131,0.293755806,-0.282622129,0.47388,0.272183653,-0.261312986,0.461727,0.339007493,-0.235425025,0.463945,0.313650613,-0.23882303,0.434145,0.329759078,-0.263495395,0.447418,0.348696897,-0.287714717,0.46448,0.361679321,-0.237330639,0.462962,0.359659309,-0.195546926,0.462496,0.358470811,-0.170921524,0.462224,0.356286612,-0.155171592,0.46203,0.382159525,-0.243181453,0.464284,0.347680971,-0.201815567,0.434362,0.33591307,-0.208377826,0.419054,0.342917702,-0.227689162,0.422415,0.410011235,-0.258336546,0.469842,0.372008397,-0.258263632,0.443758,0.369750877,-0.276354976,0.454043,0.377588302,-0.288781586,0.467212
0.390957834,-0.340042722,0.500035,0.373808596,-0.281260851,0.473163,0.366223623,-0.322310769,0.49327,0.321935473,-0.291574138,0.471238,0.284312763,-0.267607242,0.454742,0.263070199,-0.246076711,0.442888,0.330134911,-0.221804399,0.445874,0.30524645,-0.223825136,0.41641,0.321496655,-0.248767591,0.429844,0.340429644,-0.273306964,0.446837,0.353144594,-0.223816527,0.445384,0.353644264,-0.183483207,0.448069,0.353920847,-0.159579264,0.449635,0.350227802,-0.147603602,0.450754,0.373947342,-0.229762488,0.447089,0.339644757,-0.187366308,0.417236,0.328001884,-0.193246075,0.401962,0.335129586,-0.212719481,0.405464,0.402273122,-0.245079026,0.453063,0.364472478,-0.24386561,0.426973,0.362424704,-0.262087893,0.437375,0.37022163,-0.275145944,0.450591
0.386019398,-0.330528,0.488835,0.369870803,-0.266373773,0.457859,0.362179423,-0.310459363,0.479537,0.316646385,-0.281193506,0.454124,0.274620079,-0.258088648,0.432465,0.250296688,-0.236846575,0.417753,0.320115454,-0.20544861,0.424547,0.294617677,-0.203031196,0.392517,0.310211357,-0.226040022,0.404023,0.327016582,-0.237306516,0.421259,0.344787994,-0.207602034,0.425838,0.342104367,-0.166093186,0.426094,0.340506373,-0.141415028,0.426243,0.339349736,-0.123573273,0.426349,0.367312441,-0.213746273,0.429332,0.3346294,-0.188127469,0.39555,0.324304334,-0.198433257,0.378266,0.328584773,-0.211192433,0.379074,0.398365601,-0.229459084,0.438032,0.361256769,-0.229493037,0.40893,0.359369341,-0.247512063,0.417652,0.365788903,-0.262462422,0.431277
0.378412899,-0.317047437,0.473096,0.355891241,-0.252944656,0.439548,0.3524416,-0.295395747,0.461668,0.302591677,-0.267618437,0.43364,0.260474709,-0.2446637,0.409955,0.235859392,-0.223143968,0.39402,0.303112813,-0.191271672,0.40179,0.280039576,-0.173955124,0.367402,0.284058471,-0.197870578,0.377204,0.294463209,-0.215711443,0.39469,0.329135333,-0.193969921,0.404868,0.325982444,-0.151567166,0.402808,0.324121746,-0.126259444,0.401605,0.322784114,-0.107914261,0.400747,0.35292236,-0.20057457,0.410035,0.323121375,-0.180335936,0.374233,0.311450071,-0.190182854,0.355916,0.312393036,-0.201370459,0.354788,0.385743431,-0.216859105,0.421099,0.349128745,-0.218256088,0.390069,0.347113085,-0.235658396,0.397363,0.352594886,-0.251193763,0.411113
0.364207308,-0.300288593,0.45085,0.341303197,-0.243212739,0.419557,0.335499781,-0.281459175,0.438949,0.288575338,-0.256661205,0.410275,0.247445643,-0.23308318,0.38567,0.224018742,-0.211976871,0.369978,0.289239665,-0.183710775,0.3828,0.272152553,-0.158609547,0.350145,0.278740804,-0.182919376,0.361107,0.287891244,-0.203033244,0.378372,0.316172498,-0.186115616,0.387208,0.312732702,-0.143085188,0.383444,0.310721487,-0.117400738,0.381249,0.309281525,-0.098777602,0.37968,0.340520906,-0.192340323,0.393292,0.308591722,-0.154295776,0.358792,0.299193206,-0.162731253,0.34114,0.302345466,-0.177642145,0.341303,0.373633774,-0.207866242,0.405114,0.340948663,-0.210935852,0.374968,0.34065649,-0.22918256,0.383202,0.345153378,-0.244721286,0.397005
0.357242259,-0.293796991,0.439271,0.33510701,-0.23849907,0.409909,0.329864989,-0.278151362,0.428196,0.28477169,-0.252088577,0.400544,0.243263678,-0.227978666,0.377487,0.22073611,-0.207271048,0.363145,0.284155127,-0.180558094,0.375533,0.267593707,-0.155258505,0.344214,0.275367063,-0.17997069,0.356271,0.284771827,-0.200394529,0.373446,0.310639656,-0.182437601,0.379556,0.307870688,-0.140381413,0.377655,0.306235197,-0.115164085,0.376546,0.305057566,-0.0968285257,0.375754,0.334546872,-0.188150457,0.38517,0.303223093,-0.150381267,0.352163,0.294716858,-0.158790146,0.335275,0.29938687,-0.174471374,0.336748,0.368689901,-0.202543126,0.396151,0.337378532,-0.205552546,0.367209,0.338435517,-0.224590869,0.376366,0.341195863,-0.240659114,0.390103
0.350551554,-0.289122113,0.42762,0.327118125,-0.232392251,0.395976,0.321356261,-0.271462247,0.415654,0.276469762,-0.24867357,0.386904,0.235312245,-0.225594532,0.362569,0.211008327,-0.203743271,0.34659,0.276784249,-0.173470909,0.35889,0.25905365,-0.176646262,0.327381,0.267168674,-0.197802411,0.338223,0.278110036,-0.211683852,0.354988,0.303601661,-0.175753792,0.363264,0.29728645,-0.132709145,0.359304,0.293560738,-0.107027109,0.356994,0.290879644,-0.088410725,0.355344,0.327793492,-0.181908957,0.369346,0.296264934,-0.142771281,0.334686,0.287324452,-0.149378063,0.316952,0.290754397,-0.165330578,0.316914,0.360697092,-0.197398098,0.381218,0.328841129,-0.19959538,0.350885,0.330302254,-0.216683151,0.358957,0.333059123,-0.234512829,0.372763
0.343752616,-0.283151985,0.416733,0.320822086,-0.227699217,0.383891,0.315128507,-0.266829369,0.402942,0.271104633,-0.244425405,0.372097,0.230971325,-0.222526754,0.347283,0.206029364,-0.200522167,0.33158,0.26636006,-0.170549444,0.343705,0.253524957,-0.175788532,0.312062,0.260847045,-0.19499604,0.321704,0.267609105,-0.204832839,0.338042,0.294168982,-0.171384842,0.349941,0.280010608,-0.126898851,0.340553,0.27272356,-0.10100569,0.335076,0.267978453,-0.082365056,0.331165,0.31940634,-0.176323158,0.357649,0.289008297,-0.139866224,0.321993,0.281970398,-0.14659534,0.303751,0.280986224,-0.159325978,0.302411,0.353973147,-0.190286786,0.371629,0.327895689,-0.192142946,0.340244,0.328714021,-0.209810165,0.347267,0.326763009,-0.227338938,0.361036
0.337582657,-0.279754242,0.406747,0.311694025,-0.224772158,0.373065,0.307070873,-0.26364964,0.391249,0.25761542,-0.241831479,0.358609,0.218596179,-0.220288789,0.334032,0.197528599,-0.197096297,0.321306,0.252572985,-0.169580322,0.330175,0.245160515,-0.176817898,0.298762,0.249710149,-0.193892373,0.307079,0.257405572,-0.202203044,0.322797,0.28060795,-0.169616422,0.338246,0.261081562,-0.123499994,0.323174,0.253900724,-0.0989804409,0.314381,0.250169615,-0.0822037014,0.308101,0.305955596,-0.173887145,0.347531,0.28096341,-0.1409361,0.311632,0.275718562,-0.148032043,0.293265,0.274971208,-0.157545387,0.290731,0.340553071,-0.186971894,0.363506,0.320377775,-0.187563501,0.331406,0.320797398,-0.204869541,0.337286,0.323198594,-0.222110334,0.350864
0.336679145,-0.279965892,0.403846,0.308141369,-0.229030231,0.369671,0.307178489,-0.268183948,0.387175,0.259885832,-0.245985551,0.356696,0.21917209,-0.222685539,0.338853,0.198308552,-0.204159066,0.331692,0.248411993,-0.180899378,0.324983,0.248642614,-0.180590464,0.293891,0.261338313,-0.195587911,0.301077,0.267202197,-0.202778065,0.316218,0.275205621,-0.177261321,0.334343,0.24849143,-0.132212362,0.313695,0.238543018,-0.10899641,0.30165,0.231425601,-0.0918860456,0.293047,0.299864348,-0.178408086,0.344726,0.264138678,-0.136980508,0.308255,0.26246742,-0.13844728,0.289595,0.268112467,-0.151283425,0.285926,0.336738417,-0.18687323,0.362078,0.316076853,-0.191841104,0.32963,0.319865401,-0.206897933,0.334547,0.322740529,-0.225096767,0.347875
0.340447514,-0.282934382,0.404342,0.310217873,-0.228156669,0.36956,0.309708905,-0.267725331,0.390339,0.270817819,-0.245337785,0.360448,0.228057442,-0.220587007,0.333502,0.202317564,-0.197720461,0.316356,0.250829606,-0.168440907,0.327746,0.229936552,-0.128985171,0.301486,0.220294602,-0.11226578,0.288356,0.227556266,-0.121391196,0.293461,0.2778573,-0.167617911,0.333604,0.25072747,-0.144463228,0.294984,0.238267209,-0.155225538,0.272456,0.236251298,-0.16064171,0.269923,0.302764229,-0.171203682,0.341155,0.280246394,-0.158784428,0.303864,0.268439285,-0.166410082,0.284785,0.264327089,-0.168074472,0.281963,0.342532657,-0.184468194,0.355232,0.317698876,-0.182539772,0.322939,0.315681938,-0.2001645,0.328933,0.317731941,-0.217296184,0.342623
0.340419399,-0.285534333,0.40442,0.310888465,-0.235683204,0.371569,0.310720417,-0.272452115,0.390733,0.265328506,-0.250291539,0.36212,0.229325129,-0.222721933,0.335003,0.205060976,-0.198833434,0.317224,0.253236265,-0.172022319,0.331504,0.226507871,-0.143148937,0.300527,0.213584755,-0.12696572,0.285039,0.218076898,-0.136912327,0.287072,0.279278439,-0.178098957,0.337608,0.254521082,-0.148773856,0.30038,0.241898632,-0.160325862,0.278663,0.240822402,-0.167343514,0.277463,0.306752647,-0.183247508,0.345209,0.283897842,-0.180847139,0.30905,0.261727171,-0.186553678,0.29055,0.254890005,-0.185226658,0.289089,0.343096906,-0.198941144,0.359063,0.312927066,-0.202561261,0.327697,0.316371322,-0.219481656,0.334753,0.326666717,-0.236051181,0.348527
0.340850829,-0.286815642,0.406488,0.312109907,-0.238147326,0.374114,0.313866324,-0.27669903,0.395746,0.269766637,-0.253621501,0.36852,0.235990674,-0.228190969,0.344672,0.213532865,-0.2056746,0.327772,0.255764769,-0.179554123,0.33803,0.227814678,-0.154555725,0.304666,0.214152436,-0.144892853,0.287984,0.211640392,-0.157917634,0.287853,0.281174244,-0.180502252,0.340647,0.243346992,-0.135844459,0.304053,0.225360302,-0.138525596,0.282706,0.22705968,-0.155073136,0.282477,0.305467129,-0.185545906,0.345342,0.271413711,-0.195666971,0.310798,0.251877391,-0.196329212,0.293125,0.248426163,-0.205345542,0.293007,0.338145181,-0.202957428,0.355673,0.303530251,-0.20949905,0.325398,0.313423639,-0.224541837,0.333359,0.327265981,-0.236247715,0.347102
0.343093122,-0.299891944,0.408436,0.312819433,-0.252725051,0.386217,0.318404475,-0.289603168,0.40402,0.286303466,-0.269016413,0.3854,0.259323455,-0.246290292,0.368171,0.239061235,-0.223583258,0.355129,0.262578202,-0.202934062,0.365111,0.237043292,-0.17514885,0.34164,0.223920285,-0.178186112,0.329905,0.227464243,-0.200092035,0.335937,0.284358518,-0.199841123,0.363249,0.250151008,-0.18577793,0.335738,0.234548945,-0.191899714,0.319691,0.243214925,-0.213447519,0.325145,0.304899622,-0.201237344,0.363461,0.281198503,-0.213787276,0.338543,0.275464795,-0.218958963,0.325795,0.283250862,-0.233366908,0.332024,0.334136863,-0.210502493,0.366977,0.306826038,-0.221089304,0.344312,0.326233154,-0.239086553,0.356159,0.346903872,-0.250357464,0.36873
0.344308092,-0.306687056,0.411945,0.318523476,-0.262061949,0.394119,0.320405726,-0.296627871,0.410488,0.295401178,-0.280254897,0.396343,0.265979362,-0.25568906,0.377274,0.256437921,-0.239880331,0.37469,0.274204319,-0.215728468,0.379765,0.245978334,-0.194371021,0.360669,0.233130487,-0.199751635,0.351121,0.237252307,-0.222724389,0.359093,0.293537991,-0.211940056,0.375691,0.257473415,-0.182753531,0.352508,0.238773191,-0.182510663,0.338985,0.245493872,-0.204567415,0.346256,0.311713895,-0.212588466,0.373737,0.276971138,-0.180139403,0.353445,0.26450748,-0.185210731,0.343063,0.266470493,-0.20035224,0.351379,0.337469116,-0.220590844,0.374038,0.308655224,-0.22429126,0.355118,0.310804397,-0.243649134,0.367897,0.312800284,-0.261188475,0.379511
0.351558486,-0.316371026,0.422517,0.326950656,-0.270358184,0.406057,0.32740483,-0.307382742,0.420842,0.308519997,-0.294352906,0.416513,0.281618386,-0.272154292,0.401595,0.268014988,-0.251509474,0.392526,0.282368552,-0.224605117,0.392398,0.254239625,-0.20334655,0.373807,0.241319649,-0.208723097,0.364511,0.245967647,-0.231626489,0.372966,0.302104005,-0.221368603,0.389042,0.266566249,-0.192505738,0.366923,0.247970416,-0.192458165,0.35402,0.255712239,-0.214376431,0.361911,0.320576271,-0.222424771,0.387573,0.286224488,-0.190118705,0.368034,0.273735586,-0.195312834,0.358038,0.276961113,-0.210017478,0.366937,0.346552834,-0.230840489,0.388247,0.317767302,-0.234719524,0.369978,0.320183364,-0.254356187,0.38315,0.323655028,-0.271748392,0.394688
0.364693413,-0.335729472,0.440952,0.33970769,-0.291401572,0.426743,0.340594833,-0.324370785,0.438867,0.322380364,-0.313670016,0.436168,0.297305852,-0.290055155,0.422185,0.286585303,-0.270858606,0.416596,0.295527412,-0.246231547,0.41416,0.269665021,-0.236998819,0.397214,0.25618258,-0.232416806,0.388742,0.258718198,-0.255120869,0.398145,0.316009645,-0.24211227,0.412055,0.2814141,-0.218266904,0.391718,0.26256459,-0.213787564,0.379855,0.269414439,-0.235765818,0.388689,0.335154299,-0.242390185,0.411438,0.299459138,-0.221297408,0.393151,0.298458447,-0.234836061,0.383795,0.31202656,-0.259147938,0.393562,0.362058864,-0.249838656,0.412794,0.334665769,-0.251858657,0.395617,0.3371472,-0.274179796,0.409346,0.33986666,-0.292410971,0.420715
0.354499867,-0.328444303,0.429787,0.335440283,-0.287734676,0.421116,0.333143991,-0.320827594,0.430903,0.318464785,-0.309265287,0.431066,0.293765425,-0.284875054,0.419118,0.284843911,-0.26816941,0.415316,0.298834033,-0.247101573,0.416393,0.276562999,-0.240931015,0.40512,0.264710826,-0.237872297,0.399484,0.267951535,-0.261999583,0.410942,0.317578699,-0.242413506,0.412153,0.287361886,-0.223264166,0.397376,0.272688983,-0.224515055,0.388757,0.278794586,-0.245544187,0.399474,0.334678922,-0.241980616,0.409344,0.303686984,-0.223725651,0.396796,0.304254057,-0.239217728,0.390376,0.318899487,-0.265230262,0.40228,0.35797857,-0.248025688,0.407284,0.334159835,-0.252400544,0.394833,0.337262289,-0.274555457,0.409284,0.339347376,-0.290842098,0.41927
0.36109698,-0.338281403,0.439341,0.348329208,-0.299420619,0.435912,0.342580489,-0.333352549,0.443139,0.331401528,-0.320277517,0.446396,0.30690087,-0.294548684,0.434786,0.299387285,-0.276728363,0.433945,0.320061681,-0.262479752,0.438197,0.300115955,-0.256194793,0.432176,0.289273664,-0.252902286,0.429165,0.292210689,-0.277266302,0.442242,0.337498772,-0.257515063,0.432367,0.310594059,-0.23982132,0.422924,0.295264239,-0.23911881,0.417415,0.303575823,-0.26402832,0.429643,0.352977472,-0.25672419,0.427839,0.325501632,-0.238190967,0.420662,0.32676897,-0.25520899,0.41699,0.341389843,-0.283289325,0.430589,0.373324727,-0.2620536,0.422967,0.351414456,-0.266412731,0.414993,0.354609498,-0.288697382,0.429826,0.355738385,-0.303680266,0.438383
0.3684226,-0.349385056,0.45073,0.356701625,-0.311781341,0.450986,0.351117459,-0.343426263,0.456048,0.339834891,-0.332133454,0.462544,0.315541874,-0.30631946,0.450104,0.308589707,-0.287089896,0.448332,0.33135123,-0.275940375,0.457746,0.314531677,-0.272593512,0.455186,0.305209589,-0.270810641,0.453907,0.308966112,-0.29495557,0.467957,0.348741317,-0.271028482,0.451251,0.325417336,-0.256201929,0.445531,0.312012276,-0.257433217,0.442194,0.32136726,-0.28180352,0.455381,0.363799138,-0.270125006,0.445886,0.339927395,-0.254261048,0.442326,0.342649058,-0.273002319,0.440505,0.358085896,-0.301514461,0.455146,0.382890408,-0.274956355,0.439478,0.364073607,-0.281938328,0.434553,0.366922659,-0.30418801,0.449549,0.368600976,-0.319680124,0.45901
0.399715561,-0.381848905,0.49157,0.378189781,-0.330634962,0.478244,0.375595748,-0.36959452,0.49037,0.359887485,-0.351189247,0.488189,0.336590233,-0.327528661,0.478968,0.324386938,-0.304719809,0.472204,0.337237574,-0.284264247,0.467378,0.311102927,-0.273060593,0.451298,0.297521375,-0.267408405,0.443258,0.299042141,-0.288290063,0.452962,0.357108317,-0.280480622,0.464469,0.323297555,-0.258254041,0.445099,0.304777492,-0.254930416,0.4338,0.311944419,-0.276824423,0.442941,0.375473183,-0.281116298,0.463122,0.340331902,-0.257942254,0.445963,0.338437996,-0.271598829,0.437185,0.35144978,-0.296231631,0.44734,0.400973815,-0.289111133,0.46348,0.372725444,-0.289327506,0.447213,0.375263324,-0.311199716,0.461052,0.378951256,-0.328469856,0.472142
0.402716727,-0.385606239,0.497113,0.38238024,-0.334747282,0.483304,0.38014727,-0.37396521,0.495806,0.364277079,-0.355329684,0.493595,0.340546626,-0.330834695,0.483624,0.330184826,-0.310498219,0.47921,0.341323019,-0.287753783,0.471965,0.314992543,-0.276029361,0.455568,0.301328952,-0.270107415,0.447369,0.30286645,-0.292065872,0.456913,0.36121492,-0.284034794,0.469029,0.327154527,-0.261183793,0.449223,0.308453891,-0.257487062,0.437669,0.315141725,-0.280049024,0.446626,0.379604942,-0.284761969,0.467697,0.344234935,-0.261000873,0.450148,0.342059728,-0.274491114,0.441169,0.354346965,-0.298863593,0.451136,0.405165119,-0.292940192,0.468145,0.376562997,-0.292652152,0.45155,0.378950318,-0.314473891,0.465297,0.382455419,-0.331505859,0.476468
0.407567252,-0.390437761,0.503238,0.388374759,-0.341270665,0.490993,0.384265187,-0.378259516,0.50113,0.370227823,-0.360084691,0.500363,0.347273572,-0.334677282,0.490299,0.338413571,-0.314302076,0.485648,0.347547001,-0.294273352,0.479762,0.322308308,-0.280898986,0.4639,0.309215751,-0.274086321,0.455969,0.310973718,-0.295719639,0.465983,0.368715723,-0.291532558,0.478334,0.33613999,-0.270061877,0.459669,0.31947914,-0.270175331,0.448781,0.325835218,-0.290564709,0.458358,0.388122068,-0.293002233,0.478119,0.353659015,-0.269467213,0.461159,0.351820526,-0.283246979,0.452481,0.364646139,-0.308118907,0.462958,0.414748333,-0.301971862,0.479664,0.382579461,-0.307243775,0.463628,0.386513836,-0.328174717,0.47774,0.391672818,-0.343517139,0.488935
0.409625452,-0.392520535,0.505861,0.389802274,-0.34282201,0.492943,0.386310859,-0.380417788,0.50377,0.37226319,-0.361765124,0.502867,0.349642788,-0.336253527,0.493017,0.341362793,-0.315978948,0.488498,0.3485708,-0.295546318,0.481262,0.323318963,-0.281418229,0.465065,0.31023721,-0.274213027,0.456966,0.311864671,-0.295532017,0.466788,0.369595597,-0.292648405,0.47959,0.336809041,-0.271211548,0.460352,0.319727587,-0.270385436,0.44913,0.326414636,-0.291649699,0.458459,0.388901454,-0.294019152,0.479228,0.354258859,-0.270326253,0.461816,0.352300466,-0.283941723,0.452908,0.364998398,-0.308639116,0.463149,0.41546191,-0.302917536,0.480696,0.383110056,-0.307669888,0.464271,0.386932922,-0.328530547,0.478258,0.392094984,-0.343887399,0.489462
0.413844695,-0.396484791,0.510943,0.393393207,-0.345825023,0.497204,0.391220268,-0.384940784,0.509504,0.377532225,-0.365734212,0.510027,0.356448452,-0.34072233,0.502668,0.349478642,-0.320692659,0.499128,0.352285284,-0.298861868,0.48575,0.326538595,-0.281988202,0.468571,0.313254896,-0.273356806,0.459982,0.314272981,-0.29354146,0.469321,0.372509347,-0.29534239,0.483001,0.339398625,-0.274083962,0.46322,0.321453526,-0.271443146,0.451681,0.328049846,-0.293130963,0.460672,0.391122243,-0.296241248,0.481816,0.356414491,-0.272443283,0.464234,0.35432886,-0.285937919,0.455238,0.366540681,-0.309927175,0.465225,0.416855671,-0.304625547,0.482429,0.384767849,-0.308054719,0.465814,0.388290257,-0.328916796,0.479589,0.393336226,-0.344461861,0.490778
0.414747988,-0.397294244,0.511967,0.394153139,-0.346400287,0.497997,0.39226522,-0.385864027,0.5107,0.378234034,-0.366138983,0.511243,0.357280288,-0.341190457,0.504496,0.350190819,-0.321015797,0.501039,0.353191519,-0.299307645,0.486594,0.32718437,-0.281795014,0.469226,0.313776128,-0.272832457,0.460542,0.314576078,-0.292724608,0.469766,0.373166759,-0.295637743,0.483555,0.339770671,-0.274167813,0.463624,0.321633571,-0.271395072,0.451997,0.328238492,-0.293311579,0.460887,0.391574452,-0.296428422,0.482151,0.356687086,-0.272487852,0.464518,0.354490505,-0.285942673,0.455496,0.366625762,-0.309989492,0.465404,0.417074336,-0.30470767,0.482537,0.385004547,-0.307771911,0.465868,0.388419959,-0.328643954,0.479576,0.393413741,-0.344272762,0.490758
0.41513385,-0.397462968,0.512231,0.393798388,-0.34633072,0.497614,0.392768087,-0.386243738,0.511116,0.37879351,-0.366843437,0.511813,0.357558203,-0.342031453,0.505077,0.350550406,-0.322101596,0.501773,0.352349295,-0.298972989,0.485943,0.325870504,-0.281478511,0.468101,0.312222161,-0.272335126,0.45918,0.312563471,-0.293173236,0.468128,0.371997763,-0.295001822,0.482504,0.337845183,-0.273042367,0.462068,0.318444004,-0.268850233,0.450146,0.325741509,-0.29153167,0.458765,0.390182906,-0.295568116,0.480821,0.354927966,-0.271389321,0.462848,0.352376019,-0.284816131,0.453652,0.364241299,-0.309120197,0.463313,0.41552403,-0.303620251,0.480971,0.383157391,-0.307103816,0.464003,0.386736734,-0.327641751,0.477548,0.391914796,-0.343124594,0.488773
0.415833589,-0.397977343,0.51293,0.394095562,-0.346764797,0.498036,0.393458514,-0.386836756,0.511836,0.37936788,-0.367508151,0.512465,0.357914524,-0.342755896,0.505706,0.350877123,-0.32290597,0.502387,0.352339339,-0.29944581,0.486196,0.325528052,-0.281726899,0.468116,0.31173437,-0.272479688,0.459076,0.312058276,-0.293025725,0.467898,0.37186819,-0.295368694,0.482639,0.337255103,-0.272851311,0.461976,0.317416636,-0.268353408,0.449923,0.324797802,-0.291009644,0.458425,0.389982699,-0.295852486,0.480881,0.354605941,-0.271589305,0.462736,0.351844551,-0.28500768,0.453452,0.363472073,-0.309286503,0.463003,0.415294682,-0.303812684,0.480982,0.382840329,-0.307389276,0.463866,0.386544439,-0.327759874,0.477344,0.391832712,-0.34316158,0.488594
