sluyters/QuantumLeap/backend/src/datasets/dynamic/HandGestureDataset_SHREC2017_csv/Gesture1/finger_1/subject_20_essai_4_skeletons_world.csv
Wrist_x,Wrist_y,Wrist_z,Palm_x,Palm_y,Palm_z,thumb_base_x,thumb_base_y,thumb_base_z,thumb_first_joint_x,thumb_first_joint_y,thumb_first_joint_z,thumb_second_joint_x,thumb_second_joint_y,thumb_second_joint_z,thumb_tip_x,thumb_tip_y,thumb_tip_z,index_base_x,index_base_y,index_base_z,index_first_joint_x,index_first_joint_y,index_first_joint_z,index_second_joint_x,index_second_joint_y,index_second_joint_z,index_tip_x,index_tip_y,index_tip_z,middle_base_x,middle_base_y,middle_base_z,middle_first_joint_x,middle_first_joint_y,middle_first_joint_z,middle_second_joint_x,middle_second_joint_y,middle_second_joint_z,middle_tip_x,middle_tip_y,middle_tip_z,ring_base_x,ring_base_y,ring_base_z,ring_first_joint_x,ring_first_joint_y,ring_first_joint_z,ring_second_joint_x,ring_second_joint_y,ring_second_joint_z,ring_tip_x,ring_tip_y,ring_tip_z,pinky_base_x,pinky_base_y,pinky_base_z,pinky_first_joint_x,pinky_first_joint_y,pinky_first_joint_z,pinky_second_joint_x,pinky_second_joint_y,pinky_second_joint_z,pinky_tip_x,pinky_tip_y,pinky_tip_z,
0.47996688,-0.36825015,0.537308,0.47170707,-0.31580431,0.521963,0.46742064,-0.35845025,0.544874,0.44109094,-0.3296162,0.545314,0.41880993,-0.30517441,0.545086,0.4086333,-0.28495727,0.543136,0.45070865,-0.26853754,0.520289,0.45038959,-0.2273222,0.518616,0.44230878,-0.21127276,0.517779,0.43698248,-0.19707229,0.517019,0.46258312,-0.2656862,0.505929,0.42563119,-0.26396456,0.481974,0.43885789,-0.29905718,0.499481,0.45800673,-0.30626695,0.511986,0.47286745,-0.26794779,0.495554,0.43517982,-0.25853567,0.468147,0.44869986,-0.29051078,0.482975,0.46674202,-0.3140039,0.496456,0.48658825,-0.28033332,0.485966,0.44987499,-0.27545156,0.471552,0.44704185,-0.29261784,0.483369,0.45772536,-0.30053978,0.493795
0.47883463,-0.36852381,0.536354,0.46540599,-0.3177405,0.516559,0.46457842,-0.35722861,0.541824,0.43124404,-0.32934366,0.536735,0.40778055,-0.30340084,0.534784,0.39638935,-0.28186981,0.531432,0.44109034,-0.26571322,0.508967,0.43971329,-0.22406547,0.506094,0.43218305,-0.20932191,0.504658,0.42798485,-0.19596597,0.505762,0.45382945,-0.26407905,0.495874,0.41251027,-0.26030024,0.467628,0.42503694,-0.2945849,0.484236,0.44065645,-0.30269031,0.496098,0.46524188,-0.26758125,0.486962,0.42308446,-0.251739,0.455848,0.43630541,-0.28295846,0.469931,0.45846209,-0.31028446,0.48812,0.48069365,-0.28057934,0.47985,0.44086333,-0.27419485,0.461385,0.43791166,-0.29049343,0.472484,0.4465078,-0.29846054,0.482277
0.47713073,-0.36875239,0.535111,0.46104982,-0.31847646,0.513041,0.4624777,-0.35686429,0.539941,0.42628999,-0.32904585,0.53377,0.40215035,-0.30249189,0.531064,0.39331504,-0.28061691,0.528555,0.43489336,-0.26424476,0.502972,0.43329684,-0.2220652,0.499255,0.42580766,-0.20750442,0.497397,0.41862042,-0.19400073,0.495707,0.44759065,-0.26328066,0.48998,0.40404709,-0.2586297,0.459656,0.41503016,-0.29193996,0.475125,0.43104631,-0.29952865,0.486174,0.45908411,-0.2674352,0.481365,0.41489789,-0.25056823,0.448305,0.42663209,-0.28128884,0.461414,0.44877453,-0.30874188,0.48,0.47486109,-0.28141423,0.474989,0.4336897,-0.27398348,0.454855,0.42984848,-0.28933864,0.46515,0.44038638,-0.29578779,0.474233
0.47134081,-0.36646247,0.529396,0.45187583,-0.31645548,0.504255,0.45257781,-0.35561527,0.531905,0.41504435,-0.32651414,0.522626,0.3907116,-0.29878119,0.518969,0.38317071,-0.27613481,0.517482,0.42327867,-0.26107829,0.488995,0.42497952,-0.22001542,0.487735,0.41873186,-0.20680336,0.487105,0.41235786,-0.19339119,0.487428,0.4375439,-0.26202601,0.477986,0.39121679,-0.25554912,0.444763,0.40099104,-0.2884699,0.459988,0.41626071,-0.29357403,0.470862,0.45059171,-0.26795444,0.471292,0.40450531,-0.24955972,0.436069,0.41523105,-0.28044138,0.449005,0.43775617,-0.30367956,0.468395,0.46776174,-0.2815882,0.467695,0.42420487,-0.2747147,0.444276,0.41964394,-0.28940315,0.454294,0.43263398,-0.29474615,0.466485
0.45819568,-0.36970109,0.520626,0.43850981,-0.31487354,0.490803,0.44101899,-0.35606938,0.522591,0.40345077,-0.3259565,0.512125,0.37594938,-0.29575631,0.50459,0.36674434,-0.27041167,0.499553,0.40614245,-0.25594917,0.47142,0.40435179,-0.21353872,0.466421,0.39694992,-0.19978107,0.463921,0.39081163,-0.18539457,0.461648,0.41968278,-0.25628022,0.459641,0.37137161,-0.24738662,0.422595,0.37720759,-0.27716038,0.433437,0.38896583,-0.28141965,0.441181,0.43245513,-0.26189142,0.452755,0.38416141,-0.24117553,0.413675,0.39164662,-0.26935771,0.422839,0.41324408,-0.29428793,0.44228,0.45092158,-0.2784354,0.449728,0.40539465,-0.2671426,0.423857,0.39812961,-0.27985722,0.430888,0.41024848,-0.28670868,0.44272
0.43420957,-0.3620863,0.496396,0.41975,-0.30593374,0.46918,0.41866152,-0.35025093,0.499368,0.38507912,-0.31571997,0.490303,0.35817765,-0.28680058,0.484098,0.34607946,-0.26381743,0.478545,0.38975248,-0.24650522,0.452983,0.38895909,-0.20569936,0.45035,0.38277196,-0.19197037,0.449034,0.37759762,-0.17994576,0.447837,0.40305519,-0.24575812,0.440741,0.3582734,-0.23673144,0.405867,0.36599611,-0.26822357,0.41853,0.37797094,-0.27665237,0.427575,0.41542201,-0.25033053,0.433228,0.37031813,-0.22931529,0.396069,0.38007631,-0.25828582,0.406787,0.40189285,-0.28661057,0.426073,0.43310405,-0.26534652,0.429022,0.39070805,-0.2544143,0.405012,0.3847164,-0.2686012,0.41332,0.39617481,-0.2786832,0.424991
0.42814324,-0.36248947,0.485732,0.41531988,-0.30946855,0.458105,0.41201952,-0.3507329,0.486607,0.38008827,-0.32065477,0.475325,0.34918801,-0.28770672,0.464012,0.33665771,-0.26436135,0.458382,0.37752528,-0.24959509,0.438953,0.38227891,-0.20983782,0.438104,0.38023143,-0.19429394,0.437679,0.37805704,-0.17991401,0.437293,0.39366359,-0.24784742,0.429237,0.35242412,-0.23106427,0.393784,0.36530215,-0.26600347,0.408256,0.37807322,-0.27850393,0.418593,0.40891986,-0.25174855,0.423843,0.36722393,-0.23780013,0.38689,0.38317026,-0.26739736,0.399204,0.40658527,-0.2852669,0.419044,0.42858222,-0.26366999,0.422196,0.38428794,-0.25828174,0.3964,0.38272082,-0.27345773,0.405833,0.38549065,-0.28982915,0.418569
0.41662939,-0.35567411,0.465683,0.40354383,-0.30112962,0.438716,0.40034402,-0.34618502,0.465216,0.3610589,-0.3147709,0.450999,0.32368419,-0.283511,0.435487,0.30486345,-0.25924263,0.425793,0.36258766,-0.241242,0.418348,0.36254052,-0.19968209,0.414648,0.36031762,-0.1837788,0.412798,0.3582643,-0.1685205,0.411116,0.38076844,-0.23954327,0.410537,0.34482648,-0.22429625,0.375609,0.36030386,-0.26038952,0.391702,0.37252547,-0.27360938,0.403198,0.39777518,-0.24345877,0.406648,0.36208761,-0.23013781,0.370767,0.38024532,-0.26070386,0.384505,0.4020765,-0.27883827,0.404481,0.42210905,-0.25793114,0.406659,0.37897106,-0.25031296,0.380287,0.37836189,-0.26746773,0.390759,0.38168914,-0.2855116,0.404101
0.41625873,-0.35184972,0.452128,0.39892435,-0.29197691,0.421257,0.39621202,-0.33927229,0.447773,0.36191149,-0.31093587,0.430142,0.32125495,-0.28095137,0.409818,0.29938504,-0.25651605,0.397237,0.34360268,-0.23464488,0.393103,0.34467751,-0.19433684,0.391816,0.34549037,-0.17503485,0.391173,0.34627572,-0.15684344,0.390588,0.3653214,-0.23092925,0.388998,0.33287995,-0.21353982,0.350839,0.34914565,-0.24883717,0.365738,0.35859198,-0.26188422,0.37638,0.38620752,-0.23319962,0.388528,0.35326835,-0.22053031,0.350701,0.3726462,-0.25020491,0.363478,0.39416545,-0.26886997,0.383857,0.41673397,-0.24561619,0.393221,0.37887989,-0.24439765,0.362564,0.376083,-0.26318367,0.372059,0.37969953,-0.28252754,0.386531
0.40975996,-0.34533791,0.436869,0.38760467,-0.2854084,0.409232,0.38806541,-0.3324714,0.430876,0.34285336,-0.29832354,0.40981,0.3038782,-0.26441769,0.389003,0.2831726,-0.23904585,0.37812,0.33654196,-0.2259356,0.381376,0.33907676,-0.18941797,0.384565,0.34301117,-0.17228138,0.386159,0.34672146,-0.15576216,0.387609,0.35863016,-0.22552795,0.380353,0.3409741,-0.21104849,0.3453,0.36159726,-0.24882735,0.363027,0.37483091,-0.26812996,0.381271,0.3807889,-0.22968668,0.382115,0.36449348,-0.21860292,0.348179,0.38667833,-0.25007691,0.363432,0.40278702,-0.26970008,0.383229,0.41213729,-0.24414955,0.388882,0.38237266,-0.23996709,0.359136,0.38434993,-0.26196952,0.370488,0.39064887,-0.28434727,0.385358
0.39620046,-0.33729922,0.413811,0.37377424,-0.27886569,0.38705,0.36835178,-0.32192461,0.406323,0.32698997,-0.2900032,0.383084,0.28654735,-0.25676364,0.359933,0.26548376,-0.23223458,0.349184,0.32103067,-0.21860886,0.357944,0.31900298,-0.17804607,0.356437,0.32251562,-0.16160725,0.355684,0.32596108,-0.1456937,0.354999,0.34611688,-0.21800071,0.359087,0.33107283,-0.20777907,0.325139,0.3530854,-0.24603275,0.343459,0.36519305,-0.26380129,0.36149,0.36911705,-0.2227728,0.362548,0.35779341,-0.22147562,0.330325,0.37902271,-0.25170337,0.346123,0.38804136,-0.26162042,0.365445,0.40104436,-0.23799718,0.371164,0.37372081,-0.23556493,0.341279,0.37628164,-0.25783063,0.352979,0.38286816,-0.28020038,0.368034
0.38118683,-0.32312576,0.393378,0.36424782,-0.26697336,0.368148,0.35516572,-0.30990524,0.382468,0.3200879,-0.27620445,0.357659,0.28567083,-0.24303604,0.330594,0.26438118,-0.21648988,0.315812,0.30839625,-0.20612828,0.335833,0.30611105,-0.16694179,0.336246,0.31145809,-0.15072297,0.336452,0.3166625,-0.13489445,0.33664,0.33655566,-0.20728309,0.341784,0.32947663,-0.19753193,0.310217,0.35304186,-0.23573639,0.328617,0.36255565,-0.25326237,0.345811,0.36228065,-0.21340836,0.349059,0.36039856,-0.2134903,0.320581,0.38195881,-0.24370698,0.336523,0.38558888,-0.2578365,0.354391,0.39757813,-0.2301008,0.361898,0.37537139,-0.22749004,0.331738,0.37857134,-0.25044153,0.34338,0.37911689,-0.27327265,0.358508
0.36958526,-0.31028101,0.372012,0.34891927,-0.25420841,0.350983,0.34522537,-0.29761437,0.362781,0.32943701,-0.2671751,0.343828,0.29318829,-0.22967159,0.317867,0.2712754,-0.2038436,0.306198,0.2952989,-0.19820439,0.323873,0.29444047,-0.16062024,0.324705,0.29820074,-0.14439175,0.325121,0.30407458,-0.12945923,0.325499,0.32240337,-0.19832664,0.329009,0.30672339,-0.16684252,0.301137,0.33881487,-0.20414213,0.321784,0.35335952,-0.22789262,0.338346,0.34644057,-0.20153729,0.335218,0.34553397,-0.19807823,0.310004,0.37530405,-0.23076829,0.327858,0.38851847,-0.24966966,0.345171,0.38226706,-0.21576006,0.346088,0.36411174,-0.20711146,0.319174,0.3768682,-0.23404985,0.332415,0.38971889,-0.2601759,0.347021
0.35946259,-0.29598016,0.352657,0.33925587,-0.23969416,0.334259,0.33358996,-0.28311359,0.343417,0.31915158,-0.25257592,0.325401,0.28241727,-0.21562537,0.29903,0.26059475,-0.1910261,0.288166,0.28212438,-0.18649877,0.309069,0.27972352,-0.14811308,0.307278,0.282101,-0.13115023,0.306382,0.28448202,-0.11459483,0.305568,0.31000689,-0.18539921,0.315035,0.29978835,-0.15616961,0.289859,0.33484429,-0.19350126,0.31135,0.34514018,-0.21869975,0.327202,0.33575709,-0.1891472,0.321679,0.34025354,-0.18653884,0.29929,0.37214189,-0.21920684,0.317879,0.38003817,-0.2397675,0.334345,0.37152303,-0.20214411,0.332614,0.35744956,-0.19443972,0.307469,0.37218599,-0.22180475,0.321297,0.38106313,-0.24970265,0.335508
0.36410428,-0.29657888,0.354917,0.33955195,-0.23850021,0.33311,0.33429265,-0.28357661,0.345564,0.31987657,-0.25503367,0.326837,0.29100465,-0.22893153,0.306435,0.27269668,-0.20575584,0.295637,0.28229176,-0.18774771,0.305276,0.27160762,-0.14490099,0.296725,0.27211922,-0.12914837,0.292449,0.27291581,-0.11380847,0.288563,0.30991058,-0.18381456,0.310323,0.2954876,-0.15212931,0.281699,0.3303153,-0.18972153,0.302026,0.34571255,-0.21419413,0.31876,0.33552871,-0.18532977,0.316531,0.33492431,-0.18302862,0.290575,0.36612992,-0.21511714,0.308153,0.3797605,-0.23254553,0.325657,0.37111998,-0.19575839,0.327534,0.35841086,-0.1919306,0.300067,0.37070993,-0.21869225,0.313083,0.38040941,-0.2443954,0.327797
0.36487297,-0.29455842,0.353788,0.33435873,-0.23313245,0.326921,0.33519597,-0.28015783,0.34193,0.31493362,-0.25048871,0.321618,0.28013114,-0.21675214,0.294931,0.26055619,-0.19301587,0.279267,0.27057179,-0.1780781,0.292204,0.26334103,-0.13847101,0.285543,0.26442137,-0.12305334,0.282212,0.26573118,-0.10795231,0.279185,0.29905972,-0.17547783,0.298846,0.28028731,-0.14276551,0.265986,0.31048967,-0.17727167,0.283222,0.32643784,-0.20169809,0.300518,0.32614408,-0.17820931,0.306845,0.3213935,-0.17681862,0.27735,0.34816179,-0.20583573,0.292306,0.35993723,-0.22145108,0.31019,0.36483376,-0.19044834,0.320811,0.35526345,-0.1726194,0.289356,0.36189294,-0.19575615,0.300172,0.36678852,-0.21238657,0.315436
0.36823183,-0.29119899,0.351439,0.33418052,-0.22961327,0.323581,0.33445074,-0.27726955,0.339041,0.31289038,-0.24801203,0.317711,0.27980147,-0.21822865,0.290194,0.26219709,-0.19179039,0.274417,0.26725508,-0.1754335,0.287455,0.2559557,-0.1369572,0.271057,0.25182341,-0.12011376,0.262858,0.24827214,-0.10407754,0.255404,0.29586266,-0.17261968,0.294472,0.27548636,-0.13869055,0.260838,0.30672479,-0.1708123,0.277317,0.32229578,-0.19678543,0.294656,0.32438022,-0.17403295,0.302872,0.32046585,-0.17637953,0.272757,0.34583412,-0.20377602,0.28707,0.35772848,-0.21782137,0.304948,0.36417319,-0.18579079,0.317478,0.35273741,-0.169512,0.285272,0.35913296,-0.19249208,0.295553,0.36427086,-0.20898098,0.310874
0.36980404,-0.29032829,0.351456,0.33426793,-0.22853568,0.322846,0.3347787,-0.27588168,0.337949,0.31292595,-0.24632191,0.315687,0.27855752,-0.21593442,0.288459,0.26090514,-0.19090603,0.271951,0.26497008,-0.1735063,0.284765,0.25211317,-0.14093469,0.263756,0.24621578,-0.125458,0.253252,0.24107154,-0.11087179,0.243703,0.29458629,-0.17120111,0.292951,0.27375555,-0.13704569,0.259001,0.30393046,-0.16818373,0.274466,0.31989441,-0.19431907,0.2916,0.32394864,-0.17313239,0.302384,0.30828304,-0.14722667,0.265873,0.3268673,-0.17767799,0.278983,0.33986479,-0.20023297,0.298964,0.36542701,-0.18539199,0.318334,0.3457901,-0.17563007,0.285404,0.35857523,-0.19957167,0.294961,0.37045349,-0.21475636,0.310256
0.37292338,-0.28721722,0.350322,0.33585688,-0.22652369,0.322058,0.33697921,-0.27335525,0.336317,0.31466934,-0.24501715,0.313086,0.28095047,-0.21549262,0.28554,0.26180347,-0.19099665,0.268893,0.2639201,-0.17260564,0.2836,0.2444521,-0.13933789,0.258376,0.23532979,-0.1333692,0.245764,0.232867,-0.1375643,0.234298,0.2948063,-0.16971226,0.292525,0.27061035,-0.13600937,0.256473,0.30090035,-0.16575602,0.271635,0.32071724,-0.19273853,0.289434,0.32429205,-0.17242709,0.302534,0.30595981,-0.14583478,0.265559,0.32490755,-0.17610981,0.278496,0.33952932,-0.19937393,0.298594,0.36802124,-0.18338014,0.319101,0.34612095,-0.17750038,0.286277,0.35858731,-0.19989443,0.295725,0.37308946,-0.2174795,0.310941
0.37043911,-0.28070375,0.344791,0.33625011,-0.22403199,0.319773,0.33749719,-0.27001616,0.333739,0.31875706,-0.24399659,0.313664,0.28222629,-0.21569828,0.286426,0.26246568,-0.19106514,0.271378,0.26855965,-0.17428682,0.287432,0.24298093,-0.13846239,0.256327,0.23281241,-0.13115192,0.240774,0.22747354,-0.13443856,0.226636,0.29662957,-0.17000941,0.293631,0.26169229,-0.12530521,0.260521,0.29603313,-0.15168109,0.278849,0.32219752,-0.17896558,0.296578,0.32430234,-0.17050542,0.30109,0.30904411,-0.14657919,0.2677,0.33143531,-0.17877024,0.283396,0.34600922,-0.20219405,0.303149,0.36404891,-0.17907224,0.314108,0.34441586,-0.17662267,0.28404,0.35949879,-0.19989557,0.295705,0.37660512,-0.21977046,0.31081
0.37084329,-0.27951543,0.343818,0.33664303,-0.22347672,0.319375,0.33815227,-0.26922405,0.333155,0.31918349,-0.24380943,0.313516,0.28244022,-0.21540042,0.286398,0.26280714,-0.19114609,0.271517,0.26947177,-0.17447812,0.28795,0.24425037,-0.1391673,0.257419,0.23490448,-0.13206807,0.242154,0.22986271,-0.13587054,0.228277,0.29730751,-0.16989708,0.293834,0.26243963,-0.12566306,0.261265,0.29725294,-0.15230609,0.279998,0.3233719,-0.17961789,0.297659,0.32474112,-0.17015685,0.300979,0.30992436,-0.14663319,0.268194,0.33283244,-0.17908368,0.284242,0.34750973,-0.20257773,0.303891,0.36423967,-0.17850141,0.313531,0.34480251,-0.1768193,0.283946,0.36019757,-0.20003201,0.295896,0.37738495,-0.21990996,0.310942
0.37658048,-0.27788698,0.343968,0.34003119,-0.222318,0.319615,0.34335339,-0.26828585,0.333455,0.32251151,-0.2434066,0.314616,0.28597895,-0.21479059,0.288221,0.26503389,-0.19155416,0.272295,0.27270049,-0.17423088,0.288446,0.24602662,-0.13939992,0.25804,0.23576576,-0.13174449,0.242837,0.2306981,-0.1347838,0.229017,0.30049087,-0.16881779,0.294168,0.2629207,-0.12586372,0.261692,0.29795377,-0.15231909,0.280521,0.32430879,-0.17950769,0.298178,0.32758297,-0.1688175,0.301172,0.31055115,-0.14637922,0.268523,0.33498143,-0.17879517,0.284656,0.34953243,-0.20314721,0.304284,0.36724048,-0.17720598,0.313543,0.34618261,-0.17637288,0.28406,0.36246917,-0.19935503,0.296079,0.37855324,-0.2194179,0.311115
0.37858944,-0.27820802,0.344812,0.34145157,-0.22258429,0.320333,0.34549612,-0.26886421,0.334571,0.32949751,-0.24349497,0.319673,0.29322619,-0.2129148,0.294702,0.27411201,-0.18915398,0.281406,0.2740735,-0.1746898,0.289415,0.24723833,-0.13994747,0.259072,0.23795786,-0.13162485,0.243901,0.23199277,-0.13437562,0.230108,0.30148531,-0.16899647,0.294754,0.2636828,-0.12598367,0.262192,0.29881034,-0.15236105,0.281065,0.32529579,-0.17954359,0.298768,0.32825141,-0.16878171,0.301456,0.31146528,-0.14211809,0.268842,0.33707317,-0.17060127,0.285019,0.35309187,-0.20209645,0.304651,0.36752642,-0.17691804,0.313492,0.34650639,-0.1761572,0.284013,0.36283559,-0.19895252,0.296065,0.37914572,-0.21906685,0.311113
0.37720534,-0.27578628,0.343325,0.34259486,-0.22155495,0.320721,0.34549873,-0.26754109,0.334248,0.33442974,-0.24282171,0.325435,0.30484319,-0.2093256,0.302467,0.2894407,-0.18666557,0.292035,0.27720307,-0.1760456,0.292652,0.2421775,-0.13830424,0.26419,0.23395067,-0.13206118,0.249959,0.23654327,-0.13579404,0.237021,0.30380693,-0.16965109,0.297102,0.26859431,-0.12177698,0.266337,0.30426234,-0.14664513,0.286351,0.33052416,-0.18086544,0.303761,0.32958824,-0.16878737,0.302894,0.31239032,-0.1336377,0.27235,0.34080439,-0.16408647,0.289524,0.35966858,-0.19662621,0.308718,0.36729105,-0.17475701,0.313543,0.35080305,-0.17282375,0.285648,0.36520028,-0.19958445,0.298511,0.38010654,-0.21939722,0.313315
0.37896593,-0.27598488,0.344752,0.34377338,-0.22158197,0.321905,0.34742925,-0.26797244,0.335861,0.33571189,-0.24252932,0.326796,0.30428279,-0.21021028,0.304471,0.28467529,-0.18834578,0.291862,0.27857156,-0.17627285,0.293894,0.24388047,-0.13847962,0.265399,0.23566527,-0.13223248,0.251152,0.23699034,-0.13617568,0.238199,0.30487769,-0.16964913,0.298032,0.27005494,-0.12182273,0.267072,0.30569798,-0.14672681,0.287039,0.33168682,-0.17833522,0.304505,0.33038003,-0.16861567,0.303591,0.31379582,-0.13387498,0.272978,0.34208933,-0.16438156,0.290118,0.36054019,-0.19557606,0.309326,0.36760045,-0.17438191,0.314006,0.35094148,-0.17292142,0.286019,0.36531501,-0.19917564,0.29885,0.38028322,-0.21923197,0.313675
0.38144501,-0.27713182,0.347232,0.3453431,-0.22316418,0.324466,0.34976795,-0.26915329,0.338258,0.33687879,-0.24191495,0.329445,0.302965,-0.21163158,0.307474,0.28582313,-0.18897425,0.293973,0.28094729,-0.17691398,0.296406,0.24521217,-0.13988529,0.267907,0.23707703,-0.13353739,0.253658,0.23718421,-0.1365768,0.240704,0.30718967,-0.17011532,0.300676,0.27154458,-0.12322458,0.269777,0.30719398,-0.1480537,0.289754,0.33366065,-0.18078962,0.307201,0.33262142,-0.16889735,0.306335,0.31541019,-0.13520392,0.27574,0.3437275,-0.16569931,0.292887,0.36252703,-0.19636492,0.312091,0.36796305,-0.17399945,0.316855,0.35077231,-0.17366601,0.28889,0.36674292,-0.19848586,0.301727,0.38298606,-0.22077065,0.316547
0.38559176,-0.27868015,0.350734,0.35009476,-0.22384046,0.330879,0.35498675,-0.27170687,0.343024,0.33964874,-0.24553327,0.336148,0.30689269,-0.21520385,0.314954,0.29043661,-0.19134991,0.302629,0.28701329,-0.18069646,0.306557,0.25423111,-0.1448602,0.280712,0.2466992,-0.13841202,0.26779,0.24674209,-0.14347372,0.256042,0.31295787,-0.17437706,0.310133,0.28062245,-0.12910037,0.282029,0.31609413,-0.15393753,0.303395,0.34199763,-0.18228214,0.320267,0.33732016,-0.17299304,0.314946,0.32402582,-0.14111863,0.287124,0.35318696,-0.17232627,0.305466,0.37400124,-0.20141676,0.324028,0.37213392,-0.17922315,0.323976,0.35720238,-0.17937474,0.298363,0.37284165,-0.20413799,0.312192,0.39031348,-0.22487653,0.326569
0.39333878,-0.28256334,0.357533,0.35394837,-0.22765217,0.337772,0.36246804,-0.27340794,0.349768,0.34558107,-0.24929328,0.344152,0.31292481,-0.21883178,0.323615,0.29856485,-0.19538617,0.313022,0.293752,-0.18408961,0.313449,0.26027056,-0.14832339,0.287627,0.2522825,-0.1420999,0.274716,0.25061964,-0.14593273,0.262979,0.31977051,-0.17791651,0.317124,0.2873717,-0.1324961,0.289098,0.32236113,-0.15778232,0.310484,0.34654324,-0.18568285,0.327335,0.34457959,-0.17711874,0.32201,0.32912664,-0.14280878,0.294267,0.35601224,-0.16999642,0.312627,0.37748926,-0.20347549,0.331164,0.38000032,-0.18410586,0.331111,0.36321385,-0.18415662,0.30554,0.37866771,-0.20902898,0.319382,0.39437972,-0.22940126,0.33375
0.38795118,-0.27811826,0.353534,0.35536912,-0.22816341,0.341423,0.35760062,-0.27112373,0.346076,0.32938526,-0.24105527,0.338529,0.29756805,-0.21056379,0.316849,0.28012914,-0.1870225,0.305585,0.29598555,-0.18108153,0.323098,0.28032937,-0.14519059,0.303288,0.275466,-0.13271089,0.293384,0.27127714,-0.12094374,0.284379,0.32349352,-0.17729566,0.328768,0.30043559,-0.13679405,0.307962,0.33924303,-0.16400472,0.331374,0.36371291,-0.19345199,0.346248,0.34891467,-0.17820822,0.334575,0.33988918,-0.1477345,0.312926,0.3709109,-0.17805401,0.332973,0.39254728,-0.20945228,0.349723,0.38398952,-0.1867841,0.343459,0.3727166,-0.18766564,0.323296,0.39304163,-0.21442818,0.338599,0.41220988,-0.24011826,0.351629
0.39039849,-0.27977294,0.357511,0.35494056,-0.22766382,0.347398,0.35983465,-0.27122927,0.352396,0.33153657,-0.24401554,0.347339,0.29969356,-0.21387654,0.327323,0.28276222,-0.18979577,0.312883,0.30395871,-0.18528818,0.333506,0.28894182,-0.15086978,0.316199,0.28218305,-0.13435856,0.307545,0.27608899,-0.11880955,0.299678,0.33060052,-0.1813617,0.336831,0.30777073,-0.14078836,0.318244,0.34538812,-0.16812164,0.342603,0.36999956,-0.19551588,0.356973,0.3542369,-0.18150177,0.340521,0.34747051,-0.15194779,0.321679,0.37849088,-0.18324759,0.342575,0.39573173,-0.21305811,0.35853,0.38646034,-0.18905584,0.346576,0.37640433,-0.1911113,0.32866,0.39707143,-0.21850521,0.34467,0.414588,-0.24207489,0.357183
0.40120598,-0.28771641,0.376843,0.36661786,-0.23208613,0.366668,0.37068065,-0.27813389,0.371904,0.34923523,-0.25420767,0.369143,0.31576007,-0.22706929,0.348781,0.29640327,-0.20483706,0.337458,0.31601231,-0.19316998,0.352952,0.30110752,-0.15760628,0.335813,0.29420921,-0.14042387,0.327244,0.28796854,-0.12429121,0.319454,0.34157468,-0.18725082,0.356036,0.3353131,-0.17629303,0.337413,0.36727331,-0.21618526,0.361794,0.37886968,-0.2324122,0.376183,0.36513122,-0.18628363,0.359533,0.3570317,-0.15939031,0.340732,0.38611198,-0.19052762,0.36165,0.4084659,-0.22240931,0.377598,0.39742548,-0.19235782,0.365372,0.38526459,-0.19799102,0.347476,0.40638983,-0.22550722,0.363503,0.42597587,-0.25038446,0.376016
0.40457009,-0.29121742,0.385871,0.37327651,-0.23732966,0.377764,0.37233199,-0.27978033,0.383187,0.33707068,-0.25402162,0.378248,0.3031017,-0.22865066,0.362009,0.2837077,-0.20659974,0.351377,0.32519553,-0.19454218,0.36842,0.31317419,-0.15747294,0.353621,0.30818123,-0.14253173,0.346222,0.30372144,-0.12835247,0.339495,0.34960748,-0.19017357,0.369293,0.34420756,-0.18499204,0.35304,0.37323381,-0.22607182,0.378037,0.38924912,-0.24253433,0.391763,0.37157289,-0.19054458,0.370775,0.36577481,-0.1691926,0.354887,0.39213426,-0.20133617,0.376367,0.41255917,-0.22993865,0.391363,0.40100803,-0.19825642,0.373895,0.38761652,-0.19936211,0.358369,0.40750653,-0.22700989,0.374881,0.42776995,-0.25240702,0.386748
0.40990051,-0.29647936,0.406734,0.3844786,-0.24720325,0.397571,0.38559444,-0.28947395,0.405642,0.34925356,-0.26588204,0.402813,0.31618639,-0.24200333,0.389538,0.29682834,-0.22036535,0.380035,0.3462931,-0.20306233,0.38947,0.33035675,-0.16780244,0.374111,0.32245193,-0.15068971,0.366431,0.31522332,-0.1346179,0.359449,0.36950736,-0.20003892,0.387998,0.35683703,-0.19879044,0.371064,0.38182459,-0.24016135,0.395831,0.39424984,-0.25700126,0.40973,0.39018752,-0.20170269,0.387649,0.38084933,-0.18499598,0.37184,0.40066142,-0.2182006,0.393163,0.41175636,-0.24770415,0.408064,0.41748483,-0.21131907,0.388795,0.39710693,-0.20967948,0.373209,0.40976816,-0.23681374,0.389585,0.41968256,-0.25592219,0.401421
0.4203518,-0.30667484,0.420756,0.40037084,-0.2590317,0.414441,0.39032623,-0.2969147,0.422052,0.35899413,-0.27525127,0.416253,0.32523782,-0.25024729,0.402771,0.30534358,-0.22717575,0.391722,0.36667329,-0.21560735,0.41145,0.35241735,-0.18082585,0.399181,0.34526894,-0.16351841,0.393046,0.33871485,-0.14713577,0.387495,0.38904438,-0.21189849,0.407841,0.37788279,-0.21279981,0.393668,0.40246526,-0.25569085,0.418694,0.41812824,-0.27490994,0.435782,0.40855384,-0.21302835,0.405466,0.40179335,-0.1978508,0.392782,0.42089457,-0.23237172,0.414351,0.43028546,-0.26198059,0.428089,0.43368285,-0.22448994,0.403748,0.41528135,-0.22242658,0.391297,0.42743007,-0.25036098,0.407956,0.43686831,-0.26968687,0.419546
0.4160033,-0.31180098,0.430686,0.40731412,-0.26579472,0.425774,0.3983482,-0.30408957,0.435289,0.35714891,-0.2772022,0.430842,0.32522551,-0.25494047,0.42306,0.30746743,-0.23453659,0.416822,0.38257645,-0.21981287,0.427998,0.36591722,-0.18762,0.418554,0.35728672,-0.17052245,0.413832,0.35296808,-0.15591571,0.409539,0.4013129,-0.21788369,0.42064,0.38406045,-0.22083937,0.408028,0.40283633,-0.26277797,0.432328,0.42316635,-0.28391617,0.448246,0.41778711,-0.22027028,0.415047,0.41035013,-0.20811408,0.405108,0.41977988,-0.24304651,0.426119,0.42508479,-0.27110709,0.438525,0.43775579,-0.22922446,0.409307,0.41282036,-0.23304383,0.399582,0.42174069,-0.25979517,0.415873,0.43095891,-0.2795011,0.427136
0.42109737,-0.31906644,0.440017,0.41276121,-0.27380837,0.437246,0.40328111,-0.31170692,0.447167,0.36694555,-0.2900974,0.446997,0.33730354,-0.26833227,0.442448,0.32123984,-0.24835827,0.438195,0.39583166,-0.23422293,0.444267,0.3802035,-0.20228128,0.438492,0.37202435,-0.18525677,0.435629,0.36440121,-0.16911503,0.433103,0.41186342,-0.23129925,0.434351,0.39203904,-0.23328578,0.424145,0.4090713,-0.27500286,0.447694,0.42760297,-0.29442781,0.462695,0.42492467,-0.23288332,0.426451,0.4131342,-0.22156302,0.419442,0.42348398,-0.25419107,0.439839,0.43219716,-0.28021565,0.450817,0.44021414,-0.24198971,0.417636,0.41627683,-0.24382021,0.410896,0.4236922,-0.27013327,0.426788,0.4360107,-0.28746213,0.436373
0.42761026,-0.32967704,0.455501,0.41641316,-0.28414272,0.453771,0.40867068,-0.32251167,0.465339,0.37604094,-0.30437788,0.469369,0.34563432,-0.28553997,0.466356,0.32887315,-0.2668067,0.46313,0.4062071,-0.24448317,0.464957,0.39135676,-0.21127927,0.45859,0.38378231,-0.19375116,0.455602,0.37675932,-0.17718324,0.45297,0.41870628,-0.23978376,0.451963,0.39406864,-0.24181376,0.441508,0.4127022,-0.28271924,0.463333,0.43359059,-0.30583335,0.477089,0.42870776,-0.23985998,0.441431,0.40924882,-0.24591293,0.438971,0.41900091,-0.2801115,0.458147,0.43717793,-0.29996971,0.47445,0.4401005,-0.24707781,0.429345,0.41550283,-0.25145509,0.425075,0.42407243,-0.27760615,0.439981,0.43975537,-0.29743979,0.448688
0.42914491,-0.34135631,0.472029,0.42619973,-0.29487901,0.468578,0.41621405,-0.33358608,0.483363,0.38534305,-0.31704016,0.489527,0.35767462,-0.29841152,0.489802,0.34293684,-0.27984194,0.488305,0.41655573,-0.25642456,0.480396,0.39942025,-0.22188005,0.473644,0.39070388,-0.20383673,0.470465,0.38263574,-0.18690368,0.467648,0.42565536,-0.25100588,0.464972,0.39383752,-0.24991172,0.452909,0.40836241,-0.28917532,0.472658,0.42562396,-0.31303876,0.48595,0.43280044,-0.2505557,0.452601,0.40681768,-0.25390713,0.449371,0.41383746,-0.28663214,0.466806,0.43331826,-0.30710242,0.482656,0.44076512,-0.25730814,0.438647,0.41146084,-0.25946611,0.434341,0.41669008,-0.28421165,0.447901,0.42757718,-0.30392187,0.455887
0.42921865,-0.34670341,0.480156,0.43046072,-0.30421029,0.479564,0.42198717,-0.34099298,0.492483,0.39299812,-0.32625912,0.50077,0.36580116,-0.30718548,0.50105,0.34894147,-0.28592288,0.49667,0.42298482,-0.26863603,0.494736,0.40925488,-0.23321116,0.492003,0.40240945,-0.21478644,0.491021,0.39605839,-0.19749368,0.490209,0.43230811,-0.26158805,0.478945,0.40379879,-0.26008143,0.469879,0.41667306,-0.29920544,0.489645,0.43518148,-0.32333665,0.501624,0.43949881,-0.25963552,0.466002,0.41647549,-0.26304525,0.46422,0.42348342,-0.29608676,0.481589,0.44418024,-0.3175127,0.49738,0.44730661,-0.26427997,0.450891,0.42115536,-0.26743116,0.449219,0.42460397,-0.29056207,0.462854,0.43485808,-0.31138558,0.468729
0.4359487,-0.35569594,0.491658,0.43536212,-0.31437111,0.491907,0.42554749,-0.35054464,0.503799,0.39496665,-0.33519503,0.512119,0.36901355,-0.31672077,0.513506,0.35422252,-0.2981419,0.511507,0.42741244,-0.27879736,0.507461,0.41204493,-0.24334483,0.503391,0.40407339,-0.22481784,0.501356,0.40006378,-0.20439691,0.499506,0.43676379,-0.27266502,0.492167,0.40685935,-0.27274661,0.483929,0.41913277,-0.31236705,0.504199,0.43431544,-0.33690668,0.516974,0.44389774,-0.27145019,0.479554,0.42078503,-0.27738533,0.480244,0.42605763,-0.31036531,0.498136,0.44263479,-0.33611962,0.514402,0.45139362,-0.27694904,0.464688,0.42381792,-0.28097589,0.463429,0.42656601,-0.30453923,0.4774,0.43251333,-0.32450973,0.483838
0.43541785,-0.36144004,0.497148,0.43405651,-0.3200518,0.496382,0.42863447,-0.35593009,0.509532,0.39872361,-0.34144415,0.517889,0.37141746,-0.32626824,0.519373,0.35791063,-0.3051338,0.51816,0.42903971,-0.28322204,0.511501,0.41136338,-0.25080477,0.508833,0.40309129,-0.23272507,0.507518,0.39868463,-0.21307586,0.506323,0.43783626,-0.27617267,0.495583,0.4067219,-0.27564795,0.48635,0.41889372,-0.31496016,0.505986,0.43409644,-0.33927154,0.518303,0.44464778,-0.27426299,0.482552,0.41985586,-0.27934609,0.481753,0.42501733,-0.31211463,0.499072,0.44158691,-0.33766539,0.514817,0.45205089,-0.27905416,0.467366,0.4237661,-0.28294451,0.465626,0.42699919,-0.30698072,0.479174,0.43491361,-0.32650007,0.485932
0.441697,-0.37354892,0.509991,0.43782375,-0.33665645,0.50995,0.43245014,-0.37009739,0.522939,0.40294447,-0.35879168,0.532375,0.37765048,-0.34110835,0.535198,0.36624232,-0.32050125,0.534648,0.43434422,-0.30122846,0.526314,0.42121731,-0.26455235,0.524552,0.41442962,-0.24552903,0.523671,0.41069045,-0.22924974,0.526161,0.44259052,-0.29331684,0.509908,0.41130983,-0.29145645,0.50149,0.42256296,-0.33064226,0.520737,0.4373318,-0.35533954,0.5326,0.44885578,-0.29064018,0.496408,0.42381186,-0.29458148,0.496446,0.42823225,-0.32722821,0.513433,0.44457895,-0.35348144,0.528876,0.45547031,-0.29442976,0.480547,0.4273026,-0.29759764,0.479733,0.43052865,-0.32205282,0.493049,0.44010115,-0.34158936,0.500199
0.44226323,-0.38173652,0.516605,0.44148411,-0.34251198,0.515781,0.43438862,-0.37933229,0.529557,0.4068574,-0.36532658,0.538876,0.38180121,-0.34790871,0.542266,0.36930086,-0.33059027,0.543275,0.43614871,-0.30924934,0.531575,0.42327722,-0.2693458,0.528708,0.41903109,-0.25184843,0.531099,0.41497111,-0.23533391,0.533273,0.44549739,-0.29852532,0.514921,0.41343464,-0.29592735,0.505718,0.42441017,-0.33498059,0.524653,0.43864011,-0.35934599,0.53583,0.451694,-0.29562842,0.50129,0.42524041,-0.2984634,0.499864,0.42982775,-0.33115054,0.516546,0.446746,-0.3564764,0.531711,0.4583642,-0.29925207,0.485408,0.42959985,-0.30194152,0.484088,0.43260472,-0.32629691,0.497189,0.44150586,-0.34537894,0.503536
0.44372967,-0.38520888,0.519501,0.44437052,-0.34580543,0.519448,0.43619118,-0.38295072,0.532764,0.40895444,-0.37079219,0.542743,0.38346801,-0.3533504,0.545588,0.37044567,-0.3362057,0.546277,0.43985923,-0.31241004,0.536201,0.42764021,-0.27574909,0.536436,0.4245089,-0.2587807,0.541532,0.42282916,-0.2434923,0.546165,0.44797048,-0.30379843,0.519393,0.41675689,-0.3019279,0.511015,0.42754329,-0.34108906,0.529867,0.44185727,-0.36425282,0.54094,0.45412241,-0.30054125,0.505562,0.42902357,-0.30190989,0.504274,0.43367154,-0.3362183,0.520848,0.4503293,-0.3605995,0.535916,0.46064198,-0.30363211,0.489315,0.4327742,-0.30656213,0.488752,0.43562242,-0.33090386,0.501816,0.44387009,-0.34900651,0.507618
0.44212238,-0.39343246,0.523984,0.4455711,-0.35070375,0.522776,0.43635535,-0.3892082,0.537149,0.41118678,-0.37383775,0.546783,0.38443554,-0.35495534,0.547749,0.37110156,-0.33725288,0.547765,0.4421525,-0.31488367,0.538559,0.43020609,-0.27854334,0.539737,0.42691411,-0.26131444,0.544025,0.42374904,-0.24515466,0.547922,0.44995343,-0.30649501,0.521515,0.41726291,-0.30348589,0.511968,0.42905099,-0.34340635,0.530471,0.44334139,-0.36673165,0.542487,0.45588775,-0.30448057,0.507599,0.42875573,-0.30496377,0.505276,0.43459766,-0.33791438,0.521556,0.45184117,-0.36235616,0.536356,0.46108785,-0.31103849,0.491447,0.43310122,-0.30876569,0.490058,0.43592486,-0.33323983,0.502875,0.44341459,-0.35258253,0.50901
0.44142018,-0.39430382,0.524255,0.44548424,-0.35159695,0.523172,0.43590697,-0.39004837,0.537515,0.41119706,-0.37435565,0.547333,0.3844354,-0.355311,0.54814,0.37108752,-0.33746547,0.548004,0.44283001,-0.31578751,0.539166,0.43106269,-0.27943348,0.540612,0.42765139,-0.26211938,0.544774,0.42438557,-0.24590239,0.548558,0.45048354,-0.30753093,0.522041,0.41767124,-0.30437768,0.512635,0.42979386,-0.34412381,0.531069,0.44469525,-0.36718873,0.543318,0.45622056,-0.30556667,0.508047,0.42908443,-0.3059051,0.505897,0.4352343,-0.33889564,0.522119,0.45287901,-0.36283891,0.536866,0.46140216,-0.31125051,0.491782,0.43312362,-0.30976835,0.490552,0.43600912,-0.33435593,0.503327,0.44385174,-0.35378219,0.509691
0.44174577,-0.39583802,0.525398,0.44617756,-0.35302115,0.52431,0.43644572,-0.39160193,0.538807,0.41193508,-0.37628364,0.549064,0.38601118,-0.35750191,0.550596,0.37388982,-0.34022602,0.551298,0.44414405,-0.31786702,0.540489,0.43229386,-0.28079388,0.542075,0.42851027,-0.26322738,0.545789,0.42491696,-0.24681449,0.549165,0.45165266,-0.31085912,0.523174,0.4185182,-0.30566813,0.513793,0.43067913,-0.34529105,0.532026,0.4464242,-0.36850094,0.544464,0.45691136,-0.3082693,0.509023,0.42971022,-0.30709691,0.5068,0.43637518,-0.34076523,0.522844,0.45369833,-0.36360668,0.537431,0.46208997,-0.31222405,0.492576,0.43264915,-0.31291147,0.49147,0.4363909,-0.33812418,0.504117,0.44616208,-0.35535323,0.511305
0.44148999,-0.3964969,0.525634,0.44622705,-0.35364493,0.524584,0.43629489,-0.39223161,0.539069,0.41210415,-0.37678057,0.549466,0.38662092,-0.35811858,0.551403,0.37536824,-0.34126267,0.552775,0.44446633,-0.31842447,0.540825,0.43266198,-0.28137001,0.542488,0.4288521,-0.26378585,0.546177,0.42523721,-0.24736239,0.549531,0.45190514,-0.31128676,0.523488,0.4187447,-0.30628208,0.51415,0.43101991,-0.34583875,0.532365,0.44696589,-0.36889416,0.54485,0.45715122,-0.30868577,0.509316,0.42991615,-0.30774101,0.507153,0.43663125,-0.34138016,0.523183,0.45419976,-0.36408257,0.537755,0.46230624,-0.31262493,0.492837,0.43289852,-0.31335315,0.491778,0.43695591,-0.33872362,0.504414,0.44722742,-0.3560224,0.511837
0.44527153,-0.40041487,0.530067,0.44422288,-0.35236105,0.521874,0.43896057,-0.39507414,0.542226,0.412399,-0.37711421,0.549318,0.3843081,-0.35596204,0.547491,0.37072893,-0.33668587,0.545443,0.43736481,-0.31395483,0.53126,0.42301325,-0.27574063,0.529393,0.4185308,-0.25821972,0.532088,0.4141018,-0.24123937,0.534538,0.44367658,-0.30569269,0.513313,0.4050219,-0.29762561,0.496834,0.41632842,-0.33427632,0.513032,0.43148053,-0.35508105,0.524076,0.44873989,-0.30307072,0.499311,0.41941159,-0.30183477,0.494433,0.42500214,-0.33330776,0.508962,0.44132973,-0.35500226,0.522169,0.4548378,-0.30761501,0.484247,0.4212192,-0.30486346,0.477749,0.4256228,-0.33001264,0.488927,0.43704598,-0.34665126,0.495547
0.44645153,-0.40228957,0.531957,0.44483339,-0.35404379,0.522758,0.44004466,-0.39666135,0.543871,0.41341736,-0.37785151,0.550452,0.38574069,-0.35643634,0.548789,0.37256328,-0.3374779,0.546903,0.43833393,-0.31512624,0.531095,0.4249454,-0.27715517,0.525971,0.42346458,-0.26072973,0.527308,0.4158136,-0.24288835,0.528525,0.44449249,-0.30695024,0.513145,0.404531,-0.29656182,0.495676,0.4155923,-0.33345441,0.511583,0.43098859,-0.35453368,0.522895,0.44947998,-0.30444009,0.499237,0.41892149,-0.30139663,0.493432,0.42399127,-0.33195381,0.507713,0.4397055,-0.35484297,0.520697,0.45523484,-0.3083422,0.484453,0.42088878,-0.30474379,0.477163,0.42542547,-0.32974918,0.488129,0.43722955,-0.34653337,0.494946
0.44580191,-0.40222813,0.531571,0.44473135,-0.35341823,0.522358,0.43966299,-0.39664567,0.543622,0.4137625,-0.37725484,0.550455,0.39214498,-0.35419767,0.551865,0.38089032,-0.33455862,0.550778,0.43884435,-0.31504536,0.530858,0.42732453,-0.27722479,0.525045,0.42215879,-0.2597927,0.525386,0.41437029,-0.2427318,0.525697,0.44474706,-0.30687582,0.512731,0.404653,-0.29628479,0.495287,0.41553864,-0.33294374,0.51097,0.43085812,-0.3540601,0.522203,0.44948133,-0.30435285,0.498678,0.4190535,-0.30055356,0.493005,0.42362245,-0.33153165,0.507101,0.43884023,-0.35478474,0.519915,0.4548285,-0.30823904,0.483726,0.42137434,-0.30074871,0.476556,0.42533196,-0.32252732,0.487377,0.43574231,-0.34335775,0.494097
0.44564909,-0.40373214,0.532401,0.44519712,-0.35393969,0.52283,0.43939498,-0.39775726,0.544044,0.41502166,-0.37538077,0.550109,0.39521214,-0.35111711,0.552304,0.38473912,-0.33087753,0.551183,0.43906128,-0.31490347,0.530552,0.42720455,-0.27673646,0.524532,0.42156318,-0.25938179,0.524546,0.41386695,-0.24278209,0.524559,0.44524056,-0.30704985,0.512829,0.40471798,-0.29604823,0.494949,0.41591086,-0.33289168,0.511018,0.43145736,-0.35427784,0.522529,0.4502361,-0.30480514,0.499142,0.41917074,-0.30047086,0.492813,0.42414685,-0.33215911,0.507227,0.43968034,-0.35511109,0.52033,0.45593443,-0.30911768,0.484681,0.42211555,-0.30086758,0.476936,0.4281569,-0.32428198,0.487996,0.43813638,-0.34500058,0.495011
0.44604021,-0.40498824,0.533352,0.44592305,-0.35504061,0.523487,0.43996932,-0.39885799,0.544984,0.41981865,-0.3729613,0.551013,0.40566929,-0.34910185,0.555812,0.3930674,-0.32951504,0.554308,0.44144637,-0.31563506,0.530979,0.4281332,-0.27665817,0.524754,0.42135076,-0.25868773,0.523424,0.41434739,-0.24268555,0.522216,0.44741791,-0.30793101,0.513179,0.40742056,-0.29654637,0.495029,0.41822955,-0.33299011,0.510914,0.43188335,-0.35423895,0.522465,0.45220559,-0.30580596,0.499457,0.4215839,-0.30138766,0.492921,0.42466402,-0.3321139,0.50718,0.44088171,-0.35478074,0.520143,0.45799118,-0.31104905,0.485003,0.42451266,-0.3001132,0.477085,0.42909291,-0.32440072,0.48802,0.44030403,-0.34403143,0.495046
