sluyters/QuantumLeap/backend/src/datasets/dynamic/HandGestureDataset_SHREC2017_csv/Gesture1/finger_1/subject_11_essai_4_skeletons_world.csv
Wrist_x,Wrist_y,Wrist_z,Palm_x,Palm_y,Palm_z,thumb_base_x,thumb_base_y,thumb_base_z,thumb_first_joint_x,thumb_first_joint_y,thumb_first_joint_z,thumb_second_joint_x,thumb_second_joint_y,thumb_second_joint_z,thumb_tip_x,thumb_tip_y,thumb_tip_z,index_base_x,index_base_y,index_base_z,index_first_joint_x,index_first_joint_y,index_first_joint_z,index_second_joint_x,index_second_joint_y,index_second_joint_z,index_tip_x,index_tip_y,index_tip_z,middle_base_x,middle_base_y,middle_base_z,middle_first_joint_x,middle_first_joint_y,middle_first_joint_z,middle_second_joint_x,middle_second_joint_y,middle_second_joint_z,middle_tip_x,middle_tip_y,middle_tip_z,ring_base_x,ring_base_y,ring_base_z,ring_first_joint_x,ring_first_joint_y,ring_first_joint_z,ring_second_joint_x,ring_second_joint_y,ring_second_joint_z,ring_tip_x,ring_tip_y,ring_tip_z,pinky_base_x,pinky_base_y,pinky_base_z,pinky_first_joint_x,pinky_first_joint_y,pinky_first_joint_z,pinky_second_joint_x,pinky_second_joint_y,pinky_second_joint_z,pinky_tip_x,pinky_tip_y,pinky_tip_z,
0.38376207,-0.35068048,0.545392,0.37239088,-0.299978,0.53364,0.35410715,-0.32969751,0.532119,0.32022189,-0.29593385,0.506209,0.28756917,-0.26552046,0.480582,0.27274833,-0.24555681,0.468323,0.32188719,-0.24311141,0.508705,0.32251587,-0.20370105,0.505122,0.31932689,-0.18250687,0.503331,0.31836989,-0.16310854,0.501703,0.35222456,-0.24780131,0.520606,0.3428812,-0.19907194,0.499301,0.34165351,-0.19675083,0.486873,0.35132506,-0.21754026,0.494892,0.3787266,-0.25469671,0.531199,0.35661531,-0.20528523,0.506469,0.35874901,-0.21152479,0.493816,0.35641904,-0.22646322,0.482314,0.41345404,-0.26911801,0.54545,0.3989275,-0.23789481,0.522285,0.39053145,-0.22125078,0.511642,0.38477089,-0.20904148,0.502251
0.38385044,-0.35017717,0.544539,0.3715292,-0.29946853,0.532568,0.35405926,-0.32952271,0.53139,0.31992255,-0.29540937,0.505558,0.28743451,-0.265003,0.480055,0.27100606,-0.2441889,0.46748,0.32156668,-0.24239239,0.507618,0.32094428,-0.20215295,0.502537,0.31957871,-0.18048751,0.499996,0.31875556,-0.16120346,0.497687,0.35173344,-0.24707645,0.519291,0.34171227,-0.19804846,0.497752,0.34006281,-0.19578057,0.485188,0.34939983,-0.21634489,0.493224,0.37807804,-0.25397391,0.529711,0.35606297,-0.20455984,0.504838,0.35805542,-0.21079456,0.492113,0.35860955,-0.22762487,0.484688,0.41259564,-0.26840745,0.543784,0.39768825,-0.23687799,0.520464,0.39041304,-0.22134911,0.509749,0.38385415,-0.2083596,0.500295
0.3827202,-0.34742262,0.541141,0.36871382,-0.29489929,0.529142,0.35364376,-0.3279818,0.529313,0.32033277,-0.29436407,0.504788,0.28861534,-0.26461359,0.477916,0.26769233,-0.24174758,0.463797,0.3258404,-0.23703216,0.505774,0.31421754,-0.18947379,0.486039,0.31723977,-0.17006026,0.487241,0.31764447,-0.15446957,0.488333,0.3515654,-0.23925531,0.515834,0.3395642,-0.19426076,0.494231,0.3404791,-0.19841227,0.48163,0.34958794,-0.21806558,0.490321,0.37686937,-0.2449632,0.524928,0.35515046,-0.20026522,0.500553,0.35798556,-0.20718696,0.488082,0.36954257,-0.23202477,0.496817,0.41013776,-0.25787236,0.537418,0.39444461,-0.23324101,0.514355,0.38915738,-0.21999393,0.503758,0.3827495,-0.2079098,0.494408
0.38307889,-0.34572417,0.539611,0.36957364,-0.29162272,0.527591,0.35407105,-0.32502578,0.527475,0.32165277,-0.29038046,0.502635,0.29034271,-0.26206302,0.475461,0.26852422,-0.23968375,0.461156,0.32418544,-0.23552982,0.503834,0.31383326,-0.18808047,0.484203,0.31687707,-0.16873179,0.485422,0.31973863,-0.15031626,0.486531,0.3513005,-0.23784223,0.514259,0.34169378,-0.19034697,0.492638,0.33995214,-0.19870244,0.480025,0.34818234,-0.21999332,0.488567,0.37677208,-0.24368082,0.523656,0.35561723,-0.19574259,0.499136,0.35911565,-0.20250329,0.486591,0.3753477,-0.22588234,0.495123,0.41027453,-0.25673739,0.536511,0.39576263,-0.23233677,0.513359,0.38963762,-0.21957656,0.502722,0.38320653,-0.2078747,0.493336
0.38143961,-0.33775502,0.533912,0.36783375,-0.28399842,0.522751,0.35130862,-0.31832507,0.522166,0.31886092,-0.28403726,0.497869,0.28727031,-0.25592827,0.470307,0.26685956,-0.23550881,0.454967,0.32230919,-0.22533549,0.500113,0.31215884,-0.18300717,0.479876,0.31523157,-0.16410594,0.481527,0.31761051,-0.1473284,0.483029,0.35125663,-0.22987687,0.510373,0.34596748,-0.18558738,0.489628,0.34114571,-0.19835643,0.477527,0.34734677,-0.2196759,0.486472,0.37550963,-0.23884508,0.519574,0.35705217,-0.1874885,0.495943,0.36083699,-0.1934957,0.483852,0.37507096,-0.2215198,0.492836,0.40763224,-0.25327528,0.532081,0.39900136,-0.23548786,0.509706,0.39494539,-0.23009745,0.499426,0.39172373,-0.22632193,0.490355
0.38295637,-0.32772897,0.530552,0.36601948,-0.2751206,0.519681,0.3514192,-0.30861735,0.517019,0.31509688,-0.2758133,0.491031,0.28403566,-0.24995062,0.464409,0.26439525,-0.23020281,0.450448,0.31801082,-0.22057953,0.495089,0.30852804,-0.17701401,0.474786,0.30990523,-0.15807264,0.47395,0.31124304,-0.14001341,0.473189,0.34676316,-0.22338792,0.507623,0.3448938,-0.18442902,0.487253,0.34666929,-0.18933994,0.47537,0.35331382,-0.21249299,0.483434,0.37275399,-0.23064957,0.518676,0.37151162,-0.21280651,0.494614,0.3591521,-0.23055399,0.482304,0.35704404,-0.24553828,0.490068,0.40681027,-0.24517708,0.533361,0.40013956,-0.22200285,0.510874,0.39733272,-0.21104036,0.500543,0.39501089,-0.20117598,0.491426
0.37580891,-0.31881393,0.519337,0.36639611,-0.27010316,0.518425,0.34758765,-0.30022575,0.509377,0.31606775,-0.27225959,0.489019,0.28621013,-0.25199622,0.468897,0.26860496,-0.23642609,0.460186,0.32461443,-0.22131016,0.505648,0.31993289,-0.18075846,0.492505,0.32423503,-0.16292262,0.495954,0.32828195,-0.14544651,0.499089,0.35444948,-0.22594124,0.517414,0.36124839,-0.19081671,0.507484,0.36788822,-0.1982406,0.501692,0.37815736,-0.22407459,0.513472,0.37993839,-0.23241655,0.527155,0.3904467,-0.21507675,0.513267,0.38768161,-0.23627955,0.506161,0.39021358,-0.25867872,0.517985,0.41230358,-0.24549069,0.53894,0.41379458,-0.22778917,0.525545,0.41492774,-0.2192138,0.519391,0.41625522,-0.21140711,0.51403
0.37321283,-0.31457851,0.514907,0.36327739,-0.26641634,0.513346,0.34516482,-0.29350621,0.504497,0.31388713,-0.26909692,0.483537,0.28360069,-0.24902344,0.464222,0.26468748,-0.23224941,0.455269,0.32147906,-0.21588316,0.499534,0.3162571,-0.17512992,0.485303,0.31948101,-0.15674109,0.486937,0.32254363,-0.13885631,0.488421,0.35140636,-0.22038153,0.511614,0.35929042,-0.18800666,0.500999,0.36722121,-0.20054913,0.494807,0.37383395,-0.22288804,0.506255,0.37702345,-0.22679068,0.521659,0.38636189,-0.21138522,0.507011,0.38321548,-0.23229019,0.499516,0.38523487,-0.25430447,0.510948,0.40963913,-0.23986617,0.533894,0.41208387,-0.22374403,0.519848,0.41370849,-0.21596408,0.513394,0.41397482,-0.20903509,0.508946
0.3701408,-0.3109256,0.510257,0.35867894,-0.2604207,0.505338,0.3408003,-0.28909351,0.497751,0.30799809,-0.26326944,0.473991,0.27734331,-0.24309611,0.453835,0.25725082,-0.22506078,0.442726,0.3141253,-0.20724866,0.48646,0.30950949,-0.16575759,0.469059,0.31356216,-0.14726786,0.469691,0.31513964,-0.13093415,0.471273,0.34475336,-0.21311126,0.499882,0.35355712,-0.18238192,0.485773,0.35649844,-0.1937584,0.477543,0.36344129,-0.21881431,0.487283,0.37105665,-0.2208028,0.511258,0.37798607,-0.204776,0.492832,0.37280318,-0.22458841,0.483405,0.37264772,-0.24508953,0.49285,0.40394082,-0.23539696,0.525536,0.40514023,-0.21846802,0.508241,0.40617802,-0.2103809,0.500294,0.40645639,-0.20368675,0.494178
0.36757902,-0.30769812,0.505967,0.35632001,-0.25752111,0.500115,0.33830243,-0.28618921,0.493266,0.30607397,-0.26002641,0.469137,0.28034104,-0.23935676,0.44922,0.25913566,-0.22099514,0.438957,0.31102202,-0.20377935,0.480301,0.30683592,-0.1618632,0.461514,0.31098346,-0.1436806,0.461834,0.31434654,-0.12690751,0.463426,0.34147125,-0.20936439,0.493624,0.34984231,-0.17920091,0.478522,0.35460335,-0.19104731,0.469713,0.36092267,-0.21608164,0.479196,0.36766629,-0.21686142,0.504983,0.37599099,-0.20186174,0.485648,0.36995452,-0.22175289,0.475755,0.36891682,-0.24162816,0.48494,0.40127607,-0.23164307,0.519365,0.40303156,-0.21570305,0.501234,0.40436063,-0.20811935,0.492904,0.40590665,-0.20129589,0.485619
0.36242407,-0.30258412,0.498486,0.34881062,-0.25071314,0.489322,0.33318195,-0.27859057,0.483447,0.2996982,-0.25376229,0.456485,0.27345031,-0.23362873,0.432939,0.25393021,-0.21357962,0.420794,0.2987645,-0.19376407,0.464182,0.29404542,-0.15331728,0.442263,0.29786341,-0.1353028,0.4402,0.30163404,-0.11792542,0.438324,0.32947654,-0.19920974,0.479157,0.33955387,-0.17205067,0.460789,0.34297218,-0.18444792,0.450075,0.34737896,-0.2079534,0.45742,0.35609027,-0.20674113,0.4921,0.36485642,-0.18534335,0.469103,0.36166095,-0.20272367,0.457337,0.36129699,-0.2256773,0.464026,0.39253129,-0.22374645,0.508822,0.39379819,-0.20859931,0.487626,0.3948792,-0.2014746,0.477887,0.3961941,-0.19511471,0.46936
0.35924673,-0.29363883,0.4905,0.34455572,-0.24683835,0.482326,0.32877463,-0.27477943,0.475917,0.29660924,-0.25117865,0.449559,0.27011281,-0.23078278,0.426901,0.252023,-0.21197406,0.413709,0.2969113,-0.19120987,0.458483,0.29278331,-0.15134427,0.43757,0.29808816,-0.13405257,0.43767,0.30326491,-0.11715904,0.43776,0.32757868,-0.19673697,0.473259,0.33811217,-0.17025217,0.455888,0.34300601,-0.18417909,0.445755,0.3473215,-0.20803618,0.453592,0.35408333,-0.20430687,0.485972,0.36325709,-0.18361316,0.463987,0.360118,-0.20127094,0.452739,0.36007238,-0.22444521,0.45998,0.3882917,-0.21941137,0.502285,0.39171408,-0.20594837,0.48197,0.39385675,-0.19962519,0.472635,0.39615215,-0.1939891,0.464463
0.35815041,-0.29270925,0.488282,0.34175195,-0.24504757,0.477595,0.32718731,-0.27349307,0.472601,0.29584487,-0.25127577,0.444751,0.26705111,-0.23136369,0.421838,0.24831536,-0.21195349,0.409175,0.29312263,-0.18857049,0.450533,0.28759739,-0.14821196,0.427595,0.29327741,-0.13125662,0.428236,0.29926965,-0.11507436,0.428819,0.32376528,-0.19408034,0.465741,0.33253516,-0.16440259,0.445847,0.3394083,-0.17063388,0.434242,0.34550706,-0.19411018,0.440847,0.35038511,-0.20171121,0.47898,0.35840687,-0.17773116,0.454457,0.35818555,-0.18610867,0.44191,0.35759621,-0.21060563,0.447775,0.38501709,-0.21704665,0.496259,0.38690712,-0.20151732,0.47373,0.38829498,-0.19423277,0.463383,0.38872251,-0.18840703,0.454861
0.35503746,-0.28914911,0.482012,0.33976984,-0.24247797,0.471771,0.32459317,-0.27005378,0.465533,0.30050469,-0.25005743,0.437091,0.27186542,-0.23226675,0.414571,0.25174777,-0.21527673,0.401494,0.28876141,-0.18685192,0.444076,0.28345004,-0.14628224,0.420923,0.28941091,-0.12930662,0.421683,0.29565021,-0.11315825,0.422374,0.31914246,-0.19186991,0.460411,0.32944675,-0.16124912,0.441178,0.33810643,-0.16759225,0.429959,0.34433197,-0.19061993,0.435941,0.3464945,-0.19925493,0.474549,0.35570812,-0.16642665,0.45027,0.35867514,-0.17500483,0.437848,0.36002321,-0.19955498,0.442898,0.38144328,-0.21441496,0.492843,0.38446243,-0.19673097,0.47071,0.38692366,-0.18870978,0.460541,0.38947287,-0.18153496,0.451618
0.35062387,-0.28475536,0.473862,0.33469699,-0.23673748,0.461278,0.31998178,-0.26537209,0.456106,0.29398669,-0.24459716,0.426195,0.26591295,-0.22694417,0.401351,0.24499935,-0.20927603,0.388342,0.28109255,-0.17998843,0.430274,0.27657692,-0.13940402,0.40559,0.28141359,-0.12171451,0.403193,0.28478197,-0.1063036,0.401014,0.31102208,-0.18455735,0.447321,0.32212118,-0.15192185,0.42589,0.33131762,-0.15994182,0.413388,0.33216475,-0.18249784,0.417824,0.33729819,-0.19144298,0.462204,0.34738877,-0.1601802,0.435604,0.34761349,-0.1687166,0.421995,0.3474172,-0.19190521,0.425289,0.3720067,-0.20591952,0.481704,0.37592635,-0.18909337,0.457621,0.37844949,-0.18088317,0.446555,0.37909365,-0.17509432,0.437034
0.3490268,-0.28222388,0.469107,0.33167619,-0.23348505,0.45523,0.31876599,-0.26335159,0.450953,0.29127414,-0.24189543,0.42047,0.26185912,-0.22290063,0.395369,0.24154777,-0.20533477,0.380917,0.27690611,-0.17634975,0.422771,0.27231225,-0.13549266,0.396437,0.27708511,-0.11806366,0.393624,0.28147019,-0.10251155,0.391067,0.30679422,-0.180803,0.439837,0.3183553,-0.14814825,0.417128,0.32682256,-0.15674573,0.403881,0.32985944,-0.1781741,0.40772,0.3330944,-0.1876193,0.454824,0.34383969,-0.15630586,0.427008,0.34699211,-0.16227404,0.412776,0.34979129,-0.18568894,0.415426,0.36794312,-0.20207283,0.47462,0.37239045,-0.18533344,0.449462,0.37491082,-0.17752175,0.437902,0.37746575,-0.17057307,0.427746
0.34565803,-0.27717642,0.459784,0.32770377,-0.22826182,0.446518,0.3168311,-0.25885745,0.442043,0.28681972,-0.23496125,0.412026,0.25366193,-0.21194686,0.387966,0.23011705,-0.19419308,0.374914,0.27291606,-0.17215001,0.415019,0.26726906,-0.13203916,0.389312,0.27200687,-0.11471908,0.387004,0.27776998,-0.098794016,0.384907,0.30267869,-0.17605922,0.431803,0.31287472,-0.1439667,0.409625,0.32164399,-0.15221266,0.396688,0.32693098,-0.17417488,0.401043,0.32887685,-0.18240124,0.446516,0.33889378,-0.15502611,0.419297,0.34244623,-0.16538777,0.405371,0.34407429,-0.18590498,0.408614,0.36360141,-0.19622892,0.465903,0.36973459,-0.18263999,0.441224,0.37624856,-0.17832025,0.429885,0.38061652,-0.17392415,0.420441
0.3376017,-0.26613143,0.442544,0.31886903,-0.21859184,0.432875,0.30780072,-0.24885441,0.426555,0.27673251,-0.21625314,0.398725,0.24706866,-0.1908511,0.375229,0.22524907,-0.17131868,0.363019,0.26573513,-0.16556211,0.406202,0.26378857,-0.1275028,0.384986,0.27208648,-0.11151012,0.387117,0.28146823,-0.098487054,0.389054,0.29542879,-0.16909248,0.422149,0.30499476,-0.13890742,0.403423,0.31710156,-0.14670057,0.3925,0.32680868,-0.17059854,0.398993,0.32148014,-0.17496515,0.435928,0.33081693,-0.14704064,0.412261,0.32839357,-0.16286374,0.400152,0.32546215,-0.18514296,0.405801,0.35661648,-0.1859885,0.453717,0.36336059,-0.17247638,0.432069,0.36714596,-0.16613427,0.422123,0.37096141,-0.16047695,0.413403
0.33463844,-0.26127999,0.435738,0.31442026,-0.21261459,0.425892,0.30411873,-0.24329972,0.41945,0.27239068,-0.21243352,0.391349,0.24266079,-0.18714296,0.36744,0.22113801,-0.16785542,0.355388,0.25990544,-0.15918794,0.398725,0.25880728,-0.12182782,0.376564,0.26675787,-0.10583013,0.376957,0.27604061,-0.091817569,0.377314,0.29045893,-0.16300935,0.414971,0.30097923,-0.13569197,0.396123,0.315119,-0.13819446,0.385128,0.32957983,-0.15983488,0.391333,0.31733085,-0.16911172,0.429008,0.32627979,-0.1411619,0.405124,0.32639473,-0.15218307,0.392904,0.32180875,-0.17861133,0.398205,0.35287191,-0.18236166,0.447129,0.35948373,-0.16930695,0.425335,0.36320758,-0.16318908,0.415322,0.36696947,-0.15773824,0.406543
0.33487106,-0.26028841,0.435251,0.31410495,-0.2113907,0.425005,0.30315087,-0.24304775,0.419022,0.27219482,-0.21195472,0.390866,0.24244176,-0.18704412,0.367024,0.22076208,-0.16776966,0.354807,0.25940406,-0.15784728,0.397609,0.25790405,-0.12045697,0.375012,0.26519313,-0.10370655,0.372492,0.27205346,-0.09091721,0.370202,0.28988904,-0.16153005,0.413641,0.2999428,-0.13421218,0.394341,0.31302547,-0.13651455,0.383083,0.32743744,-0.1580521,0.389289,0.31671204,-0.16753123,0.427527,0.32584087,-0.13613268,0.403288,0.3244698,-0.15044381,0.390887,0.32089668,-0.17605976,0.396218,0.35222327,-0.18068582,0.445523,0.35839252,-0.16767709,0.423376,0.36190114,-0.16158527,0.4132,0.36546739,-0.15616084,0.404278
0.32754186,-0.25365214,0.42573,0.30944751,-0.2074776,0.419415,0.29701645,-0.23603031,0.410043,0.26735165,-0.20486039,0.383337,0.24253506,-0.17656612,0.360159,0.22351546,-0.15661313,0.3485,0.25763834,-0.15486419,0.395627,0.25703424,-0.11961622,0.374042,0.26120553,-0.10336525,0.368335,0.26660462,-0.089486542,0.363147,0.28870929,-0.15876025,0.412411,0.30430669,-0.14174123,0.397333,0.3069043,-0.1649706,0.388537,0.30564729,-0.18380592,0.395631,0.31586864,-0.16484642,0.426648,0.32760506,-0.13784486,0.406159,0.3294907,-0.15070508,0.395676,0.33792322,-0.1733082,0.401856,0.35095811,-0.17671353,0.444539,0.36041457,-0.16779846,0.425886,0.36025069,-0.18207726,0.417315,0.36330176,-0.19639602,0.421965
0.32638684,-0.25089926,0.423126,0.30756246,-0.20593086,0.417308,0.29492788,-0.2341033,0.407547,0.26595226,-0.20408146,0.381063,0.24144849,-0.17578073,0.35797,0.22265596,-0.15584312,0.346494,0.25605336,-0.15361881,0.394024,0.25597846,-0.11935634,0.372873,0.25843766,-0.10428221,0.366493,0.26438965,-0.088899893,0.360693,0.28707727,-0.15756194,0.410854,0.30399221,-0.14146213,0.396308,0.30684566,-0.16493202,0.387823,0.30552076,-0.18389786,0.39505,0.31416902,-0.1636743,0.425096,0.3267035,-0.13791378,0.405096,0.33160914,-0.14737381,0.394863,0.33800002,-0.17335537,0.401179,0.34955737,-0.17676205,0.442926,0.35897391,-0.16739954,0.424722,0.35928221,-0.18218352,0.416358,0.36136721,-0.19571693,0.421125
0.32540049,-0.25001303,0.422273,0.30665169,-0.20419918,0.416251,0.29411667,-0.23340237,0.407262,0.26696313,-0.20123688,0.381144,0.24475742,-0.17514981,0.357939,0.23350021,-0.15225291,0.344979,0.25495432,-0.15183976,0.393505,0.25531266,-0.12604578,0.372392,0.25655433,-0.11350881,0.362018,0.2586475,-0.10249227,0.352588,0.28627286,-0.15640913,0.409572,0.30143827,-0.14107528,0.394655,0.30444638,-0.16421567,0.385953,0.30453591,-0.18356964,0.393686,0.31319645,-0.16231486,0.4232,0.32390071,-0.13869323,0.403105,0.32910241,-0.14698667,0.392824,0.33685685,-0.17309008,0.399783,0.34782869,-0.17351671,0.440321,0.3528991,-0.15785463,0.421906,0.35595445,-0.1730986,0.413445,0.35995799,-0.1924555,0.418688
0.32736534,-0.25185744,0.425713,0.30706027,-0.20277226,0.417093,0.29673826,-0.23586434,0.411594,0.27058019,-0.20323285,0.385556,0.2474056,-0.17761904,0.362606,0.2365264,-0.15559314,0.349284,0.25434596,-0.15017582,0.39348,0.25354608,-0.12598641,0.370742,0.25387739,-0.11413301,0.359779,0.25495667,-0.10383947,0.349812,0.28490339,-0.1519753,0.407532,0.29419505,-0.13994637,0.38961,0.29011621,-0.16452212,0.379156,0.29010916,-0.17602323,0.387263,0.31314537,-0.15538338,0.41968,0.31785132,-0.13658341,0.39742,0.32132575,-0.14598165,0.386031,0.33113399,-0.1712633,0.393653,0.35043031,-0.16276381,0.435376,0.34702154,-0.15410965,0.41471,0.34932766,-0.16848085,0.405214,0.35525117,-0.1820198,0.410872
0.32943001,-0.25253689,0.427785,0.30801042,-0.20161409,0.416258,0.29871221,-0.23668895,0.413966,0.27278063,-0.20458823,0.387583,0.24877817,-0.17924932,0.364621,0.23708749,-0.15801599,0.350713,0.25978403,-0.14707218,0.390827,0.25143457,-0.12545152,0.366098,0.24971097,-0.11548767,0.353734,0.2486782,-0.1064574,0.342804,0.29104999,-0.14775151,0.403473,0.28991885,-0.13860224,0.38244,0.28491776,-0.16235108,0.37017,0.289487,-0.1749106,0.377921,0.31868931,-0.15139479,0.414662,0.31704704,-0.13695535,0.389934,0.31699086,-0.14910253,0.377283,0.32368941,-0.17069303,0.384697,0.35524589,-0.16205974,0.429598,0.34665186,-0.15394555,0.406529,0.34416447,-0.16676352,0.395929,0.3493395,-0.17823334,0.401339
0.33099977,-0.25168781,0.428277,0.31159283,-0.19895036,0.415775,0.29975424,-0.23583131,0.414483,0.27526906,-0.20491658,0.387939,0.24911587,-0.17979409,0.364787,0.23702708,-0.15886091,0.350478,0.25992391,-0.1467136,0.389643,0.25000515,-0.12517531,0.364228,0.24682535,-0.11503466,0.35152,0.24445953,-0.10565597,0.340279,0.29088832,-0.14721204,0.401908,0.29126169,-0.14042097,0.37986,0.28542259,-0.16307321,0.366998,0.28840897,-0.17435587,0.374542,0.3183031,-0.15072503,0.412851,0.3158837,-0.13588856,0.387292,0.31527259,-0.14803597,0.374215,0.32162661,-0.17040238,0.381455,0.35466674,-0.16126019,0.427622,0.3453724,-0.15121587,0.403761,0.33522543,-0.16508747,0.392798,0.33449423,-0.180087,0.398046
0.33068958,-0.25060376,0.427931,0.30845459,-0.20270483,0.415996,0.29917676,-0.23463859,0.414227,0.27354593,-0.20694539,0.387872,0.25001635,-0.18171767,0.364703,0.23700424,-0.15985614,0.350543,0.26041067,-0.14709155,0.390398,0.2483135,-0.12421173,0.365433,0.24078183,-0.11376277,0.357852,0.23693863,-0.1035842,0.35096,0.29158806,-0.14801115,0.402758,0.29180394,-0.14125997,0.38129,0.28670048,-0.16415983,0.368768,0.289733,-0.17551348,0.376495,0.3191045,-0.15188038,0.41374,0.31639659,-0.13669745,0.388699,0.31606416,-0.14882033,0.375887,0.32330276,-0.17195627,0.383312,0.35540393,-0.16286363,0.428483,0.34220528,-0.16340512,0.405097,0.32896467,-0.17917596,0.394352,0.32874688,-0.19051419,0.399757
0.33112111,-0.25048098,0.428667,0.30924327,-0.20220252,0.416393,0.29937828,-0.23437358,0.414878,0.27521843,-0.20558272,0.388381,0.24951018,-0.17993171,0.365229,0.23743941,-0.15825088,0.35093,0.26040789,-0.14710812,0.390439,0.2490659,-0.12550937,0.365189,0.2434129,-0.11741094,0.352564,0.2397527,-0.10963086,0.341446,0.29164766,-0.14821331,0.402779,0.29125538,-0.14123872,0.380967,0.28625297,-0.16404875,0.368243,0.28911799,-0.17537444,0.375843,0.31920969,-0.15225636,0.413769,0.3158365,-0.13670253,0.388407,0.3153865,-0.14865115,0.375431,0.32291333,-0.17215318,0.382722,0.35554071,-0.16348869,0.428565,0.34207939,-0.16320919,0.40489,0.32874847,-0.17896017,0.394013,0.32847888,-0.19026946,0.399306
0.33090157,-0.2502502,0.429557,0.30947364,-0.20152166,0.416843,0.29914008,-0.23402567,0.415941,0.27686406,-0.20588599,0.389526,0.25058105,-0.17882448,0.367763,0.23926577,-0.15647192,0.353941,0.26013535,-0.14628529,0.390768,0.24775525,-0.12506416,0.365295,0.23908381,-0.11530636,0.352559,0.24053409,-0.12348342,0.34098,0.29127571,-0.14756793,0.402742,0.28858895,-0.1393333,0.380463,0.2850756,-0.1628837,0.367467,0.28748928,-0.17431968,0.375063,0.31872408,-0.15179079,0.41346,0.31372353,-0.13651595,0.387782,0.31335642,-0.14911926,0.374645,0.32198965,-0.17325575,0.381976,0.35486977,-0.16329742,0.427989,0.34021632,-0.1627647,0.403986,0.32742253,-0.17848985,0.392958,0.32791175,-0.18979217,0.398267
0.31468024,-0.23782442,0.409614,0.29880627,-0.19416467,0.403532,0.28655226,-0.22391405,0.39976,0.26925334,-0.199115,0.378353,0.24558504,-0.17482085,0.362444,0.23677413,-0.15462595,0.35156,0.2556202,-0.13952396,0.387002,0.25014402,-0.12668895,0.368399,0.24620877,-0.11913583,0.359098,0.24957323,-0.12933703,0.350642,0.28639181,-0.14331546,0.396786,0.28661869,-0.13575329,0.381313,0.28830115,-0.15953307,0.372288,0.29371606,-0.17772422,0.383254,0.31224502,-0.14801428,0.405249,0.31237156,-0.13538134,0.386783,0.3157779,-0.14988823,0.377335,0.32731552,-0.17360225,0.388538,0.3449926,-0.15828383,0.416195,0.33480975,-0.15837711,0.398413,0.32523666,-0.17586931,0.390243,0.3298688,-0.18718602,0.398648
0.32706141,-0.24727232,0.426704,0.30462579,-0.19717685,0.411292,0.2956764,-0.23102663,0.413677,0.27519162,-0.20423728,0.387397,0.24783696,-0.17556235,0.36814,0.23567055,-0.15534874,0.354118,0.25315236,-0.13801759,0.383907,0.24043493,-0.12178941,0.35688,0.23306139,-0.11250997,0.343367,0.23474008,-0.12110946,0.331082,0.28413891,-0.14173469,0.394198,0.27675048,-0.13027104,0.369154,0.29977646,-0.16733376,0.390164,0.31057213,-0.18782427,0.405818,0.31080727,-0.14696115,0.403716,0.30254996,-0.13098175,0.376001,0.30174314,-0.14362471,0.361821,0.3106809,-0.16555154,0.368904,0.34559708,-0.1583363,0.417169,0.32750454,-0.15373341,0.391152,0.33763504,-0.18199158,0.405441,0.34740228,-0.19674047,0.420139
0.32604877,-0.24654822,0.426513,0.30357291,-0.19605433,0.410852,0.29484191,-0.2303511,0.413868,0.275968,-0.20422496,0.38794,0.24801402,-0.17628526,0.369616,0.23758764,-0.1553163,0.357154,0.25236343,-0.13783214,0.383744,0.23913369,-0.12145155,0.35677,0.23094391,-0.11073331,0.34363,0.23423543,-0.12085573,0.331685,0.28147307,-0.1409581,0.393482,0.27529199,-0.12972754,0.368187,0.29853839,-0.16683415,0.389457,0.30949084,-0.18713601,0.405283,0.30905611,-0.14511039,0.402561,0.29955417,-0.12982305,0.3748,0.29976934,-0.14364865,0.360597,0.30936888,-0.16669127,0.367856,0.34384274,-0.15744492,0.415522,0.3262538,-0.14764645,0.389404,0.33640919,-0.17461652,0.403883,0.34708461,-0.19170086,0.418689
0.32588199,-0.24630617,0.42724,0.30231895,-0.1940527,0.41108,0.29465766,-0.22999452,0.414583,0.27657658,-0.20379094,0.388573,0.24707224,-0.1760372,0.370443,0.23764126,-0.15530136,0.357607,0.25176997,-0.13752745,0.383583,0.2371146,-0.12000721,0.356264,0.22963411,-0.11010171,0.342606,0.23111312,-0.1167451,0.330189,0.28054887,-0.13983436,0.393156,0.27354337,-0.12830945,0.367365,0.29722642,-0.16598169,0.388564,0.30819974,-0.18614734,0.404548,0.30783243,-0.1442184,0.402134,0.29854133,-0.13285873,0.37396,0.29687787,-0.1520648,0.359545,0.30824201,-0.16776307,0.366651,0.3427219,-0.15601023,0.41504,0.32441777,-0.14337602,0.388536,0.33475249,-0.17028681,0.402959,0.34591771,-0.19051352,0.417879
0.32492481,-0.24632011,0.427253,0.30155534,-0.19368386,0.41088,0.29374901,-0.22973417,0.414633,0.27657897,-0.20422175,0.388631,0.24755365,-0.1765439,0.370678,0.2375702,-0.15553002,0.35802,0.25111486,-0.13752458,0.383267,0.23628314,-0.11986492,0.355826,0.22875363,-0.11003274,0.342106,0.23009156,-0.11835456,0.329633,0.28067638,-0.13904043,0.392719,0.27294693,-0.12876892,0.366717,0.29617336,-0.16569721,0.387913,0.30796036,-0.18595525,0.403972,0.30701737,-0.14401218,0.401613,0.29757776,-0.13324406,0.373281,0.29618649,-0.1479466,0.358785,0.30710921,-0.16750504,0.36585,0.34141433,-0.15572614,0.414446,0.32336115,-0.14342326,0.387789,0.33372583,-0.17030062,0.402208,0.34488591,-0.19006432,0.417181
0.32350671,-0.24620013,0.427082,0.30277183,-0.19506197,0.410913,0.2923924,-0.22939005,0.414456,0.27647147,-0.20323737,0.388477,0.24661139,-0.17622198,0.370907,0.23754288,-0.15537217,0.358179,0.25110771,-0.13789444,0.383447,0.23731515,-0.12082024,0.356141,0.228996,-0.11055158,0.342745,0.23154381,-0.1197294,0.330566,0.28072816,-0.1394244,0.392979,0.27307231,-0.12917447,0.36718,0.29634712,-0.1661418,0.3884,0.30814117,-0.18611948,0.404393,0.3079404,-0.14527082,0.401925,0.2980308,-0.13161873,0.373757,0.29682099,-0.14498289,0.359345,0.30719546,-0.16794644,0.366468,0.34230483,-0.15686741,0.414793,0.32433451,-0.14638908,0.38829,0.33453673,-0.17325392,0.402728,0.34474143,-0.1929261,0.417654
0.32211299,-0.24625231,0.427215,0.30259285,-0.1951206,0.410915,0.29104018,-0.22919388,0.414571,0.27628871,-0.20282537,0.388556,0.24651521,-0.17619095,0.371132,0.23761551,-0.15531094,0.358444,0.25093738,-0.13808105,0.38333,0.2369597,-0.12083185,0.355925,0.22867376,-0.11069762,0.34247,0.2310814,-0.11970431,0.330238,0.28052557,-0.13959235,0.392836,0.27270435,-0.12926004,0.366906,0.29596755,-0.16618937,0.388097,0.30745207,-0.18568213,0.404128,0.30733508,-0.145103,0.401769,0.2976033,-0.13154192,0.373487,0.296327,-0.14491698,0.359017,0.30630872,-0.16790536,0.36609,0.34172938,-0.15693122,0.41464,0.3240989,-0.14623113,0.388033,0.33430657,-0.17307739,0.402448,0.34385967,-0.19292557,0.417401
0.32119809,-0.2459416,0.427004,0.30180153,-0.19469054,0.410689,0.29012057,-0.22877449,0.414385,0.27614349,-0.20269041,0.388393,0.24639111,-0.1761305,0.371222,0.23764119,-0.15524082,0.358607,0.25072843,-0.13818374,0.383122,0.23645745,-0.12081849,0.355722,0.22815872,-0.1110527,0.342215,0.23069009,-0.11966798,0.329937,0.28027403,-0.13967588,0.392593,0.27238578,-0.12931085,0.366649,0.29566774,-0.16622342,0.387855,0.30686248,-0.18519246,0.403896,0.30670484,-0.14464645,0.401498,0.29722166,-0.13146032,0.373215,0.29593448,-0.14485657,0.358744,0.30565944,-0.1679029,0.365828,0.34112632,-0.1565562,0.414338,0.32382676,-0.1460697,0.387726,0.3340625,-0.17290807,0.402152,0.34369333,-0.1918926,0.417111
0.32076052,-0.24591645,0.427753,0.30108884,-0.19450055,0.411017,0.28899008,-0.22825875,0.414134,0.27356834,-0.20121162,0.38707,0.24373645,-0.1747588,0.368392,0.23444128,-0.15334532,0.355028,0.24846381,-0.1388779,0.38192,0.23273044,-0.11955325,0.353659,0.22557886,-0.11013189,0.339528,0.22723233,-0.11821697,0.326682,0.27864124,-0.14009115,0.392454,0.27148855,-0.13012183,0.366099,0.29375349,-0.16686884,0.386494,0.30488489,-0.18424413,0.402429,0.30532125,-0.14470084,0.402263,0.29079211,-0.12395001,0.373222,0.28966151,-0.13294941,0.358364,0.29994853,-0.15726639,0.364679,0.34072353,-0.15686758,0.41624,0.32450986,-0.14812802,0.389074,0.32105558,-0.17457165,0.4029,0.32511871,-0.18646698,0.417989
0.32117962,-0.24627884,0.428847,0.30102002,-0.19475744,0.411678,0.28930014,-0.22873444,0.4151,0.27330064,-0.20141222,0.387847,0.2436667,-0.17485966,0.368626,0.23393132,-0.1532918,0.355186,0.24816689,-0.13930049,0.3821,0.2321925,-0.1194113,0.353474,0.22504803,-0.11003393,0.339162,0.22614569,-0.11824255,0.32615,0.2783401,-0.14039107,0.392635,0.27062805,-0.13033065,0.365853,0.29257008,-0.16700794,0.38609,0.30390408,-0.18412169,0.40213,0.30499558,-0.14489794,0.402474,0.29064173,-0.12388592,0.373029,0.2893382,-0.13280101,0.357964,0.29944352,-0.15700161,0.364065,0.34041028,-0.15694689,0.416545,0.3241129,-0.14852042,0.38902,0.32091772,-0.17449669,0.402727,0.32495537,-0.1863733,0.417779
0.32364594,-0.24847725,0.432923,0.30213754,-0.19605585,0.41431,0.29100042,-0.23060595,0.418332,0.27122454,-0.20063963,0.390054,0.24192478,-0.17354804,0.368113,0.23186684,-0.1517301,0.352466,0.24501508,-0.14104245,0.382624,0.23116309,-0.11898087,0.352564,0.22370786,-0.10944443,0.337534,0.22434991,-0.11744689,0.323871,0.27499777,-0.14172133,0.393666,0.26958439,-0.12978949,0.365483,0.29164421,-0.16558294,0.384804,0.30224281,-0.18366652,0.401063,0.30165296,-0.14554127,0.40402,0.29542831,-0.13223922,0.373076,0.29348379,-0.14383815,0.357244,0.3013528,-0.16707355,0.36232,0.33724267,-0.15672913,0.418901,0.33142942,-0.13540107,0.390109,0.33270231,-0.15788022,0.403132,0.33380538,-0.17384312,0.418315
0.32303562,-0.24799859,0.43246,0.30134767,-0.19586156,0.413891,0.2902944,-0.23024686,0.417636,0.27387914,-0.20158253,0.38914,0.24340382,-0.17454329,0.369539,0.23405293,-0.1528589,0.355571,0.24724649,-0.13900339,0.381954,0.23052776,-0.11863849,0.351798,0.22280811,-0.10920902,0.33672,0.2234286,-0.11727181,0.323013,0.27776797,-0.14055815,0.393295,0.2692549,-0.12951941,0.365166,0.29087013,-0.16532163,0.384283,0.30128505,-0.18337121,0.400458,0.30319841,-0.14472076,0.403891,0.29545236,-0.13280108,0.372895,0.29287757,-0.14503743,0.357037,0.30050145,-0.16738294,0.361955,0.33728525,-0.15638746,0.419056,0.33257245,-0.13552185,0.390254,0.33377258,-0.15793334,0.403129,0.33484794,-0.17386363,0.418258
0.32077885,-0.2465954,0.429924,0.30091711,-0.19608462,0.413937,0.29006538,-0.23046433,0.4178,0.27275571,-0.20229906,0.392367,0.24448448,-0.17616877,0.37202,0.23529204,-0.15442182,0.357288,0.24850905,-0.1431763,0.387217,0.23153593,-0.11988523,0.360333,0.223544,-0.10794019,0.346891,0.21998144,-0.11701318,0.334671,0.27737659,-0.1422592,0.396205,0.26800992,-0.13242711,0.370593,0.2839337,-0.17210253,0.39218,0.29402563,-0.18704517,0.409391,0.30353543,-0.14533173,0.40469,0.29274906,-0.13484534,0.376889,0.28886968,-0.1430963,0.362665,0.3058853,-0.16801221,0.370143,0.33885201,-0.15676788,0.416983,0.32531689,-0.1456072,0.390748,0.32254152,-0.16775546,0.405459,0.32696424,-0.1857081,0.420396
0.32479173,-0.25078192,0.436046,0.30537297,-0.20231816,0.423887,0.29507936,-0.23564526,0.4258,0.26955735,-0.21345197,0.40291,0.23920689,-0.18709363,0.383933,0.23730934,-0.16567241,0.367734,0.25396951,-0.15565212,0.402321,0.23705485,-0.14163987,0.379193,0.22849613,-0.1344129,0.367628,0.22205275,-0.14570057,0.357115,0.28228573,-0.15547636,0.410402,0.26353342,-0.11750631,0.388677,0.27851136,-0.12352414,0.410138,0.29234965,-0.1450534,0.426533,0.30747425,-0.15840832,0.417879,0.29269015,-0.14677895,0.394075,0.28240866,-0.166677,0.381897,0.28794397,-0.18020951,0.391511,0.34103374,-0.16823977,0.428455,0.32403921,-0.1526599,0.405692,0.32792453,-0.17810278,0.421612,0.33705722,-0.19569134,0.435795
0.32603696,-0.25260566,0.438354,0.30571673,-0.20371075,0.425057,0.29609375,-0.23741098,0.427926,0.27073685,-0.21438596,0.404673,0.24124923,-0.18869103,0.387211,0.23476225,-0.16893422,0.371553,0.25402948,-0.15568887,0.402416,0.2365566,-0.14134217,0.378396,0.2277248,-0.13395916,0.366387,0.22102928,-0.14502901,0.355469,0.28222176,-0.15544112,0.410309,0.26369026,-0.12350986,0.387435,0.28058466,-0.1361648,0.410389,0.29426859,-0.16095853,0.425867,0.3073499,-0.15834426,0.41771,0.29187912,-0.14464735,0.392882,0.28125808,-0.16434487,0.38018,0.28648034,-0.17836492,0.389383,0.34094698,-0.16819697,0.428346,0.32320613,-0.15226742,0.404649,0.32697874,-0.1775891,0.420396,0.33536566,-0.19590312,0.434842
0.32669249,-0.25392738,0.440055,0.30588599,-0.20546173,0.425965,0.29658153,-0.23875427,0.429506,0.27153065,-0.21521697,0.40601,0.24155104,-0.18992138,0.389424,0.2316085,-0.16904297,0.374077,0.25376786,-0.1560043,0.402581,0.23590019,-0.14143642,0.377949,0.22687312,-0.13395143,0.365634,0.22008769,-0.14485047,0.354437,0.28182706,-0.15560511,0.410337,0.26239259,-0.12355613,0.386668,0.2785338,-0.13335612,0.409186,0.29196625,-0.15199354,0.425108,0.30688517,-0.15839648,0.417679,0.29022146,-0.13307948,0.392146,0.28009935,-0.15226868,0.379082,0.28539355,-0.17544427,0.387992,0.34049944,-0.16813945,0.42835,0.32221824,-0.1519826,0.404011,0.32597399,-0.17731989,0.419628,0.3342463,-0.19581714,0.434251
0.32512981,-0.25380139,0.439049,0.30306134,-0.20860794,0.425751,0.29547897,-0.23908775,0.429014,0.27116477,-0.21552686,0.406188,0.24010707,-0.19216676,0.392466,0.23028301,-0.17119987,0.378531,0.25396257,-0.15692796,0.403585,0.23951426,-0.12952429,0.380791,0.23298712,-0.11427899,0.369394,0.22829429,-0.12111253,0.359033,0.28177688,-0.15640242,0.411001,0.26291907,-0.12448693,0.388149,0.28072531,-0.13377029,0.411312,0.29579628,-0.15513199,0.426848,0.30651332,-0.15907447,0.418009,0.29288081,-0.1344636,0.393369,0.28335776,-0.1536039,0.380762,0.28750831,-0.17568027,0.390165,0.3395427,-0.16860577,0.428175,0.32284683,-0.14611225,0.404599,0.33533184,-0.17231639,0.420502,0.34001738,-0.19196897,0.434966
0.32627955,-0.25590217,0.441624,0.30614543,-0.21177208,0.430848,0.29644314,-0.24128357,0.431476,0.27246717,-0.2171329,0.408907,0.24028523,-0.19440477,0.396079,0.23178153,-0.17309502,0.383043,0.25589038,-0.16313271,0.410437,0.2411926,-0.13989664,0.388322,0.23435939,-0.12669574,0.377264,0.23000738,-0.13517758,0.367212,0.2842582,-0.16269711,0.418895,0.2642885,-0.12983266,0.398569,0.28284898,-0.1349571,0.421158,0.30142947,-0.15292523,0.436522,0.30932635,-0.16535928,0.426588,0.29686103,-0.13240252,0.403979,0.28986923,-0.1495095,0.392412,0.29649831,-0.17616503,0.402438,0.34252263,-0.17468502,0.437238,0.32890156,-0.149602,0.415585,0.34182031,-0.17589111,0.431635,0.35150171,-0.19548007,0.445479
0.32838516,-0.2593191,0.445587,0.3076323,-0.21778511,0.436977,0.29812245,-0.24544258,0.435773,0.27241754,-0.22120107,0.41393,0.2413132,-0.19767294,0.40128,0.23136187,-0.17585977,0.388641,0.25839112,-0.17040802,0.418598,0.2456581,-0.14479985,0.398208,0.23928534,-0.13125661,0.388013,0.23553396,-0.13973573,0.378744,0.28680887,-0.1697405,0.427427,0.26740116,-0.13641018,0.409327,0.28814591,-0.13950006,0.432495,0.30541458,-0.15620625,0.446961,0.31190819,-0.17210548,0.435276,0.29986795,-0.13861698,0.41465,0.29626196,-0.15468839,0.404096,0.30251384,-0.17859417,0.414818,0.34512629,-0.18088161,0.445825,0.3317781,-0.15398718,0.425991,0.34528929,-0.17994024,0.44227,0.35514978,-0.20016797,0.455563
0.32762454,-0.26055203,0.446301,0.30861794,-0.22398876,0.445394,0.29818928,-0.25020369,0.439227,0.26996155,-0.2258513,0.421825,0.2397189,-0.19923512,0.402065,0.22794833,-0.17719962,0.388598,0.26347401,-0.1802168,0.436123,0.25484884,-0.14780454,0.424465,0.2504613,-0.13029068,0.418636,0.24914024,-0.13329561,0.413337,0.29123432,-0.17892398,0.444388,0.28254498,-0.1507749,0.434457,0.30771071,-0.17300904,0.459326,0.32317496,-0.19970318,0.470723,0.31537914,-0.18053243,0.451248,0.31158038,-0.15049966,0.438572,0.30977649,-0.16730172,0.432086,0.32084766,-0.19375506,0.445743,0.34660915,-0.18786214,0.459583,0.3388104,-0.16649451,0.446882,0.35242589,-0.19124052,0.464214,0.36426224,-0.21134788,0.475405
0.33182434,-0.26907913,0.456066,0.31101192,-0.22916662,0.454851,0.299375,-0.25732262,0.447047,0.26734565,-0.23423564,0.433789,0.23924653,-0.20807969,0.411796,0.22916915,-0.18433624,0.397277,0.2667534,-0.18415665,0.442987,0.25517297,-0.15112303,0.428475,0.24737897,-0.13622449,0.422582,0.25068885,-0.13734392,0.417224,0.29495239,-0.18576916,0.453503,0.29125212,-0.15791404,0.443213,0.31483798,-0.17995889,0.466798,0.32767777,-0.20490987,0.477923,0.32017284,-0.18887791,0.462237,0.31118428,-0.15275886,0.448438,0.31510222,-0.16483067,0.441377,0.32677744,-0.19510028,0.453826,0.35271049,-0.19802362,0.472857,0.34548842,-0.17877752,0.459389,0.35953535,-0.19868428,0.475769,0.36708428,-0.22121125,0.486859
0.33157974,-0.27203232,0.460196,0.311754,-0.23075234,0.458587,0.30075453,-0.25984626,0.452155,0.26786441,-0.23476795,0.437528,0.23574817,-0.20842533,0.419745,0.22183324,-0.18719889,0.407502,0.26765724,-0.18579914,0.447617,0.25558337,-0.15336948,0.433385,0.24939471,-0.13602569,0.426269,0.25184639,-0.13821404,0.4198,0.29603873,-0.18608876,0.456803,0.29259636,-0.15796905,0.446094,0.31653876,-0.18034772,0.47044,0.32951642,-0.20663998,0.481956,0.32057737,-0.18904699,0.46447,0.31225136,-0.15286187,0.450733,0.31602454,-0.16506903,0.443705,0.32983945,-0.19257991,0.456714,0.35211752,-0.19805788,0.473865,0.34516918,-0.17875831,0.460301,0.35774801,-0.20143493,0.477234,0.36662035,-0.22266452,0.488573
0.3333663,-0.27873936,0.470735,0.3150608,-0.23782682,0.471796,0.30353797,-0.26620557,0.463693,0.26798844,-0.24205089,0.446976,0.23831494,-0.21368421,0.424635,0.22312563,-0.19229463,0.411532,0.2695797,-0.19811875,0.464041,0.26321606,-0.16173228,0.455427,0.25997914,-0.14221357,0.45112,0.2607167,-0.14322794,0.447205,0.29729303,-0.19690185,0.472973,0.28490813,-0.15757245,0.465154,0.31023988,-0.17157024,0.489775,0.32683571,-0.19591427,0.500331,0.32132273,-0.19841643,0.480248,0.31304692,-0.16256178,0.469346,0.3191922,-0.17120587,0.463768,0.34002953,-0.19991369,0.477703,0.35239209,-0.20527561,0.488818,0.34649408,-0.18247567,0.477805,0.36005138,-0.19975829,0.494989,0.36776,-0.22374041,0.505528
0.33358952,-0.28104219,0.474868,0.31810077,-0.24506989,0.479577,0.30807816,-0.27157334,0.47154,0.27410633,-0.25296298,0.459513,0.24352311,-0.22857216,0.440061,0.22789265,-0.20478283,0.42625,0.27781959,-0.21223262,0.479069,0.27002415,-0.17671144,0.475122,0.26588047,-0.15744382,0.473148,0.266112,-0.15820352,0.471353,0.30348243,-0.20874778,0.484799,0.28920119,-0.1705549,0.481136,0.31283192,-0.18384166,0.507163,0.33336159,-0.20476274,0.516657,0.32560704,-0.20821114,0.489191,0.31597727,-0.17334956,0.483434,0.32268506,-0.18158875,0.480488,0.34622029,-0.20870187,0.496774,0.35501264,-0.20980686,0.493821,0.34683922,-0.18982751,0.487098,0.3598989,-0.20689116,0.505406,0.37117625,-0.22913528,0.514871
0.34468872,-0.29199438,0.492445,0.32790057,-0.2574667,0.496459,0.31401484,-0.28115509,0.48618,0.27559289,-0.26071259,0.470808,0.24352068,-0.23676316,0.451361,0.22903669,-0.21423568,0.438218,0.28609643,-0.22107233,0.491865,0.27846772,-0.1875247,0.484792,0.28639686,-0.17679685,0.502107,0.29394706,-0.1662561,0.517847,0.31397005,-0.22075187,0.500912,0.31117158,-0.19220162,0.496325,0.32663063,-0.18315884,0.520897,0.34120113,-0.19427057,0.530269,0.33796547,-0.22274932,0.50808,0.33764179,-0.19838803,0.500211,0.33552253,-0.18608442,0.496185,0.36198283,-0.20046896,0.51087,0.36871698,-0.22969548,0.516127,0.36086766,-0.21002765,0.507898,0.37166259,-0.20837181,0.524573,0.3923263,-0.21957708,0.535725
0.35072197,-0.30012401,0.506161,0.3335411,-0.26260493,0.506279,0.32137359,-0.28930434,0.498819,0.28048184,-0.26596444,0.481456,0.2465613,-0.24419423,0.462843,0.22902912,-0.2220042,0.448354,0.29128236,-0.22188936,0.497452,0.27897521,-0.18856366,0.486078,0.28737316,-0.17930009,0.505448,0.29493906,-0.16933072,0.523058,0.31820159,-0.22201392,0.50641,0.31169532,-0.1948804,0.497567,0.32544195,-0.19270509,0.522139,0.33988111,-0.21076361,0.53305,0.34242504,-0.22380612,0.513771,0.3372021,-0.19862515,0.501887,0.33467407,-0.18466862,0.495806,0.35723179,-0.20022674,0.509453,0.37390186,-0.23077304,0.522569,0.36137604,-0.21033498,0.510665,0.37061319,-0.20900065,0.525999,0.39255538,-0.22170373,0.539455
0.35472718,-0.30520948,0.51488,0.33754783,-0.26465552,0.514124,0.32486038,-0.29399315,0.507232,0.28367171,-0.26947157,0.489393,0.24962017,-0.24747236,0.470044,0.23092679,-0.22860999,0.459213,0.29519916,-0.22359661,0.50427,0.28220983,-0.19070208,0.491886,0.28996735,-0.18234845,0.511189,0.29657153,-0.17261538,0.528737,0.32317145,-0.2231552,0.513286,0.31521169,-0.19828553,0.503498,0.32928291,-0.19343622,0.527993,0.34415837,-0.20508035,0.539223,0.34749157,-0.22521933,0.520755,0.33906915,-0.19970922,0.507952,0.33488222,-0.18579253,0.501402,0.35575967,-0.20137269,0.514758,0.3790726,-0.23263863,0.529798,0.3643915,-0.21308671,0.517064,0.37241796,-0.2122234,0.531918,0.39569144,-0.22510918,0.545807
0.35385173,-0.30583186,0.516608,0.33551405,-0.26554096,0.517351,0.32390247,-0.29418109,0.508901,0.27705661,-0.27000901,0.491365,0.24865184,-0.24709407,0.468974,0.22963283,-0.2282096,0.457645,0.29528578,-0.22420443,0.50855,0.28330428,-0.19260904,0.496282,0.29088813,-0.18436605,0.515297,0.29734371,-0.17477728,0.532583,0.32374128,-0.22477743,0.518174,0.31735206,-0.19977771,0.509999,0.33152889,-0.19423659,0.534225,0.33779167,-0.19810299,0.544785,0.34832976,-0.22764709,0.52604,0.34075866,-0.20111611,0.51456,0.33716097,-0.18681642,0.508686,0.35911808,-0.20330822,0.522189,0.37994412,-0.23598065,0.535361,0.36339138,-0.21451344,0.523899,0.37703352,-0.21708304,0.538679,0.39948685,-0.2284027,0.552182
0.35514952,-0.30948605,0.521605,0.33827077,-0.26956337,0.521973,0.32486862,-0.29692099,0.51382,0.28336317,-0.27395795,0.496076,0.25206536,-0.25114076,0.47467,0.23266189,-0.23263025,0.464015,0.29592458,-0.2287289,0.512796,0.28446238,-0.19436928,0.500199,0.29121527,-0.18537774,0.519223,0.29859983,-0.17575028,0.536518,0.32434547,-0.22944456,0.522381,0.32005804,-0.2025162,0.5138,0.33492003,-0.19676948,0.538034,0.34349297,-0.20064301,0.548745,0.3488877,-0.23244337,0.53024,0.34336796,-0.20383755,0.518387,0.33940948,-0.18932572,0.512323,0.35933648,-0.2037882,0.525737,0.38045865,-0.24092935,0.539602,0.37407997,-0.2298305,0.527797,0.38706261,-0.23271986,0.544683,0.40311146,-0.24111411,0.555385
0.3577784,-0.31504051,0.529282,0.34212511,-0.27951,0.529733,0.32755186,-0.30159611,0.52076,0.28762246,-0.281839,0.502226,0.25619403,-0.25878544,0.481517,0.23565252,-0.23911997,0.472121,0.30028744,-0.23700408,0.519723,0.28823394,-0.20007015,0.50676,0.29619081,-0.18975055,0.525313,0.3031096,-0.17823076,0.542179,0.32898149,-0.24147635,0.530233,0.32646956,-0.2107107,0.521744,0.34312104,-0.20421236,0.545416,0.35292825,-0.20891918,0.555916,0.35383793,-0.24548914,0.538848,0.34964326,-0.21249566,0.526762,0.34772573,-0.19685769,0.520579,0.36480109,-0.20968521,0.533531,0.38571798,-0.25516717,0.549103,0.38083035,-0.23702371,0.537195,0.39354814,-0.2392253,0.553069,0.41067589,-0.24796306,0.564792
0.35926895,-0.31744843,0.531933,0.34620802,-0.28392787,0.535435,0.32914493,-0.30404462,0.52333,0.28602989,-0.28859398,0.506427,0.25720488,-0.26231681,0.483545,0.23590745,-0.24082038,0.47049,0.30562845,-0.24480265,0.527617,0.29637588,-0.20874454,0.516983,0.30486262,-0.19832382,0.534843,0.31237428,-0.18679866,0.55108,0.33533244,-0.24749066,0.53932,0.33611218,-0.21720782,0.534206,0.35382069,-0.20843232,0.556968,0.36391329,-0.20065758,0.566627,0.36081303,-0.25198629,0.548707,0.36230258,-0.22460694,0.539418,0.3631474,-0.20841575,0.534666,0.37619806,-0.20126252,0.547762,0.39350573,-0.26398107,0.559481,0.38968584,-0.24335514,0.550275,0.40190366,-0.24155468,0.565557,0.42277035,-0.25374933,0.576494
0.3674431,-0.33328901,0.542722,0.35782182,-0.29549873,0.534533,0.35003999,-0.33164393,0.539788,0.30789092,-0.30891755,0.526163,0.27417478,-0.28551229,0.505729,0.25680802,-0.26538242,0.491871,0.31582071,-0.25015028,0.524839,0.29826235,-0.2020331,0.509249,0.29081699,-0.18427353,0.504478,0.28469616,-0.17098225,0.500139,0.33920954,-0.24607786,0.525481,0.31966767,-0.19401398,0.50868,0.30975526,-0.17731989,0.498879,0.31425722,-0.1712824,0.510948,0.35963591,-0.24573969,0.526574,0.34512822,-0.19349125,0.509945,0.33822184,-0.18317703,0.501437,0.34607419,-0.18084006,0.514814,0.38653557,-0.25123691,0.528981,0.36958603,-0.20361256,0.513262,0.36306976,-0.18877231,0.50604,0.37171641,-0.19871445,0.516389
0.35483164,-0.35645826,0.534049,0.35060163,-0.31259895,0.532273,0.33237188,-0.34221887,0.531623,0.29883794,-0.3111224,0.519384,0.27129769,-0.28334028,0.504356,0.25674762,-0.26475423,0.502969,0.32120203,-0.26476935,0.527995,0.30470545,-0.21895416,0.517914,0.2967968,-0.19654776,0.512873,0.28970566,-0.1755522,0.508291,0.34607083,-0.26615392,0.530309,0.33289976,-0.21624615,0.519998,0.326657,-0.19072305,0.513983,0.33447367,-0.18117377,0.528043,0.3668514,-0.2701289,0.532336,0.35418367,-0.22038035,0.521996,0.34985286,-0.20027504,0.516705,0.3604291,-0.19197019,0.532242,0.39247621,-0.28046939,0.535,0.37894567,-0.23431225,0.523889,0.37554641,-0.21983693,0.518784,0.38314963,-0.20874247,0.530557
0.36828712,-0.34809333,0.539106,0.3591358,-0.29896767,0.535839,0.3442708,-0.33671682,0.536617,0.30826504,-0.30953316,0.524068,0.27448456,-0.28561783,0.505056,0.25729652,-0.26662283,0.498659,0.31999162,-0.25904019,0.53038,0.30264268,-0.2127293,0.519299,0.29408389,-0.1900184,0.513758,0.28934143,-0.17619427,0.508721,0.34426954,-0.25554458,0.532248,0.32815861,-0.20524022,0.520437,0.32050572,-0.18277255,0.513548,0.32534256,-0.17437701,0.527179,0.36520678,-0.25554118,0.534011,0.35384057,-0.20603122,0.522594,0.34989721,-0.19232345,0.516752,0.36021103,-0.18913707,0.531943,0.39223438,-0.26113323,0.536561,0.37931224,-0.21532281,0.525347,0.37681545,-0.20818014,0.520195,0.38494015,-0.20886265,0.531941
0.36985896,-0.34858571,0.540031,0.35926737,-0.30350617,0.536543,0.34512534,-0.33703401,0.536674,0.3087209,-0.31199213,0.523036,0.27434663,-0.28619999,0.504566,0.25718928,-0.26827552,0.496854,0.31904724,-0.26004341,0.529863,0.30191033,-0.214542,0.518455,0.29481658,-0.1913023,0.512751,0.28876212,-0.17702864,0.507565,0.34393639,-0.25716803,0.53271,0.328063,-0.2067106,0.520688,0.32096763,-0.18416457,0.513675,0.32951457,-0.17595567,0.527168,0.3654076,-0.25768371,0.535295,0.35413775,-0.20806844,0.523759,0.35071068,-0.19643753,0.517858,0.36133912,-0.18967485,0.532924,0.39311374,-0.26392539,0.538856,0.38039304,-0.21799741,0.527616,0.37846878,-0.21158182,0.522451,0.38812022,-0.21330902,0.534123
0.36657982,-0.34610303,0.536612,0.35858787,-0.30180291,0.536711,0.34344526,-0.33556037,0.535131,0.30713574,-0.31107542,0.528114,0.27507344,-0.28724934,0.507863,0.25780532,-0.26858174,0.497414,0.32314767,-0.26162088,0.53498,0.30787208,-0.21696954,0.527339,0.30060036,-0.19373418,0.523518,0.29427086,-0.17754148,0.520045,0.34750527,-0.25891021,0.536818,0.33668583,-0.20901979,0.52906,0.33417615,-0.18105033,0.524534,0.33046713,-0.17000691,0.52433,0.36827994,-0.25948026,0.538324,0.35978317,-0.21093492,0.53069,0.35756231,-0.18612376,0.526784,0.3656399,-0.18044284,0.543166,0.39458439,-0.26562824,0.540111,0.38567445,-0.22381189,0.532884,0.38307697,-0.20905206,0.529563,0.39314467,-0.21730578,0.542404
0.36830952,-0.34882746,0.540101,0.35880803,-0.30798251,0.539234,0.34564793,-0.33840729,0.539162,0.30701489,-0.31575733,0.530795,0.27592244,-0.29143675,0.511276,0.25883708,-0.27042864,0.499336,0.32788351,-0.26346047,0.53745,0.31249748,-0.22431769,0.529031,0.30460742,-0.20283206,0.524821,0.29665235,-0.18256398,0.520994,0.3497168,-0.26139331,0.538288,0.33973325,-0.21212842,0.529353,0.33232043,-0.18621022,0.524142,0.32627583,-0.16975938,0.520419,0.3697088,-0.26210054,0.539037,0.36128569,-0.21630881,0.530217,0.35598393,-0.19343027,0.525704,0.3643542,-0.18451266,0.541773,0.39591928,-0.26968747,0.540051,0.38923104,-0.22774164,0.534004,0.38463055,-0.21003751,0.531226,0.39181654,-0.21334132,0.544416
0.36446036,-0.34614887,0.534122,0.35717379,-0.31179957,0.536788,0.34182466,-0.33542803,0.532671,0.30892027,-0.31515238,0.523288,0.27677924,-0.28925521,0.50697,0.25948647,-0.2705973,0.499274,0.32879016,-0.27014064,0.536983,0.31502198,-0.22623528,0.531553,0.30807103,-0.20436205,0.528838,0.30097129,-0.18484253,0.52637,0.3538573,-0.27035497,0.539689,0.34463525,-0.22199663,0.534466,0.34114645,-0.19411211,0.531419,0.33350788,-0.173118,0.529242,0.37488872,-0.27327949,0.541728,0.37006839,-0.22382122,0.536805,0.36682927,-0.19970364,0.534287,0.35990608,-0.18104234,0.531997,0.40261468,-0.2793162,0.543803,0.39883082,-0.23816273,0.542968,0.39517974,-0.21726881,0.542584,0.39198308,-0.20900514,0.542246
0.36537314,-0.34774068,0.535209,0.35879392,-0.31271399,0.537839,0.34296805,-0.33712222,0.534058,0.30966795,-0.31630687,0.52422,0.27789214,-0.2905481,0.508351,0.26056536,-0.27135987,0.500415,0.33033533,-0.2711205,0.538364,0.31641048,-0.22728489,0.533024,0.30963014,-0.20551127,0.530353,0.30254978,-0.18567092,0.527926,0.35506573,-0.27068848,0.54069,0.34610816,-0.22233014,0.535481,0.34180317,-0.19448578,0.532442,0.33500263,-0.17369373,0.530271,0.37588697,-0.27309004,0.542418,0.37051374,-0.22409057,0.537451,0.36725701,-0.1999365,0.53491,0.36089913,-0.18266037,0.5326,0.40285234,-0.27948108,0.544124,0.39830049,-0.23784604,0.542246,0.39495476,-0.21758133,0.541384,0.39164156,-0.20780275,0.540623
0.36561117,-0.35137205,0.537882,0.35958335,-0.31245025,0.539493,0.34345792,-0.34016968,0.536628,0.30776009,-0.31649203,0.531084,0.27828337,-0.29179019,0.511824,0.26146716,-0.2717844,0.501228,0.33074006,-0.26988319,0.539138,0.31666465,-0.2268214,0.532789,0.30951516,-0.20509575,0.529614,0.30199672,-0.18565315,0.526728,0.35512829,-0.26943543,0.54123,0.34630989,-0.22169858,0.534869,0.34110294,-0.19398305,0.531158,0.33439095,-0.17338711,0.528507,0.37614921,-0.27319765,0.542838,0.37069977,-0.22431528,0.537479,0.36758266,-0.20009078,0.534737,0.36129926,-0.18335908,0.532245,0.40174516,-0.28199388,0.544537,0.3996563,-0.23943712,0.543486,0.39836689,-0.22080238,0.543003,0.39584825,-0.2082583,0.542577
0.36437889,-0.35369858,0.539494,0.35689221,-0.31356407,0.540494,0.34267762,-0.34202908,0.53838,0.30726642,-0.31669259,0.530668,0.27735545,-0.29088299,0.510272,0.2610753,-0.27107987,0.500338,0.33008588,-0.26802519,0.539862,0.31693802,-0.22665313,0.533003,0.31061292,-0.20522453,0.529574,0.3020789,-0.1845737,0.526456,0.3548107,-0.26952091,0.541571,0.34565541,-0.22052338,0.534539,0.34078169,-0.19358724,0.530436,0.33433726,-0.17313222,0.527506,0.3754148,-0.27310429,0.542906,0.36757699,-0.22333043,0.536102,0.3673709,-0.20007002,0.535066,0.36459499,-0.17766538,0.534124,0.399153,-0.28365209,0.544363,0.39194093,-0.23725707,0.537278,0.38662502,-0.2178681,0.534023,0.38406922,-0.20670554,0.531151
0.36351085,-0.35420786,0.539862,0.35651418,-0.31398973,0.540962,0.34204827,-0.34242969,0.538882,0.30611821,-0.31592242,0.528968,0.27687812,-0.29052123,0.50934,0.26122909,-0.27087096,0.500304,0.3301045,-0.26857125,0.540568,0.3185159,-0.22723346,0.534014,0.3126023,-0.20525554,0.530738,0.30837377,-0.18401505,0.527759,0.35485329,-0.2698507,0.542147,0.34795003,-0.22129126,0.535335,0.3423111,-0.19367846,0.531362,0.33794635,-0.17391217,0.528523,0.37526708,-0.27341868,0.543368,0.36961107,-0.22423392,0.536748,0.36665017,-0.19959473,0.533361,0.36451254,-0.17687286,0.530282,0.39889879,-0.28387214,0.544676,0.39920394,-0.23973945,0.542543,0.40011253,-0.22252376,0.541563,0.39573556,-0.20838343,0.540699
