sluyters/QuantumLeap/src/datasets/gesture/HandGestureDataset_SHREC2017_csv/Gesture3/finger_2/subject_21_essai_1_skeletons_world.csv
Wrist_x,Wrist_y,Wrist_z,Palm_x,Palm_y,Palm_z,thumb_base_x,thumb_base_y,thumb_base_z,thumb_first_joint_x,thumb_first_joint_y,thumb_first_joint_z,thumb_second_joint_x,thumb_second_joint_y,thumb_second_joint_z,thumb_tip_x,thumb_tip_y,thumb_tip_z,index_base_x,index_base_y,index_base_z,index_first_joint_x,index_first_joint_y,index_first_joint_z,index_second_joint_x,index_second_joint_y,index_second_joint_z,index_tip_x,index_tip_y,index_tip_z,middle_base_x,middle_base_y,middle_base_z,middle_first_joint_x,middle_first_joint_y,middle_first_joint_z,middle_second_joint_x,middle_second_joint_y,middle_second_joint_z,middle_tip_x,middle_tip_y,middle_tip_z,ring_base_x,ring_base_y,ring_base_z,ring_first_joint_x,ring_first_joint_y,ring_first_joint_z,ring_second_joint_x,ring_second_joint_y,ring_second_joint_z,ring_tip_x,ring_tip_y,ring_tip_z,pinky_base_x,pinky_base_y,pinky_base_z,pinky_first_joint_x,pinky_first_joint_y,pinky_first_joint_z,pinky_second_joint_x,pinky_second_joint_y,pinky_second_joint_z,pinky_tip_x,pinky_tip_y,pinky_tip_z,r
0.451460307,-0.373128635,0.53853,0.439216664,-0.331644716,0.531422,0.432772527,-0.36045061,0.539483,0.427226159,-0.343598664,0.540817,0.399904216,-0.312181827,0.526138,0.392553313,-0.291686374,0.528021,0.406239954,-0.276462054,0.527836,0.383138088,-0.247004444,0.51333,0.37070478,-0.252348501,0.506077,0.379869569,-0.276954307,0.51896,0.423803627,-0.274233953,0.524652,0.392876177,-0.238889883,0.509065,0.37689139,-0.237745064,0.499973,0.388114196,-0.260279154,0.51292,0.439546565,-0.274574501,0.522796,0.411006274,-0.234295183,0.509982,0.40134451,-0.240636452,0.503426,0.417708518,-0.262695592,0.516722,0.461299766,-0.280003915,0.521978,0.432920033,-0.239813832,0.511222,0.423487947,-0.240271599,0.50628,0.416733102,-0.243878017,0.50192
0.454256948,-0.380622292,0.541587,0.434899251,-0.331894583,0.52529,0.431416558,-0.361936882,0.53832,0.420680199,-0.346052359,0.528876,0.390629184,-0.312947044,0.510129,0.380456124,-0.29405617,0.508873,0.392638743,-0.275077819,0.509969,0.371760795,-0.235914577,0.486142,0.359201229,-0.236602183,0.474229,0.364511334,-0.258653371,0.483368,0.414094046,-0.275344947,0.509768,0.382346386,-0.235324616,0.483862,0.366702452,-0.231874946,0.46875,0.375863612,-0.252651795,0.477913,0.433727559,-0.278289825,0.51136,0.400930677,-0.236989604,0.488735,0.392759787,-0.243686687,0.477159,0.40683606,-0.265869748,0.486499,0.46134141,-0.28774176,0.516271,0.429101218,-0.243757252,0.497824,0.421147025,-0.244504895,0.489349,0.41555524,-0.248320533,0.481871
0.454701411,-0.383571433,0.542423,0.430380524,-0.336032989,0.520128,0.430058586,-0.365677226,0.537167,0.419150311,-0.34633379,0.527227,0.386034156,-0.310675188,0.505592,0.371870719,-0.288777255,0.499164,0.384835198,-0.269567223,0.498145,0.360099036,-0.22782407,0.46892,0.345180366,-0.226571585,0.454307,0.347926712,-0.246319946,0.460536,0.406602103,-0.270758695,0.498895,0.37026386,-0.227420065,0.466736,0.351428883,-0.221542342,0.447976,0.357684445,-0.239991988,0.454129,0.427085329,-0.274815939,0.501916,0.390134024,-0.230476686,0.473607,0.378998502,-0.235078097,0.459123,0.389987644,-0.255219136,0.465428,0.456756884,-0.286241894,0.509612,0.418375748,-0.245900421,0.483828,0.409042774,-0.249259839,0.471981,0.402312671,-0.254730464,0.461528
0.451127998,-0.38224809,0.538515,0.427088417,-0.333826905,0.51612,0.427765679,-0.365071038,0.53474,0.417996036,-0.346453937,0.526776,0.385742544,-0.311720763,0.506832,0.372061435,-0.289580176,0.500313,0.383814172,-0.268246831,0.495996,0.358346113,-0.226501218,0.466327,0.342567077,-0.225239423,0.451493,0.344783708,-0.244847479,0.45754,0.404811281,-0.269596332,0.494791,0.367289313,-0.22526257,0.462862,0.347599348,-0.219201843,0.444237,0.353178186,-0.237564892,0.450403,0.42376833,-0.273513774,0.496212,0.387231535,-0.229413693,0.468679,0.375013244,-0.234556516,0.454592,0.385642208,-0.253990923,0.461082,0.45150665,-0.28486812,0.502071,0.411781687,-0.24330029,0.476847,0.401801532,-0.247325195,0.465257,0.394545364,-0.253303338,0.455031
0.448789043,-0.38156779,0.536145,0.423596107,-0.331493387,0.512413,0.424806031,-0.36376256,0.531676,0.41390234,-0.344878492,0.522765,0.381068556,-0.310110971,0.502846,0.368561749,-0.287586077,0.496219,0.379175881,-0.264992732,0.490478,0.352851326,-0.223029718,0.459714,0.336129291,-0.221764011,0.444332,0.338410272,-0.24082827,0.449704,0.39962781,-0.266363446,0.489811,0.361685402,-0.22287494,0.456463,0.340663081,-0.217247844,0.437009,0.346455829,-0.234956556,0.44244,0.419097918,-0.270661759,0.49182,0.381364249,-0.226747617,0.462901,0.368594768,-0.232206973,0.448106,0.379434302,-0.25128429,0.453827,0.447885666,-0.282473234,0.498612,0.406954488,-0.241325595,0.47226,0.396535039,-0.245771472,0.460153,0.389875919,-0.250666813,0.44947
0.445730551,-0.376393499,0.532334,0.419034235,-0.325029245,0.507648,0.423006936,-0.357896605,0.529177,0.411480309,-0.342400929,0.520096,0.378098424,-0.30868551,0.500218,0.362515581,-0.286199481,0.491885,0.372024122,-0.258220357,0.486774,0.341222447,-0.220344331,0.454894,0.324090781,-0.221098249,0.438953,0.330596891,-0.238625418,0.443591,0.390921125,-0.25741802,0.484138,0.358943494,-0.20786632,0.457922,0.34138502,-0.208259739,0.442629,0.350253763,-0.228747248,0.451405,0.409241863,-0.259876239,0.484628,0.374157255,-0.220475529,0.455813,0.361963001,-0.228655414,0.441071,0.371246198,-0.248234782,0.446419,0.436887345,-0.269447525,0.489836,0.396469424,-0.236207535,0.4635,0.388655762,-0.243068159,0.4514,0.380897089,-0.249243885,0.440723
0.448639771,-0.380629068,0.535922,0.42251821,-0.321124302,0.511633,0.427313111,-0.361670515,0.534476,0.408291212,-0.337821538,0.52589,0.380391234,-0.312384049,0.506735,0.366055168,-0.289367921,0.498084,0.382119747,-0.252602518,0.493258,0.344892158,-0.224657323,0.462752,0.321183923,-0.220468172,0.447499,0.318952932,-0.238630005,0.452382,0.397119708,-0.252725966,0.488501,0.354686637,-0.216425675,0.455467,0.332992611,-0.227478722,0.436198,0.340616961,-0.243116026,0.441147,0.411810597,-0.258619662,0.487201,0.37535271,-0.229180501,0.459766,0.35770872,-0.240721739,0.445729,0.369184151,-0.253640817,0.451334,0.436544056,-0.268253315,0.490258,0.384005999,-0.268586588,0.465003,0.37189426,-0.272363144,0.4534,0.372568996,-0.283245764,0.456821
0.446978056,-0.379680913,0.533619,0.420870754,-0.318723111,0.509249,0.425300636,-0.360544628,0.531945,0.407565873,-0.33638871,0.523474,0.378618324,-0.310584263,0.504278,0.363271035,-0.288007168,0.495549,0.380055337,-0.251345484,0.490522,0.342132884,-0.224209231,0.459993,0.319276102,-0.220739309,0.444728,0.31725905,-0.239113116,0.449625,0.395391786,-0.251713974,0.486039,0.352837916,-0.216329646,0.452859,0.331322485,-0.227605405,0.433505,0.339008429,-0.242934379,0.438435,0.410368676,-0.256812063,0.484974,0.375005761,-0.224960041,0.457331,0.356717562,-0.238170815,0.443188,0.366241473,-0.252464435,0.44875,0.435061471,-0.267032877,0.488318,0.383096472,-0.26878426,0.462898,0.370890125,-0.272072287,0.451219,0.37154015,-0.282587388,0.45461
0.444594177,-0.374110035,0.529586,0.416539179,-0.311393899,0.502625,0.424054664,-0.353132042,0.528113,0.40423292,-0.332385135,0.518087,0.374584797,-0.307080935,0.499938,0.358477534,-0.285338835,0.490508,0.37647232,-0.2429791,0.482401,0.333138223,-0.225210722,0.450188,0.310721183,-0.225023944,0.434081,0.309079213,-0.243261667,0.437427,0.391042053,-0.243916215,0.476948,0.344904076,-0.213191419,0.441524,0.322455403,-0.223658618,0.420859,0.328427629,-0.236068055,0.424128,0.406030072,-0.247956643,0.475364,0.368529918,-0.223208582,0.446073,0.348467922,-0.232348657,0.431087,0.353676588,-0.246742739,0.435098,0.430027287,-0.259876899,0.478592,0.375634191,-0.264066575,0.451802,0.362361356,-0.266592598,0.439493,0.361425382,-0.275163159,0.441699
0.442840525,-0.369856123,0.527356,0.413938641,-0.308589776,0.498867,0.422045569,-0.348219313,0.525963,0.402403951,-0.329961798,0.514741,0.372503666,-0.306341598,0.496705,0.355700626,-0.28420727,0.486257,0.373798415,-0.240607389,0.477709,0.329614784,-0.22343351,0.444627,0.306641038,-0.22333987,0.428086,0.303992862,-0.240755979,0.430461,0.38775841,-0.242136951,0.471735,0.340690998,-0.211893242,0.435022,0.317539927,-0.222916342,0.413606,0.32265114,-0.233973391,0.415811,0.402308691,-0.246734918,0.469887,0.364885719,-0.225647472,0.439642,0.343570422,-0.233159806,0.424168,0.347318442,-0.2441462,0.427175,0.425897117,-0.259459236,0.473096,0.371217252,-0.26335196,0.445524,0.356920005,-0.264991884,0.432855,0.35575907,-0.272195599,0.4343
0.435304067,-0.362189424,0.518037,0.412605638,-0.303804564,0.493259,0.417733133,-0.340694435,0.518798,0.399811057,-0.326729475,0.509322,0.370560581,-0.306417373,0.49214,0.355501913,-0.285668723,0.484757,0.376833083,-0.240840763,0.477426,0.336832605,-0.233036659,0.449083,0.315120821,-0.237047355,0.434911,0.314854521,-0.255840071,0.439581,0.389535751,-0.242522574,0.469661,0.344276187,-0.212966923,0.436977,0.321095674,-0.221112668,0.417911,0.325790818,-0.239391599,0.422101,0.402566745,-0.247006326,0.465936,0.362324307,-0.22625304,0.439699,0.344501934,-0.238600757,0.426276,0.354342252,-0.257723605,0.43139,0.423491546,-0.25917247,0.466271,0.370798983,-0.265168689,0.441958,0.357315409,-0.266654977,0.430788,0.356779983,-0.273700883,0.433825
0.429660517,-0.354568048,0.510599,0.405564219,-0.298402953,0.482819,0.411700327,-0.334669787,0.510615,0.395752791,-0.323483124,0.500061,0.36737903,-0.304853921,0.483229,0.351847975,-0.285224067,0.473819,0.370520292,-0.236781889,0.463978,0.328062793,-0.230772576,0.432931,0.305977796,-0.235058814,0.417408,0.302466745,-0.248108125,0.420214,0.383944593,-0.239921614,0.456362,0.337336336,-0.210318422,0.420794,0.311936195,-0.219980541,0.400045,0.314644806,-0.236163401,0.402389,0.395880617,-0.243245746,0.453084,0.352253033,-0.22702595,0.424317,0.336014769,-0.238280255,0.409599,0.343524506,-0.255019855,0.412883,0.419675647,-0.259392975,0.454501,0.36581002,-0.265615496,0.428123,0.367281636,-0.275104789,0.438103,0.373011289,-0.287520626,0.451256
0.429975331,-0.354157145,0.510652,0.406173423,-0.298857234,0.482891,0.412286897,-0.334471709,0.510887,0.396912394,-0.32397473,0.500652,0.369603488,-0.305712765,0.484283,0.354515762,-0.286140248,0.475007,0.371070845,-0.237341331,0.464347,0.328516563,-0.230881206,0.432462,0.306339294,-0.234921442,0.41652,0.304078395,-0.251394396,0.418995,0.383240913,-0.238888628,0.456451,0.338021916,-0.21200822,0.420989,0.312486181,-0.221108202,0.400302,0.314254427,-0.237849395,0.402592,0.397971542,-0.245769592,0.452941,0.353411212,-0.225483547,0.424349,0.336221795,-0.235824776,0.40972,0.341107877,-0.251545681,0.412975,0.419729296,-0.259212484,0.454085,0.366446659,-0.265563229,0.42785,0.369096092,-0.277884983,0.437757,0.375245177,-0.289375025,0.450832
0.423151766,-0.348688105,0.502467,0.399935778,-0.294998002,0.475547,0.406011302,-0.327367265,0.50125,0.372119561,-0.31203672,0.48454,0.344746413,-0.293750243,0.469527,0.329224783,-0.275267985,0.45813,0.353158237,-0.229777164,0.455683,0.317629387,-0.238019641,0.427499,0.299904231,-0.242074711,0.413406,0.300943406,-0.261327106,0.417892,0.369471833,-0.229599137,0.449909,0.329828712,-0.207661468,0.414609,0.307483098,-0.21836139,0.394018,0.31011286,-0.235706382,0.397265,0.38567578,-0.232661663,0.448055,0.346309412,-0.206152035,0.418968,0.330477347,-0.214266866,0.404087,0.333017163,-0.234451944,0.408104,0.410896292,-0.243236236,0.450964,0.368440083,-0.225429242,0.424335,0.359780896,-0.237169444,0.412101,0.369005132,-0.246155001,0.41431
0.422484616,-0.348274153,0.501585,0.397784653,-0.294259862,0.474895,0.404634469,-0.32777128,0.500435,0.3710281,-0.310010419,0.482545,0.34473264,-0.291561583,0.468448,0.330780608,-0.273687024,0.458817,0.352887192,-0.229559565,0.455276,0.31749413,-0.23793952,0.427295,0.299831993,-0.242074006,0.413305,0.300966461,-0.261443638,0.417929,0.369201362,-0.229371072,0.449476,0.328846238,-0.207693358,0.414401,0.307397706,-0.218697946,0.393941,0.310194221,-0.236281529,0.397328,0.385385182,-0.232414222,0.447577,0.346172008,-0.205992165,0.418691,0.33041822,-0.214185137,0.403913,0.333072182,-0.234482942,0.408069,0.410540865,-0.242945015,0.450389,0.368550106,-0.22285756,0.423924,0.359444444,-0.234661176,0.411765,0.36848847,-0.244568298,0.414081
0.414903854,-0.341474258,0.492656,0.386439699,-0.287912719,0.463722,0.395687902,-0.321831513,0.490375,0.359707191,-0.309974224,0.470598,0.330822403,-0.296143254,0.450385,0.3152595,-0.281412218,0.439578,0.34039338,-0.226817237,0.441104,0.303687368,-0.208040458,0.405345,0.285322083,-0.198651311,0.387465,0.280971474,-0.214449743,0.389094,0.358009807,-0.225024269,0.436165,0.318105556,-0.201571272,0.39876,0.293845595,-0.203029811,0.376941,0.29352434,-0.22096965,0.379006,0.374814371,-0.228651822,0.435217,0.332215043,-0.210745741,0.404067,0.310348871,-0.200172684,0.38813,0.310225462,-0.216793334,0.390912,0.400855053,-0.238980016,0.439555,0.356129137,-0.218963236,0.411259,0.333908863,-0.20869297,0.398258,0.321539173,-0.214271972,0.386786
0.413345491,-0.3398456,0.490267,0.38425685,-0.28727085,0.461205,0.392316151,-0.321671112,0.487664,0.357848566,-0.309001409,0.467407,0.328302831,-0.293338754,0.446794,0.31401565,-0.279130124,0.43691,0.337310673,-0.226948931,0.438083,0.3023447,-0.206902419,0.40206,0.284852158,-0.196877138,0.384048,0.281485838,-0.212433453,0.385621,0.355081016,-0.227014698,0.433527,0.314694649,-0.200031848,0.395906,0.291617387,-0.200055033,0.373961,0.292832311,-0.217969631,0.37599,0.372593885,-0.230298757,0.432907,0.331317268,-0.208851729,0.401458,0.310109883,-0.197849275,0.385368,0.310680746,-0.213478204,0.38808,0.399251508,-0.238536629,0.437651,0.355222751,-0.21648059,0.409116,0.33408755,-0.20724764,0.396006,0.321535442,-0.211140037,0.384438
0.416546919,-0.342064728,0.493107,0.389223023,-0.29040131,0.465724,0.391437743,-0.325247925,0.487604,0.355796401,-0.307731715,0.463479,0.324431023,-0.29107577,0.441931,0.305974592,-0.273723031,0.428051,0.34235103,-0.226636958,0.439964,0.316777588,-0.216022024,0.40591,0.302561581,-0.210551696,0.388883,0.306952943,-0.229094895,0.392111,0.36843305,-0.229199093,0.439645,0.337072402,-0.197641159,0.402622,0.319707917,-0.207470718,0.381026,0.322380637,-0.222826943,0.384288,0.387651895,-0.230574074,0.442335,0.354416002,-0.208369993,0.410064,0.337972937,-0.198654878,0.393554,0.342662542,-0.208936004,0.397089,0.418139604,-0.241277271,0.450603,0.381316825,-0.222254536,0.42163,0.364271227,-0.213469498,0.408318,0.34959273,-0.206594897,0.396572
0.415458112,-0.341546846,0.491182,0.388146967,-0.289434094,0.463574,0.390442427,-0.324741335,0.485558,0.357249469,-0.310495587,0.461241,0.324686558,-0.292192732,0.441901,0.306802133,-0.275652366,0.429946,0.339659266,-0.226677896,0.437504,0.313533947,-0.21325167,0.40326,0.297669973,-0.204000304,0.386139,0.303310957,-0.224559418,0.389231,0.361603983,-0.226162465,0.437281,0.333831535,-0.205420217,0.400109,0.316801572,-0.216556046,0.378425,0.319483786,-0.229555793,0.381568,0.381996269,-0.229232472,0.440072,0.351650066,-0.2083344,0.407537,0.335114614,-0.198926358,0.39089,0.339748923,-0.209488434,0.394264,0.415770722,-0.240489523,0.448502,0.378814877,-0.222140115,0.419348,0.362110558,-0.214460536,0.405952,0.348012599,-0.20904479,0.394133
0.413618518,-0.340495258,0.488289,0.386444267,-0.288253669,0.46118,0.388569637,-0.323709645,0.482947,0.354727834,-0.308419565,0.459078,0.321880148,-0.29035097,0.438033,0.304152787,-0.274068327,0.426806,0.338482245,-0.226005052,0.435816,0.310044998,-0.205539339,0.402012,0.2955354,-0.194870128,0.385109,0.299881644,-0.211065975,0.388507,0.359868344,-0.226764002,0.435362,0.33258692,-0.207219499,0.398704,0.315920747,-0.21846033,0.37732,0.318779617,-0.231689464,0.380777,0.380357661,-0.228334969,0.437909,0.348822504,-0.204385544,0.405736,0.329929203,-0.19048691,0.389275,0.334067167,-0.198308679,0.392934,0.410297257,-0.239725614,0.445962,0.376559859,-0.221160889,0.417216,0.360313487,-0.213893428,0.404009,0.346712678,-0.208995455,0.392356
0.408615347,-0.33772984,0.482529,0.382690831,-0.285926861,0.456648,0.383780704,-0.320709076,0.477131,0.344903394,-0.312658457,0.453371,0.310150428,-0.298682893,0.432184,0.288284323,-0.282365919,0.418518,0.335611135,-0.224189695,0.432045,0.310646773,-0.203252082,0.399655,0.301677422,-0.190745271,0.383461,0.30202838,-0.208698074,0.387702,0.35720011,-0.22503515,0.432,0.330902456,-0.19487208,0.396354,0.313772967,-0.17761002,0.375561,0.318786111,-0.191375586,0.379718,0.376852811,-0.228049729,0.434752,0.34698945,-0.204186791,0.403428,0.330682332,-0.191957099,0.387402,0.335940132,-0.201004284,0.391744,0.407535796,-0.238208653,0.442811,0.374489077,-0.220418932,0.414766,0.358707324,-0.213185973,0.401881,0.34550417,-0.208299158,0.390511
0.413658598,-0.342395135,0.487898,0.382222703,-0.285287964,0.45566,0.386093482,-0.322719293,0.479468,0.347806606,-0.306181612,0.450997,0.311403093,-0.285448758,0.423503,0.286141064,-0.267854567,0.407117,0.328427082,-0.220154186,0.422791,0.300524455,-0.196302707,0.385769,0.288478934,-0.183738053,0.367258,0.291421108,-0.196915474,0.367462,0.352180724,-0.220676221,0.424957,0.315853156,-0.171469876,0.383681,0.29926208,-0.157692864,0.359602,0.304283067,-0.168565824,0.359565,0.373893037,-0.224245434,0.430216,0.341808201,-0.198184754,0.392802,0.328709285,-0.184035058,0.37366,0.329957122,-0.180935155,0.373489,0.408960494,-0.235981769,0.44238,0.37349969,-0.21643181,0.409551,0.362502485,-0.210009885,0.394467,0.358017559,-0.215180201,0.381158
0.413391967,-0.342916239,0.486952,0.381304173,-0.284664312,0.454142,0.384948056,-0.322105086,0.477589,0.345359469,-0.305849543,0.447919,0.308153525,-0.289176279,0.41995,0.281384465,-0.270593681,0.402422,0.327188916,-0.219082605,0.41967,0.298113783,-0.198122025,0.381895,0.28506882,-0.185208076,0.363007,0.290320091,-0.198096813,0.362572,0.350117293,-0.220218247,0.422894,0.314656706,-0.172459048,0.381291,0.297810169,-0.158942944,0.357022,0.302253698,-0.169834704,0.356481,0.373182534,-0.223863434,0.429086,0.341488857,-0.19847557,0.391039,0.328113107,-0.188558707,0.371573,0.328169933,-0.182783476,0.370795,0.40885566,-0.236563339,0.44244,0.373317414,-0.214981651,0.408989,0.357780004,-0.201683834,0.393619,0.351866923,-0.205200281,0.380058
0.407918002,-0.338620908,0.479729,0.379053125,-0.283397897,0.450767,0.380804165,-0.319567682,0.471795,0.341972311,-0.30463006,0.444294,0.30473112,-0.286630431,0.415418,0.279512149,-0.268535232,0.398919,0.329182499,-0.223798273,0.420768,0.307347125,-0.186246025,0.386524,0.296390602,-0.166944063,0.369402,0.302403254,-0.174611807,0.371882,0.351555094,-0.22143984,0.423184,0.316112099,-0.170730678,0.384779,0.300852813,-0.156709886,0.362377,0.307459513,-0.167171597,0.364572,0.373266953,-0.225231025,0.428294,0.345247465,-0.195891277,0.393483,0.33110385,-0.178044995,0.375673,0.317789265,-0.162900913,0.359482,0.40577511,-0.23625859,0.43967,0.371752661,-0.215658378,0.408829,0.356464208,-0.204297078,0.394658,0.353884159,-0.207345172,0.382155
0.406668275,-0.337828208,0.477486,0.378545108,-0.28339236,0.449415,0.379831782,-0.319649432,0.469917,0.341565639,-0.303461107,0.443002,0.301957278,-0.285611071,0.414071,0.278500901,-0.267370891,0.397874,0.329335676,-0.223985106,0.420496,0.308352642,-0.186231046,0.38693,0.29773704,-0.167055303,0.370147,0.304220585,-0.175021321,0.373194,0.351474987,-0.221650882,0.42268,0.316704986,-0.170367084,0.385131,0.301219292,-0.153051783,0.363228,0.307760024,-0.160162645,0.366021,0.373549566,-0.224744182,0.427503,0.345894928,-0.195470111,0.393475,0.332230116,-0.178179809,0.376065,0.319282997,-0.16316588,0.360238,0.405567667,-0.235566635,0.438378,0.373100176,-0.214480139,0.408185,0.358847629,-0.203469604,0.394313,0.354285221,-0.207702601,0.382073
0.40452612,-0.336393302,0.474046,0.377673625,-0.282935142,0.447497,0.378076597,-0.319114909,0.466767,0.339535414,-0.30536072,0.440453,0.295340672,-0.28643392,0.411125,0.271257824,-0.268529958,0.39594,0.329484192,-0.22453543,0.41999,0.308344281,-0.179052187,0.387748,0.29688244,-0.155813605,0.371627,0.30361831,-0.155052414,0.372219,0.352322031,-0.223623311,0.422212,0.325990679,-0.180446849,0.386362,0.310889769,-0.156074276,0.36545,0.318288353,-0.150437522,0.369251,0.373138342,-0.224737673,0.426903,0.349176766,-0.188723492,0.394255,0.337181651,-0.170300772,0.377552,0.326688412,-0.154214507,0.362367,0.404478721,-0.235027032,0.437338,0.380612717,-0.206738174,0.408154,0.37010424,-0.193511241,0.394745,0.367106336,-0.196426843,0.382913
0.403654324,-0.335885886,0.472285,0.377708983,-0.282984144,0.446715,0.377671955,-0.31935891,0.465362,0.338892511,-0.30565944,0.439666,0.294795931,-0.286576672,0.410226,0.270680659,-0.268958634,0.39532,0.330084416,-0.225215209,0.420336,0.309247649,-0.179576763,0.388884,0.298105514,-0.156455514,0.373158,0.301829485,-0.154138893,0.370026,0.352643919,-0.224025487,0.422362,0.324176451,-0.178891083,0.387417,0.30758403,-0.154708431,0.367033,0.318376945,-0.148528963,0.37142,0.373124081,-0.22491659,0.426786,0.349856955,-0.189091121,0.395023,0.3382712,-0.170851072,0.378772,0.328158824,-0.154908621,0.363998,0.403816237,-0.234714162,0.436728,0.38071716,-0.206794904,0.408266,0.370521462,-0.193729388,0.39519,0.367813871,-0.196805422,0.383651
0.402193955,-0.335022445,0.470084,0.377709882,-0.283401831,0.446279,0.376944269,-0.319387288,0.463859,0.337957201,-0.305430336,0.439379,0.293900834,-0.28607796,0.409834,0.270149557,-0.269073365,0.395996,0.332353133,-0.226957881,0.422009,0.312240164,-0.180604421,0.391981,0.30157931,-0.157620061,0.376967,0.301738446,-0.153314286,0.3696,0.354182864,-0.224818589,0.423608,0.327557214,-0.178175909,0.390308,0.311350661,-0.149890567,0.370883,0.31942067,-0.144506732,0.37628,0.373970557,-0.225754802,0.427491,0.351941373,-0.189196259,0.397298,0.340720948,-0.170790328,0.38185,0.330946343,-0.154652539,0.367807,0.403609741,-0.234703585,0.436472,0.382206588,-0.206951018,0.409362,0.372422049,-0.193964533,0.396906,0.370158113,-0.197176663,0.385915
0.400460855,-0.334117041,0.46727,0.383655186,-0.288740881,0.445936,0.37507807,-0.318284365,0.460594,0.338106129,-0.308527841,0.440012,0.293643417,-0.288553859,0.411309,0.271647226,-0.273096782,0.39976,0.342878708,-0.23031512,0.422755,0.329013365,-0.18706276,0.402375,0.322064395,-0.165622517,0.392184,0.318160442,-0.147371095,0.385858,0.366807675,-0.231741861,0.425619,0.34137794,-0.182523073,0.396305,0.326547123,-0.154479101,0.379205,0.332869558,-0.141997611,0.386637,0.388663947,-0.235723147,0.430276,0.358905007,-0.189909558,0.401944,0.346457689,-0.168868209,0.387449,0.335344476,-0.150044796,0.374272,0.41914751,-0.246360989,0.439692,0.395511406,-0.200274911,0.416837,0.388062139,-0.18631954,0.406337,0.383426461,-0.18823154,0.397071
0.400275851,-0.334184263,0.466098,0.384217105,-0.289129291,0.445773,0.375493399,-0.318806781,0.459976,0.338694581,-0.307724045,0.440831,0.294181473,-0.289488748,0.412266,0.272616954,-0.274789057,0.401394,0.343377847,-0.230526687,0.423998,0.330218069,-0.187224622,0.405016,0.32383516,-0.166279849,0.395525,0.318153066,-0.147644365,0.386897,0.366990999,-0.231712892,0.426416,0.340922898,-0.182272726,0.396595,0.325725558,-0.154139801,0.3792,0.330104751,-0.142797336,0.386443,0.388477139,-0.235434914,0.430598,0.36051142,-0.190426708,0.403277,0.34797774,-0.168916489,0.389299,0.336309218,-0.147099928,0.376592,0.418336698,-0.245654877,0.439272,0.395661429,-0.200168527,0.417514,0.388406812,-0.185963706,0.407517,0.384066923,-0.187280763,0.398696
0.401011943,-0.334235117,0.465581,0.384885788,-0.289158124,0.445765,0.376668375,-0.319292202,0.459864,0.339162759,-0.306855568,0.441051,0.294754992,-0.288704698,0.412482,0.273936363,-0.273625897,0.400217,0.344345479,-0.230555106,0.424862,0.33130966,-0.18713942,0.406211,0.324953991,-0.166049628,0.396885,0.319275764,-0.147219605,0.388407,0.367670004,-0.231530331,0.426891,0.342731999,-0.182278854,0.398783,0.328199559,-0.15422161,0.382387,0.334802073,-0.141700586,0.390474,0.388847996,-0.235047267,0.430698,0.361533355,-0.190248192,0.403918,0.349369902,-0.167366257,0.390217,0.337230783,-0.14666971,0.377761,0.418233133,-0.244967054,0.438841,0.395941089,-0.199748781,0.417527,0.388788342,-0.185479464,0.407734,0.384579571,-0.186605433,0.399093
0.400260921,-0.334497685,0.464326,0.384958497,-0.289525943,0.445831,0.376838165,-0.319880971,0.459469,0.339673458,-0.309414296,0.443509,0.296160209,-0.290684839,0.415382,0.273559672,-0.277340283,0.405278,0.346322208,-0.231196587,0.426947,0.333894439,-0.187690259,0.409131,0.327518135,-0.165592783,0.400223,0.322336003,-0.147396327,0.392125,0.369061821,-0.23207897,0.428218,0.347049903,-0.182935932,0.403957,0.334333197,-0.1534567,0.389805,0.340037905,-0.139683512,0.397167,0.389561638,-0.235436659,0.431257,0.364741673,-0.190398697,0.405812,0.352481792,-0.165872779,0.392794,0.340604904,-0.146855443,0.380959,0.417817201,-0.24504244,0.438261,0.402783182,-0.208703207,0.419358,0.395967543,-0.192236906,0.410673,0.38994607,-0.177770554,0.40301
0.399320363,-0.333189112,0.461756,0.387344729,-0.289867569,0.446462,0.376590997,-0.318909224,0.457673,0.341747683,-0.310377566,0.445734,0.297481165,-0.291999222,0.417399,0.275064565,-0.278875611,0.408067,0.349798875,-0.229004034,0.430761,0.338296583,-0.182333859,0.41576,0.332779125,-0.160538609,0.40826,0.328879724,-0.144008508,0.401441,0.372148943,-0.226432234,0.431897,0.349891469,-0.182804502,0.407082,0.336827652,-0.155133473,0.392606,0.344374768,-0.143271064,0.402221,0.392638693,-0.229044221,0.434481,0.371040224,-0.181350432,0.412713,0.360418789,-0.158141054,0.401576,0.352198291,-0.145920121,0.391451,0.420804954,-0.237516775,0.440354,0.400857134,-0.201372818,0.420451,0.394697585,-0.185840475,0.411306,0.391000271,-0.179109806,0.403237
0.400171086,-0.333132453,0.461401,0.389041757,-0.288019617,0.447153,0.377888302,-0.318973521,0.457914,0.343525787,-0.307469023,0.446405,0.298967398,-0.2876979,0.41844,0.275398614,-0.276977123,0.409952,0.350302816,-0.226252655,0.432937,0.338461489,-0.18178071,0.417069,0.332782112,-0.160408015,0.409135,0.328642205,-0.143484535,0.401922,0.372725869,-0.22607856,0.433584,0.351619741,-0.182558214,0.40984,0.339003971,-0.156314997,0.395989,0.347080789,-0.145078773,0.406072,0.392730737,-0.228322414,0.435652,0.372160151,-0.181120916,0.415152,0.362088779,-0.158070359,0.404664,0.355057524,-0.145722031,0.395129,0.420081615,-0.23624848,0.44073,0.40166282,-0.201663944,0.421627,0.395093507,-0.187045773,0.41285,0.39196718,-0.182149399,0.405105
0.400427957,-0.334102921,0.462193,0.383245945,-0.288781136,0.446474,0.378958248,-0.31993829,0.459424,0.336650132,-0.307867778,0.451405,0.294791379,-0.29150155,0.424913,0.275435994,-0.277612497,0.411761,0.350407283,-0.227950676,0.432195,0.341776762,-0.184645668,0.422207,0.334773816,-0.165179413,0.417213,0.333375887,-0.145606753,0.412673,0.371826002,-0.231917635,0.431505,0.354902622,-0.181042783,0.414643,0.346271335,-0.149825981,0.404808,0.344918913,-0.130862388,0.403937,0.390628179,-0.235804745,0.43263,0.380481358,-0.190451492,0.418895,0.375641072,-0.167977463,0.411867,0.371243647,-0.147524346,0.405479,0.416151544,-0.244407588,0.436891,0.410835647,-0.199789106,0.42634,0.409033595,-0.179120416,0.421493,0.409657804,-0.170977478,0.417216
0.400485216,-0.334150394,0.46229,0.386338619,-0.288824095,0.447997,0.379973207,-0.320074185,0.460608,0.338467163,-0.307808094,0.452482,0.295800051,-0.291374088,0.42649,0.275096424,-0.277550692,0.414397,0.35334009,-0.227730894,0.436101,0.342513184,-0.18485757,0.425029,0.337430827,-0.165085691,0.421554,0.333474435,-0.146726601,0.418395,0.373699045,-0.227913748,0.434385,0.356340348,-0.181640808,0.416571,0.346391045,-0.155071649,0.40618,0.344263289,-0.138578263,0.403882,0.391932347,-0.231586129,0.434511,0.379930793,-0.187229835,0.419564,0.376330363,-0.166089182,0.412347,0.371835047,-0.145568354,0.405786,0.416676113,-0.242845339,0.437345,0.410875335,-0.202980191,0.426098,0.410836762,-0.189000678,0.42093,0.409546959,-0.174304076,0.416371
0.40189899,-0.334752608,0.463086,0.388841363,-0.288663855,0.448993,0.380801186,-0.319613778,0.460767,0.34284837,-0.306909877,0.451474,0.297728117,-0.290292652,0.42562,0.276053945,-0.278659364,0.415523,0.354194093,-0.227244605,0.436404,0.343650904,-0.185305663,0.427457,0.338131674,-0.164941122,0.422983,0.333109905,-0.146384862,0.418916,0.375376,-0.226897688,0.435572,0.357847241,-0.181897064,0.41818,0.347699488,-0.153849175,0.408035,0.345190087,-0.136499999,0.406501,0.394153553,-0.229519442,0.436405,0.383394003,-0.185597319,0.421297,0.377509107,-0.162774412,0.413567,0.372176587,-0.144010443,0.40654,0.419688703,-0.237931868,0.440021,0.412963973,-0.201860914,0.427199,0.411761174,-0.188012805,0.421307,0.41056358,-0.180119243,0.416109
0.401268813,-0.334338568,0.463153,0.385576639,-0.286215142,0.449424,0.380752384,-0.31903359,0.461417,0.338437175,-0.307379586,0.453533,0.296817996,-0.291454723,0.428059,0.275078729,-0.278933843,0.419629,0.354582511,-0.225846021,0.437841,0.343078828,-0.183431428,0.428031,0.337280266,-0.163239868,0.423127,0.332680834,-0.145721907,0.418668,0.375325945,-0.226945254,0.436348,0.358579126,-0.182214248,0.419818,0.348028164,-0.155756841,0.410175,0.346116852,-0.137613357,0.408472,0.392819654,-0.229737059,0.436599,0.38185988,-0.185121276,0.421232,0.378037393,-0.162531944,0.414013,0.373477352,-0.143555088,0.40745,0.417567091,-0.238011957,0.439471,0.41579182,-0.202953509,0.429186,0.417859456,-0.18767926,0.42446,0.422255589,-0.17290641,0.420684
0.401319172,-0.334003211,0.463827,0.387937792,-0.28624427,0.449821,0.380801796,-0.318345259,0.462039,0.340220102,-0.307453103,0.454114,0.297172256,-0.291702695,0.429197,0.275841566,-0.279608777,0.421767,0.354761824,-0.226393517,0.437982,0.34329959,-0.183761923,0.428843,0.337574214,-0.163591255,0.424274,0.333064032,-0.145947697,0.42012,0.375373841,-0.226844166,0.436481,0.360226781,-0.181811118,0.422152,0.349676481,-0.154468762,0.413951,0.348208346,-0.13882333,0.413062,0.393589827,-0.229605932,0.436755,0.384519528,-0.185702951,0.42277,0.379916827,-0.16308902,0.415615,0.37549963,-0.143794929,0.40911,0.418486288,-0.239093047,0.439705,0.420282083,-0.2033906,0.431021,0.424101398,-0.188099575,0.42703,0.426320326,-0.173945256,0.42351
0.403952751,-0.335923282,0.467473,0.39088802,-0.28825055,0.453506,0.380019139,-0.317059156,0.461612,0.340213617,-0.307240757,0.454207,0.300058935,-0.294469086,0.433788,0.276749457,-0.280463225,0.423806,0.351935477,-0.224365234,0.434519,0.342267674,-0.183336678,0.427875,0.337425286,-0.163644369,0.424553,0.333672232,-0.146252858,0.421534,0.374309198,-0.226108416,0.435298,0.362344887,-0.182545212,0.42488,0.354767038,-0.155983014,0.419932,0.350818834,-0.138966144,0.416397,0.393300044,-0.229462922,0.436516,0.384976096,-0.185796125,0.423123,0.380765287,-0.163302992,0.41627,0.376687776,-0.143892226,0.410041,0.418025619,-0.238897515,0.439366,0.421356908,-0.203750781,0.431462,0.425313904,-0.18840406,0.427831,0.427852229,-0.174363334,0.424627
0.403490506,-0.335906736,0.468412,0.388640802,-0.288168519,0.454683,0.379836593,-0.316715307,0.4627,0.339432189,-0.305837124,0.455601,0.299598755,-0.293381813,0.435917,0.276562991,-0.279241715,0.426668,0.352995773,-0.224186839,0.436091,0.343945374,-0.184345291,0.430742,0.337574487,-0.164471483,0.428068,0.334764046,-0.146973986,0.425636,0.375271797,-0.226418553,0.436797,0.364592034,-0.182734833,0.428138,0.358723145,-0.155741697,0.423606,0.354656276,-0.137238167,0.420368,0.394135052,-0.230180037,0.437944,0.386572251,-0.186582027,0.42494,0.382816683,-0.163656479,0.418288,0.379148327,-0.143657794,0.41224,0.418124385,-0.240028874,0.440679,0.423067148,-0.205130482,0.431922,0.425773961,-0.18913922,0.427899,0.42834458,-0.175552573,0.424349
0.403672778,-0.335730764,0.469529,0.389417721,-0.287455704,0.455818,0.38047572,-0.316598703,0.464306,0.340180953,-0.306552967,0.457272,0.301730828,-0.295570604,0.43983,0.27973393,-0.28257991,0.43249,0.354444042,-0.224168157,0.437842,0.34400052,-0.18443215,0.432771,0.338468569,-0.165066476,0.430312,0.333762072,-0.147331112,0.428077,0.376170693,-0.226692952,0.438,0.366096988,-0.181767392,0.430042,0.360455181,-0.155859105,0.425399,0.356421642,-0.137296446,0.422083,0.394630286,-0.230340883,0.438697,0.387312542,-0.186722024,0.425786,0.383564117,-0.164270086,0.41918,0.380159809,-0.143850198,0.413177,0.41832323,-0.239359342,0.440883,0.424726042,-0.205805892,0.433168,0.42889851,-0.190342027,0.429624,0.434035459,-0.182303276,0.426496
0.402873175,-0.33586597,0.470628,0.390003561,-0.287758322,0.45675,0.380068734,-0.316531297,0.46556,0.340742125,-0.307086284,0.458472,0.303449296,-0.297321833,0.44288,0.28213607,-0.285098564,0.436831,0.355104642,-0.224275239,0.438771,0.344524101,-0.184707613,0.433901,0.338935135,-0.165389605,0.431571,0.334179296,-0.147756708,0.429454,0.376634657,-0.226764276,0.438662,0.367126853,-0.181913747,0.431203,0.361814391,-0.156066742,0.426852,0.358015092,-0.137536124,0.423744,0.394892482,-0.23039417,0.439146,0.387792715,-0.186790763,0.426338,0.384166113,-0.16437031,0.419785,0.380871821,-0.143976774,0.413829,0.418313309,-0.239399719,0.441088,0.425753451,-0.206217952,0.433918,0.430331565,-0.19094816,0.430625,0.435675056,-0.183465963,0.427718
0.401541609,-0.335672244,0.470978,0.390114721,-0.287742905,0.457065,0.378048343,-0.315217417,0.464698,0.339591882,-0.306069325,0.457242,0.298649102,-0.292666356,0.436258,0.275599576,-0.278557832,0.427149,0.354111217,-0.223407167,0.437631,0.344526303,-0.18470507,0.43424,0.339351422,-0.165656473,0.432545,0.334948225,-0.148257785,0.431004,0.376801395,-0.226573694,0.43891,0.367179122,-0.181696881,0.431232,0.361815605,-0.155814714,0.426753,0.357981345,-0.137274793,0.423554,0.396012441,-0.231133905,0.440534,0.388131275,-0.186827419,0.426729,0.384093893,-0.164217151,0.419665,0.380780198,-0.14383141,0.413635,0.420654331,-0.241333617,0.443869,0.424727734,-0.205660175,0.432661,0.427507365,-0.189675282,0.427512,0.431032723,-0.181745496,0.422968
0.40240999,-0.335932763,0.472279,0.391533691,-0.288695619,0.45811,0.378743342,-0.31524452,0.465801,0.340498317,-0.306995216,0.458098,0.298856511,-0.292715071,0.436584,0.276120995,-0.278874925,0.426127,0.354530287,-0.223763402,0.438193,0.345293795,-0.185421052,0.434406,0.338967743,-0.166017679,0.432512,0.334286756,-0.148678094,0.430791,0.377300004,-0.22707494,0.439578,0.366955268,-0.182402169,0.431049,0.361499904,-0.155977031,0.426073,0.357263727,-0.138825727,0.42252,0.396586022,-0.231758157,0.441297,0.38961311,-0.187619858,0.42854,0.386504529,-0.16526357,0.422014,0.383106353,-0.14472382,0.41608,0.420818547,-0.242318735,0.444773,0.427968871,-0.212109514,0.432708,0.43170967,-0.197125898,0.427165,0.43197109,-0.182822365,0.422274
0.402474677,-0.336103706,0.47303,0.39173817,-0.288848289,0.458818,0.378975213,-0.315425574,0.466651,0.340805558,-0.307147622,0.459177,0.299430196,-0.293156981,0.43744,0.276472055,-0.278976783,0.427237,0.355051337,-0.223945345,0.438979,0.345030332,-0.185575876,0.434834,0.33889479,-0.166393357,0.432761,0.333981141,-0.149078351,0.430877,0.377687941,-0.227274224,0.440233,0.367537458,-0.182815149,0.431593,0.362102548,-0.156460386,0.426553,0.357857027,-0.139088235,0.422954,0.396850195,-0.231973506,0.441847,0.390211846,-0.188203509,0.42929,0.387147951,-0.165890368,0.422866,0.383895182,-0.1453266,0.417025,0.420872836,-0.242552903,0.4452,0.428697799,-0.212470784,0.433445,0.432598022,-0.197531534,0.428044,0.433632544,-0.183511506,0.423279
0.402751888,-0.337035297,0.474913,0.392203784,-0.289693636,0.460472,0.379825082,-0.316557305,0.469064,0.342328286,-0.308514542,0.461334,0.303041323,-0.296595511,0.44273,0.281193766,-0.283668207,0.435403,0.356385775,-0.224909542,0.441103,0.345438111,-0.186214521,0.436155,0.339555247,-0.167038325,0.433871,0.334402343,-0.149684975,0.431795,0.378469026,-0.228099717,0.441667,0.368784133,-0.183534176,0.432945,0.363362568,-0.15717866,0.427858,0.359140081,-0.139091906,0.424224,0.397129249,-0.232686763,0.442728,0.390942487,-0.188792123,0.430167,0.388060478,-0.166554953,0.423979,0.385322191,-0.146166622,0.418352,0.421023437,-0.242925071,0.445431,0.429432691,-0.212834996,0.434188,0.433586398,-0.197982856,0.429022,0.435268834,-0.184194627,0.424464
0.402189032,-0.336353998,0.474429,0.391971494,-0.289200703,0.460249,0.379132791,-0.315659446,0.46831,0.341291861,-0.307039192,0.461081,0.300287769,-0.292990739,0.439552,0.277160159,-0.278855468,0.429292,0.356333983,-0.224464031,0.440866,0.344449264,-0.186227921,0.436754,0.338291019,-0.167361805,0.434699,0.333100536,-0.150191345,0.43283,0.378760788,-0.227957255,0.441895,0.369230183,-0.183186635,0.433287,0.363692657,-0.157172727,0.428266,0.359734578,-0.138548982,0.424679,0.39773255,-0.232801822,0.443334,0.391297581,-0.188792149,0.430493,0.388283213,-0.166459496,0.424236,0.385550575,-0.146180796,0.418547,0.422024704,-0.243368188,0.446482,0.429304409,-0.209848063,0.435119,0.433353991,-0.194775143,0.429898,0.438698499,-0.184430658,0.425292
0.401962294,-0.336244061,0.474849,0.391930989,-0.28910138,0.460664,0.378995643,-0.315461224,0.468733,0.34158192,-0.306964573,0.461479,0.300481052,-0.292821059,0.439776,0.277235091,-0.27837703,0.429534,0.35661803,-0.2243107,0.441355,0.344268486,-0.186170284,0.436921,0.337821966,-0.167242316,0.434704,0.332406298,-0.15007915,0.432689,0.379054974,-0.227924097,0.442413,0.369892666,-0.183248473,0.43401,0.364572019,-0.157298047,0.429109,0.360769282,-0.13871968,0.425608,0.398036971,-0.232871805,0.443882,0.391898399,-0.188950614,0.431286,0.389027808,-0.166660229,0.425146,0.38642632,-0.146421097,0.419564,0.422334741,-0.243570314,0.447073,0.430047381,-0.210024894,0.435625,0.434168353,-0.194953541,0.430365,0.439430244,-0.184039473,0.425724
0.401760278,-0.336297347,0.475217,0.391944819,-0.289146445,0.461012,0.378934507,-0.315456272,0.469143,0.342005695,-0.307139552,0.461948,0.300757311,-0.292820146,0.439982,0.277509993,-0.278090137,0.429905,0.357041015,-0.224364961,0.441812,0.344262385,-0.186355167,0.437051,0.337860773,-0.167299882,0.434671,0.33192269,-0.150199407,0.432507,0.379441022,-0.228084798,0.442849,0.370845019,-0.183555061,0.434842,0.365855023,-0.157682741,0.430172,0.362288548,-0.139156839,0.426836,0.398389019,-0.233127426,0.444308,0.392677447,-0.189474767,0.43211,0.389955322,-0.167269772,0.426094,0.387489905,-0.147102066,0.420625,0.422628806,-0.243950212,0.447495,0.431709121,-0.211959625,0.4357,0.435985356,-0.197275433,0.43028,0.439813292,-0.184402937,0.425498
0.402003202,-0.336319502,0.475391,0.392232486,-0.289179553,0.461243,0.379236436,-0.315592251,0.469401,0.342193323,-0.307123846,0.462167,0.301145823,-0.292993641,0.44043,0.278037324,-0.278437753,0.430584,0.357470253,-0.224629739,0.442249,0.344293298,-0.186667399,0.437391,0.337693903,-0.167644291,0.434962,0.33156997,-0.150581809,0.432754,0.379872834,-0.228311624,0.443263,0.37131712,-0.183806455,0.43533,0.366350157,-0.157947578,0.430702,0.362801166,-0.139435105,0.427397,0.398829514,-0.233340207,0.444716,0.392715002,-0.189550692,0.432036,0.389830636,-0.167312788,0.425824,0.387217922,-0.1471222,0.420178,0.423082819,-0.244165217,0.447908,0.432341621,-0.212208353,0.436173,0.436699101,-0.197542287,0.430781,0.440588502,-0.184675822,0.426023
0.40223726,-0.336489853,0.475684,0.392435564,-0.289347106,0.461455,0.379450266,-0.315786949,0.469656,0.342396508,-0.307004972,0.462316,0.301409188,-0.292729393,0.4404,0.278245879,-0.277999091,0.430291,0.357618789,-0.224899241,0.442357,0.344148498,-0.186936946,0.437414,0.337402679,-0.167914594,0.434943,0.331137819,-0.150856263,0.432696,0.3800457,-0.228595896,0.443389,0.371611756,-0.184138607,0.435565,0.366718411,-0.158311982,0.431001,0.363221327,-0.139820843,0.427741,0.399027125,-0.233648424,0.444863,0.392963771,-0.189888351,0.432203,0.390109418,-0.16766478,0.426005,0.387522581,-0.147484909,0.42037,0.42331268,-0.24451672,0.448091,0.432639846,-0.212308432,0.43635,0.437030912,-0.197650379,0.430956,0.440942564,-0.184785215,0.426197
