sluyters/QuantumLeap/src/datasets/gesture/HandGestureDataset_SHREC2017_csv/Gesture3/finger_2/subject_23_essai_2_skeletons_world.csv
Wrist_x,Wrist_y,Wrist_z,Palm_x,Palm_y,Palm_z,thumb_base_x,thumb_base_y,thumb_base_z,thumb_first_joint_x,thumb_first_joint_y,thumb_first_joint_z,thumb_second_joint_x,thumb_second_joint_y,thumb_second_joint_z,thumb_tip_x,thumb_tip_y,thumb_tip_z,index_base_x,index_base_y,index_base_z,index_first_joint_x,index_first_joint_y,index_first_joint_z,index_second_joint_x,index_second_joint_y,index_second_joint_z,index_tip_x,index_tip_y,index_tip_z,middle_base_x,middle_base_y,middle_base_z,middle_first_joint_x,middle_first_joint_y,middle_first_joint_z,middle_second_joint_x,middle_second_joint_y,middle_second_joint_z,middle_tip_x,middle_tip_y,middle_tip_z,ring_base_x,ring_base_y,ring_base_z,ring_first_joint_x,ring_first_joint_y,ring_first_joint_z,ring_second_joint_x,ring_second_joint_y,ring_second_joint_z,ring_tip_x,ring_tip_y,ring_tip_z,pinky_base_x,pinky_base_y,pinky_base_z,pinky_first_joint_x,pinky_first_joint_y,pinky_first_joint_z,pinky_second_joint_x,pinky_second_joint_y,pinky_second_joint_z,pinky_tip_x,pinky_tip_y,pinky_tip_z,r
0.464777133,-0.333747988,0.50716,0.441659125,-0.274697615,0.482922,0.453826659,-0.316729725,0.510671,0.436196566,-0.303631293,0.508117,0.419828082,-0.290756349,0.504145,0.411146938,-0.278625332,0.498213,0.423722654,-0.237717264,0.476952,0.385960819,-0.241855915,0.461693,0.386405582,-0.261220875,0.47118,0.400191194,-0.28089628,0.480991,0.428887901,-0.239017814,0.466253,0.386034548,-0.215795595,0.44273,0.385706762,-0.241745498,0.454765,0.400785883,-0.259064225,0.467052,0.434787827,-0.244164677,0.459309,0.390187063,-0.242890226,0.440731,0.387896645,-0.263745326,0.451061,0.391618776,-0.284485952,0.462689,0.444667564,-0.257741,0.454509,0.400863334,-0.253616323,0.437732,0.381097811,-0.251650498,0.430024,0.370617548,-0.255849085,0.431766
0.46133472,-0.330840876,0.504701,0.440427893,-0.275012691,0.484302,0.451500777,-0.316248806,0.509335,0.435466642,-0.303864446,0.50972,0.419733363,-0.291525982,0.507028,0.412055158,-0.280019691,0.502665,0.419182805,-0.241113661,0.4814,0.384782229,-0.249980558,0.468831,0.387314021,-0.271450307,0.479488,0.404039846,-0.287093975,0.488704,0.424365452,-0.239372909,0.470273,0.385590912,-0.21183756,0.449791,0.385961802,-0.237992424,0.46336,0.400104717,-0.257117636,0.475028,0.430382653,-0.241918903,0.462682,0.393375317,-0.218778434,0.447031,0.393403455,-0.239871358,0.458549,0.406722905,-0.261920103,0.46959,0.440609615,-0.252279534,0.456587,0.398622389,-0.252159239,0.442117,0.382787994,-0.253407008,0.435468,0.374917227,-0.259940537,0.438507
0.460332066,-0.328422079,0.50746,0.438684739,-0.274133171,0.488271,0.447686461,-0.315079269,0.507458,0.418361976,-0.297494624,0.502486,0.399159086,-0.284013192,0.495451,0.393501161,-0.271161555,0.488013,0.407394532,-0.2384828,0.480027,0.37583127,-0.243452962,0.463823,0.383702977,-0.268538397,0.477417,0.398792144,-0.286748571,0.489242,0.421247611,-0.236053594,0.475073,0.386400026,-0.21428717,0.453461,0.391236414,-0.241693068,0.471062,0.405898701,-0.263099734,0.484404,0.43474142,-0.237997172,0.47247,0.40002707,-0.231424268,0.453837,0.402362411,-0.24765063,0.468742,0.410108077,-0.27540988,0.482219,0.454357648,-0.247702982,0.472074,0.417264592,-0.22566568,0.455247,0.410802887,-0.233330856,0.447516,0.422660584,-0.244903057,0.451868
0.460871293,-0.328845592,0.509073,0.43303884,-0.271350992,0.487346,0.445538418,-0.315118881,0.50711,0.41461415,-0.296023895,0.499981,0.394581659,-0.281480321,0.491285,0.384057395,-0.267971663,0.482157,0.397208679,-0.238175072,0.475533,0.368651122,-0.238591468,0.456528,0.370158426,-0.249421087,0.469764,0.383218853,-0.271111967,0.482551,0.413353152,-0.235711107,0.472402,0.375148673,-0.206542919,0.448352,0.379462899,-0.225638639,0.463178,0.389323372,-0.248255858,0.478068,0.431486772,-0.237584497,0.471495,0.397372213,-0.217832441,0.450053,0.404521584,-0.238838451,0.464574,0.416353903,-0.264575964,0.479033,0.453909544,-0.247943054,0.473446,0.415132603,-0.226906389,0.454425,0.409001531,-0.234246651,0.445686,0.420466819,-0.24475925,0.449289
0.459839234,-0.328135196,0.508615,0.432116304,-0.271314264,0.487053,0.443809494,-0.31493748,0.506543,0.413602931,-0.295701171,0.499429,0.393457046,-0.280919935,0.490391,0.382976693,-0.267316682,0.481153,0.396909645,-0.237995764,0.475175,0.367930479,-0.238053953,0.456165,0.36992834,-0.24926605,0.469472,0.383010785,-0.270964768,0.482289,0.413196527,-0.235621792,0.472223,0.375073367,-0.206501459,0.448262,0.379673449,-0.225763838,0.463435,0.389494389,-0.248364909,0.478278,0.430659807,-0.237588508,0.471451,0.399486378,-0.213104537,0.450035,0.405335067,-0.232309911,0.46429,0.417763157,-0.259280724,0.478998,0.453409687,-0.24783196,0.473539,0.414780137,-0.227517228,0.454544,0.409081158,-0.23494041,0.445817,0.420710987,-0.245277244,0.449472
0.456097403,-0.324808624,0.505278,0.425362891,-0.267898707,0.483148,0.438128574,-0.312173413,0.503345,0.409566369,-0.294093303,0.497596,0.38919768,-0.279896938,0.488107,0.380138404,-0.266925276,0.479886,0.384790592,-0.233544329,0.471201,0.3566736,-0.236270268,0.452025,0.360007435,-0.249991288,0.465124,0.377927031,-0.269632437,0.477923,0.40086675,-0.229822692,0.467928,0.36162052,-0.204425585,0.443597,0.367981012,-0.226069513,0.459291,0.383705747,-0.247199585,0.473911,0.416863906,-0.230611761,0.466935,0.38721159,-0.207104269,0.445279,0.393864872,-0.230091243,0.459647,0.410506595,-0.253813124,0.474131,0.440663571,-0.238784191,0.468841,0.40206135,-0.223533651,0.449646,0.398588193,-0.231216741,0.440826,0.414623722,-0.241790306,0.444299
0.452353053,-0.320797045,0.50268,0.410710942,-0.257477526,0.471909,0.426668573,-0.306213012,0.494978,0.388537396,-0.281434787,0.481463,0.365342756,-0.266896308,0.463667,0.351354559,-0.252656969,0.451663,0.362021345,-0.222424199,0.448961,0.333394891,-0.207716726,0.421129,0.337807528,-0.212141162,0.431163,0.348706268,-0.233547511,0.446154,0.383289355,-0.219320804,0.450746,0.342126457,-0.177044748,0.419028,0.350755677,-0.191321017,0.432147,0.367754559,-0.21372419,0.447738,0.405082578,-0.222640084,0.454581,0.366366866,-0.178792723,0.424281,0.375877191,-0.193780978,0.435311,0.395313726,-0.218349093,0.451952,0.435460824,-0.229917189,0.463366,0.408374493,-0.198680598,0.437795,0.396901248,-0.201095362,0.426046,0.397768037,-0.213215593,0.426084
0.448582216,-0.317636023,0.49935,0.406632204,-0.255267827,0.468891,0.422688016,-0.30358176,0.491688,0.3836951,-0.279257841,0.477777,0.359019013,-0.264922869,0.459775,0.346874522,-0.250849204,0.44817,0.357821485,-0.220776668,0.446125,0.329348705,-0.206203692,0.418542,0.333728323,-0.210690631,0.42872,0.344518532,-0.232073366,0.443671,0.37905188,-0.217623861,0.447942,0.338021824,-0.175517506,0.416441,0.345164194,-0.189025131,0.427889,0.362183267,-0.211389647,0.443581,0.400037885,-0.218982773,0.451778,0.362214775,-0.177192301,0.421695,0.371767917,-0.192219354,0.432881,0.391178244,-0.216754627,0.449498,0.431105223,-0.228053134,0.460522,0.404078539,-0.196908739,0.435098,0.392691492,-0.199359401,0.423417,0.393723033,-0.211540266,0.423579
0.434213077,-0.304513987,0.490052,0.394120236,-0.248940758,0.460833,0.408688392,-0.294776497,0.484142,0.365985873,-0.270989734,0.469486,0.340364836,-0.2588907,0.451983,0.326693516,-0.247240864,0.437598,0.347425125,-0.216247813,0.440815,0.323494866,-0.183202791,0.413638,0.311531848,-0.166699894,0.400049,0.311990418,-0.172515778,0.401611,0.368043192,-0.212796432,0.440737,0.338653594,-0.180992486,0.410386,0.321482236,-0.162324682,0.392681,0.322941015,-0.170899536,0.394336,0.387915407,-0.213831372,0.442918,0.352242229,-0.173226446,0.414772,0.337461358,-0.172101528,0.400372,0.340203799,-0.181499525,0.402425,0.417875089,-0.222190256,0.449543,0.386513686,-0.196445212,0.425336,0.372704582,-0.184603667,0.414213,0.360520584,-0.174154472,0.4044
0.433001377,-0.304772496,0.491139,0.393686488,-0.249499471,0.46157,0.407083752,-0.295136902,0.484879,0.365192668,-0.271459487,0.469461,0.339513765,-0.258395894,0.451465,0.32622088,-0.246384702,0.436918,0.347924166,-0.217025515,0.44096,0.3232621,-0.183238909,0.41357,0.310997399,-0.16668734,0.399875,0.312268318,-0.172287157,0.40127,0.368862222,-0.21360331,0.441233,0.338759178,-0.181661286,0.410597,0.321242828,-0.163152979,0.392727,0.323438125,-0.170591135,0.394197,0.389641616,-0.214691871,0.443731,0.350364595,-0.174365739,0.41519,0.337967127,-0.172120377,0.400587,0.341489424,-0.180840778,0.402407,0.418453654,-0.223035863,0.450776,0.407921894,-0.194810598,0.427944,0.40361848,-0.181599989,0.417453,0.39987295,-0.172595392,0.408196
0.432553788,-0.30497094,0.492132,0.392113632,-0.248609579,0.460206,0.405471765,-0.29467487,0.484423,0.363811778,-0.270449762,0.467867,0.338208369,-0.257108244,0.44979,0.327242589,-0.244749071,0.435268,0.344739197,-0.214914686,0.436751,0.312772535,-0.191243611,0.408344,0.305184311,-0.194374742,0.39414,0.308345234,-0.207080905,0.394398,0.366596536,-0.211994035,0.438248,0.334971909,-0.17937872,0.405756,0.316622711,-0.160667157,0.386802,0.318030644,-0.167055124,0.386908,0.387560593,-0.213567891,0.441934,0.365825308,-0.168337201,0.41137,0.355984503,-0.15957063,0.395733,0.359581201,-0.166849321,0.39602,0.418309829,-0.222761765,0.450705,0.410143861,-0.194255533,0.427686,0.40669811,-0.181148158,0.41711,0.403692609,-0.170913078,0.407779
0.417425668,-0.294821147,0.480708,0.383251475,-0.242590368,0.451663,0.391861401,-0.285813982,0.474869,0.357197716,-0.263751995,0.459626,0.331060214,-0.249961792,0.441089,0.318301784,-0.239325666,0.42657,0.341269334,-0.210295349,0.431809,0.309796848,-0.168469874,0.406968,0.298093186,-0.166066448,0.394547,0.303894633,-0.180994548,0.397396,0.362085449,-0.207223927,0.431687,0.333674732,-0.174679009,0.401426,0.320037193,-0.154201263,0.383774,0.309297266,-0.144367005,0.371166,0.381679757,-0.208471278,0.433818,0.363519011,-0.168747728,0.404844,0.354003075,-0.150391058,0.39002,0.345936212,-0.135331617,0.377037,0.408833902,-0.217113406,0.440361,0.405747258,-0.189969833,0.419152,0.404193946,-0.177581943,0.409407,0.402850355,-0.166624908,0.400809
0.408439519,-0.288814893,0.474847,0.377247364,-0.237385667,0.445815,0.385430884,-0.280654251,0.468897,0.346660266,-0.256249054,0.453352,0.323313426,-0.245154927,0.434699,0.31130569,-0.234774378,0.419768,0.336283509,-0.205040475,0.425826,0.30127882,-0.167428755,0.399972,0.29078605,-0.169389104,0.387045,0.297614499,-0.180830271,0.389059,0.357519223,-0.203253919,0.425847,0.331313276,-0.168176777,0.395479,0.317289596,-0.145437227,0.377764,0.306761296,-0.130162657,0.365111,0.377239734,-0.205414041,0.428096,0.36149708,-0.165864234,0.401337,0.353773802,-0.147841535,0.387647,0.346843363,-0.132120553,0.375201,0.404459905,-0.214567871,0.434774,0.404325364,-0.187642884,0.416154,0.408964666,-0.173037975,0.407598,0.410562226,-0.162376689,0.400049
0.405484081,-0.28631884,0.472615,0.375000525,-0.235393232,0.443422,0.382379695,-0.277909697,0.466325,0.344663819,-0.253985259,0.450162,0.320467484,-0.243040074,0.431235,0.30724321,-0.232519189,0.416047,0.33415419,-0.20272311,0.422934,0.299720462,-0.165366337,0.396983,0.289341896,-0.167263352,0.384007,0.295844591,-0.180102925,0.385947,0.355866391,-0.201471844,0.423344,0.329996681,-0.16605978,0.392855,0.316200693,-0.143518076,0.37507,0.305770558,-0.128247648,0.362366,0.375716078,-0.204036091,0.425925,0.360770763,-0.164091858,0.399449,0.355243701,-0.145228429,0.385904,0.347133775,-0.130991469,0.37359,0.403127061,-0.213459236,0.433017,0.406937192,-0.184466028,0.414991,0.408922602,-0.171933444,0.406709,0.410818516,-0.161374181,0.399401
0.386443082,-0.273278719,0.462302,0.360833786,-0.219258523,0.434695,0.353102599,-0.255578102,0.452432,0.329442071,-0.230133406,0.434691,0.312106172,-0.212687918,0.413205,0.301534745,-0.194882791,0.399429,0.324969156,-0.180418603,0.410365,0.298004523,-0.147009349,0.383062,0.290242564,-0.15402238,0.369411,0.294834308,-0.168833809,0.370876,0.350027069,-0.184955166,0.415708,0.330275074,-0.148426537,0.385963,0.318773651,-0.127028541,0.368612,0.310568834,-0.111696498,0.356218,0.372110817,-0.192542503,0.422229,0.36683262,-0.154823021,0.398542,0.364116132,-0.135554147,0.386424,0.361634947,-0.118055894,0.375407,0.400620132,-0.20853729,0.433733,0.408774033,-0.180151033,0.418741,0.412833759,-0.16803856,0.411852,0.417449835,-0.160509838,0.405774
0.382754098,-0.271024201,0.460383,0.359304569,-0.217918894,0.432594,0.356306253,-0.25689966,0.450284,0.327231966,-0.228992286,0.431896,0.310060557,-0.213175125,0.409598,0.300639278,-0.200168541,0.393998,0.322757975,-0.17949415,0.407894,0.295539888,-0.151347664,0.380369,0.282037944,-0.137127081,0.366607,0.283709339,-0.14211225,0.367896,0.348003525,-0.183839573,0.413481,0.329785716,-0.142008239,0.383961,0.32426774,-0.119822511,0.372583,0.320381803,-0.103741758,0.364456,0.370321056,-0.191246189,0.420215,0.365395455,-0.153310771,0.396522,0.362989648,-0.134582796,0.384399,0.360880874,-0.117954548,0.373379,0.399229275,-0.206993262,0.431997,0.409955099,-0.181751146,0.418266,0.414283912,-0.168169507,0.411957,0.418712247,-0.159774533,0.40639
0.381496464,-0.270077205,0.457441,0.359138965,-0.217813842,0.431424,0.356384748,-0.25731425,0.448842,0.318822071,-0.241769023,0.427412,0.290826902,-0.232384037,0.404499,0.273863853,-0.221107933,0.388413,0.324688187,-0.180320466,0.409384,0.29912985,-0.150279638,0.383585,0.286737756,-0.137390315,0.370686,0.276779612,-0.122476624,0.358959,0.348857173,-0.184084894,0.413531,0.332265152,-0.142676187,0.385702,0.325247516,-0.119848835,0.37274,0.320266915,-0.103402752,0.363481,0.370064174,-0.19096212,0.418944,0.366942964,-0.152967638,0.397175,0.366257487,-0.133268412,0.386037,0.364233053,-0.117274514,0.375912,0.398119264,-0.208230543,0.428926,0.408866953,-0.180765686,0.416597,0.4144658,-0.167936623,0.411358,0.419591105,-0.157876432,0.406735
0.37762517,-0.267378206,0.453154,0.35822371,-0.216443078,0.429201,0.353280209,-0.254818981,0.444923,0.318299576,-0.241164319,0.426212,0.289176135,-0.23139918,0.403628,0.271316949,-0.219804007,0.387788,0.324641689,-0.17957328,0.408509,0.300090071,-0.146237537,0.384008,0.28887505,-0.128330942,0.371757,0.277423557,-0.113063121,0.36062,0.348849331,-0.183130592,0.412726,0.33746135,-0.141652484,0.389072,0.332469089,-0.115224066,0.376184,0.327988628,-0.0979490511,0.366979,0.369970487,-0.18979235,0.418038,0.370544827,-0.150126507,0.399102,0.370145614,-0.130247535,0.389599,0.369963961,-0.112644743,0.38096,0.396907431,-0.204438599,0.427615,0.410550283,-0.178373665,0.416587,0.41674529,-0.166801585,0.411836,0.421261129,-0.157120928,0.407643
0.374852416,-0.265154034,0.44934,0.357782434,-0.215028697,0.426949,0.350065223,-0.251699685,0.441328,0.318462824,-0.240639299,0.424863,0.288166378,-0.230375556,0.40259,0.269528773,-0.21844962,0.387215,0.327463413,-0.176970282,0.407205,0.304966513,-0.141240219,0.384805,0.292767657,-0.123819679,0.373606,0.280637187,-0.110926315,0.363424,0.351820844,-0.180003734,0.411548,0.340781426,-0.138211914,0.389577,0.334442914,-0.114055217,0.37676,0.330044476,-0.0970598663,0.367605,0.373080019,-0.186321072,0.416844,0.372854648,-0.147070222,0.399754,0.372889985,-0.127336817,0.39101,0.373090677,-0.109688827,0.38306,0.400247624,-0.200734336,0.426184,0.414026301,-0.174937699,0.416766,0.421288656,-0.163620584,0.413481,0.427971824,-0.153870524,0.410582
0.374901222,-0.264440691,0.449327,0.362322871,-0.212947615,0.426971,0.350844225,-0.25145665,0.440537,0.320005796,-0.23948348,0.424161,0.287891267,-0.228167344,0.402187,0.268357505,-0.215760688,0.387438,0.330188333,-0.174824785,0.40626,0.310438028,-0.137102683,0.387745,0.299997442,-0.118987498,0.378488,0.290986424,-0.10319397,0.370072,0.355087126,-0.178273559,0.411595,0.34657279,-0.136081158,0.392987,0.343703448,-0.109975733,0.382132,0.339476715,-0.0954885723,0.374378,0.376703302,-0.184895926,0.417704,0.377650596,-0.145663165,0.401952,0.378637245,-0.126237585,0.393893,0.37974291,-0.10884589,0.386566,0.404117792,-0.199596707,0.427997,0.418260644,-0.174070404,0.418787,0.425162785,-0.162640706,0.415057,0.430257211,-0.153659275,0.411766
0.375295435,-0.263814309,0.449711,0.364621854,-0.210969187,0.427193,0.350520868,-0.249637033,0.440501,0.321475072,-0.233757387,0.422209,0.289186249,-0.216467786,0.401014,0.270559712,-0.202255123,0.388776,0.332703869,-0.173058042,0.405882,0.312500592,-0.13606907,0.389256,0.302524466,-0.117760478,0.380944,0.294015079,-0.101742527,0.373386,0.356328426,-0.177473559,0.411706,0.350945934,-0.133860208,0.395472,0.348001717,-0.109748592,0.386002,0.34651277,-0.0929754475,0.379238,0.378040855,-0.184187097,0.41823,0.381868664,-0.144446508,0.40438,0.384057387,-0.125233298,0.397294,0.386236804,-0.107847567,0.390852,0.405535126,-0.197523359,0.429032,0.419940627,-0.174085825,0.419441,0.426535725,-0.162750979,0.415034,0.431158905,-0.15348085,0.411145
0.373931636,-0.262439466,0.449468,0.365341271,-0.210671799,0.427816,0.350721091,-0.248935729,0.440424,0.321251954,-0.228265346,0.422474,0.289373296,-0.214806393,0.400883,0.271206374,-0.200537363,0.387931,0.334529741,-0.172888918,0.407087,0.317730602,-0.134933069,0.393018,0.308826051,-0.116363367,0.385983,0.301415388,-0.0999962746,0.379588,0.359219483,-0.176737275,0.412925,0.35634729,-0.134079549,0.399404,0.355069462,-0.110065946,0.391518,0.354909254,-0.0933106819,0.385884,0.380277658,-0.183558277,0.419394,0.384870384,-0.145426497,0.4069,0.388753888,-0.126121481,0.400508,0.390904016,-0.109254442,0.394697,0.406382744,-0.198197653,0.430011,0.421711512,-0.175066443,0.420852,0.429656185,-0.164126717,0.416643,0.435055017,-0.154438565,0.41293
0.367009553,-0.255930806,0.441183,0.369103537,-0.198544417,0.426692,0.349815957,-0.238848808,0.434473,0.322548828,-0.222580853,0.423466,0.289664242,-0.211953627,0.400929,0.270429199,-0.199344641,0.387534,0.341608155,-0.161034194,0.41199,0.324653868,-0.124449876,0.397099,0.316162829,-0.106062438,0.389654,0.308434065,-0.0892865067,0.382885,0.366083728,-0.166090035,0.416731,0.365458064,-0.124763709,0.404906,0.365994386,-0.101255708,0.398009,0.366426212,-0.0843050951,0.393081,0.38671001,-0.173907742,0.421749,0.394224138,-0.136737653,0.411496,0.398111453,-0.117784688,0.40625,0.401677342,-0.100576107,0.401519,0.411757253,-0.189765801,0.429664,0.432067908,-0.168491305,0.425079,0.441322446,-0.15877639,0.422972,0.450022062,-0.150504199,0.421114
0.368269477,-0.252433842,0.440498,0.371453715,-0.197665263,0.427812,0.351078665,-0.236863387,0.434583,0.325343086,-0.221638427,0.42502,0.292209242,-0.209470281,0.402555,0.272322348,-0.197219596,0.389018,0.345581523,-0.160802722,0.414891,0.327428378,-0.123774355,0.398389,0.318349122,-0.105241369,0.390138,0.310965829,-0.09051985,0.382637,0.369660656,-0.165799418,0.419089,0.369471177,-0.124645838,0.408137,0.369819421,-0.100917443,0.401748,0.370092554,-0.0838805423,0.397184,0.389793917,-0.173502099,0.423518,0.398017364,-0.136586147,0.414239,0.40238118,-0.11779248,0.409492,0.406548161,-0.100749901,0.405176,0.413957635,-0.189085791,0.43049,0.434924694,-0.168215313,0.426341,0.44462623,-0.158718745,0.424434,0.453463319,-0.150483239,0.422752
0.369198437,-0.245790752,0.437735,0.375142305,-0.194590318,0.428964,0.354675175,-0.227906614,0.433023,0.329115499,-0.219216994,0.426863,0.294633582,-0.206362369,0.404227,0.274559967,-0.193245892,0.391972,0.35288163,-0.156084581,0.419241,0.337012159,-0.11920681,0.405212,0.329067515,-0.100687624,0.398198,0.321838981,-0.0838019343,0.391822,0.376514459,-0.161103182,0.422926,0.377712986,-0.120581199,0.414575,0.378407927,-0.096959153,0.409703,0.37863298,-0.0822710978,0.406224,0.395091292,-0.171184642,0.426632,0.406178595,-0.132771897,0.420235,0.411411655,-0.114460405,0.416962,0.416789377,-0.0999972139,0.413986,0.418087087,-0.186442017,0.432208,0.440961403,-0.166889813,0.429794,0.451566407,-0.157978428,0.428685,0.460922789,-0.15011556,0.427706
0.374237026,-0.238779191,0.437722,0.379276726,-0.190930229,0.431234,0.356515441,-0.22610175,0.433965,0.334085405,-0.211671309,0.427995,0.299762001,-0.197874819,0.405301,0.280738422,-0.184362886,0.394734,0.359057413,-0.153082366,0.423695,0.344341214,-0.116002192,0.411634,0.336980029,-0.0974365574,0.405604,0.330549837,-0.0806073039,0.400442,0.382139219,-0.158067604,0.426759,0.384757197,-0.118063702,0.419808,0.386456888,-0.0947334037,0.415753,0.386392324,-0.0797155176,0.412857,0.399964094,-0.16776908,0.429779,0.410571312,-0.131862407,0.423656,0.416011232,-0.113567801,0.420524,0.421593758,-0.0969279373,0.417676,0.421879905,-0.182739753,0.43423,0.445787512,-0.164126741,0.432715,0.456832371,-0.155617148,0.432019,0.466570811,-0.148112645,0.431404
0.377353544,-0.238205044,0.440256,0.383335465,-0.188131052,0.433886,0.360467148,-0.223212573,0.436068,0.336012285,-0.210646002,0.429787,0.301956611,-0.197129294,0.407557,0.282841368,-0.183718518,0.397092,0.361952284,-0.152315799,0.425851,0.347561511,-0.115325331,0.413576,0.340358147,-0.0967610771,0.407439,0.333804542,-0.0798418883,0.40186,0.385505944,-0.157644025,0.429489,0.388571856,-0.117732415,0.422999,0.390594846,-0.0943946438,0.419214,0.392051974,-0.0776739546,0.41651,0.404724936,-0.165445163,0.432972,0.416062982,-0.130007562,0.427895,0.421976972,-0.111910314,0.425298,0.428338451,-0.0955103624,0.422937,0.426943383,-0.180805207,0.437952,0.451023956,-0.162035827,0.436947,0.462168185,-0.153438745,0.436485,0.47278533,-0.146189957,0.436078
0.379937773,-0.237914111,0.442974,0.385652652,-0.188187604,0.436606,0.363895934,-0.22077499,0.438867,0.33895964,-0.208132376,0.432414,0.305348377,-0.194062413,0.409856,0.286616337,-0.180241369,0.399093,0.365290135,-0.15085787,0.428674,0.351712343,-0.114221226,0.416387,0.344908745,-0.0957457843,0.410244,0.337158643,-0.0797169936,0.404659,0.388687597,-0.156513216,0.432209,0.392730287,-0.117407818,0.427321,0.395500232,-0.0944214781,0.42447,0.397224475,-0.0785614208,0.422433,0.407294544,-0.165643256,0.435606,0.419631728,-0.129748685,0.431545,0.426241145,-0.111872183,0.429468,0.432909706,-0.0962187591,0.427579,0.42938549,-0.181186425,0.440484,0.452934192,-0.16195275,0.438973,0.463442505,-0.151742259,0.438279,0.473999591,-0.1456027,0.437667
0.381132835,-0.237294729,0.444156,0.386458751,-0.188042941,0.437567,0.364804185,-0.220293625,0.440003,0.339742208,-0.207909079,0.433257,0.306351095,-0.19367563,0.410682,0.287813902,-0.179702801,0.399867,0.365935865,-0.150832807,0.42948,0.352329316,-0.114179626,0.417041,0.345510702,-0.0956929757,0.410821,0.33809562,-0.0794771589,0.405167,0.389353601,-0.156571743,0.433015,0.393816517,-0.117702687,0.428755,0.3968755,-0.0948131612,0.42627,0.398964008,-0.0788374065,0.424495,0.408117547,-0.165553644,0.436429,0.42055691,-0.129998175,0.43259,0.427380143,-0.112150546,0.430625,0.434121859,-0.0963337804,0.42884,0.43022438,-0.181214911,0.441358,0.453589825,-0.161803288,0.439696,0.464074597,-0.151819523,0.438933,0.474387419,-0.145241815,0.438259
0.384508096,-0.235584779,0.446635,0.389166364,-0.186992891,0.439927,0.367638354,-0.218556609,0.442539,0.342588943,-0.206884456,0.435643,0.309290551,-0.192235776,0.412944,0.290747208,-0.177837948,0.40168,0.368370651,-0.150024459,0.43186,0.354714239,-0.113270237,0.419394,0.347872813,-0.0947513104,0.413161,0.341383796,-0.0783422172,0.407495,0.391738844,-0.155812277,0.435291,0.396588394,-0.11741005,0.432264,0.399936121,-0.0947272844,0.430498,0.40299604,-0.0785656026,0.429237,0.410781425,-0.163990815,0.438629,0.423472476,-0.129580811,0.435113,0.43058066,-0.111877337,0.433314,0.437575044,-0.0958704073,0.431678,0.432801985,-0.180300664,0.443484,0.45594697,-0.160763437,0.441671,0.466564024,-0.151799806,0.440838,0.476554641,-0.144090962,0.440102
0.385189965,-0.234844659,0.447087,0.389848383,-0.186617885,0.440452,0.368313966,-0.218082636,0.443045,0.343436637,-0.206721123,0.436256,0.309968261,-0.19203699,0.413532,0.291308328,-0.177628924,0.40222,0.369147078,-0.149729026,0.432484,0.355434491,-0.112904597,0.420088,0.348566053,-0.0943660501,0.41389,0.342099548,-0.0779524347,0.408256,0.392483215,-0.155461311,0.435865,0.397355804,-0.117107714,0.433094,0.400709682,-0.0944396172,0.431477,0.403691276,-0.0783543999,0.430323,0.411496797,-0.163592163,0.439155,0.424384213,-0.129239017,0.435719,0.431497894,-0.111582187,0.433961,0.438549092,-0.0956354508,0.432362,0.433425153,-0.179872547,0.443945,0.456720568,-0.160476492,0.442179,0.467408488,-0.151575559,0.441367,0.47741746,-0.143892394,0.440651
0.387977245,-0.233330838,0.448888,0.392709777,-0.186267388,0.442769,0.371016822,-0.218517562,0.44546,0.34804013,-0.206179375,0.43906,0.315841643,-0.192562087,0.41835,0.29789556,-0.180659523,0.409652,0.373847353,-0.148919847,0.435799,0.360276578,-0.111913851,0.424098,0.353506788,-0.0933368922,0.418247,0.347362739,-0.076389726,0.412948,0.396667441,-0.154309002,0.438536,0.401317197,-0.115867831,0.436063,0.404358019,-0.0932266434,0.43462,0.406689243,-0.078268466,0.43359,0.415200272,-0.162132469,0.441256,0.428489957,-0.127960466,0.43878,0.435827398,-0.110333793,0.437514,0.442548992,-0.0954482402,0.436363,0.436484565,-0.17747223,0.445302,0.460229358,-0.158539108,0.443827,0.471135665,-0.149842274,0.443149,0.480140379,-0.144044389,0.442551
0.387875415,-0.232307307,0.448215,0.39324895,-0.185832205,0.442732,0.370810814,-0.217528489,0.44459,0.348561852,-0.205855845,0.438904,0.31479728,-0.191317412,0.415952,0.294336876,-0.17785734,0.403672,0.374405552,-0.148709985,0.43579,0.361005922,-0.111776135,0.424342,0.354334599,-0.0932388509,0.418618,0.348262984,-0.0763177503,0.413415,0.397578762,-0.154235324,0.43894,0.40216584,-0.115708542,0.436323,0.405089406,-0.0930695363,0.434796,0.407132392,-0.0779669799,0.433706,0.416387326,-0.16216078,0.441952,0.428572214,-0.127656069,0.438785,0.435464874,-0.109860451,0.437164,0.441806878,-0.0947764349,0.435691,0.437938875,-0.177604297,0.446254,0.461731022,-0.158591007,0.444884,0.472661792,-0.149855102,0.444254,0.481860339,-0.14408242,0.443698
0.389422623,-0.23245862,0.448933,0.395835266,-0.185011529,0.443404,0.372228198,-0.217788865,0.445212,0.349365367,-0.205857631,0.438932,0.317433061,-0.190361252,0.415846,0.296814621,-0.176860373,0.404368,0.375223453,-0.149321637,0.436321,0.361420493,-0.112384881,0.424733,0.354557277,-0.0938666879,0.418939,0.347875846,-0.0778534134,0.413672,0.398530429,-0.154695681,0.439581,0.403373834,-0.116266664,0.437237,0.406399317,-0.0937094859,0.435869,0.408446657,-0.0783724483,0.434893,0.41751372,-0.162502448,0.442686,0.429632093,-0.127957714,0.439559,0.436514898,-0.110123534,0.43796,0.442782288,-0.094818008,0.436505,0.439395409,-0.177831191,0.447104,0.462946806,-0.158712854,0.445786,0.473749352,-0.149941999,0.44518,0.483099653,-0.144149403,0.444646
0.39084128,-0.231283726,0.449224,0.396740609,-0.185354234,0.443806,0.373206918,-0.2179053,0.445522,0.350034606,-0.205937308,0.439118,0.317862566,-0.190247275,0.416129,0.297481692,-0.176682156,0.404611,0.375870945,-0.14976998,0.436794,0.361934452,-0.112864176,0.425273,0.355010453,-0.0943652636,0.419513,0.348354815,-0.0781603194,0.414276,0.399209861,-0.155020026,0.440058,0.404228824,-0.11665312,0.4379,0.407325454,-0.0941483772,0.436641,0.409393628,-0.0786691006,0.435742,0.418249349,-0.162724274,0.443159,0.430330932,-0.128156528,0.440067,0.437209429,-0.11029755,0.438485,0.443444339,-0.0948343291,0.437047,0.440254381,-0.177936729,0.447556,0.463689454,-0.158770842,0.446322,0.474430388,-0.149986127,0.445756,0.48392443,-0.144159562,0.445255
0.392930556,-0.230814181,0.450171,0.398250067,-0.185641641,0.444873,0.375094758,-0.217380704,0.446343,0.352490374,-0.205494422,0.439699,0.318786461,-0.190109924,0.417166,0.298429289,-0.176531817,0.40573,0.376965988,-0.150079987,0.437756,0.362798129,-0.113158909,0.426206,0.355751183,-0.09465728,0.420431,0.349151163,-0.078412328,0.415181,0.401532656,-0.15511253,0.441211,0.405642268,-0.116883545,0.439196,0.408774689,-0.0943672999,0.438021,0.411060165,-0.0782111272,0.437182,0.420838318,-0.162611114,0.444459,0.431578783,-0.128205141,0.441158,0.438344248,-0.110253354,0.439469,0.444829065,-0.0937786016,0.437934,0.443335708,-0.177599331,0.449013,0.466465014,-0.158192858,0.448104,0.477048785,-0.149310192,0.447686,0.487292918,-0.143115294,0.447318
0.394262121,-0.230303267,0.450445,0.398926294,-0.185644036,0.445163,0.376363962,-0.216932279,0.446649,0.35300283,-0.205426843,0.440026,0.319194377,-0.189893725,0.417585,0.298788178,-0.176211044,0.406091,0.377457951,-0.150181362,0.438095,0.363161757,-0.113291349,0.426572,0.356045694,-0.0948067891,0.420811,0.349509009,-0.0785512407,0.415573,0.401912397,-0.155096966,0.441517,0.406169679,-0.116902675,0.439591,0.409313032,-0.0944047268,0.438468,0.411635727,-0.0782348276,0.437665,0.421237192,-0.162506753,0.444737,0.431923676,-0.128065814,0.441372,0.438640931,-0.110080435,0.439651,0.445048295,-0.0935751318,0.438086,0.443807541,-0.177393963,0.449256,0.466756532,-0.157901107,0.44833,0.47725011,-0.148984811,0.447904,0.487529844,-0.142742419,0.447529
0.395539447,-0.229880785,0.450387,0.399494914,-0.185665626,0.445436,0.377626981,-0.216650648,0.446714,0.353327575,-0.205354431,0.440208,0.319604058,-0.189809476,0.418039,0.29946555,-0.176196387,0.406913,0.378107911,-0.15036659,0.438669,0.363919076,-0.113542374,0.427414,0.356850469,-0.0950763887,0.421787,0.350570662,-0.0786289741,0.416671,0.402444377,-0.155186425,0.442022,0.40668224,-0.116947014,0.440009,0.409749797,-0.0944379936,0.438835,0.412041393,-0.0782452591,0.437996,0.421733745,-0.162513824,0.445159,0.432373487,-0.128011358,0.441724,0.439045739,-0.109989608,0.439967,0.445386213,-0.0934520903,0.438369,0.444249726,-0.177289207,0.449536,0.467212039,-0.157776416,0.448729,0.477712771,-0.148852029,0.448359,0.48808224,-0.142560148,0.448031
0.396709553,-0.229396063,0.450207,0.399854497,-0.185638534,0.445548,0.378788277,-0.21631087,0.446659,0.353537013,-0.205280287,0.440302,0.319865847,-0.189719143,0.41832,0.299849548,-0.176091494,0.407356,0.378573485,-0.150493103,0.439065,0.364510013,-0.11373855,0.42807,0.357498653,-0.0952933244,0.422573,0.351468771,-0.0786704001,0.417575,0.40278624,-0.155231458,0.442338,0.407057726,-0.11697252,0.440306,0.410091182,-0.09446276,0.43912,0.412377412,-0.078255782,0.438273,0.422024256,-0.162487498,0.445389,0.432651471,-0.127943537,0.441922,0.43929697,-0.109898708,0.440147,0.445594176,-0.0933405142,0.438534,0.44446087,-0.177162482,0.449624,0.467446222,-0.157646561,0.448925,0.477957245,-0.148720457,0.448604,0.488401486,-0.14237836,0.44832
0.396921545,-0.228588304,0.449798,0.401447808,-0.185104429,0.445988,0.379283304,-0.215616004,0.446545,0.354566044,-0.205513967,0.441742,0.320334029,-0.189921968,0.419084,0.300494363,-0.175878618,0.407684,0.383256961,-0.145364612,0.440243,0.371421211,-0.108570215,0.430006,0.366009463,-0.0905134212,0.424888,0.357393354,-0.0760140927,0.420235,0.404558985,-0.154371036,0.443366,0.410073095,-0.11625021,0.441996,0.413374088,-0.0938782513,0.441197,0.415669683,-0.0782443442,0.440626,0.423069106,-0.162434679,0.446227,0.435155529,-0.126858305,0.442993,0.442126351,-0.108808679,0.441339,0.447591751,-0.0929530331,0.439834,0.445098677,-0.177133693,0.450122,0.468220114,-0.157759112,0.449292,0.478794622,-0.148895342,0.44891,0.489546225,-0.141888095,0.448574
0.397712475,-0.228115362,0.450046,0.401652723,-0.18475309,0.446172,0.380096839,-0.215103602,0.446807,0.354727622,-0.205316618,0.44207,0.320509556,-0.189966134,0.419435,0.301165296,-0.175681642,0.408048,0.383408438,-0.145422066,0.440417,0.371567186,-0.108612885,0.430175,0.36615246,-0.090548784,0.425054,0.35845566,-0.0755031346,0.420399,0.404993099,-0.153912894,0.443507,0.410571692,-0.115827416,0.442141,0.413957787,-0.0934409875,0.441345,0.41617221,-0.0779056466,0.440776,0.423383531,-0.16219161,0.446347,0.435627921,-0.126678584,0.442999,0.442737705,-0.108685066,0.441286,0.448093974,-0.092816619,0.439728,0.445316948,-0.176994252,0.450225,0.468671254,-0.157792401,0.449424,0.479359899,-0.149002563,0.449056,0.490094026,-0.141977573,0.448731
