sluyters/QuantumLeap/src/datasets/gesture/HandGestureDataset_SHREC2017_csv/Gesture3/finger_2/subject_21_essai_5_skeletons_world.csv
Wrist_x,Wrist_y,Wrist_z,Palm_x,Palm_y,Palm_z,thumb_base_x,thumb_base_y,thumb_base_z,thumb_first_joint_x,thumb_first_joint_y,thumb_first_joint_z,thumb_second_joint_x,thumb_second_joint_y,thumb_second_joint_z,thumb_tip_x,thumb_tip_y,thumb_tip_z,index_base_x,index_base_y,index_base_z,index_first_joint_x,index_first_joint_y,index_first_joint_z,index_second_joint_x,index_second_joint_y,index_second_joint_z,index_tip_x,index_tip_y,index_tip_z,middle_base_x,middle_base_y,middle_base_z,middle_first_joint_x,middle_first_joint_y,middle_first_joint_z,middle_second_joint_x,middle_second_joint_y,middle_second_joint_z,middle_tip_x,middle_tip_y,middle_tip_z,ring_base_x,ring_base_y,ring_base_z,ring_first_joint_x,ring_first_joint_y,ring_first_joint_z,ring_second_joint_x,ring_second_joint_y,ring_second_joint_z,ring_tip_x,ring_tip_y,ring_tip_z,pinky_base_x,pinky_base_y,pinky_base_z,pinky_first_joint_x,pinky_first_joint_y,pinky_first_joint_z,pinky_second_joint_x,pinky_second_joint_y,pinky_second_joint_z,pinky_tip_x,pinky_tip_y,pinky_tip_z,r
0.376179549,-0.315610814,0.477982,0.386235073,-0.282131347,0.487208,0.368209873,-0.315538551,0.486029,0.365032156,-0.297934972,0.500336,0.351556326,-0.280706822,0.508477,0.347726664,-0.265788325,0.513636,0.376483123,-0.263528139,0.502398,0.368308821,-0.23562499,0.505639,0.362790794,-0.24875925,0.507259,0.375472926,-0.272897102,0.521293,0.390781138,-0.255568547,0.494962,0.378849733,-0.234595544,0.498217,0.391691323,-0.262151842,0.519091,0.400013617,-0.282486927,0.524465,0.403839623,-0.25142263,0.488111,0.393442764,-0.245270689,0.492999,0.399465407,-0.270753694,0.5104,0.404480376,-0.291370529,0.515378,0.416644741,-0.25279833,0.47869,0.399757548,-0.248580481,0.481034,0.403053404,-0.267273161,0.493861,0.407045141,-0.280172683,0.498687
0.384852938,-0.321394681,0.482898,0.386068632,-0.282833439,0.486247,0.372721257,-0.317457686,0.489152,0.36504169,-0.298800695,0.500028,0.351759299,-0.281289866,0.508223,0.347408563,-0.265499145,0.512223,0.369893812,-0.262214467,0.49594,0.355750102,-0.23465927,0.494138,0.349615389,-0.246585228,0.493237,0.364574547,-0.266137279,0.506197,0.385042375,-0.254750906,0.489061,0.370814792,-0.229493665,0.486809,0.380951514,-0.255471872,0.508011,0.393245442,-0.277868097,0.51548,0.397745892,-0.251489825,0.483134,0.386483682,-0.242570057,0.482844,0.391759091,-0.266134933,0.500518,0.39825964,-0.287026014,0.507695,0.415640661,-0.254251701,0.475654,0.393557726,-0.248114937,0.473759,0.396778537,-0.266484586,0.486693,0.403141927,-0.277932463,0.493746
0.384295308,-0.321359627,0.481606,0.385071608,-0.282772835,0.485017,0.371875239,-0.317389429,0.487663,0.364114892,-0.298559097,0.498565,0.350953606,-0.280899221,0.506729,0.346838539,-0.265035755,0.510814,0.36846365,-0.261707512,0.494498,0.354836497,-0.23405664,0.492869,0.348777565,-0.245994307,0.492055,0.36331606,-0.265965946,0.505122,0.383830121,-0.254393078,0.487883,0.369370351,-0.22861332,0.485621,0.379743806,-0.254744568,0.506909,0.3919941,-0.277032503,0.514409,0.39673567,-0.251263286,0.482168,0.384932914,-0.242065555,0.481792,0.390974314,-0.265905211,0.499533,0.397626201,-0.286496575,0.506773,0.414624918,-0.253830732,0.474929,0.392830515,-0.247909341,0.472972,0.396325309,-0.266496552,0.485956,0.402749438,-0.278019303,0.493138
0.383823602,-0.32302968,0.485704,0.381271081,-0.279490099,0.481121,0.369787261,-0.315720703,0.488708,0.354115526,-0.287899507,0.492002,0.342010223,-0.264901603,0.493079,0.33853637,-0.245090419,0.492263,0.364488222,-0.246644375,0.482357,0.346676879,-0.225458425,0.475654,0.340088871,-0.240156518,0.472302,0.347065359,-0.259712235,0.48408,0.381242301,-0.244612744,0.47727,0.363796953,-0.217350042,0.46757,0.372504412,-0.245989606,0.48874,0.378855593,-0.267471673,0.498893,0.397609126,-0.244874851,0.473446,0.375463315,-0.241006415,0.465858,0.384055362,-0.268176405,0.483492,0.39023309,-0.284453844,0.4936,0.412800171,-0.254091534,0.469596,0.387329336,-0.249694329,0.46181,0.391817219,-0.269801125,0.474588,0.397270635,-0.279190913,0.483539
0.385972631,-0.324550955,0.486498,0.380113775,-0.280125026,0.479442,0.370860966,-0.317018531,0.488815,0.353078419,-0.289526016,0.488724,0.339561747,-0.265513012,0.490815,0.334884947,-0.245770591,0.48995,0.359230589,-0.244706582,0.478449,0.341376698,-0.223455598,0.469749,0.335294963,-0.237840023,0.465399,0.344921395,-0.259883279,0.476481,0.376537084,-0.242068608,0.473513,0.355967539,-0.214563589,0.461639,0.369411014,-0.24419087,0.482509,0.380546958,-0.266403999,0.493355,0.391370202,-0.243404415,0.470009,0.37246329,-0.238044588,0.460401,0.382312952,-0.265263959,0.477788,0.393083937,-0.286285145,0.488613,0.408249017,-0.250804683,0.466894,0.385372615,-0.246629975,0.457477,0.390820383,-0.266737276,0.470037,0.399372629,-0.279961953,0.478221
0.38671851,-0.327045951,0.483608,0.375228731,-0.287107276,0.460373,0.372390615,-0.32014953,0.487152,0.356834474,-0.300586652,0.483227,0.341587513,-0.272997567,0.481053,0.334579631,-0.251275323,0.476029,0.357267188,-0.241565401,0.45198,0.324105617,-0.222829572,0.435373,0.311620937,-0.235299606,0.42707,0.316662456,-0.251417886,0.431238,0.365895383,-0.24082909,0.440847,0.327210819,-0.214134652,0.417652,0.32951626,-0.242503814,0.430597,0.343251613,-0.263010185,0.443051,0.374101647,-0.244554913,0.433524,0.335425893,-0.241220599,0.415394,0.335993429,-0.265292718,0.42633,0.349783499,-0.28346916,0.43802,0.38593658,-0.257148182,0.428245,0.346586864,-0.250870189,0.412035,0.348695989,-0.266043982,0.419672,0.361304919,-0.27639769,0.428339
0.384794351,-0.32688148,0.482792,0.368521885,-0.279431083,0.451874,0.367059316,-0.318567244,0.481261,0.340988046,-0.287978106,0.467498,0.318794181,-0.258804067,0.456498,0.308457854,-0.23548262,0.447328,0.345389105,-0.224946697,0.432869,0.309661053,-0.196104519,0.409188,0.294982992,-0.203432059,0.397347,0.296826228,-0.219784539,0.398576,0.355592109,-0.230640087,0.425891,0.315825154,-0.203929774,0.395625,0.317430573,-0.231084628,0.406804,0.328611654,-0.251167396,0.421261,0.366987522,-0.237288631,0.422595,0.327917888,-0.230764487,0.396927,0.327735462,-0.253523303,0.406353,0.33870268,-0.273013496,0.420483,0.383538835,-0.254018341,0.42318,0.34043845,-0.24474772,0.401054,0.341753638,-0.25954155,0.407458,0.355317961,-0.271166052,0.417729
0.391774316,-0.340137818,0.494554,0.365260996,-0.292190987,0.456506,0.372285408,-0.321621415,0.488381,0.340144902,-0.297334962,0.46877,0.31908158,-0.269076736,0.452172,0.309574551,-0.246071555,0.439303,0.335829462,-0.238663941,0.427741,0.3078557,-0.199615976,0.397653,0.2880493,-0.203718533,0.382609,0.282376995,-0.212815901,0.379128,0.351889685,-0.248985649,0.424531,0.321712674,-0.217109848,0.38866,0.314795094,-0.239831327,0.395051,0.323080287,-0.259254466,0.410032,0.366498662,-0.261582626,0.424901,0.319487917,-0.264425128,0.393095,0.315302968,-0.274688195,0.398506,0.319587322,-0.29088654,0.413511,0.386348072,-0.284105424,0.430846,0.344527204,-0.284150762,0.404177,0.345702519,-0.297154792,0.407539,0.353281712,-0.314320398,0.418229
0.380631234,-0.34236751,0.478062,0.364376428,-0.296401544,0.444479,0.365013531,-0.326903846,0.473241,0.33998686,-0.304047118,0.457953,0.3153164,-0.278534188,0.440606,0.303269071,-0.257582812,0.427705,0.330944377,-0.245559045,0.419877,0.299253187,-0.21458182,0.392332,0.283672052,-0.201824369,0.37856,0.274334156,-0.206509471,0.378477,0.347942999,-0.252364045,0.416257,0.332411614,-0.203871727,0.38319,0.3302971,-0.21722275,0.390178,0.33535997,-0.240564034,0.405229,0.363708798,-0.262181624,0.415936,0.340151634,-0.213846944,0.386756,0.337172283,-0.224783922,0.39119,0.34626514,-0.250474287,0.406074,0.3855594,-0.281611653,0.420419,0.344543751,-0.282618393,0.39562,0.342638075,-0.294729055,0.401677,0.349057332,-0.311735377,0.412753
0.371690955,-0.333821925,0.472381,0.351645117,-0.284800252,0.437767,0.355067566,-0.312595908,0.467121,0.323192433,-0.291520333,0.449785,0.298314172,-0.263242742,0.432053,0.286186278,-0.241195624,0.41848,0.320558259,-0.231541192,0.412044,0.285924463,-0.206716499,0.383745,0.268541015,-0.194257104,0.369596,0.263993655,-0.200484108,0.368827,0.337758433,-0.239039623,0.408679,0.313315943,-0.193959727,0.374871,0.296318558,-0.182898346,0.359435,0.292761649,-0.196744366,0.363197,0.353424102,-0.24955388,0.408649,0.328415383,-0.202010009,0.378729,0.327622805,-0.214895581,0.384935,0.339480417,-0.243860773,0.400189,0.374746202,-0.270095141,0.413625,0.336129375,-0.26786736,0.38828,0.337503422,-0.282003034,0.39385,0.343967049,-0.298982476,0.404929
0.358225581,-0.322718031,0.457293,0.337724765,-0.271939793,0.426561,0.335872641,-0.304773602,0.448751,0.301630495,-0.278529881,0.428713,0.275478434,-0.252137401,0.408054,0.262500813,-0.229079106,0.394603,0.304431316,-0.217071507,0.398866,0.276036953,-0.191411868,0.369366,0.261801061,-0.178518127,0.354617,0.253807855,-0.191112356,0.355556,0.326405608,-0.226061271,0.400734,0.304997597,-0.183981286,0.368624,0.286419616,-0.173547259,0.349893,0.281874787,-0.188307769,0.350663,0.346105498,-0.2379537,0.404705,0.335698613,-0.190789241,0.374668,0.334426858,-0.193894684,0.37553,0.339546107,-0.216463544,0.390351,0.372128401,-0.260443829,0.413839,0.34939437,-0.218897681,0.388582,0.337359542,-0.206586625,0.376978,0.335926942,-0.201232481,0.377048
0.353146762,-0.322237362,0.449167,0.334734447,-0.267765153,0.419857,0.332460462,-0.303093342,0.442514,0.29988221,-0.281081085,0.421448,0.269152909,-0.256383561,0.402773,0.253191437,-0.235180949,0.391859,0.299281162,-0.215989368,0.395317,0.271293498,-0.189637868,0.366676,0.254387668,-0.175397903,0.352356,0.25195672,-0.169815445,0.35407,0.319955321,-0.221263376,0.395226,0.285135813,-0.185856416,0.364435,0.265911136,-0.166409194,0.346474,0.262076654,-0.16897422,0.348114,0.337775832,-0.226359251,0.39747,0.309703263,-0.187636593,0.368827,0.293835399,-0.174768559,0.354173,0.291778822,-0.170529109,0.356041,0.365519739,-0.243075278,0.404362,0.343992754,-0.204399254,0.380285,0.332248781,-0.194421832,0.369223,0.323056324,-0.18995784,0.361706
0.350427389,-0.315927497,0.436516,0.333664099,-0.263954734,0.412373,0.330954085,-0.30562039,0.430983,0.294033661,-0.277459868,0.411642,0.262098339,-0.257317561,0.393214,0.247336411,-0.235009821,0.385195,0.296602171,-0.215452035,0.392094,0.271809015,-0.18881813,0.366853,0.260777264,-0.171341493,0.354232,0.251502955,-0.157953731,0.344799,0.317633993,-0.219168313,0.392084,0.287372763,-0.185005532,0.365196,0.272009713,-0.16333436,0.349512,0.269224204,-0.168978125,0.353646,0.336558163,-0.223813358,0.393987,0.31178776,-0.188183758,0.368601,0.301517343,-0.173305824,0.355613,0.290065032,-0.159030031,0.343806,0.363748643,-0.238653856,0.399728,0.350553388,-0.19935929,0.379026,0.342636654,-0.187528558,0.369514,0.335660533,-0.177025546,0.361122
0.347453564,-0.315381376,0.426238,0.331098961,-0.261765967,0.407063,0.325734114,-0.301098043,0.421977,0.290592513,-0.277740536,0.404769,0.257849305,-0.255665637,0.387408,0.240353852,-0.236643193,0.377914,0.296991827,-0.21823837,0.391124,0.275986964,-0.189113034,0.369615,0.265230918,-0.172423926,0.358861,0.255509861,-0.158171866,0.349084,0.318696074,-0.219472802,0.39095,0.293245961,-0.184658745,0.368031,0.278207617,-0.164309431,0.354662,0.269621101,-0.149120258,0.345112,0.338582347,-0.223600597,0.392324,0.322432889,-0.184758278,0.370497,0.313632423,-0.16440356,0.35972,0.305634064,-0.145875157,0.349924,0.365139146,-0.236865244,0.396722,0.359539129,-0.202527086,0.380283,0.357578392,-0.187024196,0.374288,0.356326999,-0.173638519,0.369511
0.344644179,-0.311631396,0.41969,0.332008823,-0.260500137,0.402462,0.323973465,-0.298589136,0.416745,0.289796495,-0.27923876,0.401484,0.253791553,-0.2570529,0.382156,0.235023482,-0.238721605,0.372765,0.299917614,-0.218341908,0.389249,0.278285866,-0.185090448,0.369685,0.267726929,-0.164618565,0.359902,0.257056533,-0.148028119,0.351009,0.32113481,-0.21848934,0.387984,0.301983395,-0.17956845,0.36683,0.288955346,-0.156503158,0.354491,0.279625506,-0.13988684,0.345677,0.343363052,-0.222657902,0.388306,0.327908102,-0.183415299,0.367935,0.320002984,-0.163415242,0.357513,0.308338983,-0.145668007,0.348038,0.36857833,-0.234898916,0.39118,0.365622508,-0.199848269,0.377036,0.364076548,-0.187537039,0.370537,0.36269264,-0.177078885,0.364803
0.342855303,-0.307687953,0.419456,0.332331349,-0.259207365,0.401354,0.324411007,-0.297343728,0.415926,0.290063731,-0.278031526,0.402122,0.253620527,-0.257882469,0.381876,0.234690877,-0.240241003,0.37282,0.301739913,-0.216308508,0.386984,0.278445723,-0.179411334,0.366891,0.266765916,-0.160853726,0.356844,0.256127354,-0.143912655,0.347711,0.323717465,-0.217023687,0.386232,0.304151979,-0.173527761,0.364296,0.292194136,-0.149615337,0.3515,0.280301792,-0.136567136,0.34236,0.34316188,-0.221595271,0.387051,0.328014183,-0.182084639,0.36605,0.320273631,-0.162064213,0.355305,0.313233307,-0.144676572,0.345538,0.368610523,-0.234378754,0.390645,0.368904354,-0.201013308,0.378409,0.372004963,-0.187870325,0.372787,0.37305665,-0.175817501,0.367827
0.342475303,-0.306720053,0.414708,0.33504685,-0.257389263,0.39929,0.321954618,-0.293968924,0.411607,0.288837342,-0.276643598,0.400153,0.252331058,-0.256954782,0.380281,0.233834781,-0.24037124,0.372211,0.302877289,-0.2157217,0.386963,0.281609229,-0.176740007,0.368815,0.270462879,-0.157603154,0.359742,0.260316529,-0.140163362,0.351492,0.325124672,-0.216794581,0.386462,0.307843761,-0.173498745,0.366546,0.300138949,-0.147504893,0.35605,0.293346733,-0.129692026,0.348552,0.344540079,-0.221541667,0.387279,0.337621647,-0.17947384,0.369277,0.332967627,-0.159078149,0.360067,0.328748386,-0.140486024,0.351694,0.369432944,-0.234275324,0.390487,0.373192603,-0.202099132,0.37817,0.37769582,-0.188575996,0.372511,0.376246389,-0.177376208,0.367517
0.341312432,-0.304232987,0.412181,0.334731851,-0.255650765,0.39807,0.321438511,-0.292082879,0.409769,0.289423146,-0.276575267,0.400416,0.252423564,-0.256907384,0.380317,0.233772622,-0.240634829,0.372389,0.3049216,-0.214038733,0.387304,0.28338272,-0.174256204,0.370451,0.272456402,-0.154956444,0.362506,0.262521191,-0.137402685,0.355284,0.326883978,-0.215174809,0.386301,0.31132827,-0.171232377,0.368327,0.301626018,-0.146004048,0.357842,0.294696899,-0.128003831,0.350353,0.345814525,-0.219879254,0.3866,0.340030601,-0.178187176,0.370584,0.338071373,-0.155486947,0.362389,0.333545378,-0.139522545,0.35494,0.368882156,-0.232646022,0.389006,0.379155805,-0.202624258,0.379364,0.386547798,-0.18907888,0.375494,0.39112957,-0.177907654,0.37208
0.341209748,-0.303312351,0.411739,0.334788686,-0.254737646,0.398053,0.321336538,-0.29106564,0.409236,0.289379244,-0.275906401,0.400983,0.251986273,-0.256913963,0.380703,0.232464448,-0.241758748,0.372803,0.30614936,-0.212055573,0.387384,0.286153153,-0.171766328,0.372907,0.275987973,-0.152723433,0.365669,0.266727316,-0.135345029,0.359089,0.328273202,-0.213573979,0.386611,0.314935412,-0.169219325,0.371685,0.306995338,-0.144197913,0.362977,0.301324261,-0.126309212,0.356758,0.346469787,-0.219270991,0.387066,0.344744303,-0.176929561,0.373636,0.343366722,-0.156559271,0.366765,0.342215975,-0.1384448,0.360518,0.369681801,-0.23238961,0.389595,0.383243157,-0.202898061,0.38124,0.38884633,-0.19053715,0.377401,0.393897325,-0.179776726,0.374014
0.340648052,-0.30168969,0.410477,0.336651072,-0.252194211,0.398659,0.321283835,-0.289821892,0.408524,0.289754525,-0.274056127,0.401874,0.252592283,-0.253886705,0.382838,0.232974805,-0.240268298,0.373877,0.309204394,-0.208813559,0.389701,0.290238233,-0.169767826,0.377052,0.280755424,-0.150814054,0.370727,0.272113365,-0.133508987,0.364977,0.331180449,-0.210547971,0.388774,0.321667692,-0.168268892,0.377943,0.316861298,-0.141294079,0.371625,0.312171266,-0.125937937,0.367112,0.349743283,-0.216870524,0.388955,0.351803411,-0.176745715,0.379767,0.353452637,-0.154580781,0.375065,0.353977644,-0.13891027,0.370792,0.372955391,-0.229632739,0.390891,0.385978503,-0.202778465,0.383259,0.392821018,-0.190594152,0.379753,0.397776033,-0.180311779,0.376659
0.34085271,-0.300656291,0.410207,0.338499104,-0.250661825,0.400183,0.32262634,-0.288830627,0.408013,0.288848189,-0.271640764,0.402277,0.252855966,-0.253792827,0.383644,0.2334458,-0.239560627,0.37613,0.312122318,-0.207312065,0.39191,0.294525009,-0.169389787,0.382861,0.285739102,-0.15063855,0.378336,0.277739373,-0.133553016,0.374222,0.334804507,-0.209258797,0.391802,0.3261947,-0.166703836,0.381927,0.321265422,-0.142075629,0.376167,0.317743891,-0.124450594,0.372052,0.353941771,-0.214571498,0.392514,0.357097563,-0.17571041,0.384792,0.358816583,-0.155967484,0.380842,0.360382698,-0.138004383,0.37725,0.377349157,-0.227626602,0.394817,0.391026521,-0.201261687,0.38711,0.397770736,-0.189824267,0.383569,0.402318766,-0.181521056,0.380445
0.342152696,-0.299651152,0.409784,0.338663138,-0.249895304,0.400173,0.322585806,-0.287771679,0.407602,0.289465854,-0.271593282,0.401896,0.252915656,-0.25361391,0.384005,0.233810606,-0.239634796,0.377198,0.312351494,-0.207143984,0.39214,0.29537098,-0.169553516,0.384035,0.286887141,-0.150926832,0.379983,0.279158281,-0.133943124,0.376299,0.335113445,-0.209105821,0.392138,0.326858064,-0.166625388,0.382587,0.322166735,-0.142082818,0.377016,0.318816211,-0.124498035,0.373037,0.354289454,-0.214413083,0.392907,0.35797949,-0.175795448,0.385766,0.3599876,-0.156159186,0.382113,0.36181989,-0.138281716,0.378791,0.377683203,-0.227422477,0.395219,0.391757895,-0.201287326,0.387911,0.398720317,-0.189960811,0.384554,0.403856368,-0.181707022,0.381591
0.342907593,-0.298290657,0.409631,0.340287662,-0.247327391,0.40129,0.323919553,-0.284041765,0.407233,0.289983845,-0.269133943,0.401924,0.253179908,-0.253568576,0.386643,0.233672313,-0.240520123,0.380713,0.313656019,-0.206939785,0.393688,0.298998401,-0.169576427,0.38838,0.29162034,-0.151303747,0.385726,0.284896455,-0.134639671,0.383313,0.336965808,-0.209204593,0.394326,0.337305393,-0.168207699,0.395531,0.337607217,-0.145889431,0.396234,0.337824647,-0.129823842,0.396737,0.356517564,-0.21387863,0.395521,0.363383775,-0.176915026,0.392302,0.365170291,-0.155969116,0.390655,0.370370403,-0.140629024,0.389158,0.380214856,-0.227026909,0.398152,0.395737063,-0.201688788,0.39236,0.403253954,-0.190546207,0.389699,0.410358451,-0.181442798,0.387351
0.343282299,-0.296417866,0.40944,0.341127699,-0.247241185,0.402546,0.324086283,-0.283399106,0.407455,0.290420901,-0.269403386,0.403163,0.254311625,-0.254449615,0.389585,0.234216567,-0.241401429,0.382568,0.315586688,-0.206640303,0.396254,0.304683148,-0.169846607,0.395493,0.299254168,-0.15233253,0.395112,0.294294558,-0.136326086,0.394767,0.338798074,-0.208822422,0.396788,0.338651079,-0.168917748,0.398074,0.338842772,-0.146595018,0.398825,0.338982763,-0.130521157,0.399361,0.358182149,-0.214243074,0.397784,0.366773837,-0.176949624,0.397971,0.371443345,-0.158808126,0.398067,0.375790579,-0.142209967,0.398155,0.381495191,-0.227251149,0.399971,0.400700078,-0.20260285,0.398525,0.409982959,-0.192235568,0.39786,0.418816625,-0.183413224,0.397274
0.343553941,-0.294928375,0.409863,0.341658522,-0.247162221,0.403349,0.324457798,-0.283092619,0.407932,0.290644477,-0.269520078,0.403895,0.254714277,-0.255095207,0.390889,0.234539946,-0.24196378,0.383787,0.316319164,-0.206647661,0.397323,0.305565121,-0.170289115,0.396892,0.300226652,-0.152827706,0.396676,0.295347936,-0.136867174,0.39648,0.339570478,-0.208875956,0.397899,0.339185284,-0.169197175,0.399023,0.339245818,-0.146826523,0.399679,0.339292935,-0.130724524,0.400147,0.358961963,-0.21433026,0.398899,0.367703665,-0.177408561,0.39921,0.372440986,-0.159287692,0.399369,0.376869534,-0.142700627,0.399514,0.382239893,-0.227371459,0.401038,0.401613035,-0.203148941,0.399612,0.410976772,-0.192826322,0.398957,0.419893827,-0.184060215,0.39838
0.343894201,-0.293992715,0.410212,0.343507848,-0.248238876,0.405992,0.325429259,-0.282599312,0.409057,0.291121068,-0.268829499,0.40628,0.256069978,-0.256150529,0.394931,0.236342662,-0.242462875,0.387716,0.319367198,-0.207262139,0.402214,0.308109467,-0.171743694,0.400989,0.302681979,-0.154106796,0.400377,0.297982421,-0.138072365,0.399821,0.342385395,-0.20929828,0.402468,0.341204853,-0.170508224,0.402271,0.339907908,-0.147725117,0.402157,0.340148144,-0.131550934,0.402075,0.361418201,-0.214533918,0.403018,0.369629709,-0.178696022,0.402664,0.374102569,-0.160527296,0.402482,0.37877745,-0.143893305,0.402318,0.383974126,-0.227188029,0.404289,0.402869195,-0.203973575,0.401598,0.411650199,-0.193387702,0.400362,0.419942771,-0.184346034,0.399271
0.344368146,-0.293155309,0.410862,0.343989935,-0.248391719,0.406906,0.326027714,-0.281807118,0.409872,0.291692424,-0.269080623,0.407298,0.256898548,-0.256449998,0.396268,0.237140142,-0.242890993,0.389241,0.319964851,-0.207807765,0.403477,0.309215829,-0.172427643,0.402569,0.30403518,-0.154810136,0.402115,0.29947129,-0.138752906,0.401702,0.342904327,-0.209746194,0.403603,0.341815165,-0.170995093,0.403513,0.340613457,-0.148279998,0.40346,0.340823368,-0.132109258,0.403423,0.361860247,-0.21489641,0.404029,0.370387723,-0.179230927,0.40394,0.375013672,-0.161129175,0.403894,0.379782006,-0.144555944,0.403852,0.384301823,-0.22743659,0.405118,0.40336845,-0.204339787,0.402537,0.412204119,-0.19379502,0.401351,0.420497572,-0.184747817,0.400304
0.344864543,-0.292767907,0.411787,0.34444689,-0.248569761,0.407714,0.326585401,-0.281403649,0.410876,0.292314803,-0.269470564,0.408314,0.258111216,-0.257307305,0.398178,0.238519571,-0.244010955,0.391668,0.320364629,-0.208172474,0.404321,0.310513189,-0.173191374,0.404342,0.305750899,-0.155692379,0.404353,0.301513078,-0.139692698,0.404363,0.343212975,-0.210022054,0.404316,0.342204002,-0.17131075,0.40432,0.341387728,-0.148765971,0.404658,0.34176165,-0.132670952,0.4049,0.362102872,-0.215107175,0.404645,0.371223794,-0.17973659,0.405122,0.376139794,-0.161739611,0.405366,0.381120995,-0.145252858,0.405587,0.384488278,-0.227583343,0.405637,0.404046522,-0.204758936,0.403508,0.413106502,-0.194317399,0.40253,0.42157521,-0.185326816,0.401667
0.345177157,-0.292037617,0.412082,0.344518197,-0.248499865,0.408012,0.326866318,-0.280668706,0.411151,0.292486755,-0.269497724,0.408659,0.257550476,-0.256497178,0.397341,0.237933187,-0.243184565,0.390831,0.320388034,-0.208262638,0.404593,0.310154769,-0.173018205,0.403931,0.305197152,-0.155416136,0.4036,0.30076084,-0.139339755,0.403299,0.343254983,-0.210109876,0.404615,0.342341705,-0.171466124,0.404731,0.341348125,-0.148847826,0.404798,0.341495841,-0.132708784,0.404846,0.362170611,-0.215195008,0.404967,0.371040731,-0.179715221,0.405102,0.37579993,-0.161677626,0.405172,0.380582254,-0.145180725,0.405235,0.384600877,-0.22767601,0.405986,0.403802247,-0.204689123,0.403474,0.412671236,-0.194182602,0.40232,0.420940201,-0.185122784,0.401302
0.345684639,-0.291902507,0.412913,0.344696095,-0.248059777,0.408557,0.327306176,-0.280499533,0.411925,0.292935094,-0.269812287,0.409364,0.257736479,-0.256494326,0.397649,0.238223857,-0.243300695,0.391409,0.320495189,-0.208388451,0.40491,0.310409871,-0.173179593,0.404303,0.305510039,-0.155579528,0.403999,0.301107838,-0.139497203,0.403723,0.343356739,-0.210218732,0.404922,0.342457495,-0.171588915,0.405054,0.34151555,-0.148991586,0.40513,0.34161694,-0.13286148,0.405185,0.362292511,-0.21530313,0.405288,0.371252889,-0.179866004,0.405462,0.376037341,-0.161839867,0.405551,0.380799425,-0.145363312,0.405632,0.384798274,-0.227812339,0.406367,0.403978968,-0.204819168,0.403808,0.412827664,-0.194308634,0.402633,0.4210599,-0.185231732,0.401596
0.345917074,-0.291839719,0.413462,0.344689999,-0.247736527,0.408913,0.327489942,-0.280385508,0.412439,0.293234814,-0.270011757,0.409844,0.257882745,-0.256493686,0.397891,0.238785574,-0.243776884,0.392883,0.320545677,-0.20846494,0.405115,0.310605042,-0.173302782,0.404587,0.305763401,-0.15571162,0.404323,0.301400246,-0.139630112,0.404083,0.343398807,-0.210280683,0.405117,0.342546559,-0.171683901,0.405304,0.341670628,-0.149112266,0.405414,0.341747743,-0.132994437,0.405492,0.362344768,-0.215361911,0.40549,0.371396415,-0.179971549,0.405715,0.376210526,-0.161959452,0.40583,0.380962987,-0.145503253,0.405935,0.384898391,-0.227886784,0.406607,0.404091586,-0.204907741,0.404043,0.412936528,-0.19440066,0.402864,0.421153411,-0.185316636,0.401825
0.346146106,-0.291773982,0.414007,0.344663791,-0.247399826,0.409244,0.327659524,-0.280259505,0.412935,0.293521784,-0.270214688,0.410294,0.258016243,-0.256509555,0.39811,0.23941463,-0.244321757,0.394468,0.320575805,-0.208519437,0.405266,0.310763092,-0.173402066,0.404816,0.305972577,-0.155820509,0.404591,0.301645359,-0.139741626,0.404386,0.343429116,-0.21032818,0.405269,0.342624573,-0.171763271,0.405512,0.341808189,-0.149213554,0.405655,0.341867906,-0.133106821,0.405756,0.362394952,-0.21541393,0.405661,0.371521939,-0.180060391,0.405927,0.376360036,-0.162058862,0.406063,0.381102895,-0.145618612,0.406187,0.385008783,-0.227964258,0.406831,0.404200689,-0.204988222,0.40425,0.413039201,-0.194481601,0.403064,0.421237488,-0.185388619,0.402017
0.346379132,-0.291971359,0.414621,0.344902021,-0.247591705,0.409915,0.32791551,-0.280480499,0.413598,0.293807859,-0.270337929,0.41099,0.2583619,-0.256580792,0.39886,0.239901888,-0.244475277,0.395402,0.320852933,-0.20875496,0.406031,0.311277028,-0.173697721,0.405504,0.306469334,-0.156075404,0.405241,0.302072331,-0.139954533,0.405002,0.343671079,-0.210531259,0.405988,0.34282003,-0.171986876,0.406218,0.34234382,-0.149480416,0.406353,0.342004658,-0.133389728,0.406449,0.362609355,-0.215591338,0.406338,0.372028139,-0.180328134,0.40654,0.376844386,-0.162295467,0.406643,0.381250588,-0.145892358,0.406737,0.385191588,-0.228112397,0.407449,0.404563041,-0.205281129,0.404977,0.413475281,-0.194834309,0.403841,0.421713461,-0.185772507,0.402839
0.347586222,-0.292989097,0.416055,0.34618976,-0.24878913,0.411598,0.329254105,-0.281688701,0.41525,0.295346496,-0.271333107,0.41277,0.260025866,-0.257316198,0.400674,0.241192516,-0.245060903,0.396636,0.322082656,-0.2102197,0.408124,0.312531911,-0.175073313,0.407438,0.307738142,-0.15741762,0.407095,0.303276963,-0.141174038,0.406783,0.344771768,-0.211806526,0.407878,0.343529222,-0.172911162,0.407419,0.342835266,-0.150317315,0.407353,0.342339654,-0.134176171,0.407305,0.363601575,-0.2167059,0.408041,0.372474387,-0.181060007,0.407436,0.377186119,-0.16298441,0.407472,0.381482891,-0.146545232,0.407504,0.386043585,-0.229022227,0.408895,0.405085537,-0.205879294,0.406005,0.413699524,-0.195252775,0.404677,0.42167746,-0.186082751,0.403505
