sluyters/QuantumLeap/backend/src/datasets/gesture/HandGestureDataset_SHREC2017_csv/Gesture10/finger_2/subject_19_essai_2_skeletons_world.csv
Wrist_x,Wrist_y,Wrist_z,Palm_x,Palm_y,Palm_z,thumb_base_x,thumb_base_y,thumb_base_z,thumb_first_joint_x,thumb_first_joint_y,thumb_first_joint_z,thumb_second_joint_x,thumb_second_joint_y,thumb_second_joint_z,thumb_tip_x,thumb_tip_y,thumb_tip_z,index_base_x,index_base_y,index_base_z,index_first_joint_x,index_first_joint_y,index_first_joint_z,index_second_joint_x,index_second_joint_y,index_second_joint_z,index_tip_x,index_tip_y,index_tip_z,middle_base_x,middle_base_y,middle_base_z,middle_first_joint_x,middle_first_joint_y,middle_first_joint_z,middle_second_joint_x,middle_second_joint_y,middle_second_joint_z,middle_tip_x,middle_tip_y,middle_tip_z,ring_base_x,ring_base_y,ring_base_z,ring_first_joint_x,ring_first_joint_y,ring_first_joint_z,ring_second_joint_x,ring_second_joint_y,ring_second_joint_z,ring_tip_x,ring_tip_y,ring_tip_z,pinky_base_x,pinky_base_y,pinky_base_z,pinky_first_joint_x,pinky_first_joint_y,pinky_first_joint_z,pinky_second_joint_x,pinky_second_joint_y,pinky_second_joint_z,pinky_tip_x,pinky_tip_y,pinky_tip_z,
0.3903057,-0.30976198,0.482596,0.39539598,-0.26202387,0.48233,0.37261094,-0.30149523,0.485179,0.35771017,-0.27394284,0.483828,0.33458624,-0.24955717,0.47396,0.32247534,-0.23082291,0.471254,0.37112071,-0.226225,0.485462,0.36150398,-0.19046086,0.478295,0.35658403,-0.17162611,0.474788,0.35208888,-0.15383791,0.471691,0.39298796,-0.22315605,0.482079,0.37849744,-0.18610664,0.47487,0.36968566,-0.16298797,0.470702,0.36009647,-0.14866145,0.467724,0.41140877,-0.22457684,0.47932,0.39613474,-0.19183027,0.473266,0.38977267,-0.16897836,0.47196,0.38073611,-0.15556735,0.470772,0.43374209,-0.23337325,0.476138,0.42104383,-0.20485879,0.468964,0.41284206,-0.19124879,0.465696,0.40638716,-0.17791909,0.462892
0.39156275,-0.3089056,0.483242,0.38864616,-0.25729982,0.474352,0.3743171,-0.30087682,0.486292,0.35445041,-0.27124683,0.479934,0.32817734,-0.2466945,0.470565,0.31902161,-0.22967806,0.46838,0.36136367,-0.21947704,0.472459,0.34471188,-0.17814879,0.457177,0.33621465,-0.15780176,0.449537,0.32818679,-0.1392837,0.442591,0.38003779,-0.21236994,0.466012,0.35812644,-0.17281345,0.450938,0.34483487,-0.14417158,0.442145,0.33581314,-0.13038384,0.435865,0.39590997,-0.21319478,0.46156,0.37014906,-0.17133708,0.448998,0.35635915,-0.15081969,0.442571,0.34363833,-0.13177535,0.436728,0.41656226,-0.22215921,0.457876,0.40123314,-0.179203,0.444545,0.39085979,-0.16785414,0.43842,0.38224032,-0.16164239,0.433015
0.39134236,-0.30740757,0.48214,0.38637286,-0.25590988,0.47272,0.37364457,-0.29899225,0.484476,0.35193438,-0.26923612,0.477144,0.32524309,-0.24360619,0.469006,0.31980759,-0.22820966,0.467644,0.35978221,-0.21578828,0.469567,0.34182658,-0.17566568,0.454031,0.33410543,-0.15941822,0.446263,0.32662747,-0.14100826,0.439202,0.37839945,-0.21218805,0.463883,0.35708038,-0.16932657,0.448111,0.34427292,-0.14394294,0.43891,0.33549037,-0.13163796,0.432339,0.39484496,-0.21360078,0.46011,0.37051485,-0.17051597,0.445879,0.36149686,-0.15014664,0.438599,0.35123222,-0.13462571,0.43198,0.41617546,-0.22330316,0.457311,0.40067743,-0.18008642,0.443451,0.39042397,-0.16856017,0.437083,0.3801259,-0.16416924,0.431464
0.39179865,-0.3066226,0.481884,0.38573983,-0.25583526,0.472299,0.37404548,-0.29810816,0.484085,0.35117584,-0.26859461,0.476558,0.32548113,-0.24301354,0.468666,0.31961635,-0.22760739,0.467317,0.35920648,-0.21561532,0.468865,0.34141832,-0.17551359,0.453242,0.33340315,-0.15849399,0.445431,0.32583373,-0.14010907,0.438329,0.37796224,-0.2121878,0.463307,0.35689548,-0.16932301,0.447346,0.34424425,-0.14393307,0.438036,0.33503416,-0.1305883,0.431385,0.39451332,-0.21374814,0.459654,0.37095467,-0.1703897,0.445226,0.36087458,-0.14988818,0.437844,0.35028653,-0.13310544,0.431133,0.41595489,-0.22363524,0.457022,0.40041953,-0.18034805,0.443006,0.39021477,-0.16876763,0.436566,0.3798536,-0.16340824,0.430884
0.39559281,-0.30805299,0.484747,0.3854183,-0.25586869,0.47071,0.37905945,-0.29724965,0.485272,0.35427473,-0.27216023,0.474952,0.32981653,-0.24692945,0.465709,0.32011355,-0.22876464,0.465285,0.35528116,-0.21359381,0.462227,0.33479291,-0.1726673,0.442632,0.32629969,-0.15404214,0.432834,0.31514113,-0.1390842,0.423927,0.37487432,-0.2109547,0.45754,0.35066764,-0.16722602,0.437118,0.33791387,-0.14476274,0.425204,0.32590183,-0.12328637,0.416695,0.3961722,-0.21549382,0.455034,0.36830585,-0.17351842,0.436554,0.35375848,-0.15337727,0.4271,0.34034725,-0.13537378,0.418505,0.42017779,-0.22721542,0.454505,0.39731881,-0.18655278,0.43679,0.38647322,-0.16944533,0.428651,0.37349009,-0.1589629,0.42161
0.39492595,-0.30688092,0.482301,0.38557277,-0.25982734,0.466456,0.37570315,-0.29713261,0.482766,0.35063116,-0.27254522,0.472095,0.32515309,-0.24681137,0.460293,0.31453767,-0.22798691,0.45564,0.35436149,-0.21466989,0.456717,0.33229503,-0.17448991,0.436224,0.32126409,-0.15659418,0.425977,0.31030996,-0.13729934,0.416662,0.37495884,-0.21596825,0.451591,0.34849611,-0.16738021,0.429567,0.3325326,-0.14385639,0.416719,0.32157826,-0.13437871,0.407542,0.39252662,-0.2200217,0.448896,0.36610116,-0.17850629,0.429131,0.35245002,-0.15688543,0.419018,0.33659882,-0.13473895,0.409825,0.41556227,-0.23350013,0.448457,0.39221197,-0.19110497,0.429597,0.38077837,-0.1760569,0.420931,0.3706346,-0.16260233,0.413285
0.39135735,-0.30468713,0.477137,0.38112567,-0.2644495,0.462533,0.37381411,-0.29580411,0.479379,0.34329375,-0.27991356,0.471087,0.32495139,-0.25842859,0.469872,0.322313,-0.23949426,0.471897,0.35648756,-0.21848011,0.455878,0.33683369,-0.1828803,0.437544,0.32655212,-0.16381842,0.429258,0.31718926,-0.14610186,0.421847,0.37658132,-0.22142048,0.448832,0.35364634,-0.18272083,0.428448,0.34042395,-0.15946054,0.416958,0.33093485,-0.14240201,0.408813,0.39205357,-0.22683789,0.444438,0.36785099,-0.1877257,0.426961,0.35529518,-0.1670626,0.418042,0.34379383,-0.14785014,0.409985,0.41135766,-0.24175641,0.441799,0.39033427,-0.20072765,0.424707,0.37998431,-0.18559583,0.416854,0.37079252,-0.172027,0.409925
0.38016176,-0.30697224,0.462683,0.36898862,-0.26219227,0.446123,0.36219506,-0.29947583,0.464698,0.33863813,-0.28183992,0.455856,0.3145519,-0.26060467,0.447917,0.30468336,-0.24354738,0.445949,0.34049555,-0.22039653,0.437903,0.31786939,-0.18266181,0.415919,0.30663355,-0.16344316,0.40515,0.29639834,-0.14568311,0.395418,0.35812866,-0.2183603,0.430588,0.33147899,-0.17811356,0.408334,0.31579274,-0.15400246,0.395407,0.30451905,-0.13644434,0.38621,0.3742103,-0.22153186,0.42616,0.34843487,-0.17838209,0.405445,0.33516049,-0.15593315,0.394847,0.32107183,-0.14171599,0.385213,0.39589896,-0.23406419,0.423816,0.37719423,-0.1894949,0.40595,0.36540492,-0.18051771,0.397741,0.35487704,-0.17244124,0.390498
0.37281802,-0.31254981,0.452586,0.36351249,-0.2702612,0.43547,0.36042399,-0.30651612,0.455116,0.33344965,-0.28633355,0.446864,0.30970002,-0.2657155,0.439672,0.29863015,-0.24845421,0.435545,0.33383415,-0.22435915,0.427545,0.30844566,-0.18977299,0.405734,0.2956538,-0.17204847,0.394927,0.28394408,-0.15562888,0.385153,0.35006704,-0.2226042,0.419412,0.32216354,-0.18373498,0.396861,0.30569344,-0.16041222,0.383746,0.29383608,-0.1434099,0.374413,0.36510996,-0.22604295,0.414364,0.34067053,-0.18220289,0.392736,0.32810893,-0.15942716,0.381671,0.3120606,-0.15110075,0.371612,0.38572793,-0.23896455,0.41139,0.37080831,-0.19352943,0.394418,0.35811183,-0.18880281,0.38662,0.34673347,-0.18460264,0.379739
0.37518628,-0.31914217,0.447816,0.36056581,-0.27577099,0.427712,0.35833974,-0.3127162,0.448359,0.32988678,-0.29192489,0.437237,0.30209977,-0.26913119,0.424885,0.28968437,-0.25131114,0.419514,0.32544562,-0.22821255,0.415295,0.29875912,-0.19022184,0.390819,0.28533637,-0.17096656,0.378581,0.27198413,-0.15087171,0.367456,0.34288253,-0.22654303,0.408851,0.31198749,-0.18566515,0.383223,0.29383683,-0.16145554,0.368273,0.28071959,-0.1404435,0.357594,0.35950876,-0.2302081,0.405481,0.33216547,-0.18353643,0.380963,0.3181792,-0.15968143,0.368418,0.30066309,-0.15571669,0.357014,0.38303537,-0.24376891,0.404982,0.36450411,-0.19645571,0.385825,0.35009733,-0.18655723,0.377023,0.33803087,-0.18093949,0.369256
0.37784606,-0.33355707,0.440306,0.36154744,-0.28933871,0.420532,0.36453021,-0.33178056,0.441971,0.33450673,-0.3079825,0.432312,0.30787217,-0.2867229,0.422993,0.2952654,-0.26975326,0.418022,0.32585811,-0.24356283,0.409767,0.29830511,-0.20557832,0.385193,0.28445074,-0.18635885,0.372906,0.27180358,-0.16873407,0.361736,0.34197956,-0.2410255,0.401981,0.31049914,-0.20088216,0.377018,0.29192431,-0.17722707,0.362456,0.27857482,-0.16013248,0.352055,0.3576401,-0.24389556,0.397475,0.32955346,-0.19780896,0.373188,0.31518433,-0.17423419,0.360762,0.29746338,-0.17008337,0.349466,0.38023442,-0.25631555,0.395589,0.35970808,-0.21159117,0.377887,0.34739977,-0.19772295,0.369754,0.33459624,-0.18216617,0.362577
0.37462086,-0.34410096,0.43251,0.35298694,-0.29549699,0.411101,0.3560956,-0.33258767,0.433394,0.32358785,-0.31231589,0.422574,0.29738159,-0.29014824,0.413137,0.28912267,-0.27014585,0.411478,0.31716753,-0.24650441,0.398269,0.28873526,-0.20915392,0.37252,0.27444342,-0.19027487,0.359645,0.26140015,-0.17297435,0.347941,0.3339407,-0.24457422,0.391016,0.30136316,-0.20517227,0.364428,0.28221952,-0.1818651,0.348918,0.26847078,-0.16504402,0.33784,0.3501256,-0.24818914,0.387106,0.32149545,-0.20244184,0.361229,0.3068459,-0.17902574,0.34799,0.28878254,-0.1763232,0.335954,0.37339663,-0.26199086,0.386197,0.34904331,-0.21374144,0.364147,0.33408738,-0.20646802,0.354016,0.32077617,-0.20002132,0.345077
0.36805308,-0.35360044,0.429357,0.34492096,-0.30219256,0.405073,0.34799256,-0.33988467,0.428288,0.31345361,-0.31730913,0.414755,0.28630131,-0.29586441,0.403132,0.27231954,-0.27797252,0.395014,0.30700369,-0.25091988,0.387867,0.27959407,-0.2148411,0.359352,0.26584347,-0.19663376,0.345095,0.25331088,-0.17996512,0.332134,0.32566347,-0.25181537,0.382291,0.29395635,-0.21330357,0.352706,0.27531468,-0.19071196,0.335447,0.26194823,-0.17442804,0.32312,0.34342221,-0.25776324,0.38004,0.31292632,-0.2129571,0.352041,0.29732177,-0.19002283,0.337716,0.27947969,-0.18842836,0.324693,0.36846936,-0.27423714,0.381563,0.34330568,-0.22667123,0.356431,0.32860625,-0.21743961,0.344884,0.31557181,-0.20926003,0.334695
0.3612175,-0.35963247,0.422268,0.3418531,-0.31006993,0.397412,0.34180522,-0.34574027,0.421592,0.31057731,-0.32840999,0.40851,0.28126194,-0.30542925,0.395957,0.26649693,-0.28715454,0.388133,0.30431133,-0.25721989,0.380334,0.27416958,-0.22297698,0.351492,0.2590267,-0.20570634,0.33707,0.24521157,-0.18990288,0.32396,0.32193136,-0.25790934,0.374093,0.28783524,-0.22125506,0.344181,0.26782261,-0.19963731,0.326732,0.25346032,-0.18406586,0.314269,0.33896297,-0.26387509,0.371348,0.30684104,-0.2199789,0.342893,0.29040031,-0.1974952,0.328335,0.27144052,-0.19426535,0.3151,0.3634355,-0.2807761,0.372393,0.33605846,-0.23352419,0.347109,0.32041871,-0.22284446,0.335492,0.30655548,-0.21337981,0.325242
0.35679909,-0.37124004,0.419506,0.33377278,-0.31956275,0.39293,0.33682053,-0.35538803,0.417652,0.30099928,-0.3350583,0.402982,0.27282097,-0.31196453,0.389863,0.25834493,-0.2931646,0.380768,0.29711924,-0.26423813,0.373222,0.26862004,-0.23133136,0.342827,0.25432429,-0.21475646,0.327629,0.24129607,-0.199603,0.313813,0.31566608,-0.26740765,0.367997,0.28330474,-0.23201179,0.336333,0.26434524,-0.21116917,0.317862,0.25075718,-0.19617234,0.304669,0.33325932,-0.27545819,0.366255,0.30300776,-0.23234179,0.335935,0.28752433,-0.21023399,0.320423,0.26852007,-0.20737891,0.30632,0.35798331,-0.29483591,0.368766,0.33247476,-0.24766938,0.34194,0.31732517,-0.23740638,0.329615,0.30391216,-0.22833147,0.31874
0.35016062,-0.37820384,0.413954,0.33125815,-0.3267081,0.387002,0.331545,-0.36257975,0.4131,0.30086702,-0.34366428,0.39968,0.27221286,-0.32104045,0.387303,0.25745752,-0.3027864,0.378845,0.29477566,-0.27159283,0.368331,0.26339583,-0.23921426,0.337881,0.24763698,-0.22292741,0.322656,0.23326197,-0.20805212,0.308815,0.31157059,-0.27426439,0.361717,0.27620701,-0.23948736,0.330106,0.25546021,-0.219044,0.311666,0.24057423,-0.20435305,0.298494,0.32788793,-0.28195795,0.358868,0.29521932,-0.23941167,0.328791,0.27849225,-0.21759883,0.313402,0.25809789,-0.21507754,0.299413,0.35142241,-0.30101585,0.360149,0.32444983,-0.25400086,0.333543,0.3080776,-0.24402766,0.321318,0.29357437,-0.23521977,0.310532
0.35067275,-0.3808387,0.413424,0.33013754,-0.32747715,0.385483,0.33092765,-0.36447268,0.411479,0.29866605,-0.34416522,0.396631,0.26877393,-0.32489108,0.382427,0.25484562,-0.30419035,0.375197,0.29138108,-0.27163345,0.364769,0.26006042,-0.24313185,0.333313,0.24461553,-0.22744919,0.317585,0.22979973,-0.20867827,0.303286,0.30939353,-0.27474105,0.359269,0.27453235,-0.24366985,0.326517,0.25413193,-0.22404007,0.307411,0.23811618,-0.20548092,0.293764,0.32687163,-0.28283162,0.357432,0.29360765,-0.24036863,0.326136,0.27760384,-0.22197695,0.310124,0.25637077,-0.21624808,0.295568,0.35202925,-0.3024297,0.360067,0.32413656,-0.2552397,0.33243,0.30774601,-0.24541894,0.319732,0.29323621,-0.23675278,0.308528
0.34748527,-0.38517729,0.408242,0.32355508,-0.33578586,0.379155,0.32773413,-0.368929,0.406387,0.29306428,-0.35413444,0.39162,0.26305609,-0.33195446,0.377762,0.24719001,-0.31376682,0.368145,0.28371538,-0.27966439,0.357807,0.25141877,-0.24851132,0.32557,0.23521282,-0.23288376,0.309451,0.2204396,-0.21864106,0.294798,0.3015008,-0.28259326,0.351866,0.26503285,-0.24918633,0.318277,0.24366064,-0.2296159,0.298683,0.22833793,-0.21558942,0.284687,0.31887906,-0.29057336,0.349776,0.28461954,-0.24892722,0.317663,0.2670835,-0.22759827,0.301232,0.24659612,-0.22572705,0.286296,0.34410813,-0.31008686,0.35231,0.31531962,-0.26312326,0.323991,0.29860599,-0.25379999,0.310979,0.28381329,-0.24558769,0.299498
0.34448333,-0.39059287,0.405213,0.32131717,-0.34289658,0.375738,0.32343252,-0.37910798,0.402551,0.29038233,-0.36099618,0.386755,0.26117402,-0.33865931,0.372206,0.24597682,-0.3205708,0.362127,0.28178439,-0.28554409,0.353104,0.24987138,-0.25610278,0.320621,0.2338558,-0.24135065,0.304379,0.21925411,-0.22791752,0.289614,0.30043738,-0.28975323,0.348085,0.26419584,-0.25778263,0.313927,0.24296274,-0.23908508,0.294002,0.22774292,-0.22570181,0.27977,0.3184281,-0.2988057,0.346791,0.2845214,-0.25839581,0.314245,0.26716193,-0.2376837,0.297594,0.24688294,-0.23633817,0.282457,0.34416013,-0.3195938,0.350323,0.31566174,-0.27320638,0.321525,0.29921074,-0.26420441,0.308293,0.28463712,-0.25637431,0.296618
0.34279886,-0.40088817,0.404823,0.31928915,-0.35260847,0.375238,0.32154325,-0.38826172,0.40185,0.28765516,-0.37021171,0.385663,0.25821174,-0.34760617,0.3708,0.242881,-0.32941211,0.360551,0.27955538,-0.29474283,0.352135,0.24754176,-0.26534771,0.319841,0.23145126,-0.25067128,0.303694,0.21677581,-0.23731586,0.289015,0.29854435,-0.29937556,0.347482,0.26399972,-0.26586788,0.31314,0.24333225,-0.24739414,0.293107,0.22852292,-0.23418057,0.278798,0.31681117,-0.30879991,0.3465,0.28269308,-0.26834134,0.314123,0.26521108,-0.24764547,0.297558,0.24511282,-0.24648734,0.282498,0.34284941,-0.33005458,0.350416,0.3139159,-0.28353476,0.321616,0.29748784,-0.27437287,0.308383,0.28290273,-0.26657067,0.296707
0.36098199,-0.411462,0.400203,0.33020362,-0.35208396,0.371153,0.3379901,-0.3988161,0.398174,0.29924025,-0.37533414,0.383187,0.26713935,-0.35729007,0.370904,0.24837906,-0.34107541,0.361083,0.28248405,-0.29981905,0.349606,0.24928282,-0.2704148,0.317235,0.23261483,-0.25569665,0.301049,0.21624504,-0.23886919,0.286551,0.29851933,-0.29721905,0.343898,0.26400392,-0.26985261,0.310026,0.24193682,-0.25335783,0.290267,0.22609659,-0.24158589,0.276153,0.32064574,-0.30231437,0.341996,0.28042263,-0.26715684,0.309902,0.26210925,-0.25285056,0.293481,0.24507452,-0.25695493,0.278553,0.34897358,-0.3172338,0.344745,0.30977158,-0.2793736,0.316869,0.29466802,-0.2798806,0.304061,0.28087483,-0.28041744,0.292761
0.36232116,-0.41139195,0.39953,0.3297835,-0.35190488,0.369493,0.33905858,-0.39890542,0.397381,0.29978327,-0.37599569,0.38223,0.26750635,-0.35878878,0.370143,0.24835628,-0.34292622,0.360211,0.28068151,-0.29977026,0.34715,0.24625827,-0.27078035,0.314029,0.22811301,-0.25996107,0.297468,0.21324235,-0.2430997,0.282413,0.29958724,-0.29787314,0.341313,0.26084729,-0.27021621,0.306847,0.23722882,-0.25802061,0.286742,0.22181276,-0.24264332,0.272381,0.31862766,-0.30184405,0.3394,0.27871278,-0.26976728,0.306677,0.25747097,-0.25692783,0.289934,0.24096068,-0.25739212,0.274714,0.34727505,-0.31657043,0.342305,0.30739574,-0.27919465,0.31387,0.29147506,-0.27977473,0.300806,0.27740732,-0.28036517,0.289279
0.36345444,-0.41141943,0.399232,0.32891052,-0.35109032,0.367533,0.33924911,-0.39842471,0.396215,0.29930125,-0.37453379,0.37997,0.26759027,-0.3579091,0.368381,0.24862771,-0.34208009,0.358557,0.27750724,-0.29792869,0.342996,0.2418343,-0.27173553,0.308594,0.22374497,-0.26453616,0.291393,0.20668033,-0.25788594,0.275756,0.29688655,-0.29635986,0.337794,0.25687845,-0.27144709,0.301889,0.23324501,-0.25593607,0.280945,0.21630062,-0.24489158,0.265984,0.31657086,-0.30067762,0.336565,0.27533053,-0.27113678,0.302371,0.2539017,-0.25519294,0.284876,0.2364121,-0.25917808,0.268972,0.34642163,-0.31596261,0.340552,0.30546637,-0.28053995,0.310813,0.28913309,-0.28131577,0.297149,0.27431077,-0.2789916,0.285093
0.36202171,-0.40952664,0.397035,0.32698941,-0.34969233,0.365322,0.33798373,-0.3969976,0.394252,0.29831866,-0.37348897,0.378305,0.26695944,-0.35779773,0.366937,0.24804207,-0.34232739,0.357087,0.27544009,-0.29897943,0.341074,0.23950421,-0.27139214,0.306889,0.22059025,-0.26356853,0.289796,0.20341117,-0.25699441,0.274258,0.29461002,-0.29687865,0.33557,0.25410134,-0.27062398,0.299737,0.23036176,-0.25537553,0.278835,0.21334019,-0.24452273,0.263905,0.31421223,-0.30067134,0.334092,0.27235406,-0.27007717,0.300076,0.25086961,-0.25442403,0.282672,0.23352929,-0.25852375,0.266851,0.34412028,-0.31516891,0.337792,0.30219221,-0.27893447,0.308186,0.28593415,-0.27983398,0.294583,0.27146349,-0.27809686,0.282581
0.36046515,-0.40750959,0.395113,0.32528656,-0.34810824,0.363437,0.33679862,-0.39535978,0.392714,0.29755765,-0.37227233,0.377264,0.26626156,-0.3569042,0.365882,0.24736871,-0.34163669,0.356023,0.27402123,-0.29771436,0.339705,0.23782468,-0.27047018,0.305596,0.21858104,-0.26218102,0.288542,0.20119116,-0.25567275,0.273037,0.2926997,-0.29536679,0.33372,0.25198659,-0.26953399,0.298055,0.22602232,-0.25654103,0.277251,0.21100394,-0.24386646,0.262391,0.31186678,-0.29892587,0.331842,0.26968404,-0.27004794,0.29804,0.24645351,-0.25527071,0.280746,0.23094297,-0.25755826,0.265024,0.34122516,-0.31308739,0.335068,0.29934353,-0.27828359,0.305714,0.28306956,-0.27830799,0.292227,0.26867743,-0.27922698,0.280326
0.35941674,-0.40681499,0.394502,0.3263822,-0.3491323,0.36475,0.33634202,-0.39508166,0.39267,0.29785523,-0.37178932,0.379256,0.26567074,-0.35427907,0.366026,0.24714962,-0.33838712,0.355074,0.27731966,-0.29804098,0.342998,0.24368278,-0.26763943,0.310144,0.22637061,-0.2545997,0.293717,0.20980826,-0.24736654,0.278783,0.29571638,-0.29650356,0.336837,0.25787342,-0.26696868,0.302607,0.23541565,-0.25113629,0.282639,0.21929998,-0.23985281,0.268377,0.31460307,-0.30005575,0.33463,0.27554799,-0.26810148,0.302167,0.25518033,-0.25024798,0.285558,0.2382129,-0.25668439,0.270459,0.34309054,-0.31401975,0.337142,0.30338065,-0.27772611,0.309037,0.28771317,-0.27888088,0.296124,0.27333689,-0.28098908,0.284731
0.352681,-0.40273124,0.396688,0.32369713,-0.33740951,0.365761,0.32561075,-0.38414404,0.393163,0.29078537,-0.36100223,0.37627,0.25845024,-0.34364647,0.36229,0.23895912,-0.32459491,0.352845,0.27636133,-0.28349211,0.341076,0.24213607,-0.25519714,0.307524,0.22397008,-0.24664921,0.290748,0.20773943,-0.24082558,0.275498,0.29697165,-0.28446933,0.336747,0.25787495,-0.2567439,0.301228,0.23495943,-0.24060321,0.280509,0.21794815,-0.22820563,0.26571,0.31708593,-0.29073497,0.336161,0.27749886,-0.25831068,0.302778,0.2571491,-0.24207585,0.285698,0.23719092,-0.24345981,0.270171,0.34630206,-0.30799384,0.34077,0.30756664,-0.27081827,0.311104,0.29084067,-0.26898598,0.297474,0.27411578,-0.26623543,0.285448
0.35044878,-0.39383808,0.400104,0.32682771,-0.32943311,0.36989,0.32783399,-0.37877542,0.396859,0.29478274,-0.35446843,0.380321,0.2599804,-0.33636199,0.367225,0.24122653,-0.32224046,0.355539,0.2770691,-0.27868118,0.346028,0.24326988,-0.24974281,0.312921,0.22413885,-0.24115647,0.296367,0.21057837,-0.23505406,0.281319,0.29848738,-0.2772576,0.341544,0.25821489,-0.25095691,0.306644,0.23571872,-0.23351779,0.286285,0.21959584,-0.22105421,0.271744,0.31867084,-0.28242268,0.340762,0.27766759,-0.25049669,0.307794,0.25658885,-0.234505,0.290926,0.23981844,-0.23647052,0.275593,0.34829946,-0.29823608,0.345019,0.3082579,-0.26192968,0.315862,0.29259358,-0.25981214,0.302465,0.27779704,-0.25769054,0.290645
0.3567705,-0.38087199,0.399597,0.3256225,-0.3180664,0.368526,0.33299207,-0.3677009,0.396337,0.29435954,-0.34366619,0.379775,0.26145652,-0.32723994,0.366028,0.24196217,-0.31011223,0.355731,0.2764675,-0.26618481,0.344086,0.2408251,-0.23780361,0.310568,0.22220502,-0.22915732,0.29381,0.20500888,-0.223892,0.278574,0.29659269,-0.26564156,0.339376,0.25600444,-0.23783782,0.303839,0.23221626,-0.22161907,0.283109,0.21515957,-0.21003443,0.268302,0.31654613,-0.27057309,0.33849,0.27516871,-0.23820542,0.305024,0.25392176,-0.22198324,0.287902,0.23660864,-0.22553831,0.272337,0.34603211,-0.28613933,0.342773,0.30564828,-0.24965949,0.313188,0.28949133,-0.25012523,0.299595,0.27495213,-0.25649007,0.287601
0.35674832,-0.37626065,0.399976,0.32683474,-0.30889085,0.370904,0.33315487,-0.35833319,0.3971,0.29462945,-0.3335942,0.381047,0.26245324,-0.31663911,0.368033,0.24364078,-0.2993572,0.358433,0.2795029,-0.25753719,0.348261,0.24522655,-0.22778869,0.316234,0.22722164,-0.21839514,0.300221,0.21053286,-0.21248942,0.285664,0.2996337,-0.2567377,0.34363,0.26056423,-0.22745115,0.309709,0.2376341,-0.21030904,0.289921,0.22117519,-0.19803144,0.275787,0.31940827,-0.26141963,0.342618,0.27954405,-0.22767441,0.310692,0.25905523,-0.21069767,0.294357,0.24234858,-0.21404349,0.279508,0.34835354,-0.27663802,0.34641,0.30919955,-0.2392796,0.318038,0.29362441,-0.23934382,0.305003,0.28084095,-0.2421093,0.293501
0.36150024,-0.36272473,0.407197,0.33028849,-0.29517487,0.377965,0.33702634,-0.34036999,0.404397,0.29864249,-0.32075644,0.388436,0.26591381,-0.30368857,0.375106,0.24683389,-0.28652879,0.36552,0.28217834,-0.24476741,0.355315,0.24729097,-0.21438222,0.323188,0.22907909,-0.20460015,0.307125,0.21225702,-0.19832318,0.292522,0.30215139,-0.24316787,0.350541,0.26244501,-0.21321211,0.316522,0.23914852,-0.19565566,0.296678,0.2224309,-0.18306808,0.282504,0.32188226,-0.24715198,0.349426,0.28132529,-0.21293986,0.317461,0.26049511,-0.19571211,0.301108,0.24391534,-0.19884607,0.28624,0.35095854,-0.26149486,0.353125,0.31111673,-0.22416979,0.324714,0.29556795,-0.22402504,0.31166,0.28290503,-0.22669352,0.300142
0.36523559,-0.36335004,0.424711,0.33316429,-0.30086425,0.399056,0.33084298,-0.34551176,0.420641,0.29828682,-0.32059063,0.405307,0.26699637,-0.29508251,0.388577,0.25085529,-0.27361217,0.379125,0.28984676,-0.24839112,0.377111,0.26124259,-0.20710658,0.348654,0.24664887,-0.19165465,0.334425,0.23468661,-0.19459553,0.32149,0.31289491,-0.24843671,0.374987,0.28155163,-0.21015549,0.343424,0.26320575,-0.18760698,0.325013,0.25087467,-0.18744651,0.311862,0.33419058,-0.25378171,0.375709,0.29735181,-0.20551032,0.346227,0.28494981,-0.20969454,0.331143,0.27782968,-0.21918079,0.31743,0.36343347,-0.26968393,0.380944,0.33105603,-0.26810715,0.353821,0.31940728,-0.27267798,0.341359,0.32302857,-0.2829018,0.344177
0.35402191,-0.35578444,0.429645,0.33480161,-0.29068187,0.406438,0.32601666,-0.33135422,0.424455,0.29636037,-0.30414054,0.409543,0.26803867,-0.27689356,0.394465,0.25416208,-0.25626959,0.38422,0.29688703,-0.23506341,0.384658,0.26853012,-0.19762447,0.357275,0.25389952,-0.18234443,0.343583,0.24145164,-0.18661639,0.331136,0.32100414,-0.23901866,0.384666,0.29217435,-0.20270366,0.354887,0.27528105,-0.18117983,0.337516,0.26230011,-0.18186572,0.325109,0.34281331,-0.24758694,0.386908,0.31013158,-0.1991162,0.358454,0.29684261,-0.20410598,0.343895,0.28808912,-0.21493232,0.330661,0.37182041,-0.2674047,0.393502,0.34379851,-0.22095439,0.367319,0.33104913,-0.20861957,0.355289,0.33431894,-0.22134277,0.359018
0.35799576,-0.34564352,0.43656,0.34433018,-0.28361645,0.414885,0.33357256,-0.32981511,0.430568,0.30560004,-0.29699853,0.41674,0.27714461,-0.27231688,0.400689,0.25858374,-0.25448424,0.387774,0.30275007,-0.2328351,0.393078,0.27609805,-0.19051748,0.366331,0.26314767,-0.17324336,0.352958,0.25377627,-0.17346173,0.340801,0.32859549,-0.23456743,0.394551,0.30401312,-0.19460273,0.365932,0.28980205,-0.17237245,0.349238,0.28072784,-0.16962414,0.337313,0.3517619,-0.2409828,0.397851,0.32099979,-0.19918171,0.370043,0.30522686,-0.17765599,0.355816,0.29438467,-0.17161579,0.342882,0.38227985,-0.25754015,0.40542,0.35020045,-0.21747298,0.379851,0.33879901,-0.20860313,0.368103,0.34210475,-0.2088993,0.372296
0.36069682,-0.34269979,0.438143,0.34701766,-0.28324819,0.417881,0.3360552,-0.32758981,0.432095,0.30751985,-0.29615906,0.41852,0.27920675,-0.27135445,0.402611,0.2651282,-0.251742,0.393414,0.30579017,-0.23289981,0.396922,0.28002177,-0.19048848,0.371243,0.26799021,-0.17022033,0.358404,0.25892732,-0.1730812,0.346732,0.33208485,-0.23464448,0.398872,0.30880824,-0.19136088,0.371473,0.29549539,-0.16852726,0.355491,0.28748379,-0.16503194,0.344075,0.35554707,-0.24102606,0.402428,0.32564046,-0.19593027,0.375628,0.31044011,-0.17409601,0.361916,0.30032632,-0.17102573,0.34945,0.38626134,-0.25746642,0.410056,0.35461498,-0.21423094,0.385361,0.34399613,-0.2048039,0.374014,0.34805711,-0.20837263,0.378694
0.37174419,-0.34214595,0.451293,0.35583416,-0.27797482,0.431124,0.34729706,-0.3278222,0.445867,0.31581262,-0.2879592,0.432736,0.28982319,-0.26134625,0.418771,0.27734246,-0.240744,0.410495,0.3191034,-0.22509044,0.411023,0.29094912,-0.18662604,0.385956,0.27680699,-0.16720983,0.373422,0.26557904,-0.15723145,0.362028,0.3444068,-0.22862112,0.412203,0.32317323,-0.18954758,0.384995,0.31081544,-0.16631797,0.369123,0.30196017,-0.16201345,0.357786,0.36671236,-0.23653936,0.415117,0.34801258,-0.19990781,0.388409,0.33853927,-0.18075719,0.374745,0.32861731,-0.18344338,0.362323,0.39555423,-0.25496339,0.421977,0.36641079,-0.21330943,0.397591,0.35571492,-0.20277759,0.386386,0.35995454,-0.20151852,0.391195
0.37068328,-0.33594173,0.461118,0.35743162,-0.2759798,0.44069,0.34777626,-0.3191945,0.455935,0.31519351,-0.28281113,0.441411,0.29009407,-0.25605672,0.42516,0.27773744,-0.23463428,0.415459,0.32465294,-0.22137576,0.42073,0.29721984,-0.18445876,0.395961,0.28341708,-0.16575362,0.383576,0.27243035,-0.15966378,0.372318,0.34913489,-0.22665082,0.421525,0.32670401,-0.18882313,0.394135,0.31362415,-0.16628319,0.378157,0.30428412,-0.14992702,0.366744,0.37059604,-0.23604972,0.424147,0.35477149,-0.2023725,0.397273,0.34575387,-0.18328755,0.383524,0.33393328,-0.1859461,0.371024,0.40089733,-0.25829733,0.43071,0.37083911,-0.20877278,0.406258,0.36106952,-0.2056921,0.395023,0.367469,-0.2223221,0.399775
0.39135137,-0.32301796,0.472756,0.37052615,-0.26677047,0.44934,0.36590855,-0.30987139,0.46711,0.33378732,-0.28115454,0.450786,0.30389539,-0.25454848,0.432874,0.28452258,-0.23528316,0.420584,0.32594702,-0.21640846,0.426838,0.29797585,-0.17680475,0.399385,0.2839834,-0.15729165,0.385658,0.27218176,-0.14812849,0.373179,0.3510744,-0.2164175,0.427371,0.3285194,-0.16614804,0.397323,0.31466616,-0.15030105,0.379795,0.30450316,-0.1488682,0.367275,0.37407284,-0.22150013,0.430065,0.35471839,-0.18911298,0.400554,0.34494597,-0.17218836,0.385455,0.33214653,-0.18069721,0.37173,0.40524889,-0.23671535,0.437224,0.36935513,-0.19507627,0.410717,0.36220255,-0.19894147,0.398539,0.37113945,-0.21458975,0.402133
0.38218291,-0.32609433,0.471848,0.36521185,-0.26324906,0.452894,0.36425318,-0.30853912,0.470186,0.3315694,-0.28145082,0.459564,0.30272565,-0.25737874,0.445298,0.28777243,-0.23762173,0.436515,0.32864991,-0.21617259,0.438404,0.3005951,-0.17346545,0.415674,0.28561027,-0.16248614,0.404309,0.27543682,-0.16926039,0.393977,0.34993227,-0.21503137,0.435113,0.3269293,-0.16767785,0.409643,0.30979846,-0.1564599,0.394786,0.29700243,-0.15685083,0.384174,0.36935198,-0.21897097,0.434228,0.33578859,-0.18446501,0.411005,0.3185969,-0.16834935,0.399124,0.30275608,-0.1533941,0.388322,0.39556947,-0.23251184,0.436438,0.36549225,-0.19783391,0.414525,0.35161074,-0.18176202,0.404456,0.34136896,-0.18222778,0.395573
0.38570382,-0.32845784,0.478736,0.36764036,-0.26624306,0.457714,0.36576023,-0.31077079,0.476351,0.33322082,-0.28315274,0.464974,0.30522764,-0.25922354,0.450434,0.29034665,-0.23884735,0.440966,0.33158069,-0.21681619,0.44095,0.30066852,-0.18054857,0.416802,0.28417844,-0.17077962,0.404729,0.27365729,-0.17254068,0.393753,0.35279572,-0.21694082,0.437993,0.32719582,-0.17759937,0.410722,0.30836794,-0.16453186,0.394814,0.2949487,-0.15948569,0.383451,0.37219903,-0.22204505,0.437582,0.33787117,-0.19319356,0.412407,0.32012043,-0.17919486,0.399527,0.30379514,-0.16657476,0.387818,0.39845688,-0.23722773,0.440701,0.36666215,-0.20140412,0.417153,0.35201663,-0.18495776,0.406334,0.34064941,-0.18513369,0.396787
0.38630327,-0.32858461,0.481002,0.36840978,-0.26721359,0.459273,0.36573158,-0.31122411,0.478424,0.33363778,-0.28360685,0.466594,0.30578038,-0.25959902,0.451734,0.29095871,-0.23905196,0.442077,0.3325569,-0.2170324,0.4418,0.30091955,-0.18069932,0.41715,0.28424655,-0.17082055,0.404826,0.27302612,-0.17360698,0.393622,0.35369739,-0.21754473,0.438888,0.32739259,-0.17770618,0.410969,0.30826484,-0.16447685,0.394682,0.29414086,-0.16029592,0.383049,0.37304936,-0.22301104,0.438584,0.3381784,-0.19336923,0.412782,0.3201637,-0.17921908,0.399581,0.30360871,-0.16647253,0.38758,0.39925956,-0.2387094,0.441947,0.36691547,-0.20251786,0.417873,0.35202629,-0.18595285,0.406813,0.34029471,-0.18603206,0.397053
0.39142356,-0.33217186,0.487578,0.37292689,-0.27087147,0.465066,0.3706881,-0.3155652,0.485332,0.34200627,-0.28859932,0.475785,0.31580386,-0.26397064,0.462962,0.29828508,-0.24309232,0.451697,0.33673622,-0.2205063,0.447508,0.30239345,-0.18878662,0.422398,0.2857204,-0.17938198,0.409843,0.27472422,-0.18027653,0.39843,0.35727194,-0.22089396,0.443947,0.32550958,-0.18431021,0.41546,0.30567084,-0.17244302,0.398843,0.29083323,-0.17112757,0.386974,0.37612718,-0.22630067,0.443183,0.34042189,-0.1951161,0.417046,0.32200639,-0.18051376,0.403674,0.3050874,-0.16725123,0.391517,0.40178919,-0.24200742,0.446142,0.36836434,-0.20725801,0.421767,0.35000442,-0.19553699,0.410567,0.33851947,-0.19775656,0.400685
0.3924726,-0.33338734,0.490479,0.37389038,-0.27310888,0.46879,0.37225796,-0.31767864,0.489191,0.33864241,-0.29028646,0.480269,0.31240979,-0.26558136,0.468616,0.3026184,-0.24593956,0.460386,0.33798018,-0.22446232,0.452995,0.31133021,-0.18570601,0.427009,0.29430135,-0.176722,0.414016,0.2785339,-0.17751464,0.402204,0.35742547,-0.22364523,0.448443,0.32700999,-0.18704014,0.420917,0.30291989,-0.17615223,0.40486,0.28673262,-0.17527933,0.393391,0.37767556,-0.22804934,0.446783,0.3390715,-0.19714924,0.42186,0.31719371,-0.18363479,0.409108,0.30309212,-0.16946232,0.397516,0.40001042,-0.24233266,0.448555,0.36598703,-0.21104736,0.425168,0.347106,-0.19699556,0.414423,0.33843737,-0.20000826,0.404942
0.39294893,-0.33402395,0.492281,0.37438094,-0.27402697,0.470482,0.3726576,-0.31855401,0.491001,0.33814644,-0.29175209,0.481373,0.31104072,-0.26794259,0.47001,0.29714494,-0.24780656,0.462353,0.33863789,-0.22499663,0.454625,0.31165842,-0.18640738,0.428138,0.29427426,-0.17742935,0.414894,0.27841748,-0.17805204,0.402855,0.35793779,-0.22428034,0.45003,0.32481155,-0.18824954,0.422414,0.30319431,-0.17717321,0.406305,0.28683236,-0.17640943,0.394798,0.37577679,-0.22873396,0.448347,0.33684426,-0.19836486,0.423351,0.31751459,-0.18465806,0.410563,0.2997136,-0.1720048,0.398937,0.39832861,-0.24337974,0.450109,0.36445995,-0.20975415,0.426661,0.3486486,-0.19543029,0.415888,0.33603947,-0.19789727,0.406382
0.38944174,-0.33122691,0.488796,0.37400269,-0.27416187,0.470862,0.37124717,-0.31782272,0.490076,0.3380815,-0.29288128,0.482381,0.30947442,-0.27126331,0.472622,0.29527965,-0.25216715,0.465976,0.34195739,-0.22775506,0.460804,0.30835948,-0.19147186,0.441909,0.2926785,-0.18805457,0.432462,0.27809627,-0.18497187,0.423873,0.36040742,-0.22615982,0.454037,0.33028344,-0.18473823,0.430478,0.3099488,-0.17130225,0.416736,0.29581433,-0.17940218,0.40692,0.3751464,-0.22921925,0.450193,0.33856471,-0.19382503,0.429703,0.32023017,-0.18042886,0.419219,0.30324983,-0.16798141,0.409689,0.39647015,-0.24200119,0.448766,0.36570815,-0.21065296,0.429061,0.35130226,-0.19684847,0.420007,0.3395107,-0.19986346,0.412019
0.38972312,-0.33161347,0.489876,0.37426334,-0.27465465,0.471822,0.37154845,-0.31848141,0.491224,0.33696653,-0.29253862,0.481351,0.30923911,-0.27145461,0.47276,0.29550459,-0.2528878,0.466979,0.34241347,-0.22841016,0.461772,0.30928459,-0.19203991,0.443232,0.29386486,-0.18861469,0.433962,0.27951521,-0.1855229,0.425535,0.36060701,-0.22651293,0.454884,0.33100819,-0.1849716,0.431246,0.31083544,-0.17140417,0.417458,0.29678282,-0.17944574,0.407609,0.37543037,-0.22941563,0.450951,0.33933425,-0.19400184,0.430424,0.32114042,-0.1805104,0.419922,0.30429089,-0.16797186,0.410375,0.39673227,-0.24196669,0.449442,0.36597668,-0.21071354,0.429703,0.35160724,-0.19674982,0.420634,0.3396698,-0.19960379,0.412631
0.39035541,-0.33022781,0.491176,0.37464094,-0.27515809,0.472772,0.37195815,-0.31915325,0.492366,0.33736207,-0.29325647,0.482253,0.30944866,-0.27183728,0.473329,0.29558187,-0.25321809,0.467425,0.34264207,-0.22877311,0.462292,0.30937661,-0.19209493,0.443363,0.29387858,-0.18855618,0.433898,0.27946632,-0.1853598,0.425294,0.36078571,-0.22677691,0.455506,0.33126289,-0.18505665,0.431519,0.31100323,-0.17136761,0.417527,0.29688322,-0.17932565,0.407533,0.37583813,-0.22967853,0.451691,0.33970017,-0.19412322,0.430803,0.32141308,-0.18052019,0.420116,0.30448695,-0.16788524,0.4104,0.39735841,-0.24223183,0.450379,0.36634958,-0.21087177,0.430337,0.35188865,-0.19674568,0.421128,0.33976921,-0.19945034,0.413003
