sluyters/QuantumLeap/backend/src/datasets/gesture/HandGestureDataset_SHREC2017_csv/Gesture10/finger_2/subject_11_essai_3_skeletons_world.csv
Wrist_x,Wrist_y,Wrist_z,Palm_x,Palm_y,Palm_z,thumb_base_x,thumb_base_y,thumb_base_z,thumb_first_joint_x,thumb_first_joint_y,thumb_first_joint_z,thumb_second_joint_x,thumb_second_joint_y,thumb_second_joint_z,thumb_tip_x,thumb_tip_y,thumb_tip_z,index_base_x,index_base_y,index_base_z,index_first_joint_x,index_first_joint_y,index_first_joint_z,index_second_joint_x,index_second_joint_y,index_second_joint_z,index_tip_x,index_tip_y,index_tip_z,middle_base_x,middle_base_y,middle_base_z,middle_first_joint_x,middle_first_joint_y,middle_first_joint_z,middle_second_joint_x,middle_second_joint_y,middle_second_joint_z,middle_tip_x,middle_tip_y,middle_tip_z,ring_base_x,ring_base_y,ring_base_z,ring_first_joint_x,ring_first_joint_y,ring_first_joint_z,ring_second_joint_x,ring_second_joint_y,ring_second_joint_z,ring_tip_x,ring_tip_y,ring_tip_z,pinky_base_x,pinky_base_y,pinky_base_z,pinky_first_joint_x,pinky_first_joint_y,pinky_first_joint_z,pinky_second_joint_x,pinky_second_joint_y,pinky_second_joint_z,pinky_tip_x,pinky_tip_y,pinky_tip_z,
0.41776932,-0.33538311,0.547965,0.40928821,-0.28618965,0.542683,0.39198382,-0.31824782,0.542993,0.36647058,-0.28691298,0.535217,0.34073126,-0.25833473,0.520483,0.3300997,-0.23862677,0.514869,0.37856091,-0.23407824,0.532653,0.36549851,-0.19035126,0.519591,0.35897549,-0.16853074,0.513059,0.35303594,-0.14854505,0.507122,0.40633334,-0.2372515,0.537083,0.39264985,-0.18811939,0.523122,0.38596272,-0.16013641,0.514978,0.379714,-0.13909598,0.509161,0.42977401,-0.24354863,0.541163,0.41529177,-0.19366006,0.527047,0.40821028,-0.16870394,0.519826,0.40193531,-0.14626904,0.51326,0.45849667,-0.25797049,0.546805,0.4473391,-0.21408577,0.535773,0.44231769,-0.19296343,0.530704,0.43795488,-0.17512087,0.526232
0.41755967,-0.33432134,0.547979,0.40925322,-0.28677787,0.54197,0.39306926,-0.3202067,0.542253,0.36728454,-0.29004789,0.533334,0.34153187,-0.26028895,0.519985,0.32860081,-0.2410194,0.511495,0.37255361,-0.23962311,0.530478,0.36043852,-0.19516166,0.517011,0.35570889,-0.17248707,0.510277,0.34951524,-0.14992262,0.504156,0.40044486,-0.23986557,0.535597,0.38957156,-0.19002066,0.521036,0.38194177,-0.15994771,0.512542,0.3782491,-0.14079198,0.506475,0.42783423,-0.24319728,0.540301,0.41219123,-0.19249684,0.525669,0.40485178,-0.16772059,0.518182,0.39946566,-0.14581341,0.511376,0.4574456,-0.25628269,0.546793,0.44585938,-0.21131648,0.535448,0.44070397,-0.19089873,0.530235,0.43718782,-0.17398158,0.525636
0.41515095,-0.3319849,0.546673,0.40603507,-0.2838296,0.538619,0.38819789,-0.3151068,0.538014,0.35943892,-0.28256634,0.528579,0.33555721,-0.25434768,0.51314,0.32745545,-0.23693735,0.510565,0.36676117,-0.22786873,0.521994,0.35051816,-0.1818657,0.505163,0.34289471,-0.15930588,0.496747,0.33733805,-0.14060415,0.489097,0.39607577,-0.23459153,0.530077,0.38579034,-0.18466587,0.516208,0.37853073,-0.1564933,0.508117,0.37519036,-0.1387901,0.502338,0.42350764,-0.24057087,0.537388,0.40842589,-0.19052905,0.52164,0.40036806,-0.16527888,0.513582,0.39525233,-0.14375496,0.506258,0.45397427,-0.25517626,0.547282,0.44291522,-0.21010065,0.532618,0.4375521,-0.19008562,0.525881,0.43460403,-0.17346213,0.519937
0.4156165,-0.33072567,0.547316,0.40511281,-0.28105469,0.536395,0.39058788,-0.3160749,0.540757,0.36492471,-0.28609961,0.532949,0.33825551,-0.2575536,0.517337,0.3269222,-0.23899219,0.510591,0.36633969,-0.22669515,0.520268,0.35035431,-0.18158653,0.502526,0.34260296,-0.15914973,0.493654,0.33788486,-0.14657081,0.485589,0.39376431,-0.22848201,0.524777,0.37773698,-0.1764622,0.505379,0.36791967,-0.14809233,0.494064,0.3634328,-0.13160035,0.489341,0.41726851,-0.23376391,0.529376,0.40555728,-0.18063199,0.51389,0.39905403,-0.15579583,0.505967,0.39057225,-0.13833562,0.498764,0.45010217,-0.24405269,0.536487,0.4378129,-0.19778052,0.521562,0.43227547,-0.17683526,0.514704,0.42738903,-0.15840742,0.508653
0.41403853,-0.32916723,0.546837,0.40196782,-0.27975103,0.532899,0.38923111,-0.31428564,0.54041,0.35565031,-0.279764,0.526665,0.32882729,-0.25154449,0.509045,0.32095007,-0.23391346,0.505634,0.36510668,-0.222076,0.514744,0.34892207,-0.17768022,0.493976,0.33984222,-0.15606416,0.483592,0.3307382,-0.13969526,0.474152,0.39185283,-0.22453936,0.518093,0.37741138,-0.17454247,0.495513,0.36782114,-0.14503752,0.482341,0.36097179,-0.12389534,0.472932,0.41667218,-0.23263527,0.521985,0.39798444,-0.18336384,0.499855,0.38842215,-0.15810219,0.488533,0.37972803,-0.13510279,0.47824,0.44499902,-0.24921318,0.528715,0.42629012,-0.2013377,0.507299,0.41837125,-0.18223638,0.497459,0.41138721,-0.16525681,0.488777
0.41524359,-0.32944143,0.54824,0.40070853,-0.27503509,0.530046,0.38932952,-0.3134486,0.540399,0.35668813,-0.27980085,0.524017,0.32818676,-0.25134911,0.506807,0.31732938,-0.23324329,0.499806,0.36281667,-0.2177165,0.507028,0.34269247,-0.17830621,0.482512,0.33193212,-0.15790118,0.470253,0.32212404,-0.13914785,0.459109,0.38978341,-0.22168215,0.510719,0.36868086,-0.17018334,0.483887,0.35577577,-0.14525232,0.468234,0.34645114,-0.12733812,0.457054,0.41320229,-0.22902532,0.515239,0.39295267,-0.17977413,0.489125,0.38160442,-0.15493567,0.475764,0.37128665,-0.13230714,0.463618,0.443207,-0.24549383,0.523361,0.424827,-0.19548082,0.498771,0.4154793,-0.17567085,0.487473,0.40697851,-0.160781,0.480392
0.4174302,-0.32869119,0.548178,0.40555213,-0.27420245,0.526378,0.39119313,-0.31254346,0.539101,0.36810493,-0.28598971,0.521372,0.33377136,-0.26065699,0.498678,0.31834202,-0.2424104,0.489912,0.35964719,-0.22331769,0.499193,0.33785656,-0.1787138,0.471736,0.32511064,-0.15508726,0.458007,0.31776862,-0.14019824,0.445527,0.38636176,-0.22072595,0.50322,0.36339184,-0.17450536,0.472964,0.34953345,-0.14607662,0.455315,0.33997654,-0.12560685,0.445773,0.41059313,-0.22607181,0.50831,0.38852679,-0.17955212,0.478989,0.37670565,-0.15529479,0.463988,0.36634921,-0.13443762,0.45035,0.44257762,-0.24013685,0.517656,0.42100834,-0.19277207,0.49271,0.4119332,-0.17406715,0.481248,0.40393101,-0.15746693,0.471135
0.41563518,-0.3270101,0.546743,0.40236445,-0.27354871,0.52305,0.3885895,-0.31040793,0.537355,0.35647078,-0.28191605,0.516622,0.32469043,-0.25534325,0.494842,0.31391693,-0.23861506,0.487608,0.35637495,-0.22041965,0.494096,0.33459878,-0.17510607,0.464968,0.32643936,-0.15615807,0.450404,0.31465459,-0.13863026,0.437165,0.3835747,-0.2216292,0.497881,0.36189935,-0.17531816,0.465839,0.34894893,-0.14763577,0.447147,0.3397047,-0.12779766,0.433797,0.40765342,-0.22664206,0.502926,0.38456851,-0.17864883,0.471844,0.37535546,-0.1557214,0.455942,0.36437589,-0.13333755,0.444128,0.43788398,-0.24161168,0.512506,0.419688,-0.20192016,0.483554,0.41079795,-0.18252672,0.470252,0.40295847,-0.16539075,0.458515
0.41665975,-0.32685016,0.547287,0.40163222,-0.27351871,0.522114,0.38889761,-0.30994741,0.53687,0.35634914,-0.2807547,0.514993,0.32477804,-0.25370901,0.493699,0.31264005,-0.2362329,0.485983,0.35536149,-0.21875421,0.490802,0.33338823,-0.17346017,0.460301,0.32293213,-0.15427122,0.44505,0.31367955,-0.13766848,0.431186,0.38239306,-0.22083397,0.495373,0.35948499,-0.17337185,0.461878,0.34799791,-0.1502163,0.44234,0.33972711,-0.13537306,0.428384,0.40681941,-0.22638318,0.501185,0.3827048,-0.17742232,0.468589,0.37045457,-0.15277576,0.451913,0.36524042,-0.1333754,0.443561,0.43796634,-0.24158815,0.511899,0.41860929,-0.20297334,0.481344,0.41043042,-0.18776447,0.467306,0.40249005,-0.1725172,0.454919
0.41549867,-0.32559766,0.545625,0.40046051,-0.27323497,0.52096,0.38732807,-0.30845953,0.534417,0.35405077,-0.2793861,0.511694,0.32334433,-0.25295486,0.492362,0.30982984,-0.23220388,0.486409,0.35463255,-0.21794315,0.489039,0.33503449,-0.17422654,0.458877,0.32513347,-0.15319968,0.443796,0.31506033,-0.13581486,0.430086,0.38240854,-0.22074865,0.49476,0.36246913,-0.17439456,0.461761,0.35099298,-0.14977775,0.442512,0.34598232,-0.13015936,0.428762,0.40735796,-0.22693197,0.501477,0.39098032,-0.18091282,0.469932,0.38212463,-0.15677306,0.453792,0.37549948,-0.13537581,0.440802,0.43917864,-0.24262732,0.513187,0.42632589,-0.20224231,0.484597,0.42027541,-0.18307716,0.471461,0.41494025,-0.1661569,0.45987
0.41083422,-0.32114098,0.539232,0.39648713,-0.26992345,0.515044,0.3837956,-0.30471427,0.529004,0.35006862,-0.27602845,0.505522,0.31983037,-0.25083698,0.487084,0.30839872,-0.23360495,0.481656,0.36054696,-0.21308617,0.484686,0.3419645,-0.17134305,0.455026,0.33269663,-0.15053896,0.440196,0.32147845,-0.13202994,0.427927,0.38817714,-0.21895011,0.48935,0.36878449,-0.17598956,0.456751,0.35762433,-0.15171336,0.437735,0.34970656,-0.13417361,0.424157,0.41186625,-0.22762072,0.495158,0.38956328,-0.17970911,0.464923,0.38294385,-0.16005815,0.449454,0.37629618,-0.14199448,0.43755,0.441673,-0.24509116,0.505718,0.42433511,-0.1994224,0.47998,0.41897818,-0.18333728,0.468155,0.41565057,-0.17270964,0.457721
0.41389259,-0.32243882,0.543407,0.3979612,-0.27037907,0.516067,0.38614236,-0.3051768,0.531961,0.3514784,-0.27652533,0.50687,0.32067285,-0.25126608,0.488109,0.30847002,-0.23345141,0.48195,0.3585116,-0.21317487,0.481895,0.33898817,-0.17101919,0.449799,0.32923087,-0.15003489,0.433751,0.32048765,-0.13211862,0.419161,0.38648479,-0.21844133,0.487023,0.36494785,-0.17537006,0.451523,0.35246382,-0.15062885,0.430814,0.34357355,-0.13285147,0.416022,0.41074319,-0.22670543,0.493471,0.38652197,-0.17739728,0.459796,0.37815251,-0.15808683,0.442567,0.36874982,-0.14021287,0.426905,0.44178321,-0.24387314,0.505267,0.42106778,-0.19777079,0.474496,0.41519666,-0.18210491,0.460358,0.40866394,-0.17052423,0.447884
0.41571605,-0.32229454,0.544385,0.39802083,-0.2700386,0.515392,0.38740915,-0.30464332,0.532079,0.35129534,-0.27601706,0.506011,0.32084325,-0.25130909,0.487997,0.30804412,-0.2330374,0.481223,0.35669718,-0.21267427,0.478947,0.3378419,-0.17332793,0.445675,0.32957932,-0.15615474,0.429039,0.32139293,-0.14106549,0.413915,0.38497119,-0.21789875,0.484593,0.36306831,-0.17618203,0.447597,0.35015804,-0.15141296,0.426016,0.34013894,-0.13238887,0.410601,0.40961844,-0.22616056,0.491602,0.387257,-0.17691802,0.457422,0.37693553,-0.15797032,0.439934,0.36908023,-0.14213203,0.424036,0.441383,-0.24339995,0.504315,0.42232414,-0.19856089,0.471511,0.41422448,-0.18280854,0.456439,0.40859747,-0.17809018,0.44314
0.41611202,-0.32189183,0.545214,0.39799753,-0.2696081,0.514933,0.38788973,-0.3042287,0.532595,0.35145836,-0.2760429,0.506374,0.32077369,-0.25160553,0.488483,0.3064528,-0.23203284,0.480704,0.35566155,-0.21376493,0.477158,0.33642282,-0.1746486,0.442851,0.32664348,-0.15474656,0.425697,0.31820995,-0.140461,0.410102,0.38362853,-0.21764653,0.482766,0.36119908,-0.17631625,0.444732,0.34891985,-0.15321403,0.422546,0.33967685,-0.13587553,0.406699,0.40821957,-0.22560023,0.489848,0.38874992,-0.18644269,0.453182,0.37886876,-0.16671368,0.434423,0.37056464,-0.15363118,0.417369,0.44003235,-0.24241201,0.502842,0.42127104,-0.20046635,0.469215,0.41332011,-0.18596956,0.453765,0.40549371,-0.17400587,0.440132
0.41781791,-0.32157781,0.546301,0.39823778,-0.26946135,0.515038,0.38941018,-0.30416383,0.533296,0.35097998,-0.2755095,0.50701,0.31967925,-0.25197859,0.488787,0.30574857,-0.23211768,0.480648,0.35473403,-0.21259742,0.476068,0.33510771,-0.1747064,0.440932,0.32510245,-0.15510222,0.423364,0.31662885,-0.14354863,0.407393,0.38292748,-0.21742002,0.481829,0.36060575,-0.1775518,0.442926,0.34797724,-0.15635822,0.420233,0.33967789,-0.14453384,0.404023,0.40759178,-0.22531585,0.489117,0.38740955,-0.18554245,0.451607,0.37720248,-0.16564826,0.432416,0.36861756,-0.15263053,0.41497,0.43957154,-0.2420515,0.502506,0.42061488,-0.20270109,0.468055,0.41273601,-0.18899056,0.452226,0.40532469,-0.17778628,0.438259
0.41645547,-0.3215797,0.547843,0.39534263,-0.27259174,0.516157,0.38771035,-0.30348453,0.533426,0.34168094,-0.27818221,0.507879,0.31035563,-0.25458855,0.488684,0.30055968,-0.23365056,0.480833,0.35117231,-0.2194093,0.475125,0.33461967,-0.18274713,0.439643,0.32634647,-0.16440957,0.421902,0.31915273,-0.1542896,0.405774,0.37985776,-0.22589006,0.482497,0.36092586,-0.18787812,0.443148,0.3501339,-0.16769953,0.420194,0.3425484,-0.15424444,0.403798,0.40450648,-0.23494258,0.491146,0.38803191,-0.18786248,0.453121,0.37807556,-0.16729862,0.433666,0.36970243,-0.15366696,0.41598,0.4357017,-0.25263459,0.506212,0.42016442,-0.21539056,0.471121,0.41346638,-0.20286371,0.454998,0.407581,-0.19480794,0.440773
0.41533368,-0.32152763,0.54773,0.39443697,-0.27300825,0.515471,0.38654517,-0.30336436,0.53298,0.34137356,-0.27929186,0.507114,0.30978677,-0.25613011,0.487815,0.29658836,-0.23476333,0.478406,0.34989334,-0.2204138,0.473607,0.33266899,-0.1841319,0.437586,0.32356171,-0.16850471,0.419575,0.31658886,-0.15611376,0.403202,0.37881502,-0.22669711,0.481203,0.35925264,-0.1891873,0.441385,0.34809977,-0.16933167,0.418158,0.34025904,-0.15612325,0.401568,0.40373533,-0.23557652,0.490082,0.3853621,-0.19223189,0.451678,0.37603331,-0.17081804,0.43203,0.36806312,-0.15440051,0.414168,0.43538167,-0.25304627,0.505508,0.41925842,-0.21613686,0.469966,0.4123059,-0.20381591,0.453636,0.40620319,-0.19596351,0.439228
0.41275608,-0.32062943,0.546443,0.38913082,-0.27544634,0.512212,0.38211816,-0.30364835,0.531597,0.3381384,-0.28173176,0.50494,0.30613825,-0.2588005,0.485048,0.29027351,-0.23822635,0.473769,0.34371194,-0.22567443,0.46879,0.32571776,-0.19085088,0.431454,0.31671587,-0.17344594,0.412785,0.30868281,-0.16443767,0.395814,0.37227926,-0.23185764,0.47585,0.35166146,-0.19602701,0.434479,0.33980416,-0.17725105,0.410346,0.33141322,-0.16486325,0.393109,0.39694629,-0.24059096,0.484449,0.37787044,-0.19862199,0.444632,0.36815014,-0.17794124,0.42426,0.35977938,-0.16443894,0.40574,0.42840176,-0.25776252,0.499842,0.41156939,-0.22228671,0.46308,0.404107,-0.210763,0.446189,0.3974335,-0.20365145,0.431286
0.40728666,-0.32473925,0.546974,0.38777959,-0.28960734,0.512331,0.37799339,-0.30794178,0.531986,0.33686741,-0.29319477,0.504969,0.30468846,-0.26716489,0.485559,0.28987982,-0.24353015,0.475481,0.34364484,-0.2355989,0.46843,0.32520244,-0.20063024,0.430731,0.31597378,-0.18319902,0.411882,0.30777335,-0.17404291,0.394746,0.37226835,-0.24159496,0.47553,0.35198354,-0.19805142,0.435296,0.3404355,-0.17753938,0.411826,0.33298304,-0.1613365,0.395062,0.39704637,-0.25019701,0.484194,0.37707881,-0.20573958,0.446157,0.36747607,-0.1868331,0.426697,0.35914662,-0.17343395,0.409005,0.42875476,-0.26726016,0.499729,0.41150266,-0.23195026,0.462786,0.40386676,-0.22054398,0.445813,0.39705465,-0.21349843,0.430836
0.39951865,-0.33362515,0.54453,0.38678504,-0.29881677,0.511433,0.37252163,-0.32127654,0.529224,0.33477466,-0.29797629,0.501364,0.30617977,-0.27026172,0.486554,0.29323969,-0.24938658,0.478192,0.34486108,-0.24506961,0.468267,0.32416847,-0.20851632,0.431187,0.3138197,-0.19024603,0.412647,0.30681427,-0.17771212,0.395792,0.37392322,-0.2516987,0.476275,0.35492169,-0.2094894,0.436338,0.34411736,-0.18698469,0.413041,0.33536891,-0.1690792,0.396401,0.39886274,-0.26076077,0.485562,0.39472411,-0.21527541,0.450766,0.3929101,-0.20616967,0.432963,0.38711312,-0.20866528,0.416779,0.43036033,-0.27824586,0.501598,0.40418963,-0.24022557,0.465414,0.39240715,-0.22382306,0.448789,0.38204274,-0.20948403,0.43412
0.39959159,-0.34382068,0.544899,0.38709839,-0.30894944,0.51159,0.372197,-0.33122929,0.529485,0.33539973,-0.30636954,0.502372,0.30734356,-0.28021859,0.486146,0.2956139,-0.25572676,0.478904,0.34509567,-0.2546443,0.468137,0.3239643,-0.21831125,0.430739,0.31339418,-0.20015568,0.41204,0.30432243,-0.19073864,0.395041,0.37419656,-0.26156719,0.476208,0.35469824,-0.21919762,0.435565,0.34383607,-0.19969022,0.411856,0.33622586,-0.18836442,0.394922,0.39918405,-0.27089174,0.485563,0.39782427,-0.2271485,0.452402,0.39788236,-0.21262248,0.435436,0.39205725,-0.21194088,0.420012,0.43076429,-0.28873204,0.501713,0.40453589,-0.25055433,0.465708,0.39273504,-0.23416601,0.449164,0.38236136,-0.2198672,0.434568
0.40118927,-0.34660574,0.546312,0.38946416,-0.3088348,0.513235,0.37365947,-0.33289052,0.530273,0.33710599,-0.30358959,0.503921,0.30769625,-0.27918769,0.484701,0.295559,-0.2584056,0.476176,0.34675152,-0.25478582,0.469175,0.32514662,-0.21848898,0.43162,0.31434069,-0.20034829,0.412842,0.30535122,-0.19202526,0.395772,0.37654186,-0.26162213,0.478098,0.3625082,-0.22432628,0.438407,0.35386113,-0.20310747,0.415254,0.34770972,-0.18794952,0.398716,0.40213476,-0.27086934,0.488136,0.37527062,-0.21569288,0.448572,0.36409065,-0.22077331,0.42833,0.34866563,-0.22959321,0.409928,0.43446025,-0.28860872,0.505061,0.40737343,-0.24997835,0.468039,0.39572188,-0.23556529,0.451029,0.38781438,-0.2280061,0.43602
0.39886701,-0.34378945,0.540664,0.38950385,-0.30504645,0.507673,0.37220025,-0.32993169,0.525182,0.33552144,-0.30347926,0.499883,0.30370213,-0.28301688,0.480843,0.28875086,-0.26482889,0.472219,0.3462902,-0.25367244,0.464366,0.32428964,-0.22221503,0.426743,0.31220946,-0.20570051,0.407939,0.30183734,-0.19981118,0.390843,0.37834916,-0.26195543,0.472627,0.36079989,-0.22917449,0.432531,0.35075936,-0.21004397,0.40926,0.34365099,-0.19636089,0.392645,0.40410279,-0.27054762,0.482113,0.37786923,-0.22039516,0.445239,0.36592383,-0.22760238,0.426373,0.35102631,-0.2338814,0.411054,0.43679165,-0.28703049,0.49837,0.4177022,-0.24531417,0.463304,0.40993361,-0.23313248,0.447192,0.40312294,-0.22236066,0.432976
0.40788878,-0.35292071,0.546041,0.39767057,-0.30950943,0.509948,0.38292418,-0.33596582,0.530783,0.34745464,-0.3148028,0.508062,0.31256948,-0.29595056,0.490761,0.29352,-0.27912636,0.479269,0.35259545,-0.26062429,0.464655,0.32303454,-0.22903004,0.425143,0.30825425,-0.21322929,0.405387,0.2953503,-0.20881252,0.387427,0.38187673,-0.26673345,0.471608,0.35567276,-0.22002983,0.429699,0.34439664,-0.20714284,0.405252,0.33079033,-0.20245324,0.387789,0.40757998,-0.27524138,0.480271,0.37438302,-0.22341984,0.438154,0.35854558,-0.22946828,0.416606,0.35373888,-0.24142178,0.411795,0.44096058,-0.29184009,0.496022,0.41869795,-0.24948535,0.460463,0.40813797,-0.23397161,0.444125,0.4004646,-0.22466712,0.429709
0.40697813,-0.3521237,0.542075,0.39581811,-0.31257172,0.504596,0.38485729,-0.33739059,0.527343,0.34610628,-0.31657121,0.506926,0.30992405,-0.30135329,0.488123,0.29301159,-0.28178681,0.478977,0.34473033,-0.26697444,0.458943,0.31722278,-0.23370453,0.419025,0.30346569,-0.21708313,0.399066,0.29156119,-0.21711826,0.380921,0.37325983,-0.27133096,0.464784,0.34842111,-0.23368243,0.421298,0.33390568,-0.21175236,0.395931,0.32228803,-0.21457114,0.377812,0.39848383,-0.27837923,0.472644,0.36313833,-0.23999699,0.429967,0.3450521,-0.22040721,0.408132,0.33079982,-0.2226077,0.388283,0.43162666,-0.29321059,0.487654,0.41015801,-0.24588098,0.451172,0.40129451,-0.24019806,0.43441,0.39358615,-0.23392321,0.41962
0.41356375,-0.35711057,0.543109,0.39419601,-0.32505492,0.505498,0.38733592,-0.34445986,0.528661,0.34574149,-0.32219623,0.508065,0.31082273,-0.30420274,0.490096,0.29251782,-0.28579931,0.478684,0.34517635,-0.27471834,0.4601,0.31753836,-0.24131027,0.420127,0.3037167,-0.22474335,0.40014,0.29162659,-0.22121304,0.38197,0.37334815,-0.28026876,0.465544,0.34833915,-0.24290049,0.421853,0.33372236,-0.22118716,0.396366,0.32104104,-0.22382334,0.378161,0.3982116,-0.2882738,0.473089,0.37166187,-0.23815983,0.432883,0.3587001,-0.22400298,0.412312,0.34637842,-0.22112796,0.393612,0.43080487,-0.30418854,0.487745,0.40998064,-0.25871197,0.450829,0.40061123,-0.25148954,0.433867,0.39234876,-0.24530202,0.418901
0.41269202,-0.36631891,0.54096,0.39319409,-0.33323791,0.504122,0.3848664,-0.35111464,0.526835,0.34323986,-0.3330485,0.506245,0.30899002,-0.31468866,0.489333,0.29158717,-0.29632459,0.47889,0.34553743,-0.28417839,0.459689,0.31822923,-0.2472341,0.420187,0.30425459,-0.2268555,0.400436,0.2916693,-0.22709305,0.38248,0.37357389,-0.28950058,0.464989,0.34769273,-0.2416774,0.422221,0.33299714,-0.22292997,0.397273,0.32091203,-0.2244133,0.379453,0.39818569,-0.297235,0.472353,0.37116224,-0.24657899,0.43207,0.35813491,-0.23236559,0.411461,0.3458039,-0.23019634,0.392725,0.43023907,-0.31266431,0.486677,0.40920811,-0.26656204,0.449879,0.39989739,-0.26000305,0.432973,0.39170558,-0.25422909,0.418055
0.4139749,-0.37024702,0.543248,0.39296062,-0.33445626,0.506575,0.38537457,-0.35874678,0.529418,0.34467208,-0.33516809,0.508757,0.31043234,-0.31588655,0.491039,0.29252536,-0.29730581,0.479565,0.33963549,-0.28523501,0.462629,0.32354618,-0.25036268,0.42512,0.31780843,-0.23328629,0.406365,0.30860543,-0.23583429,0.389316,0.36764901,-0.28823486,0.467618,0.34686563,-0.24206269,0.425462,0.33449825,-0.22468809,0.400871,0.3242808,-0.22342553,0.383305,0.39254585,-0.29421318,0.474712,0.37424385,-0.24874927,0.434448,0.36702484,-0.2337752,0.413849,0.35538667,-0.23845884,0.395121,0.42549263,-0.30785762,0.488691,0.40905737,-0.26642124,0.451871,0.40050942,-0.25994741,0.434954,0.3931276,-0.25148662,0.420026
0.41397932,-0.37601685,0.543274,0.39292069,-0.33605764,0.506453,0.38597528,-0.36456241,0.529854,0.34636786,-0.33869013,0.509807,0.31223037,-0.31838101,0.492616,0.29363884,-0.29997304,0.480264,0.34025259,-0.28779491,0.462908,0.32498945,-0.25304336,0.425311,0.31733344,-0.2356907,0.406513,0.30774432,-0.23819434,0.389423,0.36795431,-0.29064234,0.46734,0.34247568,-0.2472676,0.424487,0.32786655,-0.23447863,0.39949,0.31689541,-0.23337766,0.381635,0.39264502,-0.29651232,0.473987,0.37494605,-0.25186549,0.433903,0.36638945,-0.23610178,0.413396,0.35448137,-0.24081027,0.394752,0.42870898,-0.31311098,0.487458,0.40771057,-0.26716557,0.4507,0.39918599,-0.26071811,0.433811,0.39168926,-0.25504236,0.418909
0.4151725,-0.37410135,0.543863,0.39226648,-0.33585271,0.505813,0.38700466,-0.36274382,0.530781,0.3463627,-0.33946641,0.509969,0.3122648,-0.32238527,0.492288,0.2938202,-0.30304988,0.480944,0.3389336,-0.28793748,0.46179,0.31547914,-0.25673469,0.422307,0.30424597,-0.24029931,0.402566,0.29261334,-0.24328961,0.384619,0.3660447,-0.29031672,0.465393,0.34080762,-0.24379403,0.422042,0.3256979,-0.23504762,0.396754,0.31448574,-0.23445305,0.378691,0.39033725,-0.2957971,0.471459,0.37240801,-0.25089775,0.430971,0.36353082,-0.2383023,0.410255,0.35054979,-0.24361834,0.391423,0.42287394,-0.30886988,0.484428,0.39670403,-0.27855502,0.445513,0.38461282,-0.26394534,0.427633,0.37385847,-0.26258358,0.411857
0.41458274,-0.37789108,0.543651,0.39171962,-0.33796906,0.506501,0.38672479,-0.36619312,0.530828,0.34661123,-0.3425969,0.510628,0.31078176,-0.32532178,0.492812,0.29360269,-0.30653351,0.481747,0.33970596,-0.29153345,0.463456,0.32390925,-0.25042225,0.425641,0.3153267,-0.23865779,0.406734,0.30669794,-0.2382191,0.389545,0.36696447,-0.29421435,0.467037,0.34210499,-0.24817819,0.424155,0.32770464,-0.24045057,0.39914,0.31635747,-0.24140284,0.381272,0.39137046,-0.29987535,0.473011,0.3714915,-0.2535268,0.431963,0.35659094,-0.24315737,0.410962,0.34900051,-0.24329492,0.39187,0.42398465,-0.31303672,0.485734,0.40606716,-0.27167848,0.44937,0.39833394,-0.26035131,0.432662,0.39109996,-0.25474361,0.417919
0.41435679,-0.37841835,0.54324,0.39179387,-0.33742673,0.505905,0.38688941,-0.36477523,0.530955,0.34622877,-0.34272172,0.510497,0.31059322,-0.32633514,0.492686,0.29284242,-0.30766407,0.481359,0.33966495,-0.29014361,0.463392,0.32310453,-0.25194822,0.425108,0.3141439,-0.23921247,0.405967,0.30080227,-0.24384127,0.388565,0.3662311,-0.29375312,0.466244,0.34177047,-0.24587944,0.423275,0.32691717,-0.23793054,0.398209,0.31537967,-0.23852782,0.380305,0.39014839,-0.29928409,0.471634,0.36922359,-0.25240375,0.430233,0.35466052,-0.24339101,0.409051,0.34453549,-0.24350725,0.389795,0.42216883,-0.3123232,0.483692,0.39638997,-0.27834024,0.445312,0.38451491,-0.26287773,0.427678,0.37343197,-0.26298914,0.412118
0.41433424,-0.37856402,0.543,0.39129729,-0.33742407,0.505451,0.38627924,-0.36676315,0.530052,0.3447413,-0.34472599,0.509351,0.3104241,-0.32694685,0.492283,0.29130888,-0.30909352,0.480443,0.3373536,-0.29446606,0.461959,0.32017863,-0.25272696,0.423707,0.31114076,-0.23936385,0.404581,0.30037132,-0.24348767,0.387193,0.36532069,-0.29369794,0.465563,0.34021684,-0.24548997,0.422616,0.32630668,-0.23759094,0.397564,0.31537581,-0.23996516,0.37967,0.38972283,-0.29779444,0.471587,0.36998232,-0.25344504,0.430983,0.36326967,-0.23953876,0.410208,0.35164601,-0.24420901,0.391322,0.42169687,-0.30734507,0.484432,0.39637978,-0.27805369,0.445859,0.38459984,-0.26315154,0.428136,0.37428625,-0.26376705,0.412498
0.41430035,-0.37866228,0.542792,0.39099109,-0.33747903,0.505196,0.38619154,-0.36709138,0.529809,0.34452912,-0.34503767,0.508779,0.31014977,-0.32713215,0.491767,0.29085635,-0.30933887,0.479729,0.33696045,-0.2949302,0.461626,0.31968192,-0.25257956,0.423398,0.31082784,-0.23932111,0.404283,0.30052693,-0.24361128,0.386907,0.36483068,-0.2937551,0.465258,0.33943239,-0.24515148,0.42231,0.32600079,-0.23743798,0.397257,0.31551454,-0.23968532,0.379362,0.38923959,-0.29757982,0.471311,0.3699253,-0.25375517,0.430827,0.36307634,-0.24011781,0.410114,0.35220821,-0.24451374,0.391284,0.42114105,-0.30699144,0.484195,0.39590046,-0.27757783,0.445599,0.3841949,-0.26298235,0.427867,0.37428823,-0.26385623,0.41222
0.41481654,-0.37901184,0.543405,0.39115393,-0.33760455,0.505591,0.38670841,-0.36619526,0.530431,0.34518721,-0.34381552,0.50892,0.31058552,-0.32599036,0.4916,0.29150426,-0.30806804,0.479645,0.33771342,-0.29264363,0.461874,0.3194752,-0.25121728,0.423647,0.31096512,-0.23937038,0.404534,0.30236408,-0.2424917,0.387158,0.36470417,-0.29362085,0.465422,0.33949691,-0.24415309,0.422417,0.32611319,-0.23862939,0.397331,0.3161237,-0.24096597,0.379413,0.38845634,-0.29563556,0.471423,0.37185332,-0.25474025,0.43105,0.36422671,-0.24202046,0.410394,0.3556788,-0.24678611,0.391616,0.42023987,-0.30494048,0.484279,0.39487389,-0.27526831,0.445596,0.38392031,-0.26217869,0.427822,0.37435509,-0.26322492,0.41214
0.4153937,-0.38028715,0.543996,0.39139131,-0.33755485,0.506077,0.38669273,-0.36758996,0.53041,0.34500951,-0.34354551,0.508638,0.31050634,-0.32559789,0.491467,0.29301733,-0.30485066,0.481313,0.33727462,-0.29225218,0.461525,0.31940578,-0.2488676,0.423998,0.31150868,-0.23752925,0.405234,0.30367827,-0.2418522,0.388176,0.36518787,-0.29116092,0.465798,0.33826904,-0.24245836,0.42277,0.32633048,-0.23783808,0.39767,0.31641095,-0.24056888,0.379742,0.38857236,-0.29276931,0.472403,0.37189654,-0.25403289,0.432142,0.36545724,-0.24149285,0.411543,0.35541827,-0.24618006,0.392817,0.42019606,-0.30141717,0.485992,0.39535789,-0.27174536,0.447179,0.38394575,-0.25811237,0.429346,0.37564901,-0.26310895,0.413611
0.41529066,-0.3800345,0.543633,0.39087864,-0.3374613,0.506018,0.38663085,-0.3679956,0.530297,0.34499778,-0.34338698,0.508626,0.31088859,-0.32445174,0.491935,0.29337517,-0.30474334,0.481536,0.3375859,-0.29114753,0.461996,0.31876403,-0.24826546,0.42448,0.31142607,-0.23708365,0.405722,0.30386895,-0.24196575,0.38867,0.36505059,-0.29099725,0.46606,0.33705663,-0.2405964,0.423175,0.32650516,-0.23663324,0.398158,0.31657474,-0.23873766,0.380289,0.38827447,-0.29239862,0.472468,0.37225432,-0.25415038,0.432426,0.36599343,-0.24157784,0.411939,0.35621527,-0.24638295,0.393314,0.41993909,-0.3008897,0.485778,0.39512636,-0.27117489,0.447149,0.38372722,-0.2575206,0.4294,0.37564323,-0.26244042,0.413739
0.41602184,-0.38003581,0.543982,0.39154946,-0.33722079,0.506558,0.38734317,-0.36837821,0.530693,0.34567784,-0.34250727,0.509205,0.31191365,-0.32328805,0.492436,0.29352369,-0.30503202,0.481537,0.33835239,-0.2906519,0.462736,0.3194768,-0.24801972,0.424945,0.3126227,-0.23842669,0.406049,0.30372457,-0.24278299,0.388871,0.36436521,-0.28868428,0.466803,0.33821221,-0.23862615,0.424156,0.32766221,-0.2329655,0.399279,0.31821072,-0.23514272,0.381509,0.38854117,-0.29073233,0.4732,0.37490355,-0.25357112,0.433566,0.36836152,-0.2397865,0.413289,0.35841314,-0.24579258,0.394855,0.4209777,-0.30047985,0.486466,0.39624089,-0.26944806,0.448037,0.38486001,-0.25560114,0.43038,0.37691564,-0.25861008,0.4148
0.41626033,-0.37578973,0.545996,0.38679051,-0.32145366,0.508187,0.38583278,-0.36295572,0.530021,0.33993651,-0.33286442,0.508397,0.30586988,-0.31339677,0.491357,0.28796663,-0.29389529,0.480652,0.33593224,-0.28041071,0.460749,0.31902091,-0.24524068,0.424194,0.3136766,-0.23641442,0.405917,0.31313282,-0.23501752,0.389301,0.36384589,-0.27853931,0.468023,0.3457618,-0.24769276,0.426272,0.34035996,-0.229762,0.401917,0.33469254,-0.23396855,0.384521,0.38854826,-0.28029346,0.477089,0.3647228,-0.24408059,0.435299,0.35563029,-0.23446801,0.413917,0.34865404,-0.23290941,0.39448,0.42112169,-0.2884962,0.49358,0.39882288,-0.26070732,0.454595,0.38857403,-0.24794108,0.436683,0.38283638,-0.25400377,0.420878
0.41665227,-0.36031267,0.548994,0.39561499,-0.3163681,0.509681,0.38778258,-0.35208719,0.533139,0.34969436,-0.33106281,0.509365,0.31432716,-0.31448011,0.492989,0.29264822,-0.29854595,0.48136,0.33791269,-0.27938162,0.461294,0.3196149,-0.2422417,0.423126,0.31191245,-0.23398436,0.404042,0.30997465,-0.23231009,0.386693,0.36681021,-0.27366058,0.467919,0.3463955,-0.24550722,0.425125,0.33760025,-0.2267056,0.400162,0.33186012,-0.23051156,0.382331,0.39153967,-0.27332839,0.476575,0.36271404,-0.23758951,0.433583,0.35185563,-0.2279566,0.411587,0.34511571,-0.22867814,0.391591,0.42505877,-0.27901049,0.492807,0.399066,-0.251948,0.453216,0.38712205,-0.23951404,0.435025,0.38065087,-0.2449298,0.418975
0.41900708,-0.35842487,0.549961,0.39687606,-0.31505251,0.511355,0.39003406,-0.35028854,0.534023,0.35030501,-0.32904341,0.510264,0.31536917,-0.31234104,0.494174,0.29368897,-0.29438419,0.483209,0.34242237,-0.2733464,0.463381,0.32334993,-0.23463408,0.425459,0.31796632,-0.22696233,0.406499,0.31240955,-0.2290853,0.389262,0.36927459,-0.27233552,0.470344,0.35178433,-0.23793128,0.427749,0.34125342,-0.21944833,0.402902,0.3346457,-0.22657556,0.385154,0.39409714,-0.27233171,0.479219,0.36698255,-0.23336625,0.436471,0.35667873,-0.22334405,0.4146,0.34807744,-0.22457776,0.394718,0.42754591,-0.27841094,0.495605,0.40221867,-0.25099673,0.456189,0.39131472,-0.23564495,0.43808,0.38440828,-0.2400822,0.422101
0.42600555,-0.35404275,0.552206,0.40327373,-0.30726771,0.514145,0.3965438,-0.34615241,0.536006,0.35702246,-0.32173212,0.51337,0.32241447,-0.30490928,0.497781,0.30044351,-0.28942241,0.48651,0.34821314,-0.26710697,0.466245,0.32882615,-0.22773145,0.428696,0.32343985,-0.21966451,0.409922,0.31940952,-0.21796072,0.392854,0.37604351,-0.26356966,0.473714,0.35766188,-0.23089511,0.431343,0.34694518,-0.21183186,0.406627,0.34176118,-0.21547875,0.388972,0.40108804,-0.26398791,0.482961,0.37316274,-0.22663596,0.440422,0.36278051,-0.21613153,0.418658,0.35543813,-0.21374532,0.398873,0.43476591,-0.27070431,0.499704,0.40956453,-0.24202314,0.460448,0.3979837,-0.22884752,0.442412,0.39193481,-0.23027381,0.426497
0.42419105,-0.35630445,0.554403,0.40354717,-0.30726863,0.517126,0.39720783,-0.34503787,0.538103,0.3543732,-0.31701024,0.516391,0.32069479,-0.29751668,0.50009,0.30359346,-0.27876356,0.490979,0.35030462,-0.26220983,0.469673,0.33526106,-0.22275367,0.433744,0.33126134,-0.21478816,0.415779,0.32799529,-0.21336712,0.399448,0.37874325,-0.26320946,0.477527,0.36354654,-0.22757774,0.436173,0.354863,-0.20822637,0.41205,0.34823709,-0.2154135,0.394819,0.40389082,-0.26458852,0.487027,0.37802529,-0.22671601,0.445101,0.36970892,-0.21343926,0.42365,0.36148156,-0.21368036,0.40415,0.43732026,-0.27250406,0.503952,0.41365229,-0.24321095,0.465033,0.40277557,-0.2297534,0.447151,0.3967893,-0.2312114,0.431374
0.43308203,-0.35620973,0.562653,0.41049603,-0.30726566,0.526767,0.40307348,-0.34444985,0.545112,0.36267481,-0.31532167,0.519718,0.32812342,-0.29542003,0.502792,0.30653318,-0.27776648,0.491753,0.36028874,-0.26103256,0.478791,0.3284095,-0.21595542,0.441614,0.32063222,-0.20652154,0.423026,0.31708915,-0.2072502,0.406128,0.38881681,-0.25811865,0.488646,0.3613599,-0.21548338,0.446334,0.35120461,-0.20078564,0.421651,0.34644739,-0.1968701,0.404021,0.41411426,-0.25917277,0.49968,0.41068688,-0.23474485,0.460426,0.39660098,-0.24564221,0.440343,0.37025543,-0.24418512,0.422085,0.44748836,-0.26687294,0.518213,0.42611253,-0.24091737,0.479346,0.4163022,-0.22898723,0.461489,0.41114846,-0.22700855,0.445732
0.43324397,-0.35182703,0.563571,0.41192319,-0.30010414,0.527903,0.40284277,-0.3368189,0.546138,0.35961136,-0.30849737,0.519031,0.32643955,-0.28729274,0.505446,0.3111572,-0.26902077,0.499615,0.36051466,-0.24964292,0.480221,0.32965227,-0.20320197,0.444245,0.32248913,-0.19464221,0.426257,0.31880945,-0.19591881,0.409904,0.38937333,-0.24855471,0.490014,0.37459063,-0.21381103,0.448964,0.36597503,-0.19353777,0.425018,0.36273878,-0.19202734,0.407913,0.4147936,-0.25129848,0.50098,0.41272028,-0.22595948,0.463137,0.39842587,-0.23805167,0.443776,0.37228298,-0.23844075,0.426175,0.44808298,-0.2613327,0.519397,0.4277357,-0.24177869,0.48062,0.4180096,-0.23297972,0.462804,0.41174086,-0.22648753,0.447083
0.43110053,-0.3473085,0.563325,0.40930385,-0.29576156,0.528907,0.40109311,-0.33471538,0.546189,0.35626236,-0.30338341,0.518793,0.32367654,-0.27920005,0.502877,0.30953527,-0.26394403,0.497032,0.36203817,-0.24899861,0.482506,0.33114372,-0.20199837,0.445676,0.32429059,-0.19362921,0.42726,0.32074927,-0.19603698,0.410519,0.39054314,-0.24834153,0.492346,0.37235131,-0.20757931,0.451605,0.36211314,-0.1846378,0.427839,0.35908348,-0.18652783,0.410863,0.41539627,-0.25143796,0.503247,0.41651084,-0.22753001,0.467276,0.40255138,-0.2402428,0.448872,0.37649061,-0.24122971,0.432141,0.44754516,-0.26186294,0.521399,0.42989406,-0.24279264,0.483206,0.42139634,-0.23301623,0.465658,0.41507917,-0.22724499,0.450175
0.42667783,-0.34183295,0.561433,0.4061883,-0.29125177,0.529063,0.39660508,-0.32554883,0.545009,0.35655471,-0.29613069,0.519003,0.32764457,-0.27320431,0.508771,0.3162088,-0.25553714,0.506251,0.35956419,-0.23860345,0.48504,0.33581729,-0.19616467,0.450384,0.32393723,-0.17502148,0.433055,0.31953595,-0.17334106,0.417302,0.38859856,-0.23995354,0.494677,0.36802538,-0.19219821,0.455236,0.36118436,-0.17713589,0.432229,0.35744869,-0.17402628,0.415796,0.41376682,-0.2447164,0.505244,0.39241653,-0.21067425,0.465507,0.38152484,-0.19321625,0.445177,0.37402165,-0.18347813,0.426695,0.44622105,-0.25959722,0.522689,0.43130614,-0.23233507,0.486169,0.42457379,-0.22091189,0.469389,0.4186553,-0.21082422,0.454584
0.42414358,-0.33416819,0.562421,0.40612801,-0.27793923,0.529776,0.39403888,-0.31498258,0.545634,0.35679407,-0.28611117,0.518766,0.32760728,-0.26347432,0.508158,0.31569499,-0.24576065,0.50526,0.35950609,-0.22860771,0.485102,0.33603788,-0.18642743,0.450701,0.32429849,-0.16539977,0.4335,0.31996558,-0.16361892,0.417863,0.38885658,-0.23006292,0.495098,0.36866054,-0.1826557,0.456013,0.36198876,-0.16757689,0.433213,0.35839062,-0.16450429,0.416927,0.41435209,-0.23492138,0.505984,0.39293695,-0.20059058,0.465888,0.38200448,-0.1829932,0.445374,0.37452321,-0.17340916,0.426725,0.4471064,-0.24751118,0.523848,0.432016,-0.22339453,0.486962,0.42511388,-0.21230083,0.470014,0.419043,-0.20250453,0.45506
0.4261282,-0.33391131,0.565839,0.40986093,-0.27974356,0.535447,0.39741957,-0.31544618,0.55091,0.3626015,-0.28259727,0.52573,0.3345753,-0.25771112,0.512609,0.32285521,-0.23886728,0.50836,0.36496426,-0.2269771,0.494724,0.34685832,-0.18385985,0.462209,0.33778961,-0.16237881,0.445952,0.33371074,-0.16060219,0.431172,0.39373706,-0.2296911,0.503162,0.37522552,-0.18720142,0.464888,0.3634871,-0.1639346,0.442561,0.35828139,-0.1571363,0.426614,0.41916249,-0.23681307,0.512582,0.40090139,-0.19794001,0.475356,0.39189199,-0.17858317,0.456311,0.38372557,-0.16094661,0.438997,0.4506158,-0.24967763,0.528366,0.43676211,-0.22152672,0.49398,0.43061412,-0.20853252,0.478181,0.42522601,-0.19703974,0.464241
0.43256028,-0.32597071,0.571616,0.4193074,-0.27312,0.540506,0.40456568,-0.31250701,0.556462,0.37160622,-0.28060767,0.533589,0.33789124,-0.25815222,0.516563,0.3257645,-0.24019557,0.51303,0.3679093,-0.22214201,0.498981,0.34869324,-0.17794849,0.468544,0.33907821,-0.15591448,0.453325,0.33574805,-0.15286037,0.43949,0.3969912,-0.22246366,0.507459,0.37727632,-0.18192372,0.468895,0.36590968,-0.15847206,0.446399,0.36019806,-0.14896253,0.43033,0.42270692,-0.2265888,0.51697,0.40304834,-0.18882291,0.479305,0.39302431,-0.1694371,0.460035,0.38393402,-0.15176917,0.442516,0.45652754,-0.23870948,0.532972,0.43830596,-0.20940114,0.497591,0.42998064,-0.19588464,0.481336,0.42266113,-0.18392707,0.466992
0.4389842,-0.326215,0.575603,0.42409797,-0.27385826,0.545061,0.41760855,-0.30989157,0.562024,0.3813066,-0.28318063,0.543597,0.34566457,-0.26110172,0.524882,0.32869613,-0.24213091,0.516339,0.37268571,-0.22431767,0.505905,0.35327007,-0.17910803,0.474616,0.34359786,-0.15671438,0.458971,0.33999647,-0.15267054,0.444749,0.40060068,-0.22327212,0.512617,0.37582681,-0.177572,0.474592,0.36161507,-0.15177776,0.452411,0.36097967,-0.15080107,0.436567,0.42536036,-0.22627795,0.52063,0.40451519,-0.18453726,0.483922,0.39404471,-0.16409346,0.465142,0.38454023,-0.14546895,0.448068,0.45811303,-0.23704086,0.534767,0.44053561,-0.20886634,0.500114,0.43252085,-0.19585588,0.484192,0.42548691,-0.18433705,0.470144
0.43712855,-0.328689,0.576368,0.42547925,-0.2766758,0.54921,0.41246129,-0.31358816,0.565106,0.3747206,-0.28329539,0.541445,0.34371334,-0.25934779,0.525591,0.32935652,-0.24124629,0.517335,0.38347359,-0.22209212,0.5154,0.35916357,-0.18074443,0.482923,0.34807418,-0.15888592,0.466685,0.33546932,-0.15186722,0.451923,0.41078859,-0.22938838,0.520361,0.39099565,-0.18546527,0.485037,0.37947458,-0.1597554,0.464431,0.36907119,-0.15312755,0.449713,0.43420682,-0.23914804,0.526657,0.41150386,-0.19047099,0.492139,0.40017095,-0.1714119,0.474479,0.39159962,-0.15060235,0.458425,0.46367776,-0.25774179,0.538245,0.44385974,-0.21896441,0.505979,0.43672653,-0.19931575,0.491154,0.42965274,-0.18597597,0.478073
0.43832456,-0.329115,0.577556,0.42744807,-0.27831153,0.55261,0.41472756,-0.31444174,0.568182,0.37815389,-0.28432013,0.548459,0.34847908,-0.26013904,0.533404,0.33322901,-0.24091237,0.523756,0.38734971,-0.22396728,0.522757,0.36340156,-0.18020127,0.492556,0.35221259,-0.15893272,0.477455,0.34298965,-0.15427706,0.463727,0.413869,-0.22982177,0.52611,0.38894754,-0.17578738,0.492952,0.37518634,-0.15871429,0.47361,0.36538234,-0.14635079,0.459795,0.43560277,-0.23584842,0.530901,0.41329003,-0.18925862,0.498726,0.40193673,-0.16681793,0.482265,0.39451522,-0.1528885,0.4673,0.46533953,-0.25285953,0.540369,0.44701243,-0.21220825,0.510226,0.43516651,-0.19615521,0.496376,0.42951742,-0.18568893,0.484156
0.43946581,-0.32947285,0.579158,0.42870043,-0.2789532,0.555275,0.41571283,-0.3145019,0.569969,0.37847237,-0.28401288,0.54947,0.34838347,-0.26014477,0.533837,0.33336811,-0.24092717,0.524698,0.38727412,-0.22274634,0.526431,0.36585416,-0.1796178,0.4971,0.35442317,-0.1555965,0.482435,0.3457103,-0.15186908,0.469103,0.4140921,-0.22744218,0.529906,0.39030907,-0.17303307,0.497714,0.37898888,-0.15824278,0.478936,0.37009249,-0.14590608,0.465523,0.43729205,-0.23523571,0.534711,0.41657736,-0.18869264,0.503493,0.40571656,-0.1624906,0.487521,0.39680247,-0.14920687,0.473001,0.46527617,-0.2491323,0.544035,0.44686518,-0.21302197,0.514521,0.43774498,-0.19609255,0.50096,0.42987073,-0.18356025,0.488995
0.44127775,-0.32761545,0.580567,0.43005581,-0.2774931,0.556745,0.4188775,-0.31136894,0.572337,0.38025949,-0.28240881,0.551483,0.34992411,-0.25903898,0.536212,0.33516869,-0.23972089,0.527637,0.38875376,-0.21584355,0.529134,0.36725245,-0.17650711,0.500096,0.35668664,-0.15520261,0.485578,0.34696851,-0.15253401,0.472379,0.41430185,-0.22367725,0.53144,0.39285766,-0.17164292,0.499488,0.38000304,-0.15387279,0.480849,0.37085413,-0.14097519,0.467536,0.43684211,-0.23117919,0.535278,0.41719756,-0.17821179,0.504356,0.40690091,-0.15229021,0.488535,0.396627,-0.14574466,0.474153,0.46553341,-0.24650767,0.543445,0.44791942,-0.19919488,0.514622,0.43824044,-0.18739189,0.501378,0.42948391,-0.17938632,0.489693
0.4367723,-0.32946098,0.577182,0.43087524,-0.28425496,0.559297,0.41700882,-0.31714226,0.572438,0.38279767,-0.28755544,0.555636,0.35374018,-0.26178239,0.541431,0.33959845,-0.24181638,0.533873,0.39956734,-0.22975942,0.540347,0.38014259,-0.19132297,0.516831,0.37019679,-0.1723209,0.505072,0.36113388,-0.15479779,0.494383,0.42296313,-0.23414453,0.540297,0.40346012,-0.18653909,0.514303,0.39070736,-0.1624311,0.49914,0.38158391,-0.1449054,0.488309,0.44316718,-0.24182971,0.541714,0.42488138,-0.19181228,0.51662,0.41468067,-0.16863004,0.503781,0.40522882,-0.14797391,0.49211,0.46986174,-0.25858838,0.546109,0.4524719,-0.21328408,0.522413,0.44423596,-0.19393135,0.511526,0.43854064,-0.1796774,0.501919
0.43795312,-0.32699851,0.575582,0.43213189,-0.2813003,0.559411,0.4175118,-0.31521734,0.572074,0.38405893,-0.28684418,0.556921,0.35495231,-0.26202733,0.542987,0.34129299,-0.24238046,0.536268,0.40170386,-0.22937643,0.543249,0.38308777,-0.19132734,0.521078,0.37354063,-0.17237491,0.509992,0.36483578,-0.15486313,0.499915,0.42428919,-0.22957925,0.542234,0.40498335,-0.18193245,0.517955,0.39208334,-0.15727955,0.503792,0.38283923,-0.13934561,0.493676,0.44319551,-0.23572862,0.542717,0.42671672,-0.18618558,0.519129,0.41668629,-0.16348224,0.507061,0.40803569,-0.14588123,0.49609,0.46798286,-0.24794719,0.545743,0.45397595,-0.20301771,0.523803,0.44333952,-0.18380122,0.513723,0.43564379,-0.16650891,0.504828
0.44225703,-0.32915906,0.58058,0.43484181,-0.28064421,0.563682,0.42015716,-0.31516917,0.575208,0.38526878,-0.28086865,0.557786,0.35817902,-0.25520127,0.54501,0.34214559,-0.23834185,0.536644,0.40442957,-0.22009339,0.544673,0.38291758,-0.18082279,0.521921,0.37207085,-0.16172119,0.510544,0.36216704,-0.14409109,0.500202,0.42893721,-0.22540028,0.545731,0.41133356,-0.17805688,0.520511,0.40059962,-0.15372157,0.5058,0.39294697,-0.13600665,0.495291,0.44903618,-0.23550763,0.547978,0.42990535,-0.18738719,0.523633,0.41950949,-0.16418963,0.511177,0.41005631,-0.14298248,0.499854,0.47443826,-0.25219856,0.553208,0.45685587,-0.20654181,0.529737,0.44777423,-0.18734328,0.518953,0.43975603,-0.17073676,0.509438
0.45085703,-0.33188497,0.590632,0.44175284,-0.27774012,0.571534,0.42639271,-0.3144396,0.585801,0.39529881,-0.28028947,0.568775,0.36721652,-0.25781314,0.55662,0.3506935,-0.23776775,0.546328,0.41088528,-0.21762768,0.551591,0.38673835,-0.18096184,0.527266,0.37491866,-0.16146455,0.515104,0.36413223,-0.14352393,0.504047,0.43349405,-0.22529391,0.551247,0.4111523,-0.18112879,0.524138,0.39540544,-0.15662386,0.508324,0.38522256,-0.13821479,0.497028,0.45346715,-0.2334843,0.552521,0.43207681,-0.18716696,0.526393,0.42092352,-0.16357345,0.513025,0.41078264,-0.14203898,0.500873,0.47868311,-0.25081578,0.55693,0.45837289,-0.20616409,0.532219,0.4487479,-0.18728519,0.520866,0.44044391,-0.17015198,0.510849
0.45166172,-0.33198661,0.592462,0.44355887,-0.27498183,0.574541,0.42745056,-0.31387525,0.586964,0.39703443,-0.28007069,0.571627,0.36771719,-0.25550588,0.556715,0.35168227,-0.23603201,0.546751,0.41131352,-0.21802326,0.554631,0.38808337,-0.17987248,0.530955,0.37640175,-0.16045549,0.519118,0.36573761,-0.14258095,0.508356,0.43533362,-0.22308574,0.555504,0.41154301,-0.18078953,0.529322,0.39759074,-0.15561253,0.514049,0.38845179,-0.13889206,0.50314,0.45450784,-0.22910577,0.557683,0.43415838,-0.18034335,0.532355,0.42321028,-0.15733594,0.519397,0.4146594,-0.13883171,0.507616,0.48111554,-0.24576436,0.562987,0.46157345,-0.20512621,0.538789,0.4516448,-0.18628952,0.527672,0.44419835,-0.16997502,0.517862
0.44716973,-0.33083807,0.588121,0.44399418,-0.27722349,0.575127,0.42590595,-0.31305936,0.583965,0.39696373,-0.27917157,0.570931,0.36924343,-0.25200426,0.556509,0.35628168,-0.23195652,0.549353,0.41411354,-0.22061652,0.56048,0.39519341,-0.18185646,0.54122,0.38682195,-0.16066856,0.531589,0.37693853,-0.14398816,0.522835,0.4384708,-0.22481848,0.561325,0.42234831,-0.18175934,0.539981,0.41276413,-0.15552979,0.527531,0.40591946,-0.13645549,0.518638,0.45915731,-0.23213405,0.563078,0.44318134,-0.1846376,0.542434,0.4360776,-0.16106881,0.531872,0.42703796,-0.14037461,0.52227,0.48483265,-0.24812996,0.56713,0.46794577,-0.20805522,0.546826,0.46251821,-0.19074445,0.537498,0.45387014,-0.17363228,0.529267
0.44795235,-0.33014197,0.588034,0.44531184,-0.27750682,0.57649,0.42640456,-0.3106457,0.584031,0.39750287,-0.27860714,0.571134,0.37049772,-0.25137211,0.557527,0.35819588,-0.23151405,0.551202,0.41682956,-0.22193347,0.563092,0.39847231,-0.18354764,0.545028,0.38995178,-0.16358304,0.535996,0.38070392,-0.14603983,0.527785,0.44146274,-0.22620376,0.564228,0.42615254,-0.18110631,0.544286,0.41703968,-0.15090353,0.532654,0.41021541,-0.13059612,0.524345,0.46230307,-0.23353463,0.566103,0.44789224,-0.18631057,0.546776,0.44028876,-0.16171707,0.536889,0.4332098,-0.14094595,0.5279,0.48800401,-0.24947961,0.570078,0.47402373,-0.20891868,0.551118,0.46811287,-0.1872097,0.542406,0.46162121,-0.17283003,0.534719
0.44224278,-0.32557355,0.579982,0.44254372,-0.27969095,0.572173,0.42393408,-0.31116353,0.579816,0.40249004,-0.28510898,0.575688,0.38193784,-0.25950141,0.566059,0.36557259,-0.23450771,0.557396,0.41756685,-0.23289884,0.566246,0.41257229,-0.18755367,0.553936,0.40747257,-0.17068661,0.547781,0.4028184,-0.15484612,0.542185,0.43994443,-0.23465036,0.563848,0.42916266,-0.18323926,0.54827,0.42208599,-0.15496285,0.539183,0.41691457,-0.13659507,0.532693,0.46011393,-0.23764287,0.562507,0.44861627,-0.18742825,0.547096,0.44356282,-0.16276533,0.539212,0.43842599,-0.14096709,0.532044,0.48251033,-0.25297906,0.562096,0.47126599,-0.20769693,0.547609,0.46711402,-0.18719253,0.540953,0.46232207,-0.17318257,0.53508
0.44607992,-0.32769716,0.584442,0.44480029,-0.27839579,0.575423,0.42675501,-0.31054958,0.582752,0.4011938,-0.27945146,0.574907,0.37772934,-0.25146803,0.562373,0.36968864,-0.23443571,0.559197,0.42056886,-0.22471029,0.566718,0.41435719,-0.1825539,0.556719,0.41038374,-0.16375241,0.551719,0.40676396,-0.14612438,0.547174,0.44304972,-0.22923471,0.565806,0.43081344,-0.18013751,0.548759,0.42308102,-0.15215292,0.538815,0.41714111,-0.13349916,0.531712,0.46247836,-0.23590117,0.565786,0.45869659,-0.18870123,0.556411,0.45575733,-0.1660706,0.551615,0.45374665,-0.14357519,0.547255,0.48573944,-0.25027787,0.567125,0.47418012,-0.2087762,0.551046,0.46905408,-0.18802989,0.543659,0.46391324,-0.17427311,0.537141
0.44649633,-0.32780605,0.58462,0.44500582,-0.27857379,0.575574,0.42716231,-0.31054247,0.582831,0.40214423,-0.27972768,0.575521,0.37897277,-0.25170329,0.562821,0.37053613,-0.23390027,0.559219,0.42047088,-0.22519961,0.566728,0.41456113,-0.18264374,0.556993,0.41068573,-0.16387292,0.552125,0.40715498,-0.14626485,0.5477,0.44322509,-0.22948717,0.565929,0.43111379,-0.1800417,0.548835,0.42352344,-0.15200162,0.538863,0.41766143,-0.1329507,0.531741,0.46275444,-0.23618256,0.566005,0.45947563,-0.18902171,0.557356,0.45708014,-0.16591378,0.552931,0.45535354,-0.14351967,0.548909,0.4861802,-0.25070132,0.567461,0.47437334,-0.20873833,0.551301,0.46904311,-0.18805548,0.543876,0.46395846,-0.1745868,0.537325
0.44762785,-0.32661679,0.585694,0.44556048,-0.27895936,0.576202,0.42791586,-0.31096499,0.583769,0.4032041,-0.28020867,0.576541,0.37997446,-0.25207359,0.56361,0.37122437,-0.23369207,0.559503,0.42049913,-0.22557676,0.566861,0.41469063,-0.18270081,0.557167,0.41083078,-0.16393079,0.55232,0.40731406,-0.14632199,0.547914,0.44340422,-0.2297013,0.566082,0.43099597,-0.17988199,0.548532,0.42327892,-0.15175914,0.538295,0.41736387,-0.13242852,0.530983,0.46299404,-0.2364103,0.566209,0.45986886,-0.18918347,0.557833,0.45770773,-0.16582288,0.553548,0.45608755,-0.14346947,0.549652,0.4865748,-0.25104502,0.567794,0.47428791,-0.2086189,0.551222,0.46869237,-0.18793277,0.543607,0.46350631,-0.17461423,0.536889
0.44881954,-0.32763118,0.589047,0.44710348,-0.28320902,0.578666,0.42883335,-0.31118722,0.586332,0.40275323,-0.28100418,0.576966,0.37880937,-0.25220337,0.563657,0.36937517,-0.23285441,0.558086,0.42197813,-0.22839316,0.567694,0.41676134,-0.18764196,0.55713,0.41127924,-0.16440387,0.551849,0.40730311,-0.1463862,0.547047,0.44552478,-0.23720123,0.567598,0.43833206,-0.18945193,0.549032,0.43217289,-0.16136308,0.538201,0.42756803,-0.14140757,0.530465,0.46668629,-0.24789651,0.568361,0.45817876,-0.19550168,0.556368,0.45490618,-0.17343223,0.550233,0.45094382,-0.14749816,0.544655,0.48842933,-0.26649728,0.570834,0.47505552,-0.21905622,0.553064,0.46834802,-0.1987798,0.544899,0.46379315,-0.17671024,0.537695
0.44852931,-0.32815242,0.589801,0.44700541,-0.28383322,0.579263,0.42890118,-0.31155213,0.587225,0.40279689,-0.28127161,0.577464,0.37892658,-0.25218401,0.564098,0.36958208,-0.23255416,0.558155,0.42318976,-0.22916541,0.568348,0.41733577,-0.18729465,0.557087,0.41146583,-0.1646547,0.551456,0.40715401,-0.14637339,0.546337,0.44674293,-0.23770946,0.568028,0.43857956,-0.1895589,0.549342,0.43236641,-0.16143533,0.538442,0.42772279,-0.14145876,0.530657,0.46689731,-0.24800861,0.568618,0.45863657,-0.19650097,0.55651,0.4549748,-0.17345839,0.550316,0.45098727,-0.14854886,0.544684,0.48849436,-0.26653276,0.57091,0.47525393,-0.21914771,0.553295,0.4686076,-0.19888997,0.545201,0.46383308,-0.17768983,0.53806
0.4463704,-0.32796783,0.587296,0.44597704,-0.28375502,0.577897,0.42809299,-0.31231762,0.586451,0.40456421,-0.28283827,0.579269,0.3807356,-0.25424618,0.566399,0.37095123,-0.233461,0.559959,0.4251273,-0.23330457,0.569964,0.41518472,-0.18714487,0.554648,0.4062966,-0.17064287,0.546991,0.39670581,-0.15157967,0.540029,0.44676665,-0.2379231,0.567877,0.43214306,-0.18712979,0.550672,0.42368538,-0.15929647,0.540636,0.41754204,-0.13703596,0.533467,0.46460145,-0.24540512,0.566921,0.45791968,-0.19622696,0.555751,0.45364994,-0.16997906,0.550036,0.45180271,-0.14553557,0.54512,0.48582377,-0.26334864,0.567207,0.47382813,-0.21187824,0.551112,0.46794691,-0.19164665,0.543716,0.46296169,-0.17640423,0.537191
0.44536649,-0.32865825,0.586266,0.44554722,-0.28391325,0.577315,0.42737686,-0.31304024,0.58563,0.4046622,-0.28314818,0.579089,0.38081296,-0.25444829,0.566455,0.37118377,-0.23364359,0.560099,0.42522731,-0.23367258,0.569969,0.4152949,-0.18768463,0.555055,0.40655066,-0.17089998,0.547598,0.39758689,-0.15235919,0.540819,0.4467702,-0.23804544,0.567773,0.43287164,-0.18774698,0.551043,0.42436847,-0.16005454,0.541284,0.41821631,-0.13824024,0.534313,0.464524,-0.24531006,0.56669,0.45794138,-0.19625618,0.555844,0.45388952,-0.1702289,0.550296,0.45175277,-0.14589448,0.545251,0.485689,-0.26240994,0.566758,0.47376903,-0.21208357,0.551087,0.46795341,-0.19192418,0.543887,0.46302633,-0.17646295,0.537533
0.44771645,-0.33069673,0.588897,0.44703713,-0.28367767,0.57873,0.42790788,-0.31378664,0.585925,0.40381129,-0.28536785,0.576386,0.37843311,-0.25513922,0.56261,0.37170622,-0.23359826,0.558269,0.42310117,-0.23236985,0.567596,0.40456337,-0.18738757,0.550956,0.39918204,-0.16888928,0.542637,0.39103859,-0.15166138,0.535073,0.4447537,-0.232735,0.56789,0.43139603,-0.18348971,0.549473,0.42172098,-0.15775749,0.53873,0.41509883,-0.13760999,0.531056,0.4654712,-0.23886399,0.568955,0.452183,-0.19166755,0.550826,0.44273661,-0.16443168,0.541551,0.43539231,-0.14371094,0.533119,0.49050893,-0.25395195,0.571755,0.47603054,-0.21086943,0.554021,0.46316431,-0.19133564,0.545873,0.45981403,-0.17592348,0.538684
