sluyters/QuantumLeap/backend/src/datasets/gesture/HandGestureDataset_SHREC2017_csv/Gesture9/finger_1/subject_1_essai_4_skeletons_world.csv
Wrist_x,Wrist_y,Wrist_z,Palm_x,Palm_y,Palm_z,thumb_base_x,thumb_base_y,thumb_base_z,thumb_first_joint_x,thumb_first_joint_y,thumb_first_joint_z,thumb_second_joint_x,thumb_second_joint_y,thumb_second_joint_z,thumb_tip_x,thumb_tip_y,thumb_tip_z,index_base_x,index_base_y,index_base_z,index_first_joint_x,index_first_joint_y,index_first_joint_z,index_second_joint_x,index_second_joint_y,index_second_joint_z,index_tip_x,index_tip_y,index_tip_z,middle_base_x,middle_base_y,middle_base_z,middle_first_joint_x,middle_first_joint_y,middle_first_joint_z,middle_second_joint_x,middle_second_joint_y,middle_second_joint_z,middle_tip_x,middle_tip_y,middle_tip_z,ring_base_x,ring_base_y,ring_base_z,ring_first_joint_x,ring_first_joint_y,ring_first_joint_z,ring_second_joint_x,ring_second_joint_y,ring_second_joint_z,ring_tip_x,ring_tip_y,ring_tip_z,pinky_base_x,pinky_base_y,pinky_base_z,pinky_first_joint_x,pinky_first_joint_y,pinky_first_joint_z,pinky_second_joint_x,pinky_second_joint_y,pinky_second_joint_z,pinky_tip_x,pinky_tip_y,pinky_tip_z,
0.44540677,-0.33943853,0.547623,0.44309917,-0.29808748,0.549027,0.42514594,-0.32680933,0.54759,0.38913365,-0.30587884,0.542479,0.3528401,-0.28852262,0.524674,0.33780124,-0.27775105,0.524377,0.41640513,-0.24965744,0.550033,0.40815938,-0.21525544,0.554374,0.40426519,-0.19732356,0.556544,0.40084824,-0.18060073,0.558517,0.44005014,-0.24994509,0.55058,0.43420132,-0.20859552,0.552264,0.43068328,-0.18433318,0.553246,0.43026111,-0.16919295,0.553948,0.45967033,-0.25289535,0.550938,0.4587328,-0.21186092,0.551523,0.45827268,-0.19072875,0.551823,0.45971256,-0.17466253,0.552095,0.48377367,-0.26432103,0.551184,0.4856891,-0.22552904,0.547054,0.4872881,-0.20919061,0.545806,0.49053213,-0.19464253,0.546011
0.44779844,-0.34036922,0.550514,0.44317793,-0.29518496,0.549433,0.42779439,-0.32799291,0.550979,0.39455938,-0.30824936,0.543911,0.35867774,-0.28230302,0.52386,0.3409348,-0.26578165,0.51848,0.41586071,-0.24879917,0.549189,0.40627083,-0.21368234,0.55168,0.40166062,-0.19551707,0.552926,0.39756773,-0.17864579,0.554058,0.43829397,-0.24837947,0.548236,0.42633607,-0.20434904,0.542119,0.42178557,-0.17836229,0.538551,0.41667905,-0.16403945,0.536003,0.45697249,-0.25080929,0.547524,0.44839838,-0.20669463,0.539414,0.4432832,-0.18418084,0.535264,0.43900024,-0.16840356,0.531492,0.47990644,-0.25918047,0.546811,0.47957056,-0.22237259,0.540098,0.47935766,-0.20566029,0.537014,0.47970769,-0.19048408,0.534293
0.45486977,-0.34497868,0.559075,0.4465915,-0.29898561,0.553348,0.4325138,-0.33094052,0.556898,0.39731374,-0.30509349,0.545091,0.36706373,-0.28248155,0.535181,0.3535548,-0.26735876,0.534578,0.41409301,-0.24926647,0.546445,0.40564381,-0.21483151,0.550368,0.40170172,-0.19708983,0.552329,0.39867837,-0.18082727,0.554113,0.43729175,-0.24781678,0.547014,0.42232748,-0.20239105,0.53706,0.41625118,-0.17824104,0.531254,0.41634608,-0.16818033,0.527107,0.45716735,-0.25089939,0.54786,0.4436096,-0.20410561,0.535244,0.43896354,-0.19229568,0.52879,0.43734692,-0.18006449,0.522922,0.48176364,-0.26077756,0.549619,0.47019832,-0.23093145,0.537194,0.46518625,-0.21733268,0.531485,0.46076379,-0.20506664,0.526448
0.45826527,-0.34737952,0.563727,0.44785045,-0.29965655,0.555297,0.43486141,-0.33255044,0.560319,0.39626116,-0.30678299,0.546572,0.36354766,-0.28335079,0.531432,0.34787421,-0.26729068,0.528256,0.41270585,-0.24818298,0.544888,0.40233062,-0.21423717,0.5466,0.39561371,-0.19481333,0.547455,0.39388076,-0.17864964,0.548233,0.43648607,-0.24872622,0.545972,0.42115777,-0.20282166,0.534888,0.41637827,-0.18037187,0.528423,0.41547352,-0.17049591,0.523805,0.45674508,-0.25216293,0.54742,0.43924368,-0.20512804,0.532211,0.43658839,-0.19934752,0.524429,0.43566,-0.19324504,0.517356,0.4822135,-0.26285705,0.550253,0.46822662,-0.24156558,0.53561,0.46300858,-0.23118196,0.528883,0.45842255,-0.2218147,0.522947
0.4622086,-0.35020003,0.569035,0.44909115,-0.30030381,0.557194,0.4370034,-0.33401067,0.563466,0.39773998,-0.30552374,0.546553,0.36887799,-0.28182761,0.53774,0.35357443,-0.26714701,0.535123,0.41004248,-0.24631076,0.541625,0.39805234,-0.21146152,0.54216,0.39152735,-0.19294243,0.542428,0.38694681,-0.17627235,0.542671,0.43477541,-0.24748846,0.544094,0.41622186,-0.20097778,0.52498,0.41126961,-0.18630023,0.513829,0.40943205,-0.18497144,0.505865,0.45607825,-0.25154903,0.546907,0.4358343,-0.20407717,0.5283,0.4319913,-0.19711861,0.51878,0.42960465,-0.19053523,0.510125,0.48344271,-0.26267193,0.551821,0.46715731,-0.2409706,0.5342,0.46067563,-0.23005225,0.526104,0.45497021,-0.22024689,0.51896
0.46153093,-0.34950244,0.569106,0.44946709,-0.30032151,0.558199,0.43719125,-0.33389677,0.564499,0.3957649,-0.30823334,0.549855,0.36450376,-0.28516114,0.537828,0.35320792,-0.26783732,0.536589,0.4119004,-0.24731173,0.544492,0.38580313,-0.20670071,0.528084,0.37378621,-0.18707478,0.521086,0.36390661,-0.17198658,0.514724,0.43640742,-0.24772976,0.546134,0.41910136,-0.20391279,0.52801,0.41197096,-0.19446051,0.517438,0.40798906,-0.1973474,0.509886,0.45749004,-0.25134796,0.548204,0.45120197,-0.20959897,0.530795,0.44566283,-0.21294619,0.521887,0.43778744,-0.22854229,0.514784,0.48424914,-0.2625627,0.552106,0.46678626,-0.24648856,0.535436,0.45954208,-0.23899241,0.52827,0.45325037,-0.2323708,0.52208
0.46691156,-0.35245185,0.57521,0.44480994,-0.29669407,0.551845,0.44116998,-0.3358732,0.569004,0.40990423,-0.31222595,0.561397,0.37798123,-0.29484855,0.553979,0.35568522,-0.27448544,0.544389,0.40269552,-0.2411805,0.52692,0.36627523,-0.20553495,0.502643,0.34939209,-0.18841626,0.492394,0.33420019,-0.17528169,0.483076,0.42515927,-0.24121701,0.526,0.39677458,-0.19144855,0.499126,0.38237571,-0.19159784,0.483449,0.37488794,-0.20405062,0.472251,0.44531205,-0.24455351,0.526787,0.41045197,-0.20764787,0.49978,0.40091073,-0.21779317,0.485963,0.41149823,-0.23785706,0.491659,0.47271947,-0.25514714,0.53077,0.43786671,-0.21653915,0.506236,0.42992536,-0.22258148,0.494964,0.42554723,-0.23010449,0.485018
0.47113246,-0.35478035,0.579934,0.45039417,-0.29953029,0.557472,0.44518315,-0.33786163,0.573492,0.41392697,-0.31373373,0.565887,0.38290592,-0.29549363,0.55912,0.36396579,-0.27845945,0.551999,0.40927869,-0.24292079,0.532933,0.37569845,-0.21910039,0.508933,0.36731785,-0.22895529,0.496934,0.37939615,-0.24695847,0.502789,0.43222171,-0.24399963,0.532626,0.40260147,-0.22081786,0.504328,0.38655804,-0.23704737,0.487821,0.39249468,-0.25414961,0.493243,0.45277096,-0.24824741,0.533856,0.41786883,-0.21931405,0.507495,0.40808873,-0.23171658,0.494008,0.41944667,-0.25211952,0.500175,0.48058255,-0.26007234,0.538254,0.44536007,-0.22639938,0.514093,0.43663339,-0.23358842,0.502993,0.43384354,-0.24253487,0.493634
0.4818138,-0.3605853,0.589184,0.46998979,-0.3098903,0.559238,0.45847358,-0.34153981,0.580774,0.42746558,-0.31829465,0.566788,0.39884638,-0.29795127,0.561149,0.38086494,-0.27986358,0.554033,0.41945736,-0.24936298,0.526739,0.38053921,-0.23076574,0.497729,0.37004568,-0.24123875,0.483224,0.37880926,-0.25568924,0.485334,0.4420681,-0.25234021,0.526113,0.4062911,-0.23471965,0.491576,0.38644838,-0.24926019,0.471429,0.38854619,-0.26132411,0.472871,0.46264055,-0.25824907,0.527576,0.42209366,-0.23018023,0.495585,0.40867229,-0.24203012,0.479217,0.41548321,-0.25912374,0.48121,0.49106812,-0.27224811,0.533226,0.45140624,-0.23938667,0.504423,0.44027715,-0.2472964,0.491188,0.44570411,-0.26033954,0.491929
0.49783743,-0.35810644,0.578083,0.4672849,-0.30763208,0.552869,0.48326484,-0.35246326,0.575644,0.44300091,-0.33065272,0.566172,0.41316517,-0.31588144,0.563017,0.39411111,-0.30056354,0.558055,0.40939833,-0.26331233,0.531122,0.36535307,-0.24021284,0.509003,0.34317547,-0.22859352,0.497944,0.33365382,-0.23206487,0.48789,0.42642383,-0.25406686,0.524977,0.389957,-0.24016927,0.493403,0.38165908,-0.25506113,0.474985,0.39152187,-0.26607079,0.477792,0.44310163,-0.24965467,0.521586,0.41116238,-0.23829769,0.49203,0.4021412,-0.25185542,0.476908,0.40941288,-0.26913269,0.480243,0.46849708,-0.25070414,0.520802,0.43730583,-0.2464247,0.497345,0.43291419,-0.25653145,0.486568,0.4408959,-0.268421,0.489268
0.4989401,-0.36233482,0.579227,0.46602855,-0.30964457,0.550861,0.47283447,-0.34889255,0.574665,0.44739042,-0.32819749,0.56325,0.42384684,-0.30470341,0.5563,0.40719891,-0.28212374,0.548146,0.40793226,-0.25436618,0.524197,0.36458171,-0.2386657,0.498927,0.3536616,-0.23814823,0.501795,0.34968847,-0.24869759,0.504403,0.42369574,-0.25090689,0.519483,0.38301677,-0.24783544,0.487226,0.37212484,-0.26200099,0.46841,0.38203262,-0.27416338,0.470361,0.44105465,-0.24918069,0.517479,0.40406913,-0.25925512,0.48891,0.38629235,-0.27015558,0.474293,0.39035264,-0.28735093,0.477204,0.46827333,-0.25822434,0.518767,0.42668844,-0.25763138,0.492671,0.42326964,-0.26587049,0.48068,0.43310576,-0.27458572,0.482089
0.49710545,-0.36199492,0.566189,0.46855674,-0.31647942,0.543663,0.47815339,-0.35346944,0.5656,0.44973069,-0.33785503,0.55895,0.42369855,-0.31919234,0.554766,0.40710237,-0.29936318,0.548902,0.41867684,-0.26582078,0.526161,0.37485121,-0.25034198,0.506841,0.36742541,-0.25267469,0.517919,0.36969056,-0.27083584,0.52799,0.43095417,-0.25838763,0.518745,0.3845919,-0.24893053,0.492189,0.3678174,-0.26172461,0.476698,0.38106135,-0.27782514,0.481248,0.44369448,-0.25557645,0.514132,0.40522974,-0.26269972,0.491684,0.39038018,-0.27575844,0.4802,0.39788787,-0.29628346,0.486103,0.46297702,-0.25678744,0.511532,0.42315774,-0.26745195,0.490441,0.42269753,-0.2760691,0.480751,0.43603214,-0.2858984,0.484428
0.49495821,-0.37110613,0.556299,0.4636186,-0.32311322,0.53759,0.47430447,-0.36043618,0.557013,0.44553037,-0.34479969,0.553461,0.42044647,-0.32683519,0.550147,0.40481597,-0.30763727,0.545314,0.41807258,-0.27442672,0.524512,0.37647792,-0.26045836,0.508088,0.37180977,-0.26516197,0.523057,0.37674054,-0.28608604,0.537473,0.43005548,-0.26716222,0.516895,0.38506049,-0.24929972,0.493723,0.3684661,-0.26287611,0.480205,0.37623285,-0.28278371,0.486543,0.44230459,-0.26439331,0.511866,0.40395983,-0.26557392,0.492598,0.3934476,-0.27774679,0.48274,0.40663425,-0.30202703,0.490544,0.46171185,-0.26764018,0.508269,0.42276561,-0.27723021,0.489821,0.42323971,-0.28641015,0.481345,0.437902,-0.29721631,0.486477
0.47716021,-0.36369895,0.538974,0.43362141,-0.31556554,0.515886,0.44217124,-0.35962296,0.530603,0.41083271,-0.34075985,0.524805,0.37320449,-0.31501981,0.504563,0.35600201,-0.29555312,0.494413,0.37495511,-0.26512852,0.488544,0.33693019,-0.26056013,0.462855,0.33777568,-0.27520964,0.477757,0.33952635,-0.29159222,0.493847,0.39379582,-0.2585117,0.490346,0.35212977,-0.2543372,0.461151,0.33623193,-0.26318089,0.44412,0.34875314,-0.28112544,0.449159,0.41241938,-0.25601184,0.493353,0.37158661,-0.25263769,0.465489,0.36784136,-0.26197964,0.451233,0.37898191,-0.28242329,0.456793,0.44094859,-0.2593243,0.499963,0.39647075,-0.25932932,0.474652,0.39328277,-0.26744649,0.463023,0.40447078,-0.2791843,0.466507
0.47146674,-0.36160428,0.531442,0.43505307,-0.31786822,0.515049,0.4421485,-0.35885267,0.526111,0.40811477,-0.34273066,0.511024,0.37645891,-0.32699284,0.497448,0.35877039,-0.31053193,0.486834,0.37928412,-0.27626183,0.496378,0.3494189,-0.28185149,0.476377,0.35399739,-0.30228755,0.493264,0.35720642,-0.32247596,0.507903,0.39791496,-0.26853115,0.496916,0.3658379,-0.27548296,0.473888,0.35647823,-0.28958992,0.460455,0.37319068,-0.30842966,0.468514,0.41627294,-0.2649202,0.49844,0.38524492,-0.27246374,0.476664,0.38604109,-0.28481859,0.465523,0.40268088,-0.30687289,0.474383,0.44364711,-0.26350509,0.502401,0.40799566,-0.27562155,0.482128,0.40776275,-0.28353426,0.472813,0.42150232,-0.29489065,0.478816
0.48252691,-0.37101471,0.542086,0.43842014,-0.32456725,0.515795,0.45449313,-0.36380827,0.536612,0.42559872,-0.34819943,0.519388,0.40245842,-0.33035742,0.507712,0.39009899,-0.31454968,0.503492,0.36991097,-0.28337384,0.489573,0.33834528,-0.28729442,0.464462,0.33920984,-0.30522644,0.473995,0.34468673,-0.327729,0.490177,0.38599263,-0.27366487,0.486713,0.35049635,-0.27874279,0.455676,0.33945839,-0.29002084,0.437571,0.35255429,-0.30416083,0.440952,0.40286233,-0.2686296,0.486096,0.37017747,-0.275338,0.458041,0.36952881,-0.28359125,0.443688,0.38293483,-0.30151425,0.447942,0.43033877,-0.2687057,0.488778,0.39415924,-0.27668173,0.463128,0.39145771,-0.2820504,0.451343,0.40119902,-0.29065707,0.453779
0.48487929,-0.3775469,0.543985,0.43702597,-0.32764451,0.512369,0.45816376,-0.36760148,0.540475,0.41899911,-0.35239272,0.528783,0.38506002,-0.33632439,0.51982,0.36353195,-0.31626903,0.510441,0.36870521,-0.28003174,0.484556,0.33561577,-0.28643243,0.459039,0.33484683,-0.30772834,0.467617,0.3386193,-0.33304604,0.481408,0.38499891,-0.27254674,0.477397,0.34297708,-0.2803027,0.443448,0.33088241,-0.29131586,0.423644,0.34135021,-0.29946072,0.422797,0.39975892,-0.27004284,0.473595,0.36102606,-0.27940715,0.444288,0.3616285,-0.28362033,0.429294,0.37305117,-0.2957696,0.429455,0.42447302,-0.27370686,0.47315,0.38978593,-0.28791321,0.446506,0.37515168,-0.29463709,0.434265,0.37213464,-0.3079751,0.433602
0.48399573,-0.37747874,0.542377,0.43410481,-0.32666058,0.508156,0.4553947,-0.36617381,0.536844,0.41410202,-0.35013715,0.522198,0.37846908,-0.33348581,0.510461,0.35602957,-0.31332528,0.499926,0.36450236,-0.28007733,0.475953,0.33115503,-0.29032352,0.447751,0.32999686,-0.30988296,0.454985,0.33594362,-0.33694335,0.469294,0.37973747,-0.27120994,0.470302,0.33727006,-0.28015996,0.433921,0.32398001,-0.29008182,0.412699,0.331956,-0.29383702,0.410383,0.39589663,-0.26948368,0.467913,0.35922223,-0.28272738,0.435888,0.35817663,-0.28411945,0.419503,0.36538321,-0.29068979,0.417967,0.42266666,-0.27412194,0.469501,0.38995843,-0.29120961,0.440691,0.37552532,-0.29777088,0.427453,0.37247314,-0.31064646,0.42552
0.48125739,-0.37610143,0.536243,0.43439256,-0.33419109,0.501395,0.45283098,-0.36832213,0.530899,0.41382859,-0.35630014,0.51599,0.37834498,-0.34026222,0.504609,0.35392713,-0.31679211,0.49432,0.36336692,-0.28264428,0.468952,0.3289061,-0.29213168,0.440773,0.32701761,-0.31133603,0.447618,0.33136268,-0.33479614,0.461594,0.37842389,-0.27657748,0.462846,0.33402402,-0.28162829,0.426227,0.31991317,-0.29107947,0.404865,0.32677431,-0.29428111,0.40184,0.39456854,-0.27492117,0.460124,0.35562659,-0.28453064,0.428037,0.35435316,-0.28585309,0.41162,0.36165985,-0.2912033,0.409369,0.42138934,-0.27969979,0.461396,0.38609811,-0.29344851,0.43257,0.3711801,-0.29967401,0.419325,0.36608875,-0.30816343,0.416859
0.46267553,-0.3697403,0.509958,0.4180572,-0.32625184,0.481012,0.43592903,-0.37168472,0.504991,0.39209974,-0.34881998,0.493149,0.35642161,-0.33131084,0.484013,0.33445315,-0.31300974,0.47536,0.35141885,-0.27364724,0.453425,0.32093519,-0.28492422,0.427576,0.32396103,-0.30800596,0.439461,0.33242278,-0.33695455,0.454409,0.36761728,-0.26629552,0.448993,0.3313322,-0.27626583,0.416188,0.32095008,-0.28735201,0.397052,0.32823401,-0.29577592,0.398708,0.38445268,-0.2636227,0.447259,0.35084665,-0.27556648,0.418095,0.34751275,-0.27869716,0.403174,0.35886927,-0.29205947,0.405746,0.41163076,-0.26734983,0.448945,0.37371209,-0.2784819,0.422368,0.35642209,-0.28333397,0.410157,0.36102697,-0.29816567,0.411311
0.4576592,-0.36970319,0.50412,0.4159412,-0.32265419,0.47739,0.42895323,-0.36608199,0.495936,0.38659326,-0.341925,0.482412,0.35211184,-0.32225081,0.472487,0.33131689,-0.3028381,0.464092,0.34710922,-0.26951847,0.44756,0.3208203,-0.27396701,0.420192,0.32886414,-0.29661496,0.433761,0.34218418,-0.32595503,0.449982,0.36743703,-0.26366529,0.447822,0.33855151,-0.26622124,0.415761,0.33004511,-0.27767509,0.397059,0.34054668,-0.29001861,0.400327,0.38885892,-0.25907514,0.449801,0.36075011,-0.26458705,0.419797,0.35578429,-0.27027798,0.404446,0.36640941,-0.28638184,0.408286,0.42053366,-0.26264245,0.455653,0.38728967,-0.26969642,0.428501,0.37200925,-0.27295538,0.416026,0.37826591,-0.28916413,0.418175
0.45393858,-0.37951267,0.500079,0.41325659,-0.32200006,0.474392,0.42061127,-0.36394384,0.4904,0.37144357,-0.33544723,0.474499,0.33790189,-0.30953004,0.462635,0.32235206,-0.28991991,0.457328,0.35289537,-0.26233652,0.443529,0.32813535,-0.26413559,0.415624,0.33760529,-0.28366572,0.429513,0.34980702,-0.31146272,0.446074,0.37801179,-0.26103861,0.445976,0.35149257,-0.26277872,0.414452,0.33795905,-0.27391866,0.396063,0.34174112,-0.29002555,0.399754,0.40128461,-0.26361512,0.449686,0.37540795,-0.25989486,0.419473,0.36400756,-0.27015363,0.404015,0.3680258,-0.28845417,0.408091,0.43433109,-0.27415405,0.457475,0.40419216,-0.27680112,0.430252,0.39031567,-0.27814895,0.417745,0.39576063,-0.29501698,0.420104
0.43408895,-0.36115294,0.475091,0.40608015,-0.30332656,0.450474,0.4041447,-0.34861193,0.468374,0.36646599,-0.31885491,0.453364,0.33818641,-0.30066516,0.450198,0.32200399,-0.28659929,0.447838,0.34480096,-0.24573685,0.423995,0.31619974,-0.25107925,0.398722,0.32441259,-0.27615754,0.413105,0.33664269,-0.30305463,0.428823,0.36647931,-0.24143304,0.423243,0.33507852,-0.24572851,0.393165,0.32856834,-0.2553017,0.37562,0.33722432,-0.25757983,0.379987,0.38729666,-0.24138563,0.42425,0.35830713,-0.246975,0.396395,0.35224009,-0.25641625,0.382143,0.36156911,-0.25964873,0.38724,0.41812541,-0.24854306,0.428661,0.38452166,-0.23782913,0.403241,0.36955885,-0.24752457,0.391562,0.37332092,-0.25914343,0.394658
0.46032275,-0.36617285,0.512623,0.41576468,-0.32075151,0.478075,0.42958677,-0.35514157,0.503192,0.39141896,-0.33691617,0.483199,0.3542035,-0.31298605,0.468191,0.33488683,-0.29179841,0.45844,0.35523567,-0.26668405,0.440909,0.33030054,-0.25118822,0.405831,0.31785836,-0.24348392,0.388292,0.31755261,-0.25954916,0.386476,0.37794708,-0.26399827,0.439858,0.34123428,-0.23820069,0.401563,0.32744493,-0.24860213,0.379224,0.33186742,-0.25535615,0.377495,0.39894279,-0.26500372,0.441274,0.36057536,-0.24701366,0.405744,0.34089112,-0.23783877,0.387566,0.34392787,-0.25459878,0.386162,0.42873988,-0.27256948,0.447468,0.39853665,-0.28521546,0.416261,0.40949459,-0.2947821,0.423303,0.42621625,-0.30828953,0.436835
0.45323779,-0.3601509,0.510511,0.41283463,-0.30503405,0.478274,0.41546184,-0.34664456,0.500425,0.37680758,-0.31178851,0.481998,0.34551634,-0.28555575,0.466856,0.32900706,-0.26227362,0.456474,0.35713783,-0.24728446,0.442038,0.33201141,-0.22740868,0.40873,0.31946774,-0.21745719,0.392076,0.31817413,-0.23302181,0.392045,0.3813024,-0.24870072,0.442615,0.34685162,-0.2301669,0.406038,0.33046232,-0.24233231,0.384701,0.33227745,-0.25100644,0.384713,0.40329521,-0.25322029,0.445218,0.36484265,-0.22930901,0.410971,0.35329014,-0.23991836,0.393449,0.35846951,-0.25097891,0.393812,0.43375624,-0.26532511,0.452534,0.39496347,-0.2390735,0.42195,0.38467668,-0.2458792,0.407897,0.38807853,-0.25986672,0.40742
0.43981785,-0.35078146,0.509809,0.4121331,-0.29335365,0.478233,0.41008584,-0.33260963,0.498519,0.37769781,-0.29985485,0.478967,0.34729261,-0.27208904,0.463933,0.33182808,-0.24918733,0.454814,0.35701355,-0.23378455,0.441031,0.33236067,-0.21539523,0.408148,0.32005704,-0.206189,0.391706,0.31825219,-0.22189874,0.392069,0.38253043,-0.23684286,0.443303,0.34819077,-0.22911531,0.406969,0.33161071,-0.24136474,0.385774,0.33352846,-0.24907824,0.386122,0.4056655,-0.24274967,0.447257,0.36741812,-0.2196826,0.412687,0.35506657,-0.2307403,0.395001,0.36000507,-0.24236888,0.395557,0.43743602,-0.25661764,0.456107,0.40498752,-0.21185726,0.429574,0.3940275,-0.21469228,0.417383,0.39927329,-0.23045265,0.419991
0.44368926,-0.34378876,0.516794,0.41266701,-0.28272545,0.480277,0.41321865,-0.32394136,0.504333,0.3809833,-0.28949664,0.481553,0.3487001,-0.25849359,0.465359,0.33506774,-0.23684521,0.458081,0.35486261,-0.21998199,0.437975,0.32668081,-0.20079139,0.401876,0.31259351,-0.19119184,0.383826,0.30753069,-0.20237371,0.380709,0.37959378,-0.22372625,0.439882,0.34175384,-0.18361766,0.39995,0.32003357,-0.18732475,0.376657,0.31763899,-0.20262766,0.373473,0.40230598,-0.23033795,0.443863,0.36417012,-0.20498795,0.40613,0.34739364,-0.21499709,0.386824,0.3464582,-0.22570657,0.383662,0.43407781,-0.24535316,0.453387,0.42272015,-0.23299757,0.420116,0.39661836,-0.23682095,0.404829,0.38258542,-0.23728132,0.401726
0.44508288,-0.33410806,0.522175,0.41493667,-0.27254592,0.484615,0.41337613,-0.31300076,0.507461,0.38181778,-0.27803206,0.481011,0.35038755,-0.24935192,0.467986,0.34064346,-0.23253516,0.466696,0.35693194,-0.2095558,0.438809,0.32665177,-0.19834056,0.401931,0.31186058,-0.19002515,0.383492,0.30717028,-0.20125563,0.379156,0.38359182,-0.21389083,0.443068,0.34927682,-0.17576727,0.402197,0.32972019,-0.17800762,0.378355,0.32618491,-0.19305603,0.373917,0.40776041,-0.2209538,0.449051,0.36992365,-0.19676724,0.409716,0.3545153,-0.20510579,0.389591,0.35310343,-0.21746834,0.384862,0.44103028,-0.2364396,0.461112,0.44032939,-0.21566059,0.427898,0.41931539,-0.22079819,0.412637,0.40298994,-0.22506432,0.409395
0.47641955,-0.32061394,0.524937,0.4512749,-0.26374064,0.495041,0.44755149,-0.30042664,0.515285,0.4042892,-0.2669259,0.496782,0.36734605,-0.24543242,0.478013,0.34560388,-0.22426969,0.464288,0.39851458,-0.20006506,0.461074,0.36861359,-0.20159321,0.430145,0.35686095,-0.2133942,0.41468,0.36076975,-0.2220384,0.416308,0.42335134,-0.20295264,0.461971,0.38966807,-0.2076306,0.42719,0.37071483,-0.21749853,0.406901,0.37256268,-0.21654505,0.408366,0.44584203,-0.20895116,0.464682,0.41434695,-0.21649295,0.431977,0.39801013,-0.22719582,0.415244,0.39967255,-0.2315509,0.417116,0.47675296,-0.22344222,0.471823,0.43660833,-0.22514014,0.442489,0.41072207,-0.22783533,0.429012,0.40167209,-0.23485845,0.429677
0.49872758,-0.30814827,0.536184,0.46462127,-0.25633016,0.503021,0.47135699,-0.29210301,0.529508,0.43074107,-0.27059783,0.512435,0.39518514,-0.25133331,0.497184,0.37300718,-0.23204901,0.483661,0.40693654,-0.20008301,0.470224,0.37440444,-0.16063269,0.438658,0.35696263,-0.16841242,0.422875,0.35680113,-0.18479343,0.422245,0.4271817,-0.20251458,0.466338,0.38354671,-0.19554637,0.429866,0.36725778,-0.20809223,0.40859,0.37115679,-0.21282834,0.407502,0.44604038,-0.2036489,0.465331,0.4036222,-0.20179661,0.430841,0.39018115,-0.21382141,0.413195,0.39481066,-0.21911444,0.412265,0.47373954,-0.2144706,0.468439,0.43876026,-0.21845303,0.439227,0.41324545,-0.2224927,0.425805,0.40376336,-0.22683959,0.424786
0.50055379,-0.30696382,0.540293,0.4696182,-0.25521698,0.508052,0.4738204,-0.29017164,0.533607,0.43307636,-0.26111678,0.516651,0.39815089,-0.23916077,0.500806,0.37760859,-0.21704239,0.487869,0.41777891,-0.19331194,0.475927,0.38278056,-0.14981572,0.446593,0.36490523,-0.14909393,0.431926,0.36555042,-0.16642791,0.432508,0.43828071,-0.1952283,0.472387,0.39654609,-0.19226633,0.435852,0.37792708,-0.20517254,0.41454,0.37841364,-0.21013947,0.413991,0.45721793,-0.20016871,0.471603,0.41504763,-0.19832342,0.435769,0.39949453,-0.21053933,0.417436,0.4010466,-0.21999276,0.416697,0.48397847,-0.2127954,0.47486,0.44628337,-0.21693316,0.445975,0.4211365,-0.22064463,0.432704,0.41189283,-0.22793105,0.432233
0.50195231,-0.30359319,0.542354,0.47589443,-0.24351221,0.513136,0.47607191,-0.28283263,0.536992,0.43921126,-0.25312293,0.522543,0.40452005,-0.22859681,0.507463,0.38449256,-0.20764516,0.495042,0.42800545,-0.18622854,0.484868,0.39374724,-0.14688403,0.457596,0.3766305,-0.12724682,0.44396,0.36199143,-0.12619892,0.43193,0.44813692,-0.1877719,0.480816,0.4106382,-0.18133102,0.445983,0.39067653,-0.19643203,0.425664,0.39297078,-0.20205492,0.426758,0.46644199,-0.19235742,0.479412,0.42796978,-0.18765324,0.444933,0.4114499,-0.20108,0.427293,0.41464537,-0.21252516,0.428241,0.49184192,-0.20443737,0.48153,0.45660416,-0.20875048,0.454613,0.43131045,-0.21335682,0.442246,0.42404307,-0.21818045,0.443296
0.51443401,-0.29620783,0.557597,0.48810776,-0.23806468,0.523493,0.48487112,-0.2759553,0.546134,0.44592311,-0.24017625,0.525013,0.41130042,-0.21488055,0.505331,0.39178428,-0.19231315,0.490771,0.4344698,-0.17706317,0.484197,0.40486341,-0.13715508,0.461598,0.39003939,-0.117129,0.450299,0.37682628,-0.11463112,0.440026,0.45944534,-0.18211027,0.485767,0.42141451,-0.18029858,0.447605,0.39534961,-0.19295061,0.425343,0.3917728,-0.19814732,0.424041,0.48207371,-0.18965711,0.489311,0.44453786,-0.19075813,0.453097,0.42347707,-0.20352351,0.434569,0.42029133,-0.2135428,0.43338,0.51310762,-0.20549196,0.497997,0.46934651,-0.21098338,0.466041,0.44131954,-0.21381304,0.451359,0.43070689,-0.21898512,0.449773
0.51997855,-0.28511066,0.560258,0.49340248,-0.22743814,0.525397,0.4911226,-0.26586481,0.549549,0.45305376,-0.22979139,0.529262,0.41775892,-0.20408569,0.510982,0.39917813,-0.18163931,0.498273,0.43562059,-0.16839885,0.486451,0.41147921,-0.12604313,0.469723,0.39868764,-0.10642105,0.461359,0.38724876,-0.10358617,0.453755,0.45985965,-0.17136093,0.486834,0.42088742,-0.1704639,0.448324,0.3958823,-0.18408041,0.425859,0.39366388,-0.18691789,0.424035,0.48217373,-0.17716995,0.489452,0.44460707,-0.18060623,0.453503,0.42378702,-0.19396512,0.43511,0.42095963,-0.2027057,0.43354,0.51343168,-0.19089442,0.497126,0.46745276,-0.19875496,0.465197,0.44019547,-0.20310179,0.450527,0.43011275,-0.20684832,0.448597
0.52206415,-0.28388617,0.562872,0.49485554,-0.22753604,0.52792,0.49326834,-0.26442711,0.552131,0.45434226,-0.22867841,0.531605,0.42045384,-0.19976881,0.513981,0.4015245,-0.17943304,0.500266,0.43865692,-0.1675431,0.488866,0.42001185,-0.12352822,0.474465,0.40952903,-0.10361272,0.467264,0.39950469,-0.10013116,0.460718,0.46277904,-0.17114054,0.489256,0.42389851,-0.16948602,0.450678,0.39803951,-0.18324851,0.428174,0.39541702,-0.18635485,0.426281,0.48488366,-0.17749354,0.491884,0.44729611,-0.18017989,0.455872,0.42581871,-0.19352732,0.437447,0.42242193,-0.20250542,0.435803,0.51569096,-0.19190853,0.499583,0.46952515,-0.19890396,0.467606,0.44192291,-0.20302588,0.452913,0.43151976,-0.20674293,0.450928
0.52960623,-0.27609342,0.56805,0.50591829,-0.21143924,0.536543,0.50296091,-0.24529833,0.55778,0.46364792,-0.21456912,0.538444,0.42953164,-0.18786087,0.521237,0.41148091,-0.16599182,0.509368,0.45243222,-0.15183356,0.500626,0.43122088,-0.10939088,0.486214,0.4201943,-0.089614438,0.479008,0.41153782,-0.085747159,0.472457,0.4772741,-0.15470286,0.50169,0.44399954,-0.15135012,0.465597,0.41967119,-0.16882451,0.444542,0.41788466,-0.17670871,0.445012,0.49973281,-0.16045689,0.504645,0.47069967,-0.1565291,0.470684,0.44537982,-0.17027099,0.453309,0.44159853,-0.17457277,0.45411,0.53051934,-0.17415958,0.512288,0.48864057,-0.1805127,0.481948,0.46339225,-0.1877925,0.468008,0.45397252,-0.19621077,0.467866
0.53538831,-0.2634321,0.574918,0.51256048,-0.20719249,0.545339,0.50622314,-0.24359756,0.56345,0.46678342,-0.20673509,0.544206,0.43419609,-0.17855279,0.527192,0.41704336,-0.15705775,0.514225,0.46360127,-0.14568585,0.50941,0.44410321,-0.10368539,0.497041,0.43437289,-0.083498177,0.490857,0.42785876,-0.077891314,0.485236,0.49002422,-0.15047361,0.512619,0.46109724,-0.14646573,0.477758,0.43748096,-0.16475868,0.457423,0.435403,-0.17431642,0.458891,0.51341107,-0.15781969,0.517211,0.48815427,-0.15160089,0.483692,0.4626625,-0.16622291,0.466543,0.4582457,-0.17214693,0.468194,0.54456766,-0.17345306,0.526566,0.50689109,-0.17715836,0.496675,0.48200364,-0.18483276,0.482941,0.47279318,-0.1941659,0.483471
0.53638398,-0.26019099,0.576374,0.51817897,-0.20017274,0.549366,0.50691344,-0.23612716,0.56522,0.47161234,-0.19914717,0.547061,0.43989419,-0.17082324,0.530723,0.42364076,-0.1492074,0.518511,0.47172992,-0.13878829,0.515734,0.45383173,-0.097171343,0.50505,0.4451178,-0.076777398,0.499707,0.44003538,-0.069942037,0.494851,0.49855983,-0.14376624,0.519491,0.47338614,-0.13750556,0.48669,0.4509969,-0.15674813,0.467556,0.44960261,-0.16812005,0.470396,0.5221035,-0.15125153,0.524365,0.50030747,-0.14274057,0.492561,0.47558603,-0.15849406,0.476289,0.47177315,-0.16639319,0.479338,0.55309245,-0.16701686,0.533722,0.51838683,-0.169185,0.505261,0.49436203,-0.17722177,0.492185,0.48590148,-0.18770532,0.493784
0.54310025,-0.25538261,0.582498,0.52776718,-0.1971205,0.557485,0.52146689,-0.23345179,0.577009,0.49365917,-0.20159126,0.565538,0.46297247,-0.17498473,0.551096,0.44625218,-0.15369586,0.539444,0.48431183,-0.13932359,0.5322,0.46457606,-0.096955335,0.516253,0.45291602,-0.078315037,0.50828,0.44483077,-0.061769782,0.503631,0.50521625,-0.14181975,0.529817,0.47425868,-0.10914987,0.499747,0.45150659,-0.1272747,0.482207,0.454465,-0.14378439,0.486302,0.52408618,-0.14720698,0.529509,0.49102047,-0.14068527,0.502188,0.47213303,-0.15808103,0.48821,0.48108678,-0.17043475,0.493174,0.54984024,-0.16034888,0.532395,0.50802517,-0.16462069,0.507362,0.48667158,-0.17417551,0.49586,0.48716476,-0.18848991,0.49884
0.5506071,-0.25031043,0.589268,0.52965908,-0.19049416,0.564134,0.5288342,-0.22866994,0.5844,0.49549282,-0.19456861,0.57227,0.46657533,-0.16788767,0.559612,0.45060335,-0.14638515,0.548585,0.48727304,-0.1325565,0.539508,0.46893891,-0.090008402,0.524684,0.4579013,-0.071877377,0.517272,0.44761763,-0.055541188,0.510534,0.50743266,-0.1347228,0.536331,0.47707836,-0.10021957,0.506345,0.45447279,-0.11793603,0.488854,0.45715426,-0.13503309,0.492817,0.52561714,-0.1398436,0.535378,0.49333947,-0.13112999,0.508392,0.47466487,-0.14890957,0.494585,0.47915303,-0.16154532,0.499483,0.55047047,-0.15267546,0.537505,0.50934475,-0.155458,0.512727,0.48821356,-0.16500617,0.501343,0.48490636,-0.17856729,0.504267
0.55163728,-0.24860723,0.591345,0.53010023,-0.19031226,0.56586,0.52923833,-0.2273898,0.586558,0.49770131,-0.19378904,0.574991,0.47183997,-0.16468957,0.564145,0.45509963,-0.14491319,0.552351,0.48776816,-0.13233699,0.541069,0.46728387,-0.090041797,0.524351,0.45523666,-0.072583164,0.515992,0.44569577,-0.058732325,0.508393,0.50767063,-0.13452792,0.537668,0.47711523,-0.1001187,0.50744,0.4543238,-0.11780296,0.489807,0.45679048,-0.13478245,0.493562,0.52563835,-0.13966621,0.536553,0.49355276,-0.12432057,0.509417,0.47434542,-0.14163576,0.495534,0.4788575,-0.15911931,0.500233,0.55023875,-0.15251073,0.538532,0.51057759,-0.15316828,0.513626,0.48998371,-0.15921566,0.502182,0.48560207,-0.17597826,0.504953
0.55505789,-0.24546658,0.595733,0.53273259,-0.1907004,0.569566,0.53224868,-0.22749976,0.591133,0.50121637,-0.19233508,0.579759,0.4752778,-0.16451086,0.568521,0.46127811,-0.14255192,0.558211,0.48987326,-0.13169344,0.544495,0.46931495,-0.090002258,0.527052,0.45680758,-0.072651136,0.518331,0.44518929,-0.057140322,0.510403,0.50989063,-0.13461202,0.540621,0.47861778,-0.099925727,0.509941,0.45417571,-0.11686275,0.492045,0.4573378,-0.13436886,0.495377,0.5274454,-0.13979415,0.539162,0.49451028,-0.12395972,0.511765,0.47489277,-0.14116742,0.497749,0.47816509,-0.15597413,0.502044,0.55159075,-0.15271718,0.540817,0.51038118,-0.15171957,0.515687,0.48901666,-0.16044334,0.504141,0.48545378,-0.17583516,0.506602
0.55911269,-0.24522486,0.599666,0.5373355,-0.18987226,0.574813,0.53467405,-0.22484127,0.59479,0.50623173,-0.19162621,0.584407,0.47949098,-0.16408665,0.57303,0.46427516,-0.1429875,0.561833,0.49471745,-0.13096901,0.550387,0.47257777,-0.089209498,0.533402,0.45953581,-0.072390339,0.52491,0.44940799,-0.057016061,0.51719,0.51475824,-0.13288569,0.547322,0.48255815,-0.093680403,0.517548,0.46043259,-0.11034698,0.500179,0.46364077,-0.13160003,0.5043,0.53277005,-0.13504113,0.546441,0.50102147,-0.12591773,0.519614,0.48120852,-0.14327109,0.505888,0.48681373,-0.158207,0.510942,0.55812663,-0.14679029,0.548619,0.51528963,-0.1536854,0.523975,0.49420713,-0.16345772,0.512652,0.49150796,-0.17707363,0.515695
0.55686799,-0.24067159,0.598422,0.53827566,-0.18504713,0.575424,0.53572734,-0.22380115,0.595789,0.50781564,-0.19168932,0.587129,0.48120071,-0.16505465,0.576986,0.46715937,-0.14371959,0.568107,0.49777026,-0.12939352,0.555096,0.48163857,-0.086611702,0.545467,0.47127096,-0.068378429,0.540653,0.46147858,-0.051844053,0.536277,0.51584967,-0.129981,0.549984,0.48284875,-0.090948826,0.522326,0.46082504,-0.10749852,0.506193,0.46774919,-0.12789141,0.510988,0.53230319,-0.13374768,0.547298,0.49763197,-0.1184313,0.523082,0.48066245,-0.13669585,0.510693,0.48779315,-0.15208025,0.516647,0.55506237,-0.14484154,0.547069,0.51220659,-0.1452585,0.52454,0.49191421,-0.15423166,0.51419,0.48890059,-0.16885506,0.517909
0.55888536,-0.24252799,0.599483,0.53903365,-0.18723311,0.576976,0.53689974,-0.22375621,0.596949,0.50850054,-0.19240818,0.588296,0.48125742,-0.16633131,0.578593,0.46646897,-0.14538418,0.569943,0.4991456,-0.13041064,0.557134,0.48324954,-0.088709298,0.547774,0.47308818,-0.070450879,0.543094,0.46350197,-0.053881349,0.53884,0.51728909,-0.13085975,0.552079,0.48668403,-0.093349323,0.524829,0.46547892,-0.11004541,0.508933,0.47012696,-0.12852041,0.51398,0.53377921,-0.1345062,0.549407,0.5025415,-0.11432819,0.525548,0.48565921,-0.13144939,0.513341,0.49119678,-0.15106477,0.519556,0.55655087,-0.145446,0.549133,0.51515752,-0.1464822,0.5269,0.49523347,-0.15546354,0.516685,0.49247117,-0.17023045,0.520604
0.54249175,-0.23312904,0.584408,0.52626313,-0.18042771,0.565726,0.52248496,-0.21593088,0.582754,0.48707912,-0.18130557,0.574452,0.46017155,-0.15703067,0.56405,0.44957411,-0.13902564,0.555932,0.49214361,-0.12468286,0.549799,0.47422476,-0.083533917,0.538014,0.46289939,-0.067785542,0.532122,0.45227657,-0.052339276,0.526765,0.50996919,-0.12768181,0.54506,0.48311433,-0.092397044,0.521083,0.46409886,-0.10966262,0.507096,0.47046169,-0.12849235,0.51397,0.52666094,-0.13244606,0.542396,0.49808421,-0.11649753,0.521447,0.48286355,-0.13460216,0.510729,0.49203354,-0.15359816,0.518839,0.54824186,-0.14371928,0.541631,0.51035838,-0.14826925,0.521835,0.49181814,-0.15784006,0.512739,0.49123964,-0.17382356,0.518112
0.56153434,-0.240831,0.606187,0.53968498,-0.18475755,0.581217,0.53860653,-0.22195108,0.601933,0.49991806,-0.18608461,0.589594,0.47048125,-0.1605488,0.576687,0.45650574,-0.1408973,0.565858,0.49896424,-0.12571648,0.557456,0.48124881,-0.084181076,0.546302,0.4700619,-0.068248965,0.540725,0.4594803,-0.053051549,0.535654,0.51798111,-0.1291825,0.553596,0.48568763,-0.092727753,0.523921,0.46383383,-0.10956614,0.50661,0.46756431,-0.12762989,0.510581,0.53586649,-0.13459869,0.552069,0.50241018,-0.11780585,0.525591,0.48456735,-0.13538057,0.512044,0.49037636,-0.15295357,0.517013,0.55981287,-0.14702436,0.553488,0.51710746,-0.15085639,0.529113,0.4964671,-0.15978504,0.517914,0.49338716,-0.17486215,0.520888
0.56500541,-0.24258898,0.61177,0.54130526,-0.18553832,0.585828,0.54468332,-0.22356888,0.610773,0.50893173,-0.19045755,0.60139,0.47941375,-0.16413198,0.588338,0.46511193,-0.14364854,0.577462,0.5056045,-0.12887867,0.565286,0.4737976,-0.091819904,0.544163,0.45745797,-0.074082189,0.533601,0.44623801,-0.053764148,0.524,0.51907069,-0.13112004,0.557131,0.48252455,-0.093880163,0.527975,0.45941443,-0.10973432,0.510967,0.46589184,-0.12760903,0.513451,0.53133748,-0.13622747,0.552136,0.49915183,-0.11538503,0.527545,0.47636472,-0.13162978,0.514963,0.47912282,-0.14593721,0.518746,0.55308692,-0.14694924,0.549522,0.50557717,-0.14905047,0.526675,0.49286727,-0.15894378,0.516178,0.488778,-0.17211818,0.518245
0.56497944,-0.24294017,0.613214,0.53913651,-0.18601716,0.586536,0.54508533,-0.22488375,0.612074,0.50900786,-0.19165517,0.602613,0.47963462,-0.16532275,0.58988,0.46337718,-0.14405232,0.578678,0.50475827,-0.12957578,0.565271,0.47232028,-0.092633814,0.543728,0.4556803,-0.074981473,0.532957,0.44029223,-0.059429363,0.523165,0.51820141,-0.13166619,0.557024,0.47878987,-0.098175528,0.527306,0.4556611,-0.11383143,0.50997,0.46251203,-0.12866403,0.511988,0.53204289,-0.13632202,0.552002,0.49777235,-0.11600049,0.526926,0.47495135,-0.13224012,0.514096,0.47737502,-0.14630732,0.517394,0.55090996,-0.14792189,0.549451,0.50464455,-0.14959371,0.526213,0.49034327,-0.15984023,0.515536,0.48803284,-0.17297913,0.517236
0.566544,-0.24368797,0.616651,0.5412248,-0.18815955,0.589377,0.54698534,-0.22636519,0.615047,0.50807605,-0.20124963,0.604401,0.47733918,-0.17522184,0.591959,0.46158817,-0.15107555,0.581226,0.50402871,-0.13342114,0.567106,0.4679352,-0.099494411,0.5449,0.45035541,-0.08204363,0.533797,0.44216517,-0.064437118,0.530154,0.51811496,-0.13469073,0.559206,0.47854255,-0.1002269,0.528879,0.45591095,-0.1155997,0.511188,0.45892766,-0.13320559,0.512966,0.53195737,-0.13829968,0.554509,0.49858587,-0.11722901,0.52876,0.47592583,-0.1335474,0.515585,0.47827123,-0.14769418,0.518598,0.55019288,-0.15051186,0.552425,0.50684384,-0.15083117,0.528635,0.49288864,-0.15999047,0.517705,0.49042489,-0.17430398,0.519189
0.56705479,-0.24416287,0.618661,0.54202959,-0.18954238,0.590619,0.54734485,-0.22667764,0.61674,0.50845303,-0.20186692,0.604796,0.47797929,-0.17590644,0.592652,0.46211768,-0.15278876,0.58218,0.50275554,-0.13655857,0.567393,0.46785101,-0.099823059,0.544603,0.45012107,-0.08234203,0.533209,0.441185,-0.065679842,0.529747,0.51808693,-0.13571737,0.559599,0.47801202,-0.1011244,0.528621,0.45538793,-0.1163724,0.510551,0.4581192,-0.1338304,0.511891,0.53205274,-0.1391861,0.555039,0.49631485,-0.12131715,0.528659,0.47433627,-0.13760109,0.515162,0.47599074,-0.15235461,0.517702,0.55078147,-0.15124039,0.553221,0.50736777,-0.15048273,0.52892,0.49305122,-0.15913501,0.517755,0.48888849,-0.17279274,0.518882
0.56617416,-0.24572965,0.623035,0.5426749,-0.19467861,0.594414,0.5439116,-0.22723447,0.619477,0.50240935,-0.20463114,0.605167,0.46988501,-0.17901045,0.590842,0.45793766,-0.15589443,0.580894,0.50341322,-0.13752296,0.568774,0.46697976,-0.10206436,0.544271,0.44877537,-0.084545708,0.532019,0.43942329,-0.069201611,0.529774,0.51957347,-0.13884817,0.562754,0.47799108,-0.11182282,0.530694,0.45550443,-0.12744422,0.511993,0.45919617,-0.14011149,0.513503,0.53449773,-0.14329756,0.559691,0.4985434,-0.12555479,0.531733,0.47525934,-0.14087675,0.517428,0.47582567,-0.15636739,0.51999,0.55611352,-0.15468022,0.559743,0.51179015,-0.15161996,0.534143,0.48768258,-0.15995703,0.522381,0.48289393,-0.17139499,0.523523
0.56588311,-0.24669091,0.623636,0.54243854,-0.19535438,0.594767,0.54337582,-0.22807215,0.619624,0.5022831,-0.20440041,0.604686,0.46978318,-0.17864934,0.590352,0.45627483,-0.15608338,0.580203,0.50281487,-0.137697,0.568394,0.46544129,-0.1043393,0.543394,0.44714673,-0.087172189,0.530894,0.43800573,-0.071173064,0.528209,0.51939646,-0.13926065,0.562834,0.47794337,-0.11293774,0.530429,0.4548918,-0.1293026,0.511527,0.45774129,-0.14543506,0.512997,0.53468101,-0.14391365,0.560166,0.49782233,-0.12710691,0.53174,0.47430384,-0.14233761,0.517196,0.47494323,-0.15751053,0.519675,0.55671949,-0.15559134,0.560724,0.51195502,-0.15153461,0.534744,0.48805833,-0.16007457,0.522807,0.4832721,-0.17155688,0.523886
0.56129077,-0.25071661,0.624387,0.5350282,-0.20431776,0.596277,0.53924395,-0.23408462,0.61956,0.49675271,-0.20802201,0.60337,0.46789997,-0.17893164,0.588807,0.45085532,-0.15737375,0.578206,0.49801814,-0.14505699,0.569483,0.46540405,-0.10610163,0.544098,0.44728599,-0.090316704,0.531405,0.43714635,-0.076361237,0.527187,0.51597207,-0.14776001,0.565183,0.47992873,-0.11666205,0.533016,0.4566497,-0.13329578,0.514252,0.4599577,-0.14794265,0.516427,0.53216049,-0.15330327,0.563502,0.49864085,-0.13300617,0.534879,0.47487954,-0.14775525,0.520235,0.47630804,-0.16127104,0.523346,0.55443294,-0.16668683,0.565144,0.51539965,-0.15319936,0.539007,0.49102672,-0.16268694,0.526998,0.48637388,-0.17448299,0.528559
0.55907117,-0.25103501,0.62277,0.53751586,-0.20065932,0.595126,0.53670823,-0.23437726,0.617813,0.4942763,-0.20845101,0.601398,0.46177831,-0.18159861,0.585889,0.44450031,-0.1601893,0.575139,0.49651011,-0.14493607,0.568522,0.46269981,-0.11023182,0.543228,0.44569485,-0.094047996,0.530581,0.43582821,-0.081113027,0.525901,0.51486153,-0.14711712,0.564547,0.47889474,-0.11749709,0.532671,0.45583385,-0.13391155,0.514077,0.4593052,-0.14893465,0.516572,0.5314433,-0.15221686,0.563102,0.49931,-0.13002027,0.534641,0.47576585,-0.14450971,0.520079,0.47467604,-0.16284595,0.523499,0.55680439,-0.16231052,0.564966,0.51517402,-0.15284098,0.538964,0.49108744,-0.16196576,0.527017,0.48634489,-0.17410558,0.528814
0.55481474,-0.25345929,0.619655,0.5325105,-0.20433783,0.593382,0.52941277,-0.23612471,0.613634,0.48873943,-0.21322832,0.59568,0.45527523,-0.18712993,0.577515,0.43584594,-0.16554242,0.565442,0.48896571,-0.15036296,0.566511,0.45610269,-0.11584599,0.540979,0.4399144,-0.1010529,0.528213,0.43254857,-0.086817109,0.524015,0.50944162,-0.15142362,0.564319,0.47767033,-0.12026989,0.53314,0.45610062,-0.13443278,0.514953,0.45847812,-0.15261079,0.518399,0.53099561,-0.15353517,0.564251,0.49858882,-0.13319723,0.535849,0.47605924,-0.14576475,0.521318,0.47610951,-0.16399498,0.525578,0.55574113,-0.16623858,0.567589,0.51752509,-0.1535422,0.541671,0.49367847,-0.16275844,0.529762,0.48936682,-0.17540614,0.532208
0.54812962,-0.26080545,0.617839,0.5296023,-0.21624934,0.592393,0.52531103,-0.2421907,0.612302,0.48676929,-0.22087098,0.59495,0.45420276,-0.19043442,0.578144,0.43604054,-0.16957629,0.567701,0.48837764,-0.15967344,0.566723,0.45649941,-0.11832033,0.541952,0.44873928,-0.10314326,0.540112,0.44492051,-0.080976909,0.538439,0.50862651,-0.16077789,0.564244,0.47692192,-0.12570062,0.533828,0.45650635,-0.13589958,0.516086,0.45861703,-0.15443749,0.519949,0.52684467,-0.16490679,0.563885,0.49913837,-0.1342176,0.536277,0.47767376,-0.14529004,0.522152,0.47636811,-0.16500983,0.52688,0.55186707,-0.1764068,0.566766,0.51411731,-0.16330656,0.541494,0.49272206,-0.17095559,0.529882,0.48735733,-0.18453022,0.532681
0.54702162,-0.27003913,0.616108,0.52872598,-0.22618964,0.591428,0.52295717,-0.25690679,0.610629,0.48559507,-0.23066293,0.593325,0.45227284,-0.20342437,0.577298,0.43549904,-0.18316172,0.568623,0.48802299,-0.16924347,0.566402,0.45640403,-0.13014621,0.542037,0.45116516,-0.11334585,0.542525,0.4461857,-0.097422747,0.542969,0.50849459,-0.17054553,0.564128,0.47856137,-0.13858119,0.534317,0.45786084,-0.14728049,0.516927,0.45952008,-0.16645392,0.521201,0.52684654,-0.17485288,0.563888,0.50257541,-0.14408168,0.536769,0.47900689,-0.14706257,0.522895,0.48000425,-0.1658648,0.528037,0.55192398,-0.18659292,0.566811,0.51250071,-0.17688666,0.541948,0.49141767,-0.18522307,0.530525,0.48688959,-0.19909187,0.533642
0.54459606,-0.2785018,0.613788,0.52715369,-0.22941028,0.589696,0.52133192,-0.26536524,0.608773,0.48448763,-0.23826133,0.592063,0.45135391,-0.21116017,0.576291,0.4352013,-0.18687219,0.568224,0.48727205,-0.17626384,0.565669,0.45607404,-0.1363286,0.541945,0.45138953,-0.11640291,0.542974,0.44679611,-0.100447,0.543908,0.50742906,-0.17750962,0.563047,0.47840513,-0.14075922,0.533818,0.45802675,-0.14867897,0.516768,0.45980271,-0.16793262,0.521315,0.52546574,-0.1817806,0.562481,0.50176029,-0.15165525,0.536011,0.48321008,-0.15411361,0.522468,0.48105846,-0.17394333,0.527931,0.55006205,-0.19348703,0.564936,0.51337717,-0.18151493,0.5406,0.49142713,-0.18699947,0.529419,0.4868832,-0.20086965,0.532777
0.53515382,-0.27602928,0.604481,0.5221722,-0.22879515,0.58567,0.5140852,-0.26330451,0.602083,0.47925177,-0.23588105,0.588806,0.4441939,-0.2079571,0.574241,0.43220496,-0.18680942,0.566637,0.48832027,-0.17775998,0.568748,0.46134558,-0.13937977,0.549679,0.45452093,-0.12188073,0.548222,0.44856725,-0.10302335,0.546898,0.50728941,-0.17840361,0.564862,0.47946939,-0.13315101,0.540556,0.4629191,-0.12032301,0.526377,0.46702045,-0.13096397,0.533294,0.52395863,-0.18200601,0.562908,0.49923388,-0.14928771,0.541379,0.48578681,-0.14755484,0.530364,0.48928923,-0.16805788,0.538441,0.54615549,-0.19253607,0.563012,0.51331979,-0.17941984,0.542755,0.49522437,-0.18809288,0.533448,0.49339783,-0.20308441,0.538799
