sluyters/QuantumLeap/backend/src/datasets/gesture/HandGestureDataset_SHREC2017_csv/Gesture9/finger_1/subject_24_essai_1_skeletons_world.csv
Wrist_x,Wrist_y,Wrist_z,Palm_x,Palm_y,Palm_z,thumb_base_x,thumb_base_y,thumb_base_z,thumb_first_joint_x,thumb_first_joint_y,thumb_first_joint_z,thumb_second_joint_x,thumb_second_joint_y,thumb_second_joint_z,thumb_tip_x,thumb_tip_y,thumb_tip_z,index_base_x,index_base_y,index_base_z,index_first_joint_x,index_first_joint_y,index_first_joint_z,index_second_joint_x,index_second_joint_y,index_second_joint_z,index_tip_x,index_tip_y,index_tip_z,middle_base_x,middle_base_y,middle_base_z,middle_first_joint_x,middle_first_joint_y,middle_first_joint_z,middle_second_joint_x,middle_second_joint_y,middle_second_joint_z,middle_tip_x,middle_tip_y,middle_tip_z,ring_base_x,ring_base_y,ring_base_z,ring_first_joint_x,ring_first_joint_y,ring_first_joint_z,ring_second_joint_x,ring_second_joint_y,ring_second_joint_z,ring_tip_x,ring_tip_y,ring_tip_z,pinky_base_x,pinky_base_y,pinky_base_z,pinky_first_joint_x,pinky_first_joint_y,pinky_first_joint_z,pinky_second_joint_x,pinky_second_joint_y,pinky_second_joint_z,pinky_tip_x,pinky_tip_y,pinky_tip_z,
0.34040214,-0.525310271,0.553288,0.373005579,-0.499435874,0.561905,0.340489994,-0.519422552,0.563854,0.359141806,-0.502386666,0.582347,0.371940309,-0.489719554,0.589875,0.380909628,-0.488148686,0.586734,0.394883825,-0.470461829,0.581354,0.379110185,-0.465400681,0.588076,0.371225782,-0.462181081,0.591437,0.372553503,-0.486894861,0.606323,0.403390436,-0.470546722,0.570799,0.384305555,-0.457592156,0.574344,0.371735067,-0.449745312,0.576412,0.367062361,-0.471126031,0.590649,0.409411634,-0.472900714,0.561348,0.394065527,-0.461650425,0.567253,0.385524646,-0.483580461,0.570274,0.38318317,-0.513047165,0.585937,0.413587302,-0.480193352,0.54881,0.389523022,-0.467891526,0.551848,0.378729247,-0.46177562,0.553245,0.366477566,-0.467049961,0.555128
0.34056279,-0.526518761,0.553334,0.372590192,-0.499514735,0.561546,0.340681449,-0.520450202,0.564053,0.358581324,-0.502379069,0.582105,0.371609777,-0.489318199,0.590898,0.380895779,-0.487115957,0.58861,0.394184237,-0.470402498,0.580897,0.378824973,-0.46438986,0.587491,0.370947345,-0.460679167,0.590789,0.372029636,-0.484921846,0.605568,0.402869047,-0.470227061,0.570022,0.383446462,-0.457118822,0.573258,0.370584976,-0.44937929,0.575146,0.365823843,-0.470898838,0.589229,0.408687744,-0.472413301,0.560342,0.39309436,-0.461104171,0.566059,0.384246652,-0.482619443,0.568984,0.382250968,-0.512341866,0.584516,0.412279698,-0.479555542,0.5476,0.388424053,-0.467179182,0.550473,0.377555227,-0.461030657,0.551793,0.365256546,-0.466213388,0.553569
0.340670787,-0.527326483,0.553366,0.372404805,-0.499606988,0.561353,0.34089397,-0.521138052,0.564251,0.358430373,-0.502440414,0.582058,0.371699263,-0.488846325,0.591773,0.381187493,-0.48669125,0.590116,0.393991774,-0.470506499,0.58075,0.378876429,-0.464011688,0.58734,0.370978565,-0.460060414,0.590634,0.371879624,-0.484041578,0.60534,0.403762262,-0.470441798,0.569596,0.383043104,-0.456882016,0.572693,0.369988885,-0.449180313,0.574499,0.365123792,-0.470723627,0.58847,0.408312049,-0.472121274,0.559708,0.391979902,-0.4616532,0.565377,0.383293037,-0.482942371,0.568277,0.381713489,-0.512933587,0.583717,0.411420943,-0.479124943,0.546755,0.387705421,-0.466681934,0.549581,0.376797234,-0.460517762,0.55088,0.364490557,-0.4656511,0.552613
0.340484836,-0.527547497,0.553683,0.372102111,-0.497393926,0.560767,0.340544669,-0.518785278,0.564349,0.357534075,-0.497017296,0.58025,0.372400615,-0.4779919,0.591563,0.380791155,-0.481483772,0.591072,0.39322827,-0.468991138,0.579242,0.381159692,-0.45720362,0.585092,0.373734694,-0.451416288,0.588016,0.371278398,-0.477810067,0.602558,0.402866845,-0.467592399,0.568078,0.383297988,-0.453045076,0.570281,0.370622603,-0.444059622,0.571566,0.365020861,-0.466172586,0.585351,0.407575529,-0.470897569,0.558261,0.390556446,-0.459961097,0.563127,0.381395088,-0.480768904,0.565616,0.379847114,-0.510662556,0.580871,0.409695097,-0.478622497,0.545538,0.386647509,-0.464860546,0.547693,0.375648371,-0.458277525,0.548683,0.363089604,-0.462928854,0.550066
0.341124432,-0.521523356,0.555372,0.37013015,-0.485245028,0.558222,0.340111877,-0.508891916,0.565363,0.356636304,-0.485896435,0.580327,0.371942473,-0.468634332,0.592686,0.381541891,-0.467187378,0.592799,0.387043089,-0.449154009,0.572817,0.371427164,-0.437078369,0.575534,0.362928286,-0.430478237,0.576893,0.362581486,-0.452027346,0.590514,0.396320673,-0.449240656,0.561163,0.375068355,-0.431671058,0.559367,0.361729938,-0.420662253,0.558319,0.360218927,-0.422370723,0.571026,0.401814358,-0.4523052,0.551318,0.381390268,-0.441297212,0.552714,0.370484391,-0.460214326,0.553428,0.369766037,-0.488025529,0.56764,0.404340541,-0.461602616,0.539248,0.381993431,-0.444809733,0.538501,0.371356213,-0.436819793,0.538157,0.357332055,-0.439081842,0.537969
0.339011176,-0.513630397,0.553503,0.36917159,-0.471351744,0.557248,0.338995974,-0.500364675,0.563752,0.355253016,-0.471631575,0.57878,0.370245837,-0.454397835,0.591046,0.381219401,-0.454880898,0.591109,0.387605079,-0.43960634,0.572809,0.372694528,-0.427466046,0.576279,0.36453848,-0.420794772,0.578014,0.364264733,-0.441922702,0.591822,0.39681065,-0.439740734,0.561113,0.376395845,-0.422217364,0.560201,0.363526436,-0.411178546,0.559669,0.362260771,-0.412457715,0.572579,0.402163943,-0.442738822,0.551155,0.382512065,-0.431692587,0.55336,0.373784975,-0.449806487,0.554488,0.370266288,-0.47653477,0.568907,0.404368338,-0.451747943,0.538806,0.38270982,-0.435096914,0.53873,0.372375038,-0.427152159,0.538696,0.358561464,-0.429610557,0.538879
0.335585665,-0.502026241,0.548358,0.365525208,-0.459960108,0.553571,0.335543942,-0.487821486,0.558834,0.354451916,-0.462391393,0.576104,0.371501965,-0.447674681,0.589029,0.381822058,-0.450395851,0.589566,0.385958295,-0.428364907,0.570468,0.371768648,-0.416524809,0.575014,0.363946222,-0.409961892,0.577287,0.363855849,-0.430827641,0.591423,0.39525906,-0.428558751,0.558951,0.375797243,-0.411589464,0.559419,0.363433606,-0.400805706,0.559692,0.362379281,-0.401845149,0.572985,0.400606018,-0.431479178,0.54901,0.381808025,-0.420837653,0.552409,0.371415657,-0.440384744,0.554148,0.370400508,-0.469313707,0.568938,0.402630465,-0.440146777,0.536443,0.381721483,-0.42406141,0.537366,0.371702148,-0.416349176,0.53779,0.358232102,-0.419230243,0.538509
0.335165906,-0.491361136,0.547757,0.365293442,-0.449600019,0.55322,0.335093339,-0.477354225,0.558225,0.353881573,-0.451202498,0.575177,0.370786118,-0.435939851,0.587894,0.382606503,-0.434899379,0.588289,0.385835837,-0.418459248,0.570287,0.371746665,-0.406187379,0.57498,0.363970809,-0.399385737,0.577326,0.363917371,-0.419758738,0.591523,0.395194003,-0.418650336,0.558859,0.375881885,-0.401312568,0.559545,0.36359854,-0.390281026,0.559946,0.362589251,-0.390861332,0.573317,0.400576101,-0.421530335,0.548969,0.381898568,-0.410452181,0.55254,0.371562441,-0.429984864,0.554367,0.37058996,-0.458645414,0.569229,0.402614703,-0.430076404,0.536422,0.381809568,-0.413820052,0.53749,0.371833469,-0.406020538,0.53798,0.358427014,-0.408973523,0.538802
0.335444239,-0.481703516,0.548297,0.365533132,-0.439819978,0.553583,0.335319046,-0.467490113,0.558601,0.354036618,-0.440950737,0.575429,0.370830898,-0.425118983,0.587965,0.38256683,-0.423660359,0.588228,0.385856811,-0.408711717,0.570318,0.371608953,-0.395727966,0.574767,0.363760241,-0.388556965,0.576992,0.363703274,-0.408376595,0.591175,0.395321996,-0.408944936,0.55904,0.375856358,-0.390916418,0.559507,0.363490099,-0.379461282,0.559779,0.362483634,-0.37953413,0.57315,0.400809601,-0.411853649,0.549289,0.381953171,-0.400024095,0.552619,0.37153362,-0.419378376,0.554324,0.370554153,-0.447693853,0.569174,0.402998988,-0.420424198,0.536934,0.379723912,-0.404880186,0.537805,0.368617987,-0.39745892,0.538205,0.356754413,-0.404804107,0.538558
0.335549541,-0.465887206,0.547897,0.366081573,-0.42958575,0.553378,0.335429279,-0.456983557,0.558209,0.354487805,-0.43018786,0.57501,0.371270299,-0.413912217,0.587492,0.382997133,-0.412111663,0.587722,0.38648222,-0.398902266,0.570262,0.371559965,-0.388415113,0.574836,0.363297433,-0.38256292,0.577123,0.363750296,-0.40597523,0.59135,0.395987342,-0.399101054,0.559036,0.376675461,-0.380663827,0.559678,0.364394462,-0.368937779,0.560052,0.363453516,-0.368532206,0.573479,0.40149864,-0.401946652,0.54931,0.382779431,-0.389653633,0.552784,0.372411336,-0.408980761,0.554562,0.371483883,-0.437009154,0.569464,0.403698016,-0.41037751,0.536955,0.380524245,-0.394665023,0.537946,0.369461358,-0.387159576,0.538401,0.356483904,-0.390988627,0.539351
0.341057245,-0.461204875,0.556072,0.365476128,-0.416831384,0.556003,0.336528252,-0.447188018,0.561535,0.348315332,-0.413593735,0.572551,0.361453036,-0.393623149,0.580412,0.372776779,-0.38914316,0.577412,0.374553622,-0.373973308,0.56282,0.365330014,-0.351525488,0.558925,0.360495571,-0.339634211,0.556978,0.365368668,-0.337079249,0.569886,0.389242831,-0.379612097,0.555932,0.371280875,-0.361590713,0.55002,0.360083678,-0.350350414,0.546572,0.361628318,-0.351584609,0.559444,0.399588593,-0.387534846,0.55027,0.381189935,-0.375642645,0.546612,0.363084876,-0.38537574,0.544741,0.356345479,-0.407162514,0.558762,0.408540535,-0.403076023,0.543604,0.383578308,-0.388053536,0.538793,0.371267227,-0.381200753,0.536582,0.362466765,-0.393788271,0.546237
0.338850568,-0.4462583,0.554671,0.362114181,-0.401292697,0.554318,0.333076422,-0.431288965,0.560174,0.3451821,-0.397080966,0.570917,0.358990709,-0.376691683,0.579001,0.37057942,-0.372009159,0.576149,0.37178487,-0.359037545,0.560981,0.36291324,-0.335420858,0.556801,0.358276115,-0.322921592,0.554711,0.363341056,-0.31938838,0.567507,0.386276891,-0.364676325,0.553954,0.368640247,-0.345170084,0.547803,0.357664162,-0.332994647,0.544215,0.359369046,-0.333062411,0.556994,0.396422984,-0.372539157,0.548202,0.37829407,-0.359153412,0.544368,0.360010427,-0.368233818,0.542406,0.353015978,-0.389013515,0.556344,0.405082277,-0.387906092,0.541475,0.380366861,-0.371821473,0.536513,0.368175109,-0.364464753,0.534234,0.360696232,-0.37431495,0.543824
0.338207394,-0.43151713,0.554146,0.364961171,-0.38840408,0.55442,0.332741199,-0.416598322,0.559677,0.348554419,-0.383625345,0.571283,0.362484606,-0.362971437,0.579086,0.373869501,-0.358280991,0.57604,0.375691645,-0.346768172,0.561567,0.367402687,-0.323325463,0.558058,0.36305432,-0.310874766,0.556303,0.368434492,-0.306974907,0.569331,0.390067082,-0.352819768,0.554704,0.372842551,-0.333302649,0.549115,0.36209403,-0.321076112,0.545855,0.364019206,-0.32068723,0.558821,0.400038121,-0.360949177,0.54903,0.382218852,-0.347429052,0.545658,0.363966352,-0.357730201,0.543932,0.357647704,-0.379791233,0.558046,0.408323257,-0.376482014,0.542295,0.383946986,-0.360300614,0.537721,0.37189888,-0.352879117,0.535619,0.364510367,-0.362393792,0.545345
0.342521982,-0.418960103,0.555454,0.366765743,-0.373358106,0.554251,0.334710811,-0.40235815,0.558685,0.346959472,-0.36692647,0.567235,0.358837583,-0.343666063,0.572948,0.37070039,-0.336678624,0.568624,0.37052541,-0.328137374,0.557449,0.361877119,-0.302800934,0.552234,0.357386887,-0.289417968,0.549627,0.363035618,-0.284503674,0.562499,0.388088268,-0.335397236,0.553008,0.374064662,-0.315362463,0.545472,0.365419522,-0.302852809,0.541076,0.369639614,-0.302186134,0.553873,0.40101955,-0.344703947,0.549461,0.384255901,-0.332754951,0.543654,0.366685861,-0.341559232,0.540683,0.361166329,-0.363654054,0.554434,0.4134443,-0.361971392,0.545472,0.389659324,-0.346661771,0.538972,0.3778537,-0.339685934,0.535986,0.370434377,-0.349451964,0.545445
0.344535631,-0.406277906,0.552655,0.367284945,-0.368968134,0.553335,0.335446193,-0.389996768,0.555902,0.351338547,-0.359897052,0.566849,0.36637079,-0.338182854,0.573445,0.380268054,-0.333096335,0.569718,0.372186743,-0.321598327,0.557902,0.365114829,-0.296112192,0.554021,0.361430441,-0.28259784,0.552081,0.367809838,-0.277224091,0.565419,0.390414723,-0.328809482,0.554037,0.378552944,-0.308538082,0.54819,0.371203483,-0.295780002,0.544779,0.376362991,-0.294503542,0.558108,0.403845781,-0.337944913,0.550795,0.389069664,-0.325638648,0.546351,0.372195051,-0.335799753,0.544078,0.365783093,-0.362644201,0.558318,0.416761904,-0.354764456,0.546863,0.394441425,-0.339531221,0.541516,0.383286865,-0.332567339,0.539059,0.37618867,-0.342505124,0.548899
0.34458629,-0.401038725,0.551987,0.368172502,-0.354831914,0.552979,0.336339572,-0.380851934,0.555413,0.350943109,-0.348951059,0.566211,0.365988731,-0.326953382,0.572847,0.37990295,-0.321718405,0.569171,0.372249453,-0.311857935,0.557996,0.365468726,-0.286176868,0.554558,0.361927335,-0.272533614,0.55284,0.368379684,-0.26669015,0.566295,0.390390764,-0.318921027,0.554003,0.378754585,-0.29826434,0.548482,0.371532591,-0.285234264,0.545262,0.376737932,-0.283384592,0.558664,0.403724069,-0.327890077,0.550629,0.38918574,-0.315195073,0.546514,0.372421483,-0.325288959,0.544409,0.368126052,-0.348295847,0.558734,0.41647688,-0.344423273,0.546489,0.394364214,-0.329025843,0.54141,0.383298953,-0.321975771,0.539076,0.376244184,-0.331734335,0.54898
0.346952929,-0.386843443,0.553977,0.367390042,-0.341844049,0.552901,0.336690113,-0.370017233,0.55635,0.356772809,-0.341212869,0.566071,0.361114949,-0.313163263,0.571748,0.368314028,-0.295000275,0.574771,0.368104137,-0.295354434,0.555112,0.362093674,-0.263667153,0.549652,0.359029377,-0.247112603,0.546922,0.365375318,-0.237578212,0.558454,0.387268906,-0.303530229,0.55179,0.377379196,-0.283646342,0.544155,0.371356006,-0.271167971,0.539701,0.377911041,-0.269637555,0.552589,0.401554867,-0.313580468,0.549151,0.392057657,-0.298641555,0.542944,0.375485893,-0.308441641,0.539768,0.370985806,-0.329885975,0.55352,0.415700854,-0.331671132,0.546213,0.393911383,-0.318080909,0.539429,0.382889865,-0.311961266,0.536312,0.374858519,-0.325653539,0.545781
0.347067335,-0.374236973,0.553064,0.368024556,-0.330315667,0.552863,0.336435568,-0.357521245,0.555695,0.357725665,-0.328567337,0.566016,0.362280588,-0.300769297,0.572235,0.369663103,-0.283146205,0.575834,0.368775567,-0.285259836,0.556026,0.363616732,-0.25289221,0.551288,0.360989032,-0.235982449,0.54892,0.367876531,-0.225869533,0.560959,0.388080417,-0.293046689,0.552656,0.37953593,-0.271711187,0.545868,0.374338213,-0.258264486,0.541908,0.381476331,-0.255480362,0.555028,0.402462162,-0.302676722,0.5499,0.394269264,-0.286288673,0.544469,0.378295845,-0.295800573,0.541691,0.37418214,-0.316755666,0.555681,0.416702644,-0.320092188,0.546683,0.395900543,-0.305686538,0.54054,0.38533015,-0.299168897,0.537717,0.378301057,-0.308562417,0.547369
0.345540598,-0.359481207,0.54779,0.36645217,-0.317148264,0.549284,0.333964862,-0.343042453,0.549816,0.36171147,-0.320355263,0.569238,0.382821566,-0.301931517,0.573452,0.401194514,-0.287745753,0.580997,0.365031336,-0.273309909,0.552899,0.360474818,-0.240165224,0.548809,0.358153345,-0.222868187,0.546764,0.365990153,-0.212482803,0.560171,0.385754157,-0.280897405,0.550825,0.37885815,-0.26035642,0.545432,0.374649263,-0.247312264,0.542286,0.382439111,-0.244403311,0.555872,0.40139648,-0.290282921,0.548986,0.393592064,-0.274946974,0.544452,0.378703651,-0.285506882,0.542133,0.375645418,-0.306882385,0.556485,0.417276297,-0.307258686,0.546576,0.398077484,-0.293185116,0.541235,0.386375402,-0.288385187,0.538781,0.380029663,-0.298750314,0.548726
0.347009263,-0.3482332,0.546847,0.368089572,-0.30712615,0.549576,0.335098554,-0.332399836,0.54917,0.363689597,-0.30975974,0.569809,0.385944051,-0.291871527,0.575721,0.404684328,-0.277731022,0.583755,0.36747158,-0.264324412,0.554451,0.36361055,-0.231321853,0.551349,0.361635692,-0.214045786,0.549798,0.369003121,-0.202911397,0.562395,0.388199789,-0.271863509,0.552393,0.382221738,-0.251283668,0.548195,0.378547996,-0.238138736,0.545746,0.386631442,-0.234715217,0.559636,0.403770398,-0.28112971,0.550458,0.396827381,-0.265726741,0.546997,0.382336073,-0.276387623,0.545226,0.379522318,-0.297514325,0.559884,0.41941079,-0.297802377,0.547734,0.400942224,-0.283818188,0.543285,0.389557743,-0.279052692,0.541241,0.383399857,-0.289295777,0.551422
0.34726049,-0.345840012,0.546891,0.367947859,-0.306377258,0.550774,0.333541904,-0.328554877,0.546795,0.35451006,-0.30133381,0.55749,0.366608949,-0.276156567,0.549115,0.3834387,-0.261965114,0.555959,0.36471666,-0.261858774,0.553433,0.360054635,-0.225222226,0.549497,0.358769792,-0.207224518,0.54753,0.367261342,-0.198770504,0.560112,0.388075954,-0.271135429,0.554781,0.384297675,-0.251742008,0.551191,0.382012518,-0.239306462,0.549096,0.391135337,-0.236363215,0.563145,0.405930943,-0.281897235,0.555547,0.400841269,-0.266725938,0.55169,0.38961665,-0.273235387,0.549717,0.38498234,-0.297781881,0.564247,0.424360345,-0.300452894,0.555821,0.442527278,-0.272945803,0.55174,0.437943014,-0.271047992,0.549865,0.43637261,-0.284205337,0.560134
0.354203455,-0.343248182,0.555161,0.367135037,-0.29228908,0.548478,0.335871132,-0.322217375,0.548906,0.352717146,-0.285849928,0.551574,0.358809589,-0.255516445,0.534017,0.369614758,-0.237973467,0.534095,0.350479109,-0.239736862,0.535832,0.341504028,-0.200395209,0.521414,0.337016875,-0.180697067,0.514205,0.343666534,-0.168018205,0.52401,0.376950536,-0.250629115,0.54158,0.370560318,-0.227927075,0.52744,0.366989666,-0.213950823,0.519192,0.376270896,-0.210146297,0.529846,0.398371967,-0.263259428,0.546904,0.396959307,-0.236552624,0.532325,0.381121268,-0.24593781,0.524866,0.379158737,-0.266276104,0.535592,0.422894827,-0.285112574,0.554263,0.43797647,-0.257671173,0.542848,0.431084682,-0.255057013,0.537604,0.4277739,-0.266176703,0.545465
0.356241222,-0.329352109,0.55509,0.366004261,-0.279921551,0.547939,0.336569939,-0.308205478,0.548259,0.352171643,-0.273853974,0.549991,0.357858458,-0.243471331,0.531739,0.36802277,-0.225579963,0.531467,0.348505191,-0.226463744,0.534236,0.339703841,-0.186543819,0.519199,0.335302092,-0.166630489,0.511681,0.342022304,-0.153363847,0.521186,0.375378483,-0.237777975,0.540559,0.370399497,-0.215836855,0.525942,0.367729984,-0.202334751,0.517416,0.377751206,-0.19852596,0.527821,0.397119677,-0.250788062,0.546397,0.396802848,-0.225286092,0.531231,0.380757414,-0.235505879,0.523472,0.378154702,-0.255248289,0.533894,0.422015347,-0.273129215,0.554439,0.438026418,-0.247137227,0.542732,0.431156125,-0.245145966,0.537354,0.427523856,-0.255747624,0.545046
0.355765273,-0.311743115,0.55182,0.367000996,-0.260699043,0.545398,0.337018419,-0.280548684,0.544122,0.356922214,-0.252246963,0.546856,0.359583544,-0.217929738,0.530197,0.371731343,-0.201446202,0.53155,0.347932218,-0.209361181,0.531125,0.341928012,-0.17023948,0.516077,0.338926663,-0.150671825,0.508553,0.347012136,-0.137152744,0.51785,0.375441491,-0.221435891,0.53877,0.372206113,-0.203908084,0.524757,0.370634361,-0.193115236,0.516583,0.379259807,-0.194589682,0.526942,0.397784989,-0.23480893,0.545631,0.395635025,-0.214071999,0.530647,0.380848085,-0.224032542,0.52298,0.377791296,-0.24414599,0.533238,0.423610473,-0.257133119,0.554762,0.442030527,-0.236208106,0.542802,0.432029525,-0.233188973,0.537307,0.425950921,-0.241112652,0.544752
0.349275172,-0.289498989,0.537559,0.364038469,-0.249387888,0.540706,0.330060731,-0.270087286,0.532049,0.354438273,-0.241158608,0.543644,0.355946442,-0.206660275,0.525542,0.367708855,-0.190133763,0.526534,0.349717474,-0.203084372,0.536034,0.347993494,-0.166246,0.528467,0.347172895,-0.147392815,0.524684,0.352726601,-0.132340801,0.530685,0.377831815,-0.214587818,0.543953,0.387493081,-0.175512062,0.539073,0.385387394,-0.181199567,0.536226,0.389457849,-0.202689275,0.549108,0.40017911,-0.227139665,0.550192,0.416742717,-0.192364212,0.543968,0.414563895,-0.189484046,0.540784,0.415456276,-0.207125372,0.553743,0.424993607,-0.247747162,0.55704,0.440589112,-0.220129564,0.550405,0.439330738,-0.215600925,0.547357,0.440445349,-0.224719836,0.556305
0.343225082,-0.279419561,0.527839,0.362909912,-0.238485708,0.538352,0.326724365,-0.25759687,0.525683,0.35331493,-0.229582391,0.54103,0.36077771,-0.198736769,0.531343,0.377554105,-0.1844383,0.539015,0.355387016,-0.196011158,0.54317,0.358685127,-0.160647256,0.542506,0.360418447,-0.142165778,0.542173,0.366886924,-0.126542701,0.549115,0.382394571,-0.207079246,0.549202,0.397985525,-0.169868919,0.551731,0.398906912,-0.176742645,0.553206,0.403980522,-0.199098593,0.567988,0.403188746,-0.218962121,0.553235,0.4260449,-0.186813453,0.554538,0.428734672,-0.182113743,0.555205,0.432809072,-0.197163026,0.570329,0.425000834,-0.238118177,0.55629,0.445584124,-0.21299537,0.555537,0.446549321,-0.209257725,0.555192,0.448771236,-0.218661669,0.565711
0.351912816,-0.276574497,0.538031,0.36667168,-0.237383894,0.541734,0.331972194,-0.257342961,0.531987,0.353472827,-0.221689359,0.535821,0.354437613,-0.187599275,0.517529,0.36544258,-0.174837529,0.519901,0.35179107,-0.191516816,0.536791,0.350396731,-0.154354061,0.529326,0.349742367,-0.135346889,0.525593,0.355103423,-0.119806908,0.531067,0.380529284,-0.203266486,0.545557,0.391295013,-0.161172248,0.541191,0.390368038,-0.1658799,0.538644,0.393499519,-0.19009442,0.551446,0.404228295,-0.213314335,0.552443,0.420822953,-0.178496898,0.546733,0.421319643,-0.172067494,0.543811,0.423581582,-0.189043478,0.556695,0.43000043,-0.233727014,0.559964,0.445680324,-0.205752976,0.553588,0.444117622,-0.201650951,0.550659,0.444258325,-0.213855599,0.559513
0.352435892,-0.267171212,0.536507,0.367512763,-0.224359499,0.540786,0.332545237,-0.248302908,0.530719,0.35235664,-0.210665751,0.534129,0.353171298,-0.176849436,0.51568,0.365411771,-0.161073807,0.518048,0.352228331,-0.179589681,0.536576,0.351029033,-0.142241369,0.529638,0.350470675,-0.123129213,0.526168,0.355418151,-0.107122747,0.531127,0.38095471,-0.190940527,0.545203,0.391449741,-0.151266255,0.541405,0.390763737,-0.155705773,0.53919,0.395292193,-0.176499643,0.552157,0.403847805,-0.203254081,0.551923,0.420800631,-0.168664162,0.546704,0.421492413,-0.162008011,0.544034,0.424990408,-0.175159082,0.557078,0.429379961,-0.223370417,0.559156,0.444052238,-0.195204525,0.553228,0.441270152,-0.192433483,0.550505,0.442952958,-0.20737588,0.559493
0.354413506,-0.250833974,0.535056,0.369043864,-0.211270673,0.540105,0.334146598,-0.232438427,0.529182,0.356348124,-0.197254861,0.534119,0.358674022,-0.164506779,0.516534,0.372018998,-0.149591353,0.519597,0.35324025,-0.168300057,0.536338,0.353254397,-0.131405191,0.529886,0.35332467,-0.112446426,0.526661,0.358581267,-0.096280326,0.531367,0.382145088,-0.17958052,0.545316,0.39280005,-0.140409985,0.542266,0.392821085,-0.146057696,0.540487,0.397903304,-0.166783853,0.55353,0.405226563,-0.191690363,0.552257,0.421894341,-0.156848209,0.547089,0.421442729,-0.151602102,0.544445,0.424795715,-0.164484587,0.557372,0.431065147,-0.211302228,0.559625,0.445113788,-0.184033469,0.554208,0.439565788,-0.183012085,0.551719,0.438236451,-0.193858485,0.560755
0.452653682,-0.257505945,0.602832,0.421045526,-0.204838254,0.576398,0.426388352,-0.248691795,0.598407,0.396191731,-0.218741662,0.585235,0.36766183,-0.202319342,0.577238,0.355220742,-0.182962996,0.573233,0.367591663,-0.159068343,0.55191,0.356639793,-0.120116082,0.544452,0.350658745,-0.100533261,0.540723,0.34411741,-0.0837822073,0.537333,0.389123698,-0.152947383,0.549115,0.35674297,-0.146933145,0.518659,0.339171929,-0.149771806,0.500893,0.341459244,-0.166460414,0.504166,0.409875681,-0.152218945,0.549159,0.381187483,-0.149898907,0.522287,0.36644762,-0.150353449,0.508538,0.366642537,-0.167770675,0.512456,0.440023543,-0.159424802,0.553486,0.406598233,-0.161560588,0.529939,0.390150063,-0.167792919,0.51912,0.387585462,-0.180271413,0.521266
0.450062329,-0.251030682,0.598235,0.417878921,-0.193618926,0.569824,0.422291653,-0.241563206,0.591664,0.41017959,-0.207965909,0.581335,0.371737971,-0.18358312,0.563613,0.361471713,-0.161171183,0.553306,0.361691121,-0.147596038,0.541223,0.355050448,-0.109603635,0.538217,0.350676825,-0.0907209689,0.536715,0.346611222,-0.0730649056,0.535349,0.384585971,-0.141913458,0.5405,0.349550958,-0.120272808,0.508054,0.341571745,-0.138024777,0.489127,0.351105764,-0.14889955,0.491405,0.406637225,-0.141500273,0.542425,0.369079904,-0.116207973,0.513191,0.363138286,-0.126322575,0.498234,0.374412677,-0.142639098,0.500961,0.438657437,-0.149032356,0.54929,0.404355994,-0.150670362,0.523939,0.38726089,-0.155450657,0.512291,0.382677982,-0.167308122,0.513585
0.450709379,-0.247963592,0.598713,0.41800139,-0.191116954,0.569991,0.422753865,-0.2385123,0.59198,0.409971844,-0.2058831,0.581174,0.371346709,-0.181496512,0.563228,0.360756839,-0.159148729,0.552513,0.361518035,-0.145078366,0.540964,0.354935664,-0.107083791,0.538043,0.350589926,-0.0881768514,0.536582,0.346550361,-0.070495417,0.535255,0.384476394,-0.139403947,0.540346,0.349261302,-0.117673977,0.507633,0.341169507,-0.13545011,0.488551,0.349861026,-0.147375895,0.490657,0.406607238,-0.138994435,0.542385,0.368858395,-0.11362172,0.512883,0.362813948,-0.123719358,0.497789,0.373941074,-0.139988074,0.50033,0.438773233,-0.146530457,0.549435,0.404309124,-0.148115127,0.523877,0.38714345,-0.152886216,0.512134,0.382462079,-0.164720247,0.513294
0.451748264,-0.240440197,0.598997,0.420106479,-0.180634718,0.570212,0.423780571,-0.230857924,0.592152,0.411118726,-0.196408292,0.581526,0.377193524,-0.169070536,0.563749,0.366564754,-0.147092499,0.551952,0.364686193,-0.134014214,0.540998,0.357106698,-0.0959920094,0.5366,0.352390475,-0.0770828111,0.534402,0.346349584,-0.0634938947,0.532403,0.387601223,-0.129188267,0.540501,0.350104713,-0.114010613,0.507717,0.342436434,-0.132020753,0.488593,0.350099273,-0.143080292,0.490663,0.409678216,-0.129472412,0.542645,0.369512969,-0.103394919,0.513046,0.361564996,-0.112781414,0.497902,0.372823631,-0.12899691,0.500396,0.441671492,-0.137854043,0.54983,0.408539971,-0.13692486,0.524199,0.390854563,-0.142083704,0.512422,0.385612734,-0.153468148,0.513549
0.452640542,-0.232682821,0.599851,0.420460453,-0.170679366,0.57082,0.425331767,-0.218237987,0.593114,0.411226099,-0.185984244,0.58199,0.379917035,-0.157703649,0.563548,0.372255296,-0.136429941,0.552012,0.36495009,-0.124498511,0.541567,0.358490405,-0.086043114,0.53765,0.353797362,-0.0671795635,0.535691,0.34913135,-0.0498733066,0.533911,0.387672738,-0.119473504,0.540857,0.350534992,-0.103047997,0.507913,0.343269919,-0.121568572,0.488696,0.351361145,-0.13210777,0.490629,0.409612112,-0.119568258,0.542847,0.369118274,-0.0934930359,0.513165,0.361055973,-0.102966351,0.497978,0.372280979,-0.119209573,0.50035,0.441487727,-0.127680675,0.549889,0.40831909,-0.126499638,0.524187,0.390610547,-0.131681135,0.512378,0.385288567,-0.143191091,0.513414
0.454981534,-0.22536963,0.60189,0.422283942,-0.168867607,0.572822,0.427261076,-0.21568922,0.59511,0.412218174,-0.180707107,0.584275,0.382790473,-0.152030214,0.566224,0.374022641,-0.133536526,0.553382,0.366182475,-0.123095376,0.543488,0.362894981,-0.0838265141,0.542403,0.358999598,-0.0651440674,0.54186,0.354683052,-0.0490502887,0.541367,0.388964225,-0.117770782,0.54282,0.351644719,-0.0968072186,0.50984,0.344525291,-0.115369944,0.490601,0.352636479,-0.129484965,0.492514,0.410993069,-0.11760414,0.544849,0.371009566,-0.0876464685,0.515122,0.362440402,-0.0965916285,0.499913,0.373415779,-0.11646715,0.502259,0.442970994,-0.122610297,0.551942,0.408660305,-0.126144978,0.526207,0.390798379,-0.131941138,0.514382,0.385971125,-0.14331393,0.5154
0.456356449,-0.218275954,0.602277,0.422929349,-0.163533971,0.572413,0.428301547,-0.208871092,0.595237,0.412480714,-0.177493527,0.583294,0.382488714,-0.148600716,0.564237,0.37673376,-0.12758961,0.554437,0.365506716,-0.118318881,0.542182,0.362570831,-0.0809164279,0.541879,0.358938118,-0.0622221041,0.541728,0.35551494,-0.0445914611,0.54159,0.388359079,-0.112637234,0.541589,0.351237354,-0.0939899555,0.507965,0.344004698,-0.112561081,0.488351,0.351552103,-0.123354396,0.489808,0.410532495,-0.112151552,0.543749,0.370599607,-0.0847527246,0.513426,0.361647329,-0.0890434712,0.497912,0.371313713,-0.10940614,0.499784,0.442945875,-0.119493275,0.551127,0.411688192,-0.11570094,0.524929,0.394572245,-0.121027184,0.512892,0.389008633,-0.132767922,0.513566
0.456768882,-0.21685912,0.60279,0.423076867,-0.16255082,0.572799,0.428917756,-0.207563545,0.596005,0.413326416,-0.174649381,0.584307,0.383566124,-0.145937787,0.565566,0.377248809,-0.126905833,0.555585,0.366070587,-0.11548622,0.542796,0.362915281,-0.0778690149,0.542164,0.359152686,-0.0591544765,0.541847,0.355563859,-0.0435342521,0.541559,0.388668225,-0.109798988,0.541843,0.351123105,-0.0933291683,0.508182,0.343802574,-0.111965271,0.488546,0.351351414,-0.12265897,0.489927,0.410620681,-0.109307428,0.543719,0.370288358,-0.0809583326,0.513462,0.355390304,-0.0815690112,0.497983,0.361699612,-0.0965512855,0.499806,0.442750681,-0.116628371,0.550781,0.41036055,-0.115978854,0.524626,0.393072653,-0.12132766,0.512609,0.387515119,-0.132949229,0.513244
0.456163976,-0.215607341,0.601973,0.423089046,-0.161934733,0.572727,0.428663993,-0.206420573,0.595567,0.413398071,-0.174426972,0.584642,0.383912931,-0.145689496,0.566214,0.377992535,-0.126340108,0.55659,0.367031034,-0.115416267,0.543734,0.364112813,-0.0778063021,0.543064,0.360407759,-0.0590694887,0.542729,0.356700592,-0.0429679531,0.542425,0.389440466,-0.109798803,0.54254,0.352404769,-0.0916920326,0.509509,0.345212071,-0.110580978,0.490241,0.352859261,-0.122618389,0.492047,0.411158484,-0.10935804,0.544151,0.371068541,-0.0804992858,0.514526,0.35687713,-0.0812600664,0.499369,0.363399849,-0.0962860126,0.501649,0.442861201,-0.116720993,0.550781,0.410876901,-0.115670338,0.525111,0.393709271,-0.120874401,0.513317,0.388291572,-0.132592041,0.514282
