sluyters/QuantumLeap/backend/src/datasets/gesture/HandGestureDataset_SHREC2017_csv/Gesture9/finger_1/subject_9_essai_4_skeletons_world.csv
Wrist_x,Wrist_y,Wrist_z,Palm_x,Palm_y,Palm_z,thumb_base_x,thumb_base_y,thumb_base_z,thumb_first_joint_x,thumb_first_joint_y,thumb_first_joint_z,thumb_second_joint_x,thumb_second_joint_y,thumb_second_joint_z,thumb_tip_x,thumb_tip_y,thumb_tip_z,index_base_x,index_base_y,index_base_z,index_first_joint_x,index_first_joint_y,index_first_joint_z,index_second_joint_x,index_second_joint_y,index_second_joint_z,index_tip_x,index_tip_y,index_tip_z,middle_base_x,middle_base_y,middle_base_z,middle_first_joint_x,middle_first_joint_y,middle_first_joint_z,middle_second_joint_x,middle_second_joint_y,middle_second_joint_z,middle_tip_x,middle_tip_y,middle_tip_z,ring_base_x,ring_base_y,ring_base_z,ring_first_joint_x,ring_first_joint_y,ring_first_joint_z,ring_second_joint_x,ring_second_joint_y,ring_second_joint_z,ring_tip_x,ring_tip_y,ring_tip_z,pinky_base_x,pinky_base_y,pinky_base_z,pinky_first_joint_x,pinky_first_joint_y,pinky_first_joint_z,pinky_second_joint_x,pinky_second_joint_y,pinky_second_joint_z,pinky_tip_x,pinky_tip_y,pinky_tip_z,
0.62907673,-0.4850553,0.630638,0.61424664,-0.4331153,0.609479,0.60081484,-0.4624667,0.62268,0.57335168,-0.42368597,0.595838,0.5450375,-0.38161044,0.578115,0.53980293,-0.35629334,0.55898,0.56794822,-0.36040211,0.581597,0.57034974,-0.31882525,0.584506,0.57293005,-0.29936284,0.58596,0.5730902,-0.27892181,0.587282,0.59714622,-0.36731168,0.584314,0.58576171,-0.31003483,0.569686,0.58115388,-0.30631028,0.561152,0.57218688,-0.31991367,0.555057,0.6230549,-0.3781849,0.588533,0.58816669,-0.33044081,0.55655,0.57448075,-0.34072547,0.540186,0.57243638,-0.35969372,0.536865,0.65694338,-0.40252553,0.597143,0.62220117,-0.35770571,0.567009,0.60964984,-0.34964985,0.553164,0.59769113,-0.34356527,0.540947
0.62645363,-0.49402866,0.632485,0.60639639,-0.43995811,0.611407,0.59768881,-0.47021296,0.623604,0.57122249,-0.42135772,0.595545,0.55553297,-0.38032801,0.573541,0.55490721,-0.35657131,0.55255,0.56594002,-0.3633004,0.582438,0.56946835,-0.32090776,0.583593,0.57066286,-0.29958796,0.584171,0.57208243,-0.28098448,0.584696,0.59592879,-0.37230472,0.586339,0.57278033,-0.319829,0.553614,0.55422614,-0.32821636,0.534525,0.53949948,-0.33695611,0.520889,0.62003707,-0.3877756,0.591524,0.5933917,-0.34026463,0.559093,0.57938912,-0.35190113,0.5425,0.58634623,-0.37813692,0.549846,0.6532657,-0.41324617,0.601261,0.62615246,-0.3623309,0.570817,0.61328101,-0.35270445,0.556829,0.6022555,-0.34512756,0.544486
0.62380675,-0.49276996,0.62829,0.61914513,-0.44701661,0.615025,0.59988167,-0.47141405,0.622071,0.58546821,-0.43718756,0.608623,0.57332251,-0.4039588,0.592848,0.57563497,-0.38257644,0.574788,0.57589719,-0.3806141,0.596005,0.57754652,-0.33544043,0.592135,0.57877299,-0.31351895,0.5902,0.58005088,-0.29355171,0.588441,0.60675522,-0.38417026,0.599248,0.59357519,-0.3400381,0.575,0.57958004,-0.35453098,0.560856,0.56781447,-0.36968803,0.551566,0.6324743,-0.39492889,0.603161,0.61723318,-0.38846771,0.578916,0.59778792,-0.40461122,0.566511,0.60341316,-0.41930339,0.578096,0.66801896,-0.41304609,0.610055,0.64298967,-0.37341467,0.586701,0.63369166,-0.37446153,0.575972,0.62716049,-0.37289175,0.566504
0.6266616,-0.49725683,0.627672,0.61819054,-0.45042337,0.61424,0.59969113,-0.48369583,0.620442,0.58032208,-0.44605152,0.604565,0.5653658,-0.41010588,0.585835,0.56689021,-0.39003947,0.56654,0.57445807,-0.3865096,0.593809,0.5787454,-0.34317966,0.593046,0.58107764,-0.32130961,0.592664,0.58355773,-0.29827476,0.592317,0.60593404,-0.39279597,0.598264,0.59258771,-0.34850886,0.573689,0.57884723,-0.36105343,0.559353,0.5876037,-0.38518055,0.569838,0.63335518,-0.40283228,0.603189,0.61646839,-0.39576323,0.578238,0.59398918,-0.41082038,0.565472,0.59820274,-0.42567011,0.576677,0.66838589,-0.42386943,0.611308,0.64210953,-0.3862589,0.587422,0.63419011,-0.38515843,0.576448,0.62732139,-0.3843661,0.566765
0.63458809,-0.51191641,0.634001,0.62255923,-0.45977256,0.618893,0.6034384,-0.48943475,0.624523,0.58131656,-0.45296701,0.604323,0.55769798,-0.41338086,0.583073,0.56314892,-0.3916694,0.565877,0.5749911,-0.38894598,0.594228,0.58118729,-0.34589964,0.594363,0.58446344,-0.32406243,0.59443,0.58749652,-0.30384544,0.594492,0.60861678,-0.39661731,0.600925,0.59556077,-0.35796486,0.574312,0.58174399,-0.37228533,0.558787,0.59141381,-0.39964581,0.568095,0.63804736,-0.40792527,0.607851,0.61998028,-0.407715,0.580249,0.59777644,-0.42291366,0.566126,0.59843775,-0.44138067,0.575845,0.67583873,-0.43074248,0.61862,0.6507319,-0.42435146,0.592586,0.63597198,-0.43604682,0.580624,0.6420555,-0.45914393,0.587491
0.63439432,-0.50733016,0.631855,0.62203137,-0.45698098,0.616156,0.60460773,-0.48933641,0.623461,0.58137179,-0.44972669,0.605373,0.55885001,-0.41388358,0.58553,0.559593,-0.39393651,0.566792,0.57368455,-0.38735264,0.59235,0.57730591,-0.34369502,0.589753,0.58072182,-0.32344968,0.588454,0.58543998,-0.30359173,0.592279,0.60578925,-0.39335207,0.597485,0.58481173,-0.35392997,0.570366,0.57541179,-0.36975666,0.554547,0.58571039,-0.39720597,0.563881,0.63464156,-0.40154223,0.603183,0.61420466,-0.40231658,0.575615,0.59211059,-0.41688551,0.561511,0.5943645,-0.43465874,0.57142,0.67101949,-0.42026218,0.612603,0.65388516,-0.4023637,0.586476,0.63312951,-0.40597948,0.574472,0.62745186,-0.42489725,0.581452
0.63184337,-0.5049675,0.627858,0.62101792,-0.45504769,0.613953,0.60291256,-0.48736851,0.620279,0.57828425,-0.44801082,0.602405,0.55598203,-0.4134142,0.582096,0.5555808,-0.39344284,0.562143,0.57434752,-0.38744628,0.592686,0.57468349,-0.34174457,0.586636,0.57628592,-0.32081364,0.583611,0.57788451,-0.30089077,0.581953,0.60613812,-0.39285674,0.597416,0.58726287,-0.35520271,0.572293,0.57822336,-0.37252002,0.557638,0.5884548,-0.40058008,0.567867,0.6345953,-0.40078905,0.602611,0.61577462,-0.39781063,0.577055,0.59427265,-0.41301124,0.563979,0.59847626,-0.43037542,0.574884,0.67020643,-0.41928762,0.61113,0.64940943,-0.4069454,0.586734,0.62759112,-0.41238314,0.575525,0.62625151,-0.42872772,0.583295
0.63184037,-0.50394693,0.628328,0.62140122,-0.45377221,0.614384,0.60260109,-0.48689868,0.619166,0.57533358,-0.4459172,0.599279,0.55150962,-0.41018412,0.576841,0.55034294,-0.38981922,0.556224,0.57285977,-0.38641171,0.591101,0.57276233,-0.34120429,0.583851,0.57263519,-0.31883782,0.580227,0.57258326,-0.2981402,0.576931,0.6066104,-0.3928824,0.5978,0.58787599,-0.35516609,0.572458,0.57851777,-0.37274714,0.557674,0.58916371,-0.39994713,0.567516,0.63582674,-0.39992811,0.604621,0.61961001,-0.38846383,0.578212,0.60218242,-0.40548497,0.564701,0.60246083,-0.43051487,0.574987,0.67473704,-0.42197484,0.615064,0.64775076,-0.42268091,0.590076,0.63269324,-0.43374052,0.578595,0.63865717,-0.45477777,0.585919
0.62924239,-0.50136215,0.625103,0.62018568,-0.45059892,0.612282,0.5986215,-0.47976762,0.616215,0.5702162,-0.43652999,0.594205,0.54976565,-0.40133897,0.571227,0.54720784,-0.38295569,0.550654,0.57104292,-0.37827668,0.590292,0.57514057,-0.33395206,0.587154,0.57769931,-0.31235483,0.585584,0.58017018,-0.29245925,0.584158,0.60481878,-0.38356195,0.597034,0.59055927,-0.34826426,0.572921,0.58218829,-0.36993906,0.558855,0.59141488,-0.3998341,0.569189,0.63469394,-0.3938261,0.603784,0.62414227,-0.38239857,0.578519,0.60451271,-0.39959173,0.565592,0.60620666,-0.42618103,0.576399,0.6737008,-0.41483105,0.613952,0.64854034,-0.41495295,0.58997,0.63321038,-0.42611026,0.578952,0.63834442,-0.44899966,0.586695
0.62382744,-0.49661532,0.618202,0.61920054,-0.44087575,0.607604,0.59573482,-0.47607404,0.611322,0.57217333,-0.42682592,0.593541,0.54713247,-0.39227671,0.570766,0.54582784,-0.37225689,0.550106,0.57470082,-0.37138893,0.59001,0.57868312,-0.32691252,0.584551,0.57997049,-0.30374561,0.582483,0.58129443,-0.28251523,0.580722,0.60641891,-0.37798397,0.594999,0.59492263,-0.33755574,0.573504,0.58364996,-0.35568741,0.560965,0.60063831,-0.3859094,0.572585,0.63577794,-0.38738363,0.600098,0.62780158,-0.37722061,0.577871,0.60716265,-0.39786678,0.566499,0.6111218,-0.42283205,0.578856,0.6736473,-0.40644634,0.607935,0.64935373,-0.40724903,0.586487,0.63553068,-0.41998536,0.576632,0.6402217,-0.44287879,0.585581
0.62388413,-0.49183948,0.613963,0.61953703,-0.4335011,0.605616,0.59442884,-0.46823886,0.607143,0.56886982,-0.42081595,0.592095,0.54773961,-0.38524313,0.569878,0.54776429,-0.36770069,0.549653,0.57437063,-0.36845793,0.590003,0.57909673,-0.32146279,0.585374,0.58066535,-0.29834736,0.583457,0.58220584,-0.28004693,0.581713,0.6096049,-0.37271645,0.595688,0.5986122,-0.33302513,0.576649,0.5902786,-0.34911731,0.565543,0.60937954,-0.38145367,0.577951,0.63781415,-0.38159391,0.601149,0.63173125,-0.37241165,0.581007,0.61290442,-0.39113142,0.570702,0.61736612,-0.41206427,0.583824,0.67328346,-0.40061836,0.609027,0.65421576,-0.40534389,0.589474,0.63974337,-0.41588755,0.58049,0.64760587,-0.44078206,0.590079
0.62343354,-0.47612175,0.610106,0.61655431,-0.41831465,0.603068,0.59428031,-0.45718003,0.603145,0.56702406,-0.40833526,0.58715,0.54343749,-0.37178981,0.565402,0.54346517,-0.35233496,0.545729,0.57527597,-0.35653103,0.588388,0.57867727,-0.31121094,0.58495,0.58051009,-0.28818561,0.583301,0.58229572,-0.26704636,0.581883,0.60859177,-0.36207366,0.594698,0.59906377,-0.32286259,0.577084,0.59556147,-0.34119061,0.566809,0.61112137,-0.37166817,0.579603,0.63717861,-0.37107276,0.60055,0.63231839,-0.36205637,0.581547,0.61410939,-0.38139285,0.571824,0.61891635,-0.40267731,0.58529,0.67288548,-0.39007449,0.608667,0.65375213,-0.39251684,0.590173,0.64105043,-0.40626566,0.581676,0.64907871,-0.42793317,0.591563
0.62320914,-0.47190542,0.608323,0.61633306,-0.41558196,0.601131,0.59310094,-0.44915421,0.600181,0.57437381,-0.402857,0.582604,0.55772927,-0.36572626,0.561745,0.55888694,-0.34314352,0.542766,0.57182529,-0.35361268,0.584838,0.57561642,-0.3090596,0.583066,0.5775698,-0.28631994,0.582179,0.5794389,-0.26539748,0.581431,0.60640981,-0.35922429,0.592576,0.59647078,-0.319409,0.574684,0.59372852,-0.33821599,0.564247,0.60902389,-0.36808338,0.576666,0.63625627,-0.36827634,0.599619,0.63133437,-0.35998936,0.579886,0.61330579,-0.37915621,0.569791,0.61763026,-0.39963884,0.582708,0.67420443,-0.3843235,0.609167,0.65744403,-0.38600173,0.590151,0.64552542,-0.40008172,0.581414,0.6510741,-0.42461676,0.590898
0.62336093,-0.45857781,0.606689,0.61638994,-0.400724,0.599932,0.59284916,-0.43975251,0.598613,0.57328857,-0.3896259,0.58171,0.55602679,-0.35264457,0.560425,0.55796458,-0.33182332,0.541271,0.57268173,-0.33927728,0.584094,0.57990516,-0.29461187,0.583322,0.58389748,-0.27211045,0.582936,0.58762084,-0.2513843,0.582597,0.60734545,-0.34486206,0.591897,0.60073722,-0.31095796,0.574496,0.59585942,-0.33511291,0.564345,0.60981545,-0.36629767,0.576914,0.63716603,-0.35385856,0.598953,0.63288293,-0.34836089,0.579662,0.61480814,-0.36779258,0.569792,0.61907467,-0.3880427,0.582861,0.67453077,-0.37280459,0.608442,0.65770807,-0.37473299,0.589823,0.64556982,-0.38906825,0.581268,0.65372311,-0.4108932,0.590879
0.62477607,-0.44301099,0.607138,0.61659979,-0.38718973,0.598587,0.59363125,-0.42366862,0.598266,0.57305757,-0.37607786,0.579881,0.55522731,-0.33917141,0.557427,0.55672152,-0.31879664,0.537621,0.57144844,-0.32433754,0.580231,0.57884236,-0.27941595,0.578604,0.58293898,-0.25676533,0.577791,0.58675638,-0.2358773,0.577051,0.60651042,-0.3303065,0.588418,0.59848459,-0.29617851,0.568966,0.5928244,-0.3182172,0.557619,0.60533172,-0.34632339,0.569398,0.63676868,-0.33970595,0.595956,0.63030091,-0.33400219,0.574609,0.61112815,-0.35310938,0.563686,0.61416317,-0.37495776,0.575877,0.6748389,-0.35930009,0.606323,0.65585226,-0.36087117,0.585919,0.64221397,-0.37463118,0.576543,0.64917745,-0.39553842,0.585451
0.6257311,-0.43136688,0.607128,0.61836906,-0.37720632,0.598918,0.59465239,-0.41196285,0.598165,0.57480339,-0.36519372,0.579838,0.55730076,-0.32783677,0.557375,0.55897243,-0.30744561,0.537646,0.57356167,-0.31466133,0.580735,0.58198443,-0.27002558,0.57993,0.58661499,-0.24746342,0.579528,0.59092275,-0.22664364,0.579162,0.60879913,-0.32076548,0.589154,0.60167891,-0.28585297,0.570073,0.59628525,-0.30783597,0.558943,0.60879919,-0.33593837,0.570797,0.63916193,-0.33024395,0.596851,0.63349177,-0.32355779,0.575778,0.61438748,-0.34298071,0.564996,0.61728705,-0.36516475,0.577241,0.67728385,-0.34987306,0.607348,0.6590306,-0.35062611,0.587206,0.64539408,-0.36485605,0.577952,0.65230494,-0.3859441,0.586912
0.61912882,-0.41284066,0.598568,0.61312563,-0.35886352,0.594048,0.58663298,-0.39291373,0.587759,0.56950867,-0.34055057,0.567562,0.55621437,-0.30096569,0.545687,0.56060857,-0.27964922,0.527621,0.56717612,-0.29825212,0.576676,0.57790419,-0.25508013,0.580181,0.58391908,-0.23314469,0.581934,0.5894871,-0.21291812,0.583527,0.60422958,-0.3054304,0.588672,0.60810718,-0.26774748,0.573714,0.60962797,-0.28947493,0.564988,0.623084,-0.31799401,0.577094,0.63592363,-0.31553348,0.598969,0.64296123,-0.30447042,0.580618,0.62765124,-0.32541524,0.571229,0.62864756,-0.34967851,0.58335,0.67538403,-0.335395,0.611901,0.67004964,-0.33308771,0.594529,0.65826949,-0.34936622,0.586547,0.66477871,-0.37154469,0.595546
0.61601272,-0.39791914,0.594037,0.61027906,-0.34853406,0.59129,0.58409494,-0.37886347,0.583558,0.56719075,-0.33039783,0.565252,0.55360804,-0.29074824,0.54313,0.55800433,-0.26962755,0.52517,0.56634602,-0.28940384,0.575832,0.57752369,-0.24641125,0.579799,0.58376656,-0.22451843,0.581782,0.58954671,-0.20431365,0.583586,0.60356446,-0.29657275,0.588024,0.60958687,-0.2594453,0.57511,0.61242152,-0.28173007,0.567577,0.6264656,-0.31049438,0.580226,0.63522928,-0.30656754,0.598315,0.64430226,-0.29597716,0.581829,0.63003009,-0.31760887,0.573394,0.63157446,-0.34229508,0.586066,0.67432002,-0.3261082,0.610937,0.6708566,-0.32428699,0.595245,0.65994056,-0.34122411,0.588036,0.66695651,-0.36369964,0.597497
0.62160374,-0.39958762,0.598193,0.61434568,-0.35030701,0.5934,0.58928682,-0.38031195,0.587483,0.58426152,-0.33470165,0.578927,0.57842213,-0.2945604,0.564655,0.5906582,-0.27514213,0.554135,0.56826033,-0.28996015,0.57592,0.58089778,-0.24838974,0.582645,0.58787162,-0.22713252,0.586007,0.59430683,-0.20750682,0.589064,0.60508113,-0.29692726,0.587699,0.60867703,-0.25877649,0.572425,0.60999522,-0.28026205,0.563515,0.62346351,-0.3085781,0.575604,0.63659969,-0.30685007,0.597843,0.64343734,-0.29522606,0.579265,0.62798865,-0.31614273,0.56976,0.62901482,-0.3403989,0.581887,0.67589517,-0.32648309,0.610641,0.67036778,-0.32364596,0.593044,0.65843751,-0.3399847,0.584958,0.66495765,-0.36209073,0.593953
0.62122704,-0.39578231,0.597215,0.61593966,-0.34046336,0.593128,0.59000475,-0.37399599,0.586943,0.58398103,-0.32412107,0.578647,0.57920661,-0.28443592,0.565421,0.59156542,-0.26505347,0.554986,0.57092565,-0.28101907,0.576794,0.58393986,-0.24024155,0.585155,0.59107902,-0.21935083,0.589336,0.59764982,-0.20009508,0.593137,0.60749215,-0.28772466,0.588267,0.61368581,-0.25310191,0.573802,0.61417726,-0.27899297,0.565364,0.62321348,-0.3051377,0.577815,0.63871471,-0.29738519,0.598092,0.64659652,-0.28564722,0.580376,0.63164725,-0.30696543,0.571312,0.63310117,-0.33155037,0.583856,0.67750706,-0.31661014,0.610393,0.67288176,-0.31365924,0.59353,0.66131819,-0.33042215,0.585782,0.6682234,-0.35272117,0.595104
0.62092408,-0.38515143,0.596246,0.61711745,-0.32943317,0.592709,0.59176357,-0.36200902,0.587415,0.58640866,-0.31325813,0.581137,0.58226668,-0.27357848,0.568783,0.59568405,-0.2562696,0.557956,0.5754022,-0.27083046,0.578648,0.59021199,-0.23039189,0.587306,0.59819209,-0.20963847,0.591636,0.6055272,-0.19050913,0.595571,0.61097492,-0.27737362,0.588502,0.61602491,-0.24191612,0.574692,0.61577511,-0.26503113,0.566636,0.62500502,-0.2904938,0.579812,0.64120286,-0.28685978,0.596943,0.64758941,-0.27440898,0.58037,0.6323371,-0.29596983,0.57189,0.63509385,-0.32122209,0.58538,0.6784993,-0.30579894,0.607516,0.67194173,-0.3018858,0.591504,0.66050301,-0.31911491,0.584147,0.6682151,-0.34192714,0.594178
0.6268088,-0.37806696,0.599173,0.62059176,-0.3269894,0.594093,0.59720347,-0.35524733,0.590899,0.59220076,-0.30957999,0.585045,0.58453953,-0.26960055,0.573397,0.59713647,-0.25083511,0.563104,0.57911806,-0.26553294,0.579424,0.59360088,-0.22484167,0.588163,0.60133735,-0.20389965,0.592532,0.60797182,-0.18784334,0.597005,0.61412438,-0.27081041,0.588051,0.61400666,-0.23475123,0.572516,0.61226133,-0.25737002,0.563454,0.62190491,-0.28564872,0.576434,0.64411592,-0.27931219,0.595627,0.64585897,-0.26641144,0.577827,0.62999379,-0.2878483,0.568719,0.63273601,-0.31618446,0.582134,0.68155476,-0.29721726,0.605443,0.67059264,-0.29305323,0.588222,0.65904951,-0.31005784,0.580309,0.6656004,-0.33614897,0.590232
0.62790173,-0.37067607,0.600878,0.62257706,-0.32130428,0.596261,0.59935237,-0.35367512,0.594541,0.59146543,-0.30563793,0.591586,0.58402929,-0.26661397,0.581117,0.59546518,-0.2480773,0.57003,0.58134801,-0.26041813,0.584411,0.59522302,-0.21854728,0.590744,0.60252933,-0.1970617,0.59391,0.60925879,-0.18102376,0.59705,0.61473822,-0.26498727,0.59077,0.61134616,-0.23014609,0.575912,0.6077692,-0.25346796,0.567246,0.61937417,-0.27861835,0.580924,0.64318734,-0.2729066,0.596436,0.64098244,-0.26183722,0.580014,0.62466788,-0.28369164,0.571612,0.63048349,-0.30874453,0.586009,0.67836885,-0.290114,0.603917,0.66315375,-0.28731147,0.587718,0.65194647,-0.30450755,0.580275,0.66127544,-0.32720056,0.590925
0.63063142,-0.36572437,0.604654,0.62325477,-0.31538365,0.598666,0.60182609,-0.34825759,0.598028,0.59544855,-0.29906872,0.593623,0.58779974,-0.25949456,0.580885,0.59457373,-0.24383714,0.566881,0.58597515,-0.2527313,0.585295,0.60392184,-0.21364651,0.595203,0.61331532,-0.19350587,0.600157,0.62192302,-0.17497214,0.60466,0.61915906,-0.25825941,0.591546,0.61467091,-0.2170943,0.575131,0.61018018,-0.23762533,0.565556,0.6211855,-0.26385146,0.578757,0.64732395,-0.26705382,0.597251,0.64438796,-0.25696893,0.579397,0.62449728,-0.28062563,0.570262,0.62923106,-0.30495683,0.584165,0.68196812,-0.2854325,0.605015,0.66428303,-0.28510325,0.587534,0.65176224,-0.30188176,0.579503,0.66010206,-0.32411894,0.589745
0.63164614,-0.3651034,0.606756,0.62380563,-0.31469773,0.599637,0.60292335,-0.3474878,0.600138,0.59509128,-0.29948443,0.594257,0.58217273,-0.25933167,0.583194,0.59161461,-0.23780645,0.573077,0.58488967,-0.25281124,0.585315,0.60303831,-0.21455987,0.596081,0.61299566,-0.19436642,0.601464,0.62128504,-0.17702099,0.606358,0.61765786,-0.2580706,0.591169,0.61165607,-0.2164578,0.573501,0.60645104,-0.23661082,0.563195,0.61716782,-0.26259203,0.576048,0.64558243,-0.26668288,0.596653,0.64043128,-0.25769637,0.577749,0.62184982,-0.27870889,0.568076,0.6261271,-0.30267744,0.581652,0.67973045,-0.28671945,0.60435,0.66217617,-0.28350677,0.585906,0.64901814,-0.29996982,0.577431,0.65692091,-0.32192685,0.587394
0.63031359,-0.35963441,0.608759,0.62478557,-0.30239362,0.601328,0.60268992,-0.33895718,0.603387,0.5969501,-0.2888981,0.595001,0.58231376,-0.24817672,0.583993,0.59019349,-0.22664982,0.572635,0.59157648,-0.24234337,0.588308,0.60030383,-0.19943362,0.593705,0.60510951,-0.17727516,0.596403,0.60953142,-0.15684588,0.598882,0.62284879,-0.24866094,0.592491,0.6157436,-0.20687367,0.574641,0.60678569,-0.22663542,0.564229,0.61726373,-0.25337233,0.577242,0.64925181,-0.25814288,0.59663,0.64018787,-0.24967556,0.578101,0.62139425,-0.27075996,0.568621,0.62712,-0.29931735,0.582541,0.68147244,-0.2774081,0.602791,0.66054047,-0.27294291,0.584547,0.64771343,-0.28978123,0.576164,0.65582099,-0.31727389,0.586362
0.6343723,-0.35636038,0.615008,0.63028478,-0.30110608,0.606351,0.60671491,-0.32952109,0.610653,0.60340228,-0.28505695,0.601205,0.58798335,-0.24376983,0.587223,0.59189541,-0.22506594,0.572864,0.60123581,-0.23678525,0.593566,0.61294114,-0.19395429,0.598823,0.61903149,-0.1717781,0.601452,0.62463843,-0.15131626,0.603866,0.63080788,-0.24351572,0.596056,0.61885056,-0.20738136,0.577034,0.60698371,-0.22819685,0.565938,0.61689045,-0.25415848,0.578683,0.65569739,-0.25338052,0.598916,0.6400275,-0.24415853,0.579839,0.61905998,-0.26471468,0.570079,0.62666051,-0.29255199,0.583887,0.68422907,-0.2755262,0.603777,0.65977409,-0.27029721,0.584924,0.64468588,-0.28416409,0.576262,0.65455435,-0.30944797,0.586328
0.63290126,-0.34711242,0.617731,0.63050571,-0.29591468,0.607608,0.60885065,-0.32835513,0.613844,0.62256613,-0.28728283,0.612016,0.61501302,-0.24664811,0.605141,0.60910153,-0.21915773,0.601823,0.60024646,-0.23530771,0.59417,0.61274284,-0.19254946,0.59987,0.61915725,-0.17052875,0.60272,0.62504982,-0.15022795,0.605328,0.62866081,-0.24141465,0.59557,0.61542881,-0.20624389,0.575062,0.60209245,-0.22660506,0.5631,0.61150454,-0.2519571,0.575348,0.65270483,-0.25078824,0.59767,0.64242756,-0.2198193,0.577553,0.61931485,-0.23809762,0.567261,0.6239792,-0.26064708,0.580653,0.68215541,-0.27005849,0.601886,0.65366442,-0.26374055,0.582041,0.63958904,-0.28028336,0.572922,0.64766293,-0.30249288,0.582629
0.63187369,-0.34016104,0.618309,0.62884675,-0.28500283,0.607943,0.60862832,-0.32163863,0.614983,0.62319471,-0.27900213,0.613484,0.61245794,-0.23815042,0.606526,0.6056862,-0.21146466,0.604213,0.59800464,-0.2252523,0.595001,0.6090886,-0.18174441,0.599684,0.6147128,-0.15952872,0.602026,0.61990676,-0.1391108,0.604202,0.6257145,-0.23040818,0.595614,0.61112301,-0.19244994,0.574959,0.59739804,-0.21124198,0.562909,0.60717396,-0.23671735,0.575108,0.64923743,-0.23898316,0.59709,0.64362941,-0.20353566,0.577093,0.62204414,-0.22042947,0.566862,0.62601168,-0.24512691,0.58028,0.67821539,-0.25727209,0.60061,0.65179971,-0.2456957,0.58082,0.63806179,-0.26275877,0.571727,0.64627321,-0.28557636,0.58144
0.6308227,-0.33255048,0.618636,0.62916331,-0.27535767,0.607647,0.60820106,-0.30965725,0.615957,0.62068976,-0.26974551,0.612583,0.60558905,-0.22808878,0.602854,0.6005338,-0.200613,0.599689,0.60173685,-0.21513748,0.59499,0.60788779,-0.17093473,0.598356,0.6109809,-0.14794177,0.600039,0.61381425,-0.12665788,0.601568,0.62818946,-0.22084058,0.594578,0.61238906,-0.17568003,0.573403,0.5960211,-0.19334454,0.561052,0.60518823,-0.2187683,0.573033,0.65052222,-0.22989051,0.595268,0.64131245,-0.19973197,0.575122,0.61905579,-0.21698499,0.564814,0.62325465,-0.24152104,0.578103,0.67776543,-0.24877674,0.597968,0.64807952,-0.2418515,0.577983,0.63425001,-0.25886923,0.568801,0.64248278,-0.28152938,0.578392
0.63219968,-0.33113171,0.620575,0.63038884,-0.27627432,0.609398,0.60948315,-0.30877134,0.617737,0.62034318,-0.27119623,0.613393,0.60428747,-0.23106446,0.600069,0.60075683,-0.204087,0.597865,0.60261993,-0.2159274,0.596382,0.60916015,-0.17187202,0.600137,0.61244548,-0.14893407,0.602014,0.6154559,-0.12768846,0.603721,0.62918886,-0.22167932,0.596105,0.61311663,-0.1764811,0.574698,0.59660315,-0.1940768,0.56221,0.60568453,-0.2194418,0.574108,0.65164359,-0.23077695,0.596924,0.6423166,-0.19939651,0.576514,0.61970575,-0.21675644,0.566071,0.62390867,-0.24123603,0.579258,0.67907456,-0.2497365,0.599808,0.64919325,-0.24177398,0.579599,0.635253,-0.25878834,0.570314,0.64343898,-0.28141529,0.579824
0.6348575,-0.3310343,0.623167,0.63270721,-0.27722323,0.611156,0.61246724,-0.30924509,0.620424,0.62213167,-0.27462317,0.614899,0.60395281,-0.2333409,0.599978,0.60141409,-0.20613231,0.597019,0.60448561,-0.2165135,0.597554,0.61049746,-0.17213544,0.600746,0.61341571,-0.14909517,0.602342,0.61608988,-0.12774818,0.603792,0.6306068,-0.22209827,0.596871,0.61248824,-0.17733254,0.574612,0.59489953,-0.1951391,0.561628,0.60385893,-0.22018067,0.57318,0.65276996,-0.23110299,0.597435,0.64147184,-0.19960053,0.576357,0.61815497,-0.21704965,0.565573,0.62238311,-0.24114963,0.578431,0.67998797,-0.2500348,0.60016,0.64846107,-0.23844435,0.57934,0.63392676,-0.25526999,0.569774,0.64169201,-0.27780184,0.579013
0.63936508,-0.32807178,0.627037,0.63777456,-0.27577924,0.613808,0.61687877,-0.30701663,0.623913,0.6222509,-0.27114746,0.615071,0.60183807,-0.22822645,0.599196,0.6011176,-0.20403497,0.597825,0.60750744,-0.21461219,0.598697,0.61344428,-0.17013856,0.602383,0.61539697,-0.14827817,0.604226,0.6183308,-0.12694305,0.606126,0.63427823,-0.21677084,0.598074,0.61226639,-0.17526276,0.574461,0.59402135,-0.1928317,0.560687,0.60214269,-0.21866668,0.571703,0.65686135,-0.22521221,0.598802,0.64123629,-0.19608883,0.576429,0.61700605,-0.21369037,0.564983,0.62065726,-0.23847316,0.577265,0.68506147,-0.24366432,0.601929,0.65094849,-0.22851687,0.579975,0.63581424,-0.24515403,0.569888,0.64193126,-0.2710719,0.578664
0.63890591,-0.32585817,0.625471,0.63969367,-0.2715498,0.612943,0.61808292,-0.30586138,0.623768,0.62885949,-0.27003149,0.619735,0.60703716,-0.22843435,0.605191,0.60330443,-0.2011216,0.600256,0.61083305,-0.21172341,0.600206,0.61474791,-0.16682632,0.602745,0.61630007,-0.14362284,0.604014,0.61764104,-0.1256771,0.605225,0.63553321,-0.21581674,0.598044,0.61284503,-0.17121412,0.575498,0.59432292,-0.18923698,0.562346,0.60437354,-0.21406525,0.573676,0.65669744,-0.22363687,0.597438,0.64432749,-0.18511225,0.57658,0.62100433,-0.20197111,0.565909,0.62438523,-0.23154608,0.578676,0.68302981,-0.24124836,0.598872,0.64951589,-0.22661089,0.578164,0.63506261,-0.24348137,0.56865,0.64300824,-0.26607043,0.577796
0.641009,-0.32282626,0.626795,0.64077303,-0.27011303,0.61372,0.61985295,-0.30483357,0.624878,0.63346589,-0.26701666,0.622175,0.61300837,-0.22542698,0.609841,0.60997394,-0.1972295,0.60545,0.61237945,-0.20859046,0.600252,0.61658439,-0.16361834,0.602707,0.61834279,-0.1403549,0.603934,0.61890474,-0.12013221,0.60505,0.63714994,-0.2128927,0.59817,0.61485561,-0.16695773,0.575005,0.59860155,-0.17851732,0.561493,0.60550618,-0.20775258,0.572582,0.65838599,-0.22089183,0.597681,0.64574106,-0.18333825,0.576215,0.62221853,-0.19992682,0.565232,0.62672085,-0.22508945,0.577735,0.68484594,-0.23872745,0.599347,0.65143854,-0.22373749,0.57811,0.63643504,-0.24033699,0.568352,0.64306548,-0.26418543,0.577286
0.64289648,-0.32179402,0.627671,0.6426198,-0.26726672,0.613973,0.62408579,-0.30205063,0.626288,0.63502386,-0.26376052,0.623357,0.61428397,-0.22216715,0.61112,0.61058525,-0.19608989,0.606848,0.6135506,-0.20540978,0.600646,0.61581709,-0.15977923,0.601712,0.61653458,-0.13632356,0.602245,0.61706801,-0.11826462,0.603573,0.63735739,-0.20923043,0.597681,0.61367907,-0.16302252,0.574016,0.59166572,-0.17481099,0.560212,0.6031698,-0.20209511,0.570997,0.65784734,-0.21683651,0.596525,0.64679115,-0.16925305,0.57488,0.62376814,-0.18211368,0.563807,0.62772028,-0.20888206,0.576072,0.68354303,-0.23421282,0.597509,0.64905749,-0.21897533,0.576072,0.6337864,-0.23536248,0.566222,0.6406348,-0.25966393,0.574954
0.66177283,-0.31533326,0.63755,0.64997349,-0.25435364,0.614918,0.63466486,-0.29638229,0.631026,0.63687412,-0.2555909,0.620991,0.59868669,-0.2149708,0.59857,0.58837504,-0.18604484,0.589172,0.59752775,-0.1939285,0.587588,0.60236775,-0.15036017,0.592522,0.60453881,-0.12769179,0.594988,0.60805805,-0.10934083,0.597231,0.62474665,-0.19474972,0.588001,0.58923871,-0.14731489,0.554154,0.56414107,-0.1518335,0.53441,0.56792021,-0.17408001,0.540694,0.64990237,-0.20003356,0.590462,0.6187861,-0.16209234,0.558127,0.59298264,-0.17228123,0.541584,0.59553964,-0.19811781,0.54871,0.6845942,-0.21513652,0.597249,0.62890441,-0.20403342,0.566681,0.6320952,-0.22521076,0.58185,0.64900214,-0.24030685,0.59849
0.66442888,-0.31363969,0.637895,0.65010048,-0.25447501,0.615194,0.63692432,-0.29532139,0.631476,0.63689829,-0.25575033,0.621369,0.5986549,-0.21480262,0.599397,0.58814656,-0.18581866,0.589253,0.59756303,-0.19420014,0.587936,0.60192517,-0.15059779,0.592648,0.6038432,-0.12793427,0.595004,0.60689054,-0.10851854,0.597146,0.6246064,-0.19485225,0.588195,0.58868862,-0.14735447,0.554302,0.56347634,-0.15181541,0.534532,0.56728569,-0.17403233,0.540783,0.6496352,-0.19999301,0.590534,0.61815806,-0.16196487,0.558208,0.59233908,-0.17213706,0.541669,0.59440673,-0.1977556,0.548775,0.684221,-0.21492237,0.59719,0.62830558,-0.20382468,0.566622,0.63096577,-0.22508357,0.581768,0.64652163,-0.24116462,0.598399
0.66621872,-0.31271433,0.638289,0.65030868,-0.25458041,0.615443,0.63846117,-0.29476814,0.631925,0.63707535,-0.25587142,0.62166,0.5986903,-0.21473692,0.599862,0.58809944,-0.18572659,0.589361,0.5976561,-0.19431711,0.588132,0.60190477,-0.15070867,0.592815,0.60376153,-0.12804675,0.595157,0.6064925,-0.10814069,0.597286,0.62457278,-0.19489053,0.588272,0.5883989,-0.14734101,0.554251,0.56307936,-0.15176204,0.534406,0.56683044,-0.17394161,0.54058,0.64951323,-0.19996931,0.590528,0.6178215,-0.16188905,0.55812,0.59195268,-0.17203904,0.54154,0.59358798,-0.19749054,0.548575,0.68402748,-0.21482926,0.59711,0.62795382,-0.20370578,0.566465,0.63039082,-0.22497048,0.581558,0.64550716,-0.24138138,0.598196
0.66135187,-0.30140507,0.629992,0.64996266,-0.24511117,0.61818,0.63913734,-0.28745329,0.629575,0.63415976,-0.24898844,0.624717,0.60063471,-0.21152177,0.612123,0.60032005,-0.18868893,0.604148,0.61847146,-0.18876624,0.607662,0.61423741,-0.1429221,0.607944,0.61193242,-0.11948676,0.608085,0.60983286,-0.09785042,0.608244,0.64201913,-0.18980776,0.604132,0.61546673,-0.14710165,0.582666,0.60017497,-0.16120999,0.570143,0.60986416,-0.18648616,0.581737,0.66251458,-0.19502953,0.602334,0.64425547,-0.16724653,0.582946,0.62561715,-0.18131126,0.573027,0.63205204,-0.20975142,0.586209,0.688604,-0.20942221,0.602237,0.64418409,-0.20359566,0.582754,0.64811047,-0.22663728,0.60089,0.65285799,-0.24661249,0.614779
0.65799418,-0.29873294,0.628395,0.64714389,-0.24414545,0.617123,0.63661041,-0.28488723,0.62852,0.63287682,-0.24782267,0.624833,0.59934001,-0.20943249,0.610832,0.60010257,-0.18750194,0.604261,0.61689001,-0.18825881,0.607741,0.61227727,-0.14231881,0.60767,0.60978199,-0.11885499,0.607634,0.60751226,-0.097205174,0.607634,0.63990062,-0.18914033,0.603718,0.61332441,-0.14041518,0.58296,0.59657169,-0.14748075,0.570851,0.60723804,-0.17126956,0.582649,0.65986153,-0.19420487,0.601463,0.64134053,-0.16318876,0.582907,0.62407804,-0.1807091,0.573412,0.63165047,-0.20948816,0.586859,0.68516723,-0.20834949,0.600735,0.64155382,-0.20275722,0.58196,0.64526819,-0.22559406,0.600158,0.64900652,-0.24562121,0.613822
0.66064707,-0.29883517,0.632235,0.6478785,-0.24377916,0.618942,0.63493795,-0.27766304,0.631985,0.63109936,-0.24663296,0.625947,0.59820779,-0.208844,0.61094,0.5966738,-0.18366879,0.604471,0.61374407,-0.18628831,0.607378,0.60818087,-0.1401806,0.606641,0.60496386,-0.11675716,0.606272,0.60185609,-0.095205518,0.605937,0.63650322,-0.18699261,0.603132,0.60897754,-0.13850849,0.580197,0.59084753,-0.14543289,0.566818,0.60061766,-0.16888005,0.577713,0.65646615,-0.19197163,0.600883,0.635367,-0.1606785,0.580352,0.61478879,-0.17735795,0.569847,0.62488576,-0.20677435,0.582354,0.68219251,-0.20613849,0.600508,0.636441,-0.2003181,0.579988,0.63943342,-0.22276822,0.597713,0.64296171,-0.24305821,0.611807
0.65948554,-0.29662134,0.631113,0.64717599,-0.2420121,0.618032,0.63474877,-0.27625053,0.630941,0.62969294,-0.24544765,0.624438,0.59480131,-0.20722091,0.609167,0.59401805,-0.18332809,0.602935,0.61242734,-0.18505542,0.606745,0.60453076,-0.13770973,0.605425,0.60041815,-0.11432357,0.604765,0.59646046,-0.092766082,0.604165,0.63436069,-0.18351644,0.602473,0.60603878,-0.13609568,0.579776,0.58949943,-0.14635192,0.566536,0.59975747,-0.17035141,0.577524,0.6545544,-0.18761262,0.600184,0.63212498,-0.15860533,0.579885,0.61327679,-0.17686356,0.569499,0.62146103,-0.20484286,0.582108,0.68141519,-0.19714883,0.599724,0.63521643,-0.19645399,0.579407,0.63936531,-0.22090069,0.597178,0.64290007,-0.2414968,0.611219
0.65860035,-0.29492375,0.630202,0.64617963,-0.24066671,0.616869,0.63453127,-0.2753029,0.630139,0.62968202,-0.24463491,0.624057,0.59419363,-0.20666311,0.608701,0.59342327,-0.18283345,0.602644,0.61016752,-0.18302805,0.605507,0.60303999,-0.13693716,0.604301,0.59888459,-0.11356511,0.603698,0.59492803,-0.091976592,0.60315,0.632788,-0.18228832,0.601012,0.60396495,-0.13527923,0.578092,0.58610365,-0.14663708,0.564722,0.59745714,-0.17065163,0.57558,0.65287896,-0.18606931,0.598563,0.63162164,-0.15085459,0.578128,0.61198117,-0.16682345,0.567673,0.61763232,-0.20040188,0.580165,0.67966095,-0.19635941,0.597958,0.63347087,-0.19508418,0.577512,0.63778589,-0.21953598,0.595196,0.64289767,-0.24101843,0.609248
0.65897863,-0.29407096,0.630497,0.64631782,-0.24005051,0.616851,0.63525605,-0.2750339,0.630446,0.629867,-0.24430986,0.624063,0.59434121,-0.20663455,0.609035,0.59288461,-0.18259503,0.602412,0.60981521,-0.18266217,0.605238,0.6019691,-0.13642577,0.603489,0.59746405,-0.11300795,0.602615,0.5932108,-0.091373596,0.60182,0.63234321,-0.18171779,0.600621,0.60295563,-0.13491809,0.577387,0.58459028,-0.14874616,0.563834,0.59628537,-0.17145651,0.57454,0.65241613,-0.18534246,0.5981,0.62973965,-0.15511822,0.577411,0.60966187,-0.17214745,0.566826,0.61788559,-0.20152643,0.579167,0.67920556,-0.19604492,0.597465,0.63277025,-0.19454811,0.576791,0.63739899,-0.21895581,0.594383,0.64474283,-0.23943204,0.608481
0.66182231,-0.29515813,0.633424,0.64702985,-0.24068402,0.61772,0.63858896,-0.28076688,0.632006,0.62927099,-0.24904546,0.62176,0.58661332,-0.21355761,0.604784,0.57964123,-0.18883925,0.593631,0.60519719,-0.18522827,0.602654,0.60145336,-0.1367607,0.602746,0.59907326,-0.11409726,0.602792,0.59611929,-0.092511057,0.602834,0.63006492,-0.18446327,0.599044,0.5950941,-0.14512007,0.573339,0.57853068,-0.16625392,0.558344,0.59442393,-0.18475741,0.568166,0.65110811,-0.18903326,0.597545,0.62524007,-0.16101135,0.574195,0.60412957,-0.17937944,0.562249,0.61076889,-0.20275842,0.573551,0.67892364,-0.20291563,0.598468,0.63145985,-0.19953039,0.575509,0.63740033,-0.22365588,0.592701,0.64345795,-0.24239818,0.607448
0.66401838,-0.2954645,0.636176,0.64313512,-0.24243106,0.615732,0.636757,-0.27938742,0.630933,0.62322514,-0.24824066,0.61523,0.58392354,-0.21172179,0.59691,0.57822263,-0.18692577,0.588498,0.59132012,-0.18447368,0.591859,0.59293996,-0.13782546,0.593256,0.59391242,-0.11620418,0.593955,0.59549797,-0.094676175,0.59534,0.61868531,-0.1845847,0.591417,0.58627421,-0.14505615,0.560005,0.56953326,-0.1655593,0.541681,0.57454083,-0.18633615,0.549185,0.64451376,-0.18827169,0.59297,0.61994486,-0.16175852,0.563204,0.5975581,-0.18054476,0.547975,0.60021839,-0.20159126,0.556492,0.67822664,-0.20315872,0.598309,0.63155333,-0.20393061,0.569916,0.63674873,-0.22622742,0.585866,0.6416625,-0.24404662,0.602044
0.66471387,-0.29527459,0.637489,0.6431794,-0.24391756,0.614989,0.63914394,-0.27983171,0.633949,0.62381943,-0.24972317,0.613224,0.58745708,-0.21445945,0.600688,0.58711238,-0.19054717,0.596964,0.59397451,-0.18426654,0.591509,0.59731526,-0.13975962,0.595022,0.60118722,-0.11718019,0.59686,0.60112949,-0.096108022,0.599933,0.61837404,-0.18421889,0.588229,0.58519034,-0.14814495,0.554999,0.56441822,-0.16903761,0.535616,0.5709294,-0.18871352,0.541861,0.6407404,-0.18889616,0.587637,0.61442365,-0.16548323,0.556861,0.59009567,-0.18425948,0.541115,0.59160228,-0.20517924,0.548488,0.67423051,-0.2053958,0.590798,0.62370655,-0.20123906,0.561831,0.62861965,-0.22453682,0.576878,0.63859165,-0.24435871,0.592907
0.66453228,-0.29538133,0.637936,0.64414045,-0.24928076,0.614426,0.63714178,-0.28162886,0.633517,0.62227532,-0.25811022,0.61139,0.58651483,-0.22118767,0.596429,0.58652582,-0.19837103,0.588579,0.59415168,-0.19029448,0.588992,0.59693816,-0.14652009,0.592732,0.59777649,-0.12337715,0.594602,0.59739101,-0.098468339,0.596302,0.61922867,-0.19111787,0.586466,0.58197816,-0.15452732,0.552284,0.56083697,-0.17493022,0.532344,0.56723971,-0.19346051,0.538123,0.64226706,-0.19658352,0.58659,0.61252865,-0.1666511,0.55481,0.58773228,-0.18519261,0.53855,0.58907434,-0.2082457,0.545391,0.67390073,-0.21207781,0.590768,0.62315223,-0.20970341,0.560638,0.62754385,-0.23319026,0.57537,0.63706664,-0.25418259,0.591687
0.65794195,-0.2991375,0.63247,0.6405423,-0.25524577,0.611413,0.63270187,-0.28669611,0.629077,0.61678293,-0.26561299,0.608724,0.57983174,-0.22798504,0.592884,0.57890103,-0.205679,0.585351,0.59594076,-0.19673896,0.589339,0.60103654,-0.15354816,0.594418,0.60317961,-0.13067789,0.596958,0.60320873,-0.10602351,0.599267,0.62039262,-0.19844755,0.586369,0.58566681,-0.15553049,0.554824,0.56537847,-0.17293913,0.536422,0.57285143,-0.19594523,0.543556,0.64248229,-0.20458238,0.585898,0.61444956,-0.17934333,0.556845,0.59132783,-0.19828548,0.541982,0.59488416,-0.2215985,0.550349,0.67216618,-0.22073415,0.588953,0.62368859,-0.21821084,0.561065,0.62973697,-0.24262353,0.576673,0.63912646,-0.26424364,0.59254
0.65857962,-0.31177818,0.631984,0.63576105,-0.25974236,0.605489,0.62921195,-0.29363224,0.62467,0.60786938,-0.26329396,0.598094,0.56481039,-0.22353258,0.569719,0.55734135,-0.19911048,0.553322,0.58196373,-0.19820955,0.573898,0.58964203,-0.15505712,0.581058,0.59351432,-0.13257711,0.584638,0.59531487,-0.10947192,0.587893,0.60917096,-0.20029764,0.573977,0.56924306,-0.15027757,0.536255,0.54915677,-0.16322356,0.51425,0.54849188,-0.18565361,0.518252,0.63433423,-0.20686601,0.576525,0.60192733,-0.18270071,0.540666,0.57610617,-0.1986873,0.522319,0.57483467,-0.22035953,0.527032,0.66790639,-0.22138047,0.584077,0.61874737,-0.21739423,0.550474,0.62227581,-0.24122214,0.564049,0.62917979,-0.26188219,0.581139
0.65811346,-0.31813301,0.62828,0.63823556,-0.27076145,0.602653,0.63052166,-0.30466974,0.620647,0.60649955,-0.27326359,0.593693,0.56071046,-0.23323922,0.567415,0.55044147,-0.20848438,0.548398,0.57828373,-0.20775317,0.571396,0.58343417,-0.16439737,0.576155,0.58602488,-0.14197608,0.578534,0.58838866,-0.12163422,0.580697,0.60629487,-0.20812073,0.572174,0.56832021,-0.1590388,0.535203,0.54669209,-0.172871,0.513637,0.54879966,-0.19177981,0.51815,0.63247301,-0.21322654,0.575214,0.5987244,-0.19206329,0.539829,0.57384033,-0.2083099,0.521725,0.5740721,-0.23011777,0.526916,0.66869939,-0.22596813,0.5832,0.6187023,-0.2197307,0.550033,0.62424523,-0.24690089,0.563983,0.63282423,-0.26789319,0.581065
0.66224657,-0.32914095,0.623305,0.63824927,-0.27780119,0.59853,0.63226366,-0.31302415,0.617034,0.60802061,-0.28327075,0.592091,0.5622773,-0.24430008,0.566836,0.55044179,-0.2198086,0.54706,0.58015123,-0.21552262,0.569704,0.58307174,-0.17155485,0.572702,0.58438566,-0.14912216,0.574202,0.58546017,-0.12901223,0.575565,0.60679687,-0.21519841,0.569065,0.56839479,-0.16768378,0.533208,0.54700326,-0.18238847,0.512292,0.55275791,-0.20350026,0.517361,0.63176567,-0.2197406,0.570861,0.5979288,-0.20109428,0.536988,0.5732757,-0.21874305,0.519659,0.57545791,-0.23661975,0.525587,0.66689534,-0.23425661,0.57723,0.61676167,-0.23019137,0.545291,0.62252412,-0.25509293,0.559612,0.6324713,-0.27926867,0.576406
0.65762039,-0.33199627,0.619718,0.63679919,-0.28811276,0.601357,0.62940649,-0.32089037,0.614382,0.60501993,-0.29204727,0.591601,0.57114284,-0.2571872,0.578286,0.56861626,-0.23106944,0.566205,0.58580272,-0.22729794,0.579131,0.58644584,-0.18071784,0.576613,0.58680819,-0.15717272,0.575354,0.58716429,-0.13558847,0.574209,0.61397865,-0.22776725,0.579521,0.5861547,-0.20946282,0.55017,0.56613922,-0.22791642,0.53305,0.57268187,-0.25036321,0.541604,0.63952023,-0.23282168,0.581561,0.61282019,-0.22082728,0.553458,0.59156154,-0.24029504,0.53908,0.59716245,-0.26026177,0.548637,0.67399055,-0.24765769,0.587119,0.63168007,-0.24322767,0.560214,0.64041265,-0.27019762,0.576821,0.64979576,-0.29116763,0.592729
0.65230155,-0.33838749,0.614829,0.63387699,-0.2909052,0.598765,0.62194478,-0.32708401,0.609664,0.60051416,-0.29834316,0.587527,0.57085675,-0.26395466,0.571379,0.56616632,-0.24278228,0.553162,0.58509056,-0.23492776,0.578696,0.58654039,-0.1888403,0.577009,0.5873103,-0.16554139,0.576165,0.58821019,-0.14002931,0.575398,0.61379861,-0.23573014,0.579659,0.58853536,-0.2186382,0.552683,0.57000757,-0.23771688,0.536947,0.57782424,-0.25670171,0.546594,0.63957803,-0.24099148,0.581956,0.61516324,-0.2301178,0.555896,0.59499291,-0.24990155,0.542563,0.60194893,-0.26639751,0.553229,0.67389528,-0.25594349,0.587424,0.65523685,-0.23387191,0.562333,0.65839373,-0.25669387,0.579571,0.66565416,-0.27384062,0.595086
0.64859727,-0.35605186,0.614037,0.62709361,-0.31050157,0.593158,0.61730459,-0.34749675,0.606733,0.5942563,-0.315549,0.580823,0.55230484,-0.27572859,0.552786,0.54124516,-0.25273049,0.529257,0.57336921,-0.24661382,0.566333,0.5764113,-0.20223397,0.565403,0.57806023,-0.18002544,0.564937,0.57963621,-0.1604708,0.564515,0.60255728,-0.24872788,0.568325,0.57466711,-0.19914584,0.536057,0.5539902,-0.21249638,0.517234,0.55906396,-0.23510641,0.524376,0.62914398,-0.25526509,0.571921,0.59945564,-0.24442872,0.540547,0.57566965,-0.26144516,0.524495,0.57865961,-0.27951683,0.532382,0.66520576,-0.27212346,0.579748,0.62246973,-0.26801364,0.550097,0.63432321,-0.29471044,0.565816,0.65184409,-0.31182503,0.582346
0.64384807,-0.36639853,0.608946,0.6279995,-0.31389611,0.592612,0.6162193,-0.34997196,0.60427,0.5969439,-0.32550857,0.582767,0.56550224,-0.29231893,0.567518,0.55912794,-0.27181399,0.54965,0.58238634,-0.2561437,0.572928,0.57746449,-0.20923434,0.565676,0.57503253,-0.18548576,0.56205,0.5743154,-0.16145066,0.559759,0.61042755,-0.25747412,0.573186,0.58249343,-0.21774049,0.546034,0.56580312,-0.2287869,0.530196,0.57981835,-0.25591076,0.539751,0.63555562,-0.26326247,0.574928,0.60940097,-0.25894411,0.548936,0.58751189,-0.27758666,0.535638,0.5933649,-0.29695904,0.546276,0.6689179,-0.27898506,0.579787,0.62974341,-0.27762232,0.554714,0.64270066,-0.30551294,0.571902,0.65819839,-0.32422115,0.587391
0.64066534,-0.36917326,0.60497,0.62763282,-0.32685798,0.589904,0.61394216,-0.35708507,0.600126,0.59478529,-0.33406637,0.578625,0.56478186,-0.30084588,0.567575,0.56013431,-0.27610356,0.552094,0.58097489,-0.26567648,0.571082,0.57303944,-0.2200483,0.561291,0.56909394,-0.19673231,0.556395,0.56553497,-0.17511409,0.551951,0.60958879,-0.2672692,0.571986,0.58357278,-0.23063317,0.546103,0.56928961,-0.24166804,0.531005,0.58121291,-0.26721077,0.541125,0.63519586,-0.27321707,0.574142,0.60852013,-0.26930373,0.549129,0.58783185,-0.28806054,0.536332,0.59527814,-0.30787456,0.547508,0.66914686,-0.28907474,0.579271,0.63061062,-0.2840854,0.555092,0.64438409,-0.31303709,0.572592,0.65941567,-0.32881119,0.587887
0.63683145,-0.38210133,0.597825,0.618376,-0.33313467,0.578008,0.61026484,-0.36600465,0.594496,0.59193285,-0.34581896,0.57439,0.54495394,-0.30430679,0.549718,0.52828274,-0.27797323,0.527163,0.56983864,-0.27082526,0.557066,0.54386616,-0.2188896,0.531103,0.54977555,-0.20038584,0.536599,0.55516285,-0.18249493,0.541596,0.59431588,-0.27080949,0.55444,0.56126887,-0.23077095,0.524122,0.54278668,-0.24233959,0.506436,0.55162412,-0.26606724,0.51425,0.61683465,-0.27559538,0.554136,0.58398612,-0.27075562,0.526123,0.56136588,-0.28741587,0.511791,0.56725933,-0.30584748,0.520853,0.6479229,-0.29035945,0.557176,0.60415769,-0.28415492,0.530201,0.61686229,-0.31192596,0.546262,0.63357089,-0.33250563,0.561983
0.63623336,-0.39436012,0.595957,0.61528773,-0.34423453,0.575789,0.60885066,-0.37752857,0.591958,0.58794053,-0.35824912,0.570823,0.540074,-0.31627986,0.545028,0.52324253,-0.29035113,0.522085,0.56546463,-0.28076006,0.55371,0.53939314,-0.22826462,0.527111,0.54624663,-0.21031808,0.533256,0.55250686,-0.19290509,0.538842,0.59064242,-0.28118933,0.551804,0.55779124,-0.24536758,0.520965,0.54064276,-0.2550193,0.502976,0.55051085,-0.27984571,0.510626,0.61378903,-0.28639311,0.552124,0.58170749,-0.28091845,0.523383,0.55869091,-0.29697826,0.508679,0.5637923,-0.31527736,0.517496,0.64572926,-0.30175613,0.555961,0.6026964,-0.29490928,0.528387,0.61516132,-0.32292316,0.544382,0.63165306,-0.34383824,0.560289
0.63380233,-0.39734771,0.594616,0.61313431,-0.34596287,0.574465,0.60599563,-0.38542147,0.590662,0.58460105,-0.36350119,0.569592,0.53746768,-0.32163048,0.543854,0.52150649,-0.29307618,0.520929,0.56408698,-0.28216059,0.552455,0.53845315,-0.2298785,0.525841,0.54497196,-0.21187103,0.531424,0.55094106,-0.19442266,0.5365,0.58918459,-0.28287433,0.550499,0.55667782,-0.25074814,0.519688,0.53897703,-0.2611558,0.501715,0.54871962,-0.28272398,0.509373,0.61220794,-0.2883267,0.550778,0.57966622,-0.28698428,0.522079,0.55603141,-0.30264913,0.507396,0.56162386,-0.31737575,0.516226,0.64365058,-0.30701867,0.554563,0.60029707,-0.30111797,0.527023,0.61221992,-0.32890373,0.54302,0.62924608,-0.34619472,0.558916
0.63452451,-0.40810873,0.596329,0.61316648,-0.35913111,0.575189,0.60688669,-0.39046349,0.591904,0.58504033,-0.37452214,0.57002,0.53731944,-0.33204449,0.543704,0.52057626,-0.30673245,0.520578,0.56327181,-0.29348873,0.551751,0.53713683,-0.24084285,0.524203,0.54374536,-0.22324503,0.529638,0.54980886,-0.20617091,0.534579,0.58863962,-0.29474121,0.550047,0.55502714,-0.2599594,0.518147,0.53663835,-0.27001912,0.499538,0.54536945,-0.29499397,0.506671,0.61195284,-0.30074751,0.550625,0.57826835,-0.29642735,0.52082,0.55403148,-0.31134816,0.505571,0.55821877,-0.32837161,0.513815,0.64408118,-0.31729442,0.554934,0.59964213,-0.31098706,0.526448,0.61120748,-0.33870689,0.542122,0.62760916,-0.35936208,0.558225
0.63223164,-0.42417606,0.593984,0.61223638,-0.37465019,0.572892,0.60542819,-0.41504544,0.589416,0.58444202,-0.39396174,0.567331,0.53475237,-0.35094288,0.543043,0.5146851,-0.32387639,0.520646,0.56141513,-0.30827055,0.549316,0.53616782,-0.25692947,0.521305,0.5417116,-0.23956402,0.524928,0.54680309,-0.22316604,0.528221,0.58699571,-0.30947157,0.547807,0.55467637,-0.27701081,0.515918,0.535783,-0.28898,0.497316,0.54384215,-0.31438006,0.504478,0.61053755,-0.31549079,0.548542,0.57746788,-0.31111675,0.518682,0.55311102,-0.32534122,0.503405,0.55657041,-0.34448964,0.511661,0.64304764,-0.33215542,0.553026,0.59930877,-0.3258329,0.524502,0.61102744,-0.35411623,0.540202,0.62654795,-0.37675027,0.556329
0.63738554,-0.44308718,0.603296,0.61208162,-0.38847274,0.57947,0.60853467,-0.42363411,0.597053,0.58328575,-0.40553232,0.572242,0.5358284,-0.36359081,0.542336,0.51794415,-0.33694422,0.524003,0.56168171,-0.31935227,0.551482,0.53453177,-0.26437787,0.521111,0.54017371,-0.24624722,0.524646,0.5459109,-0.22593241,0.527859,0.58837556,-0.32279689,0.551134,0.55733931,-0.28564889,0.516191,0.53764623,-0.29790925,0.495808,0.54392544,-0.3224786,0.501433,0.6125783,-0.33075841,0.55308,0.58409938,-0.32376416,0.519969,0.55509562,-0.33566261,0.503028,0.55275864,-0.35225708,0.509524,0.64531299,-0.34978697,0.559464,0.60012752,-0.34897729,0.528191,0.60617991,-0.37259635,0.542904,0.61553655,-0.39618789,0.559615
0.64064732,-0.45102803,0.608214,0.61524201,-0.39998905,0.582462,0.60832732,-0.43472126,0.60142,0.58675137,-0.41788209,0.575642,0.53889713,-0.37542765,0.545442,0.52054374,-0.3483815,0.526633,0.5623641,-0.3288372,0.552152,0.5339912,-0.27301622,0.520584,0.54010163,-0.2553638,0.524576,0.54575218,-0.23836811,0.528204,0.58912286,-0.33236931,0.551834,0.55597671,-0.29424658,0.514929,0.53503612,-0.30568421,0.493401,0.54006484,-0.32954407,0.497874,0.61358066,-0.3405447,0.553985,0.58303783,-0.33263639,0.519024,0.55300778,-0.34346026,0.501136,0.54936305,-0.35896296,0.506394,0.64701778,-0.36010582,0.560942,0.60000935,-0.35833413,0.528087,0.60516273,-0.38143024,0.541993,0.61480399,-0.40528408,0.558949
0.63832534,-0.46077972,0.610665,0.61396023,-0.40894363,0.583507,0.60867877,-0.44480076,0.603199,0.58639369,-0.42951154,0.576363,0.53762888,-0.38635238,0.546032,0.51893746,-0.35941184,0.527027,0.55999101,-0.33627446,0.551168,0.53041858,-0.28054047,0.518275,0.53521133,-0.26290637,0.520947,0.53966524,-0.2459762,0.523376,0.58706023,-0.34029938,0.551209,0.55341762,-0.30205151,0.512835,0.53129357,-0.31391716,0.49045,0.53511261,-0.33719203,0.494033,0.61182841,-0.34896193,0.553787,0.5800669,-0.342057,0.51733,0.54897714,-0.35154169,0.498678,0.54396303,-0.36587317,0.502945,0.64573855,-0.36924699,0.56149,0.5979711,-0.36768556,0.527376,0.60235623,-0.39026905,0.540644,0.61216042,-0.41428634,0.557794
0.63778247,-0.47012329,0.611882,0.61384974,-0.41306705,0.583773,0.60846459,-0.44911297,0.604007,0.58697397,-0.44074538,0.576532,0.53739247,-0.39641535,0.545859,0.51856976,-0.36964984,0.526776,0.55980784,-0.34320839,0.550113,0.52878155,-0.28667541,0.516322,0.53296314,-0.26901624,0.518651,0.53691158,-0.24841252,0.520768,0.58696107,-0.34788835,0.550342,0.55374801,-0.30999441,0.510996,0.53027104,-0.32238861,0.488044,0.53294227,-0.34522098,0.491001,0.61174116,-0.35713208,0.553165,0.57920706,-0.35176463,0.515734,0.5469958,-0.35987252,0.496584,0.54073375,-0.37317538,0.50016,0.64555969,-0.378166,0.561318,0.59744228,-0.37698628,0.526388,0.60112071,-0.39909554,0.539192,0.61088878,-0.42316351,0.556451
0.63526256,-0.47824471,0.611201,0.6128768,-0.42685633,0.583219,0.60561775,-0.46116029,0.603223,0.58697323,-0.44881967,0.575611,0.53775226,-0.40376073,0.545177,0.52016876,-0.3738662,0.52779,0.55922373,-0.35265734,0.549539,0.52819472,-0.29594815,0.515749,0.53227774,-0.27850954,0.517984,0.5360716,-0.26180196,0.520016,0.58653232,-0.35750622,0.54994,0.55341533,-0.31980028,0.510689,0.52999723,-0.3320288,0.487792,0.5327545,-0.35500865,0.490828,0.61143925,-0.36691176,0.552892,0.58061103,-0.35331504,0.515494,0.5487652,-0.36200516,0.49636,0.54239644,-0.37666151,0.500003,0.64539637,-0.38818049,0.561176,0.59731971,-0.38701241,0.52628,0.60106942,-0.4091791,0.539146,0.61085146,-0.43337618,0.556417
0.63632173,-0.49143776,0.608057,0.61567136,-0.43402139,0.580217,0.60742194,-0.47080066,0.600915,0.58969864,-0.45953104,0.574499,0.53557955,-0.41260162,0.545097,0.51708808,-0.38698206,0.526537,0.5580829,-0.35950225,0.547703,0.52685328,-0.30407348,0.514637,0.53114007,-0.28768266,0.517533,0.53510325,-0.27188101,0.520166,0.5846465,-0.36229294,0.547106,0.54986257,-0.32789552,0.508174,0.52622323,-0.34019356,0.485464,0.52918892,-0.36325664,0.488614,0.60935483,-0.37014529,0.549223,0.57553131,-0.36227539,0.512455,0.5458222,-0.37163991,0.493644,0.54144718,-0.38813764,0.497508,0.64196296,-0.38741029,0.556497,0.60059617,-0.3815276,0.522095,0.60526294,-0.40737744,0.535024,0.61561208,-0.43486235,0.552145
0.63457903,-0.49288409,0.605232,0.6131064,-0.43480481,0.577984,0.60599563,-0.47249169,0.598523,0.58705323,-0.46476429,0.572764,0.53399052,-0.41460294,0.54346,0.51566437,-0.38936151,0.524788,0.55722258,-0.36079243,0.546514,0.52706542,-0.30592941,0.514147,0.53094056,-0.28957379,0.516416,0.5345406,-0.27382608,0.518479,0.58339896,-0.36363708,0.545577,0.54919649,-0.32677272,0.507295,0.52610502,-0.33870244,0.484964,0.52983098,-0.35918903,0.488499,0.60765856,-0.37149416,0.547358,0.5742807,-0.36823803,0.511313,0.54493552,-0.37744036,0.492871,0.54114675,-0.39082868,0.497182,0.64146321,-0.39116601,0.554135,0.59442477,-0.38471202,0.520332,0.60363048,-0.41265954,0.533537,0.61398106,-0.43679012,0.550555
0.63606947,-0.50048367,0.603815,0.61228838,-0.44525481,0.577721,0.60627395,-0.47949011,0.596414,0.58379421,-0.47040691,0.569747,0.52954193,-0.42288471,0.539593,0.51246951,-0.39458606,0.521719,0.55671402,-0.37090942,0.546362,0.52704242,-0.31577797,0.514184,0.53110386,-0.29986911,0.516429,0.53529827,-0.28061557,0.518469,0.58409058,-0.37449009,0.546688,0.55196831,-0.3354991,0.509325,0.52970371,-0.34413009,0.487529,0.5341694,-0.36667966,0.491774,0.60924634,-0.38293125,0.5494,0.57763296,-0.37758583,0.513796,0.54847914,-0.38712761,0.49558,0.54471353,-0.40020916,0.50053,0.64390168,-0.40325283,0.557078,0.59719522,-0.3966662,0.523704,0.59717601,-0.41753932,0.537458,0.60243238,-0.43994436,0.554538
