sluyters/QuantumLeap/backend/src/datasets/gesture/HandGestureDataset_SHREC2017_csv/Gesture9/finger_1/subject_14_essai_2_skeletons_world.csv
Wrist_x,Wrist_y,Wrist_z,Palm_x,Palm_y,Palm_z,thumb_base_x,thumb_base_y,thumb_base_z,thumb_first_joint_x,thumb_first_joint_y,thumb_first_joint_z,thumb_second_joint_x,thumb_second_joint_y,thumb_second_joint_z,thumb_tip_x,thumb_tip_y,thumb_tip_z,index_base_x,index_base_y,index_base_z,index_first_joint_x,index_first_joint_y,index_first_joint_z,index_second_joint_x,index_second_joint_y,index_second_joint_z,index_tip_x,index_tip_y,index_tip_z,middle_base_x,middle_base_y,middle_base_z,middle_first_joint_x,middle_first_joint_y,middle_first_joint_z,middle_second_joint_x,middle_second_joint_y,middle_second_joint_z,middle_tip_x,middle_tip_y,middle_tip_z,ring_base_x,ring_base_y,ring_base_z,ring_first_joint_x,ring_first_joint_y,ring_first_joint_z,ring_second_joint_x,ring_second_joint_y,ring_second_joint_z,ring_tip_x,ring_tip_y,ring_tip_z,pinky_base_x,pinky_base_y,pinky_base_z,pinky_first_joint_x,pinky_first_joint_y,pinky_first_joint_z,pinky_second_joint_x,pinky_second_joint_y,pinky_second_joint_z,pinky_tip_x,pinky_tip_y,pinky_tip_z,
0.43064866,-0.3560869,0.501385,0.42772128,-0.31039397,0.498968,0.40833363,-0.3411665,0.499983,0.37396597,-0.3058667,0.492091,0.34611124,-0.27747352,0.484798,0.33392745,-0.2577904,0.48277,0.3994914,-0.25929375,0.495334,0.39621228,-0.22436924,0.504737,0.39595952,-0.20572088,0.509439,0.3960993,-0.18827526,0.513713,0.42476011,-0.26107907,0.496211,0.414112,-0.20938434,0.485218,0.41505301,-0.21059161,0.478806,0.41147105,-0.2229648,0.474225,0.44597079,-0.26624329,0.497124,0.42815295,-0.21829924,0.486478,0.42763693,-0.21577786,0.481031,0.43135922,-0.23277438,0.476079,0.47184979,-0.27919283,0.498573,0.45249317,-0.23884041,0.487492,0.45255982,-0.23216018,0.482401,0.45300916,-0.22957298,0.477908
0.43280727,-0.35744057,0.504526,0.42933906,-0.31134747,0.50083,0.41013508,-0.34203494,0.50264,0.37513605,-0.30653066,0.493462,0.34670608,-0.27777005,0.485577,0.33438048,-0.25777085,0.483261,0.39977197,-0.25880328,0.495592,0.39645722,-0.224522,0.505182,0.39630478,-0.20605768,0.509977,0.39623836,-0.18941978,0.514336,0.42540117,-0.26131531,0.496615,0.41364157,-0.20884903,0.484212,0.41365325,-0.20999619,0.476977,0.40988077,-0.2222703,0.47181,0.44666336,-0.26646855,0.497749,0.42720727,-0.2176,0.485768,0.42686209,-0.21533924,0.479638,0.42971663,-0.23200793,0.474065,0.47295585,-0.27968139,0.499652,0.45286234,-0.23923302,0.487416,0.45229532,-0.23246757,0.481793,0.45224566,-0.22961726,0.476833
0.43882679,-0.36114131,0.51263,0.42607541,-0.29540293,0.501094,0.41556778,-0.34455196,0.510177,0.38468172,-0.30230582,0.506821,0.35451585,-0.27446907,0.498209,0.33799693,-0.2555287,0.489291,0.39118965,-0.24204942,0.488969,0.39560011,-0.20515156,0.497442,0.39176365,-0.20211708,0.501679,0.39254154,-0.20269607,0.505531,0.41383399,-0.24168516,0.487935,0.38869703,-0.22945688,0.467562,0.41319122,-0.27110627,0.493102,0.43026117,-0.28852562,0.508489,0.43376031,-0.24503211,0.487999,0.41113288,-0.22829783,0.469413,0.42767421,-0.26310173,0.490788,0.44366534,-0.28410951,0.506832,0.45993108,-0.25616412,0.489802,0.43077893,-0.24483447,0.471711,0.42526106,-0.25861042,0.463399,0.43825611,-0.27091158,0.471879
0.43183077,-0.35433755,0.504827,0.42752418,-0.29817343,0.502551,0.41063248,-0.33997152,0.504423,0.38232345,-0.30268783,0.504597,0.35268344,-0.27813542,0.495686,0.33870131,-0.25688849,0.49015,0.40014659,-0.24948085,0.500257,0.39422194,-0.21074753,0.503101,0.39182063,-0.20876231,0.504523,0.3923771,-0.20543883,0.507503,0.42411017,-0.24950041,0.499955,0.40808437,-0.24170828,0.489312,0.43277648,-0.28578161,0.516535,0.44894253,-0.30500653,0.531648,0.44450598,-0.25287352,0.499887,0.43116918,-0.24902038,0.489945,0.447776,-0.28605505,0.512691,0.46222574,-0.30774662,0.528673,0.46991833,-0.26343972,0.500147,0.44925382,-0.26163271,0.489604,0.44541386,-0.27797955,0.48476,0.46022356,-0.29420943,0.495919
0.42603746,-0.34822384,0.498299,0.42493708,-0.29695698,0.499496,0.40865475,-0.33697701,0.502188,0.38334073,-0.30436066,0.506267,0.35698096,-0.27965018,0.503235,0.34317688,-0.26043291,0.49737,0.40397437,-0.25245118,0.505228,0.38618916,-0.21214961,0.500742,0.38194506,-0.21183528,0.498499,0.37790518,-0.21159556,0.49646,0.42480895,-0.2504698,0.50086,0.41290303,-0.24433034,0.494471,0.43728208,-0.28852176,0.521525,0.45364284,-0.30932478,0.537085,0.44207296,-0.25204583,0.497172,0.43391968,-0.2514996,0.492747,0.45104217,-0.28872141,0.515432,0.46706785,-0.31202519,0.533154,0.46284989,-0.26004739,0.492603,0.43936459,-0.26100646,0.486696,0.44217198,-0.28525053,0.504432,0.45229121,-0.30088048,0.517683
0.42822807,-0.34890227,0.501106,0.42739892,-0.30396277,0.500832,0.4105394,-0.33752466,0.504732,0.38343089,-0.30768888,0.507409,0.35678618,-0.28312181,0.504503,0.34370978,-0.2625336,0.498957,0.40311068,-0.25501653,0.505082,0.37886258,-0.22180727,0.50022,0.37200871,-0.21786678,0.497789,0.36542232,-0.21408142,0.495579,0.42377887,-0.25272907,0.50052,0.41028541,-0.2441081,0.492634,0.43481889,-0.28788803,0.519552,0.44936039,-0.31024179,0.532941,0.44101893,-0.25410391,0.496787,0.43077008,-0.2515187,0.491006,0.44847586,-0.28861654,0.513582,0.46769924,-0.31392302,0.534106,0.46202829,-0.26197156,0.492387,0.43622713,-0.26070315,0.48527,0.43965162,-0.28511853,0.50289,0.45100027,-0.30025526,0.515995
0.43498891,-0.35435986,0.509958,0.42171963,-0.30485619,0.500734,0.41597434,-0.34201781,0.512365,0.37695922,-0.31772275,0.508424,0.34726403,-0.29349947,0.503303,0.33140302,-0.27178388,0.498376,0.3883857,-0.25650423,0.496417,0.35783447,-0.22067093,0.483697,0.34720021,-0.21897963,0.477337,0.33718939,-0.21751145,0.471554,0.40750091,-0.25350323,0.490212,0.38248675,-0.24796328,0.472564,0.40583136,-0.29139901,0.497631,0.42353699,-0.31187054,0.512246,0.42410361,-0.25470944,0.485837,0.40342136,-0.25564995,0.471812,0.42084543,-0.29243091,0.492898,0.4408271,-0.31420618,0.512068,0.44562208,-0.26318369,0.482012,0.41211735,-0.26302481,0.467995,0.41408674,-0.28616868,0.484292,0.4242879,-0.30056173,0.497352
0.43706968,-0.35686301,0.513527,0.4152446,-0.3096725,0.49875,0.41684873,-0.34743149,0.515251,0.37208561,-0.3270315,0.507407,0.33994911,-0.30369217,0.501006,0.32198241,-0.28173315,0.494694,0.3764306,-0.2601794,0.48921,0.34009463,-0.22468403,0.471463,0.32731052,-0.22373399,0.462589,0.31538285,-0.22302845,0.454523,0.39465741,-0.25587825,0.481893,0.36455292,-0.25677167,0.457056,0.3883043,-0.29898475,0.480018,0.40900903,-0.31686954,0.497548,0.41099675,-0.25624227,0.477044,0.38490429,-0.25777323,0.457218,0.40182015,-0.29354923,0.476603,0.42119727,-0.31264797,0.494225,0.43318088,-0.26413953,0.473487,0.39591784,-0.26505776,0.455496,0.39743984,-0.28748199,0.470408,0.40819046,-0.30073215,0.483445
0.43729005,-0.37959597,0.521007,0.41653093,-0.33196829,0.49949,0.41541531,-0.3661872,0.521116,0.3753953,-0.34601978,0.508904,0.34112245,-0.3225673,0.500025,0.32221481,-0.30052372,0.492736,0.37410022,-0.27381777,0.482642,0.33302795,-0.24015225,0.459804,0.3177169,-0.24159438,0.448386,0.30355536,-0.24315908,0.438005,0.39195025,-0.27062838,0.474946,0.35462495,-0.27467762,0.443336,0.37557053,-0.31456585,0.463264,0.39730886,-0.32995548,0.481611,0.40842027,-0.27218249,0.470318,0.3729963,-0.27548103,0.441589,0.38730225,-0.30908012,0.458307,0.40500455,-0.32310415,0.473505,0.43158519,-0.28204443,0.468034,0.38838454,-0.2844982,0.445061,0.38821784,-0.30417091,0.457886,0.39982077,-0.31509469,0.471414
0.42500536,-0.40473557,0.517611,0.40537513,-0.34533474,0.492996,0.40266367,-0.38710693,0.515072,0.35892283,-0.36212192,0.498863,0.32016429,-0.33963947,0.483093,0.29727984,-0.31699135,0.470858,0.36392292,-0.28119358,0.470443,0.33181015,-0.24752909,0.440906,0.31599519,-0.258885,0.426137,0.32086675,-0.27666671,0.430679,0.3829335,-0.2810702,0.464919,0.34345812,-0.28290952,0.430389,0.36105102,-0.32276615,0.449641,0.38167948,-0.33960556,0.468175,0.400348,-0.28534806,0.462324,0.36047632,-0.23906761,0.43307,0.37273749,-0.26590408,0.449347,0.39427632,-0.29763557,0.467661,0.42460916,-0.2989228,0.462922,0.37875066,-0.29729438,0.436605,0.37981265,-0.31779676,0.448866,0.39302006,-0.33019209,0.462882
0.43034875,-0.40667933,0.517647,0.40551482,-0.35474003,0.492851,0.40751959,-0.39224759,0.516306,0.36518301,-0.38221008,0.501925,0.32451802,-0.36833402,0.489336,0.29855025,-0.35175136,0.477527,0.35326196,-0.29926244,0.47163,0.31784096,-0.27260809,0.441087,0.30393284,-0.28473026,0.425816,0.31070389,-0.2979215,0.429557,0.3715769,-0.29485804,0.464568,0.33250975,-0.30251881,0.429812,0.35424312,-0.34157314,0.448243,0.3770905,-0.35572423,0.4666,0.38915577,-0.29534513,0.460721,0.35529221,-0.31182051,0.433461,0.36912114,-0.33610644,0.449171,0.38505195,-0.36059188,0.467344,0.41491037,-0.30380045,0.459858,0.37358592,-0.3116277,0.43418,0.3754773,-0.33263847,0.44595,0.38780284,-0.34248662,0.45955
0.43224999,-0.41094093,0.517811,0.40524824,-0.36478982,0.492527,0.41102912,-0.40127866,0.51584,0.3675548,-0.39422828,0.500509,0.32876107,-0.38236682,0.487549,0.30372047,-0.3657096,0.475958,0.35214892,-0.30832512,0.470144,0.31686601,-0.28199289,0.439734,0.30301422,-0.29382232,0.424529,0.30981639,-0.30678918,0.42833,0.37087065,-0.30435292,0.463685,0.33147929,-0.31169951,0.42848,0.35319519,-0.35097695,0.446917,0.37615141,-0.36527017,0.465438,0.38886267,-0.30523687,0.460374,0.35436025,-0.32119426,0.432324,0.36817444,-0.34541577,0.448019,0.38427911,-0.37010389,0.466406,0.41523789,-0.31425765,0.460221,0.37333553,-0.32163376,0.433889,0.37521124,-0.34267037,0.445634,0.38772351,-0.35264176,0.459456
0.42167347,-0.41742065,0.504821,0.38750149,-0.37025808,0.477802,0.3975687,-0.40471727,0.503192,0.3465422,-0.4031577,0.488501,0.30601224,-0.39411549,0.477815,0.27884421,-0.37773864,0.466752,0.33472744,-0.31185002,0.454472,0.29548325,-0.29331657,0.422183,0.28320421,-0.30346858,0.406038,0.29018776,-0.3130364,0.408288,0.35272415,-0.30794765,0.446982,0.31399847,-0.31945249,0.410148,0.33464963,-0.35632653,0.426885,0.35762897,-0.36910955,0.445591,0.37008373,-0.30901257,0.442961,0.32160178,-0.27709485,0.412682,0.30040017,-0.27626792,0.397191,0.29368901,-0.28828302,0.400534,0.39570224,-0.31847226,0.442222,0.35277708,-0.3268294,0.415226,0.35975505,-0.34480342,0.425865,0.3744971,-0.35573499,0.439587
0.4145592,-0.41828553,0.488157,0.3783926,-0.37182601,0.463723,0.39534922,-0.41838351,0.484012,0.34183989,-0.40456702,0.467758,0.29746665,-0.39385494,0.453318,0.26832254,-0.37887904,0.441396,0.30914566,-0.32569299,0.439334,0.27436097,-0.32038661,0.410287,0.25661741,-0.31813145,0.395764,0.2534325,-0.33491569,0.40093,0.3272106,-0.31434103,0.435851,0.28561666,-0.3078468,0.403089,0.2608564,-0.30455834,0.383977,0.26533202,-0.32699124,0.388809,0.34598214,-0.30874834,0.434921,0.32111443,-0.3229807,0.40586,0.31776847,-0.32526671,0.390992,0.329747,-0.33882938,0.396777,0.37589122,-0.30938569,0.437473,0.34018174,-0.32224972,0.41035,0.34774074,-0.3499968,0.423066,0.36261681,-0.36376538,0.437542
0.41430802,-0.421894,0.474429,0.36896855,-0.37700768,0.450149,0.38588202,-0.41652272,0.471547,0.33232605,-0.40996546,0.454823,0.28868578,-0.39934663,0.441891,0.26037962,-0.38471539,0.431447,0.30122656,-0.33003845,0.427437,0.26547787,-0.32369869,0.398436,0.24721332,-0.32093717,0.383935,0.24452376,-0.33117696,0.388871,0.31822963,-0.31778571,0.422454,0.27600963,-0.31039647,0.390231,0.25081822,-0.30661443,0.371434,0.25563947,-0.32276019,0.376169,0.33599395,-0.31159622,0.420277,0.31074497,-0.32581014,0.392202,0.30774888,-0.32833017,0.377839,0.31984841,-0.34240283,0.383665,0.36452865,-0.31174271,0.421322,0.32858125,-0.32412976,0.39499,0.33578719,-0.35222899,0.407501,0.35057933,-0.36628919,0.42162
0.40161224,-0.41504479,0.452414,0.3570831,-0.36697196,0.429865,0.37326643,-0.41037237,0.449512,0.32430104,-0.40217321,0.434553,0.28083593,-0.39364403,0.422509,0.2521301,-0.38039687,0.412494,0.28727408,-0.32498382,0.408496,0.25085382,-0.3197438,0.381512,0.2321267,-0.31760466,0.36802,0.22844982,-0.33668099,0.374197,0.30285326,-0.31107199,0.404145,0.26127781,-0.30690768,0.373413,0.23635649,-0.30518156,0.355486,0.23906322,-0.32829652,0.361268,0.31974336,-0.30320001,0.402351,0.29617781,-0.31790864,0.375422,0.29639686,-0.3216135,0.361645,0.31189099,-0.33960043,0.368499,0.34783209,-0.30078293,0.403594,0.31347047,-0.31470313,0.378239,0.32609899,-0.33741428,0.391505,0.34329963,-0.34247238,0.405572
0.3924472,-0.4029618,0.429653,0.34973816,-0.35661692,0.409645,0.36360162,-0.39921796,0.426425,0.31401456,-0.39067814,0.410997,0.27046939,-0.3812613,0.399022,0.24228454,-0.36764485,0.389726,0.2808594,-0.31495231,0.389878,0.24601057,-0.3067251,0.364509,0.22799496,-0.30304972,0.351825,0.22553226,-0.32136451,0.359333,0.29758508,-0.30105118,0.386822,0.25808203,-0.29397591,0.358258,0.2342228,-0.29055305,0.341595,0.23836298,-0.31335409,0.348815,0.31527193,-0.2931287,0.385892,0.29343281,-0.30560501,0.360507,0.29381489,-0.31171137,0.34752,0.310591,-0.33281252,0.355746,0.34405828,-0.29053968,0.387782,0.31117218,-0.3031491,0.363775,0.3247168,-0.32855398,0.378045,0.34179178,-0.33509668,0.392027
0.39350379,-0.39880921,0.424426,0.35956042,-0.3497324,0.406843,0.37055909,-0.39826081,0.421806,0.32297097,-0.38703353,0.405731,0.27949939,-0.38022667,0.394395,0.25161474,-0.36890439,0.386786,0.29324328,-0.30836716,0.38974,0.27363116,-0.31718607,0.365737,0.26376744,-0.32263559,0.353736,0.28707617,-0.34584044,0.362181,0.31011186,-0.29551298,0.386787,0.27216497,-0.29016661,0.360619,0.249601,-0.28860248,0.345354,0.24908962,-0.30854243,0.353756,0.32785265,-0.28833557,0.38575,0.30499965,-0.30281157,0.362512,0.30261201,-0.31730889,0.350623,0.3175997,-0.33840456,0.360064,0.35652029,-0.28650257,0.387149,0.32265305,-0.29807368,0.364974,0.33233283,-0.32971345,0.379941,0.34505137,-0.34137162,0.393549
0.39193051,-0.39348621,0.411676,0.35623847,-0.34544735,0.393557,0.36316942,-0.38893404,0.408988,0.31661268,-0.38135861,0.392773,0.27250078,-0.37121084,0.381569,0.24495745,-0.35760456,0.37417,0.29081394,-0.29922896,0.375946,0.26874874,-0.3038899,0.350924,0.25760945,-0.30718805,0.338413,0.27974588,-0.33111575,0.346436,0.30851442,-0.28695252,0.37289,0.26968763,-0.27585894,0.346207,0.24656745,-0.27069894,0.330642,0.24570402,-0.28768134,0.338784,0.32679042,-0.28053384,0.37181,0.30174679,-0.29095653,0.348138,0.29731374,-0.30578632,0.336026,0.31443239,-0.33050002,0.345208,0.35591527,-0.2801244,0.373238,0.31999691,-0.28758991,0.350688,0.32853827,-0.319424,0.365501,0.34287579,-0.33814737,0.37918
0.36775937,-0.38491345,0.423097,0.33509589,-0.32852612,0.391549,0.34126809,-0.36597524,0.418087,0.30062272,-0.37759974,0.398626,0.25766189,-0.36570645,0.386275,0.22901304,-0.35238542,0.372977,0.27818209,-0.26338098,0.360479,0.24144357,-0.27891724,0.329284,0.22779318,-0.28808967,0.313686,0.23833501,-0.3007612,0.315058,0.29810885,-0.26564334,0.355562,0.2485363,-0.27406701,0.316719,0.23470392,-0.27503948,0.294061,0.24259968,-0.27132723,0.294092,0.31768859,-0.27200108,0.354015,0.27425887,-0.2866222,0.319921,0.26452537,-0.28421988,0.302478,0.27294808,-0.27622267,0.303389,0.34686125,-0.28824445,0.3569,0.29296948,-0.29423605,0.325604,0.29244997,-0.31527278,0.334659,0.300547,-0.33646222,0.349185
0.36514798,-0.38356864,0.414475,0.33421297,-0.32795394,0.387248,0.33673689,-0.36490392,0.411201,0.29322717,-0.36196382,0.393981,0.25377523,-0.35459686,0.380337,0.22721713,-0.33909867,0.366416,0.28997161,-0.26309819,0.361728,0.25003956,-0.2762664,0.334207,0.24013179,-0.28266382,0.320446,0.25093947,-0.28457249,0.324659,0.30921216,-0.26570405,0.35619,0.26274481,-0.27672564,0.321373,0.24800181,-0.28189014,0.301063,0.25409218,-0.28152702,0.303935,0.32753398,-0.27249401,0.353791,0.28401503,-0.2731697,0.323547,0.2691926,-0.27832312,0.308073,0.27786621,-0.28058533,0.312009,0.35395012,-0.28958124,0.355013,0.30155344,-0.2939986,0.326866,0.30967403,-0.31082382,0.338009,0.32087379,-0.3296858,0.352236
0.36319969,-0.34992036,0.382986,0.32845061,-0.30030806,0.362355,0.33760787,-0.34180607,0.38249,0.29357797,-0.33368986,0.369355,0.25357441,-0.32518586,0.357192,0.22745602,-0.31119442,0.34691,0.26881717,-0.25261823,0.345461,0.24516089,-0.26814765,0.316441,0.26998898,-0.29743892,0.332852,0.29396715,-0.30667948,0.352037,0.28939332,-0.24489163,0.338822,0.26169436,-0.26509942,0.310593,0.25536305,-0.27187731,0.294126,0.2660798,-0.27287283,0.300573,0.30744862,-0.24213714,0.334994,0.25878247,-0.21508063,0.310195,0.23338055,-0.20106083,0.297508,0.22094158,-0.20862819,0.285974,0.33464063,-0.24614636,0.333528,0.29714325,-0.26183961,0.310682,0.30460649,-0.28328739,0.324107,0.31292069,-0.30248623,0.337354
0.34911341,-0.33457585,0.364351,0.32096475,-0.28365474,0.346571,0.32516109,-0.32652408,0.36496,0.28389165,-0.31372667,0.35358,0.2450987,-0.30229151,0.344634,0.22064908,-0.28665517,0.337009,0.26809137,-0.23370052,0.333289,0.23941183,-0.24651123,0.307155,0.26452249,-0.27914233,0.324447,0.29034858,-0.29165149,0.343478,0.28546585,-0.2259243,0.32629,0.25502478,-0.24316258,0.300983,0.24943314,-0.2556815,0.28622,0.26297586,-0.26131388,0.294034,0.3026269,-0.22342116,0.321939,0.2549474,-0.19134773,0.300317,0.23019177,-0.17471259,0.289255,0.21647879,-0.17969091,0.279199,0.32855649,-0.22803394,0.319425,0.28951783,-0.24130223,0.298928,0.29801397,-0.26545842,0.313133,0.30618427,-0.28627398,0.325854
0.34407333,-0.32609698,0.359362,0.30854964,-0.2626855,0.337864,0.31725069,-0.31255753,0.355385,0.26556728,-0.28568866,0.337145,0.22850993,-0.27314102,0.328986,0.20488374,-0.25572211,0.321892,0.24934936,-0.20972757,0.316,0.2241843,-0.21697381,0.286993,0.24792989,-0.24845274,0.304109,0.27087187,-0.26444568,0.322393,0.27010992,-0.20327412,0.313343,0.22419557,-0.15710636,0.283222,0.20329052,-0.15113526,0.265652,0.21260867,-0.1728366,0.272138,0.29035882,-0.20187851,0.312859,0.24316886,-0.16836745,0.285349,0.21886659,-0.15110688,0.271274,0.20740154,-0.15360771,0.258479,0.32060156,-0.20790698,0.315503,0.28152263,-0.21535021,0.2902,0.28804385,-0.23608873,0.304047,0.29632332,-0.25493663,0.318321
0.34045168,-0.30463478,0.356138,0.30640262,-0.24059342,0.335513,0.31134663,-0.2828642,0.351573,0.26570298,-0.26238914,0.332565,0.22900991,-0.24785512,0.321202,0.20564575,-0.22953282,0.31384,0.24746582,-0.18910528,0.313613,0.22315318,-0.19642525,0.285673,0.24722794,-0.22726647,0.303248,0.2699485,-0.24298849,0.321294,0.26894015,-0.18303903,0.311986,0.22362325,-0.13761332,0.282499,0.20301962,-0.13128341,0.265298,0.21271335,-0.1520066,0.272272,0.28982332,-0.18181475,0.312282,0.24318846,-0.14849055,0.285372,0.21913284,-0.13128126,0.271604,0.2078894,-0.13346515,0.259087,0.3208241,-0.18782072,0.315722,0.28196985,-0.19529157,0.290661,0.28881785,-0.21619266,0.304864,0.2971332,-0.23494985,0.319191
0.34051286,-0.28366294,0.356202,0.30644554,-0.2203601,0.33556,0.31125276,-0.2622472,0.351467,0.26542974,-0.24145714,0.332223,0.22869406,-0.22648653,0.320759,0.20532729,-0.20829159,0.313354,0.24732773,-0.16997234,0.313438,0.22304929,-0.17679231,0.28554,0.24713255,-0.20670384,0.303131,0.26984179,-0.22234483,0.321167,0.26896515,-0.16369948,0.312015,0.22359951,-0.11850874,0.282469,0.20297065,-0.11160603,0.265234,0.21266023,-0.13105874,0.272204,0.29000615,-0.16222559,0.312479,0.24343814,-0.12873212,0.285665,0.21940877,-0.11141194,0.271946,0.20820072,-0.11313043,0.259475,0.32123158,-0.16780299,0.316123,0.28226864,-0.17507616,0.290969,0.28911532,-0.19586371,0.305178,0.29745808,-0.21450059,0.31954
0.35649895,-0.26106068,0.376501,0.32035432,-0.20972931,0.351233,0.32527535,-0.25044346,0.369086,0.28501946,-0.22749991,0.353823,0.24819067,-0.20629707,0.339534,0.22552577,-0.18498334,0.329182,0.25587688,-0.1591814,0.32216,0.23110543,-0.16061853,0.292275,0.25287828,-0.18923045,0.308263,0.27383511,-0.20568357,0.326677,0.27993177,-0.15340803,0.322411,0.25198023,-0.10371141,0.307439,0.23929252,-0.090624489,0.298705,0.25260404,-0.10725848,0.311732,0.30307695,-0.15237892,0.324619,0.26144876,-0.11147971,0.30534,0.24012824,-0.090523814,0.295477,0.22827778,-0.085942694,0.28651,0.3369157,-0.15847413,0.331031,0.30526308,-0.16392752,0.301802,0.30791208,-0.18691806,0.314463,0.31460679,-0.20479012,0.32966
0.36340815,-0.25664162,0.384737,0.32400918,-0.19287581,0.356892,0.32846762,-0.23476632,0.373998,0.28887661,-0.20923719,0.357605,0.25023622,-0.1842922,0.339146,0.22645312,-0.16164989,0.326511,0.25528057,-0.14026546,0.321692,0.23558396,-0.14405554,0.287868,0.25539866,-0.16859861,0.30238,0.27342519,-0.18212717,0.321524,0.2813012,-0.13514135,0.32513,0.25150227,-0.08629259,0.308071,0.24015494,-0.069992708,0.29812,0.2546276,-0.082051905,0.310338,0.30627595,-0.13465842,0.330163,0.26897854,-0.094368416,0.3144,0.24973593,-0.073515828,0.306335,0.24124673,-0.066422135,0.299004,0.34277531,-0.14148547,0.340324,0.3124512,-0.1417686,0.308192,0.31458607,-0.16393581,0.319586,0.32140432,-0.18314327,0.335312
0.35763855,-0.23785742,0.382822,0.32661977,-0.17673193,0.361042,0.32711583,-0.2185674,0.378791,0.28384773,-0.19128938,0.3646,0.24370788,-0.16557103,0.346432,0.22130981,-0.14348646,0.334987,0.27337233,-0.12397838,0.33889,0.24960573,-0.07414391,0.310486,0.24608281,-0.06425748,0.306347,0.2576823,-0.057730882,0.32105,0.29550376,-0.11942875,0.336199,0.26133134,-0.068020436,0.310791,0.24586198,-0.049902952,0.29597,0.25661686,-0.05988701,0.304701,0.31588995,-0.11952308,0.335711,0.2967419,-0.10341897,0.308547,0.28344525,-0.12117986,0.294649,0.28768015,-0.13786677,0.301923,0.34461774,-0.12696445,0.338392,0.31845729,-0.12226619,0.31289,0.32116247,-0.14386348,0.326642,0.33076196,-0.15474454,0.340949
0.35417181,-0.22623384,0.382908,0.32901793,-0.17453907,0.364003,0.32870447,-0.21581444,0.38089,0.28740875,-0.18578561,0.368866,0.24757426,-0.16008436,0.350749,0.22365684,-0.14099278,0.337678,0.27975208,-0.12033641,0.346599,0.25847924,-0.071347569,0.321233,0.24834706,-0.059292519,0.30855,0.25414329,-0.053906437,0.316143,0.30076177,-0.11534508,0.342439,0.26530135,-0.063550871,0.315235,0.24930401,-0.045017679,0.299366,0.25897785,-0.057258509,0.307041,0.31980898,-0.1150027,0.340514,0.3044297,-0.09942103,0.316731,0.29282305,-0.11825018,0.304562,0.29842182,-0.13955378,0.313364,0.34620214,-0.12168299,0.341055,0.32335638,-0.1175565,0.31837,0.3267027,-0.1392482,0.332823,0.33573068,-0.15354596,0.346411
0.36736476,-0.22335977,0.399091,0.34117674,-0.1654538,0.381691,0.33874356,-0.21156462,0.393469,0.29709595,-0.17577919,0.379239,0.25836782,-0.14972858,0.363276,0.23789746,-0.1293236,0.355125,0.28898071,-0.11504762,0.361035,0.27443513,-0.069981919,0.347246,0.27221563,-0.056028031,0.340352,0.28624021,-0.045927593,0.353427,0.31336934,-0.11120185,0.361843,0.2791939,-0.059590661,0.335121,0.26813959,-0.040103434,0.319534,0.28280353,-0.047956548,0.328026,0.33525442,-0.11171148,0.363887,0.32686635,-0.10471104,0.338914,0.31541723,-0.12302681,0.326137,0.31813687,-0.14120822,0.335307,0.36505712,-0.11925455,0.368924,0.35185246,-0.12149855,0.34545,0.37449396,-0.1423149,0.360587,0.38817791,-0.15019511,0.374718
0.3731109,-0.2134002,0.408305,0.34842523,-0.15817919,0.39334,0.3456848,-0.20288404,0.403649,0.30793806,-0.16748008,0.392487,0.27002551,-0.13998824,0.375839,0.24993342,-0.11897847,0.367374,0.29823983,-0.10956337,0.375796,0.28535013,-0.065905663,0.3642,0.28308863,-0.051186549,0.358402,0.29655973,-0.039793303,0.37224,0.32245403,-0.1054999,0.376271,0.28866502,-0.055267679,0.352083,0.27674635,-0.033447076,0.337973,0.29094381,-0.03802806,0.347575,0.34410167,-0.10572765,0.377847,0.33614824,-0.097113939,0.355291,0.32618704,-0.11608925,0.34375,0.3308083,-0.1357354,0.354101,0.37340085,-0.11275365,0.381963,0.3608846,-0.11387674,0.360539,0.38465146,-0.13484378,0.376272,0.39853162,-0.14316236,0.389912
0.37584553,-0.20485986,0.41433,0.3631934,-0.15718012,0.41152,0.35057207,-0.19474753,0.412098,0.31264371,-0.16015092,0.402509,0.27810513,-0.13432757,0.391279,0.25985497,-0.1140178,0.385064,0.32472166,-0.11186225,0.406554,0.31933441,-0.065184313,0.395915,0.31895522,-0.041175531,0.393291,0.32032279,-0.018438181,0.392915,0.35068039,-0.11000112,0.408315,0.35221927,-0.093538575,0.397049,0.35273618,-0.12130335,0.390477,0.36277708,-0.13870936,0.404648,0.37293564,-0.11168124,0.409986,0.37323902,-0.10350765,0.398615,0.36943908,-0.12021895,0.392797,0.37880345,-0.14762789,0.407665,0.40126041,-0.11980185,0.412397,0.39631937,-0.11414713,0.400676,0.42192624,-0.13784297,0.418233,0.43644435,-0.15438987,0.429165
0.37701947,-0.20495618,0.418658,0.36809635,-0.16049768,0.42003,0.35300136,-0.19496565,0.417709,0.31667129,-0.16246982,0.413191,0.28439032,-0.1366269,0.40397,0.26762169,-0.11645093,0.398899,0.33287202,-0.11663105,0.419945,0.33172541,-0.070703999,0.413538,0.33300089,-0.046793875,0.412434,0.33598104,-0.024116862,0.413552,0.35876717,-0.11550083,0.421596,0.36335392,-0.098991999,0.414904,0.36557738,-0.12775569,0.411,0.37947006,-0.14624469,0.426444,0.38057709,-0.11766313,0.422846,0.38360024,-0.10939262,0.415687,0.38093414,-0.12624752,0.412025,0.39434956,-0.15477231,0.428203,0.40755668,-0.12611818,0.424127,0.40514471,-0.12035627,0.41611,0.43032119,-0.14434709,0.433963,0.44525083,-0.15721536,0.443706
0.37858996,-0.20474673,0.428788,0.36943922,-0.16224417,0.429139,0.35317174,-0.19275453,0.430057,0.31517619,-0.1586015,0.422216,0.28379602,-0.13239381,0.41371,0.26862757,-0.11273703,0.410021,0.33930788,-0.11521808,0.430978,0.33764548,-0.069893031,0.42416,0.33942794,-0.046189722,0.423868,0.34263241,-0.024059052,0.423602,0.36271907,-0.11544512,0.429538,0.36496905,-0.10143567,0.421491,0.3925067,-0.13974567,0.448867,0.40660578,-0.15925497,0.464198,0.38201526,-0.11869028,0.428326,0.38371229,-0.10915769,0.421431,0.38017966,-0.12585952,0.417903,0.39317885,-0.15512709,0.434183,0.40769485,-0.12763404,0.426831,0.40483181,-0.12101366,0.419006,0.42988962,-0.14489324,0.43689,0.44502477,-0.16000537,0.450352
0.38428677,-0.2059922,0.434338,0.36841128,-0.16034229,0.428991,0.35805157,-0.19363241,0.433056,0.33479522,-0.16725308,0.433558,0.30113763,-0.13918086,0.420308,0.28405578,-0.1212734,0.416666,0.33250343,-0.11564215,0.423192,0.32268386,-0.072785246,0.410429,0.3208796,-0.049966583,0.407556,0.3226322,-0.025497407,0.404944,0.35592654,-0.11441728,0.422892,0.35264146,-0.094960619,0.408771,0.3804003,-0.12998834,0.43559,0.38986237,-0.15240542,0.449116,0.37459768,-0.11579122,0.423068,0.37529557,-0.10353766,0.409766,0.39860671,-0.13411942,0.432173,0.40701189,-0.15121119,0.446495,0.40034922,-0.12228259,0.424079,0.39146475,-0.11496839,0.410893,0.41208853,-0.13715317,0.428274,0.42781392,-0.15499153,0.439655
0.38474188,-0.20484164,0.435107,0.36942257,-0.15978116,0.430181,0.3592625,-0.19295263,0.434134,0.33223051,-0.16568817,0.433421,0.296614,-0.137375,0.422134,0.27783101,-0.11756003,0.415323,0.33294042,-0.11616657,0.425094,0.32352543,-0.072019109,0.412719,0.32163324,-0.047894628,0.406532,0.31952462,-0.027649445,0.400907,0.35490241,-0.11463684,0.424562,0.35320862,-0.094578804,0.41086,0.38079707,-0.12938426,0.437733,0.39050336,-0.15191721,0.451124,0.37456442,-0.11537753,0.424514,0.37543779,-0.10276257,0.411499,0.39862558,-0.13326728,0.433944,0.40696672,-0.15105628,0.448166,0.40002323,-0.12192193,0.425195,0.39140939,-0.11356631,0.412453,0.41194253,-0.13535214,0.429884,0.4240458,-0.15277825,0.441128
0.38568321,-0.20469031,0.439259,0.37272791,-0.16063399,0.434325,0.36266012,-0.19449195,0.438996,0.33189164,-0.16625925,0.438293,0.29862876,-0.1391259,0.426697,0.28143794,-0.12032796,0.422213,0.33350437,-0.118093,0.430108,0.32656507,-0.073128026,0.417828,0.32310859,-0.050966181,0.411688,0.32034479,-0.031494535,0.406106,0.35698353,-0.11590435,0.428697,0.35368407,-0.093460905,0.414852,0.38096291,-0.12717939,0.441667,0.39163431,-0.1504469,0.455091,0.37607877,-0.11659973,0.427928,0.37495304,-0.10176159,0.414594,0.39789955,-0.13184119,0.436981,0.40810123,-0.1515831,0.451308,0.40073625,-0.12307804,0.427751,0.39071576,-0.11367296,0.41533,0.41084254,-0.13504313,0.432751,0.42459822,-0.15376594,0.443877
0.39104283,-0.2073068,0.446324,0.37624492,-0.16253426,0.43997,0.36662122,-0.19577452,0.445713,0.33454448,-0.16860153,0.444816,0.3016609,-0.14120525,0.433388,0.28393947,-0.12171039,0.426849,0.33485756,-0.11958192,0.434203,0.32692663,-0.073441283,0.420435,0.32406117,-0.052480704,0.413551,0.32047988,-0.04557121,0.407292,0.35811139,-0.11670575,0.432723,0.35532466,-0.098274345,0.417331,0.37878735,-0.13677176,0.443912,0.39238709,-0.15271742,0.457823,0.37726543,-0.11762887,0.432007,0.37587309,-0.10228627,0.417017,0.39854316,-0.13227688,0.439199,0.40924988,-0.15223273,0.454114,0.40214386,-0.12442623,0.432108,0.39082764,-0.11580188,0.418507,0.41040088,-0.1372025,0.435751,0.42615839,-0.1549449,0.447224
0.39290732,-0.20824421,0.449412,0.37591992,-0.16288911,0.442613,0.36855363,-0.19700655,0.448985,0.33508738,-0.16985394,0.446972,0.29904065,-0.14705337,0.438072,0.28356725,-0.12720157,0.432586,0.33595053,-0.12026354,0.43672,0.32741405,-0.07406854,0.42246,0.32215413,-0.056920682,0.415329,0.31961513,-0.046331315,0.408847,0.35787981,-0.11754985,0.434857,0.35278166,-0.10051509,0.41893,0.37847294,-0.13577675,0.445394,0.39084327,-0.15347194,0.459461,0.37793391,-0.11806324,0.433862,0.37411332,-0.10242096,0.418251,0.39659687,-0.13219061,0.440328,0.40765509,-0.15206886,0.455452,0.40264436,-0.12474669,0.433697,0.39087168,-0.11618759,0.419866,0.41029209,-0.13767792,0.437037,0.42426388,-0.15493091,0.448563
0.39463234,-0.20940534,0.452504,0.37607007,-0.16449523,0.445656,0.3702885,-0.19839196,0.452199,0.33604608,-0.17131704,0.450519,0.3029423,-0.14815912,0.443554,0.28671851,-0.13228078,0.441395,0.33667915,-0.12179707,0.439877,0.32781434,-0.075840894,0.425523,0.32326425,-0.058302335,0.418347,0.32058624,-0.047619029,0.411822,0.35933741,-0.11887666,0.437845,0.35382618,-0.10131452,0.421844,0.37949515,-0.13644974,0.448279,0.3904638,-0.15536859,0.462365,0.37819419,-0.11963981,0.436717,0.37397474,-0.10380919,0.420981,0.39783953,-0.13308789,0.443032,0.40922673,-0.15377115,0.458195,0.40271473,-0.12629102,0.436399,0.39084942,-0.11748904,0.422592,0.41008117,-0.13900622,0.43975,0.42370464,-0.15661228,0.451261
0.39219553,-0.20867007,0.450622,0.37538234,-0.16521076,0.44561,0.36912811,-0.19850404,0.451645,0.33690657,-0.1727672,0.452252,0.30429824,-0.14951892,0.445467,0.28846646,-0.13364408,0.443634,0.33927416,-0.1232988,0.442916,0.32828964,-0.079611655,0.430626,0.32504676,-0.060663705,0.424482,0.32270743,-0.048304539,0.418896,0.36047178,-0.12019251,0.439894,0.35643202,-0.10314913,0.425747,0.38220881,-0.13856062,0.452346,0.39133931,-0.15914051,0.465812,0.37856088,-0.12068156,0.437805,0.37432656,-0.10614785,0.423479,0.39837887,-0.13497753,0.445647,0.40934003,-0.15581927,0.460288,0.40179532,-0.1269206,0.43607,0.39167032,-0.11901596,0.424216,0.40977707,-0.14120908,0.441544,0.42395603,-0.15789381,0.452435
0.39230311,-0.2091721,0.451473,0.37567264,-0.16601576,0.446467,0.36947392,-0.19925954,0.452738,0.33758572,-0.17372185,0.453511,0.30499162,-0.15020681,0.446446,0.28929547,-0.13430538,0.444684,0.33981901,-0.12413858,0.444073,0.32912523,-0.080067142,0.431849,0.32584173,-0.060703338,0.425737,0.32347277,-0.047784403,0.42018,0.36081473,-0.1209338,0.440757,0.35672849,-0.10388825,0.426579,0.38243176,-0.13932289,0.453127,0.39159146,-0.15993157,0.466589,0.37871319,-0.12134699,0.438424,0.37456752,-0.10696005,0.423975,0.39842704,-0.13570209,0.446096,0.40945878,-0.15686789,0.460768,0.40168797,-0.12749807,0.436398,0.39168075,-0.11978694,0.424669,0.40991472,-0.14205602,0.441974,0.42374274,-0.15860601,0.452811
0.39327303,-0.21009387,0.45436,0.37640302,-0.16787481,0.448942,0.3709955,-0.20086948,0.45537,0.33794832,-0.17654587,0.455761,0.30502392,-0.1520301,0.447475,0.28959355,-0.1355098,0.445852,0.33883293,-0.12728418,0.44591,0.32928758,-0.081054206,0.433209,0.32566632,-0.061414534,0.426858,0.32298898,-0.048172995,0.421085,0.35994743,-0.12396579,0.442763,0.35531615,-0.1070769,0.42816,0.38089572,-0.14257161,0.454674,0.39226427,-0.16121803,0.468278,0.37800476,-0.12429389,0.440602,0.3745221,-0.1100343,0.425811,0.39736113,-0.13948208,0.447907,0.40890608,-0.15957261,0.462706,0.40126319,-0.1303735,0.438842,0.39096213,-0.12340096,0.426693,0.41003228,-0.14530913,0.443963,0.42307408,-0.1608862,0.454935
0.39297143,-0.21023551,0.454301,0.37538882,-0.17020348,0.449604,0.37162586,-0.20188953,0.456488,0.33889787,-0.17787985,0.457521,0.30555519,-0.15301588,0.448649,0.29019988,-0.1365251,0.447066,0.34043648,-0.12969393,0.448591,0.33134882,-0.083358492,0.436979,0.3265996,-0.064942481,0.431174,0.3254655,-0.048114375,0.425896,0.36072785,-0.1260226,0.444247,0.35676949,-0.10811092,0.43029,0.38224107,-0.14360731,0.456673,0.3932664,-0.16243002,0.470003,0.37796512,-0.12605311,0.441045,0.37478027,-0.11073358,0.426472,0.39738573,-0.14028186,0.448437,0.40830743,-0.16139903,0.463096,0.40002696,-0.13172473,0.437938,0.39083808,-0.12401781,0.426902,0.40987955,-0.14585307,0.444136,0.42249639,-0.16150115,0.454703
0.39245002,-0.21120333,0.455608,0.37602427,-0.17108592,0.450575,0.37126975,-0.2028952,0.45798,0.33947456,-0.17874264,0.45862,0.30567977,-0.15355897,0.449095,0.29040479,-0.13714403,0.447582,0.3409838,-0.13048825,0.449525,0.33170806,-0.084132275,0.437756,0.32712756,-0.065047461,0.431871,0.32563127,-0.048297477,0.426522,0.3610376,-0.12673109,0.444835,0.35673781,-0.10845895,0.430479,0.38208874,-0.14386959,0.456727,0.39306491,-0.16294731,0.470159,0.37807363,-0.12669501,0.441374,0.37445129,-0.1110102,0.426318,0.39687807,-0.14057655,0.448165,0.40781954,-0.16158675,0.462972,0.39991677,-0.13228802,0.438011,0.39058941,-0.12433249,0.426837,0.40955553,-0.14609675,0.443988,0.42211444,-0.16195147,0.45457
0.39320703,-0.21312858,0.457996,0.37716833,-0.17214655,0.452042,0.37194127,-0.20476072,0.460304,0.3401646,-0.18057504,0.460324,0.30575372,-0.15668984,0.450982,0.29150924,-0.13983333,0.449765,0.34147034,-0.13117543,0.450186,0.33139023,-0.084623385,0.437452,0.32743269,-0.063745927,0.431085,0.32443575,-0.048800515,0.425297,0.36137089,-0.12732689,0.445251,0.35519287,-0.11559226,0.429877,0.37969564,-0.15216419,0.45591,0.39082621,-0.16586256,0.469642,0.37832926,-0.12723807,0.441662,0.37425321,-0.1091646,0.425578,0.39657628,-0.1385196,0.447242,0.40745049,-0.16027357,0.462391,0.40019557,-0.13281018,0.438283,0.39005014,-0.12460359,0.426434,0.40882487,-0.14621673,0.443435,0.42080251,-0.16388398,0.454198
0.39319467,-0.21434354,0.458969,0.37764207,-0.17276865,0.452682,0.37202333,-0.20604848,0.461411,0.34067981,-0.18123422,0.461163,0.30612308,-0.15729926,0.451633,0.29183403,-0.14063956,0.450464,0.34187156,-0.13168767,0.450729,0.33156425,-0.085075396,0.437764,0.32746348,-0.064164226,0.431282,0.32432056,-0.049268118,0.425389,0.36157882,-0.12774233,0.445511,0.35509041,-0.11555892,0.429753,0.3794791,-0.15207741,0.45565,0.39050703,-0.16664912,0.469479,0.37838277,-0.12758288,0.441717,0.37364397,-0.10900099,0.425184,0.39585957,-0.138245,0.446729,0.40691682,-0.16008668,0.462013,0.40008951,-0.13308217,0.438143,0.3896558,-0.12479401,0.426136,0.40831321,-0.14630595,0.443051,0.42037559,-0.16409907,0.453836
0.39293294,-0.21537608,0.459401,0.37784709,-0.17317848,0.452984,0.37184865,-0.20715959,0.461966,0.34095796,-0.18167181,0.461646,0.30635707,-0.15769936,0.452049,0.29205152,-0.14123177,0.450948,0.34212755,-0.13205497,0.451077,0.33173946,-0.085425651,0.438057,0.3275757,-0.064494992,0.431547,0.32436472,-0.049638086,0.425629,0.36170065,-0.12804205,0.445664,0.35508545,-0.11555731,0.429747,0.37940748,-0.15204871,0.455564,0.3903247,-0.16726196,0.469425,0.3783884,-0.12782996,0.441718,0.37324936,-0.10889715,0.424974,0.39540288,-0.13806613,0.44645,0.40655991,-0.15996472,0.46179,0.39995969,-0.13326943,0.437983,0.38939712,-0.1249486,0.425953,0.40798201,-0.14639165,0.44282,0.42008267,-0.16427117,0.453594
0.39097288,-0.21563421,0.457202,0.38116734,-0.17732475,0.456687,0.37052826,-0.20773254,0.460413,0.34008612,-0.18799306,0.458436,0.30977825,-0.16763679,0.455502,0.29479291,-0.14491673,0.455675,0.35362799,-0.1400453,0.460236,0.34666657,-0.093275928,0.451795,0.34407442,-0.073836067,0.447574,0.34235851,-0.058624677,0.443738,0.37495571,-0.13633324,0.4561,0.37009774,-0.12004439,0.446745,0.39551306,-0.15789055,0.473662,0.40798939,-0.17689067,0.490777,0.39282362,-0.13632689,0.452738,0.39172322,-0.12081911,0.442521,0.41444189,-0.15220757,0.464931,0.4270384,-0.17072725,0.484694,0.41509957,-0.14197265,0.448814,0.40739811,-0.13516153,0.441305,0.42657012,-0.15759189,0.458958,0.43853348,-0.1735447,0.473198
0.39019808,-0.21653442,0.45592,0.38480087,-0.18209619,0.455923,0.37051652,-0.20906407,0.460014,0.3423424,-0.19082906,0.460732,0.31060145,-0.16985279,0.455973,0.29707023,-0.15130709,0.455243,0.35458599,-0.14168199,0.460966,0.34760909,-0.094874511,0.45297,0.34490077,-0.07564956,0.448972,0.34287977,-0.065920539,0.445337,0.37521694,-0.13745842,0.455927,0.37087267,-0.12087582,0.447052,0.39623128,-0.1587224,0.473797,0.40896009,-0.18052944,0.490698,0.3924342,-0.13703996,0.45178,0.39094441,-0.12235745,0.441721,0.41362031,-0.15383248,0.463971,0.42956216,-0.17688807,0.484198,0.41380382,-0.14218338,0.446845,0.40645049,-0.13637365,0.440171,0.42554703,-0.15897843,0.457748,0.44075815,-0.17898867,0.471085
0.39101045,-0.21811657,0.456332,0.38523669,-0.18326531,0.456097,0.37135901,-0.21073713,0.460536,0.34365336,-0.19435709,0.461444,0.31158217,-0.17364734,0.456572,0.29745132,-0.15329576,0.455773,0.35467799,-0.14299577,0.461087,0.34715129,-0.096112874,0.452833,0.34377756,-0.078459731,0.448706,0.34194389,-0.06738569,0.444955,0.37512124,-0.13849419,0.455828,0.37239706,-0.12489262,0.446668,0.39827668,-0.16289818,0.473336,0.41169446,-0.18346033,0.490255,0.39221174,-0.13785967,0.45152,0.39007334,-0.12228118,0.441124,0.41293739,-0.15356678,0.463306,0.42882806,-0.17499025,0.483471,0.41348648,-0.14276157,0.446428,0.40589874,-0.13723889,0.439632,0.42504632,-0.15990755,0.457162,0.44030579,-0.1797964,0.470411
0.39104896,-0.21934764,0.45584,0.38514286,-0.18389528,0.455815,0.37139002,-0.21203028,0.460051,0.34364894,-0.19502505,0.461335,0.31181067,-0.17453533,0.456872,0.29761511,-0.15447293,0.455997,0.35472695,-0.1449667,0.46098,0.34690055,-0.098116985,0.452949,0.3437281,-0.079187419,0.448933,0.3418738,-0.068403695,0.445282,0.37507958,-0.1392046,0.455786,0.37247687,-0.12559317,0.446865,0.39846688,-0.16365856,0.473567,0.41190435,-0.18446235,0.49042,0.39220822,-0.13849603,0.451514,0.39044558,-0.12632093,0.441362,0.41330702,-0.15813359,0.463574,0.42940245,-0.17841628,0.483766,0.4135274,-0.14330676,0.446435,0.40602402,-0.13800809,0.439797,0.42524314,-0.16075225,0.45735,0.44055971,-0.18060942,0.470587
0.39150348,-0.22065101,0.455638,0.38498508,-0.18457127,0.455666,0.37181915,-0.2133816,0.459842,0.34360386,-0.1958976,0.461364,0.31118057,-0.1763343,0.456223,0.29732241,-0.15679766,0.455513,0.35430489,-0.14571767,0.460866,0.34594142,-0.099796752,0.452914,0.34314308,-0.079699742,0.448938,0.34130293,-0.06853631,0.445324,0.37478651,-0.14085058,0.455698,0.3721585,-0.12623223,0.446839,0.39829568,-0.16431123,0.473552,0.41175231,-0.18526691,0.490323,0.39194907,-0.13992025,0.451444,0.38985023,-0.12930427,0.441358,0.41308737,-0.15942483,0.46358,0.42930317,-0.17953738,0.483781,0.41325861,-0.14382209,0.446378,0.40577112,-0.13965815,0.439778,0.425134,-0.16255465,0.457339,0.44073235,-0.18137575,0.470831
0.39186918,-0.2217624,0.455339,0.38481432,-0.18499007,0.455489,0.37217192,-0.21457036,0.459547,0.34335905,-0.19629686,0.461089,0.31112999,-0.1768194,0.456321,0.29716636,-0.15745879,0.455559,0.3540451,-0.14616542,0.460789,0.345683,-0.10017567,0.452946,0.34285655,-0.080021805,0.449025,0.34100533,-0.068641278,0.44546,0.37454642,-0.14124896,0.45566,0.37206376,-0.1266484,0.446939,0.39830143,-0.16474778,0.473672,0.41179763,-0.18586935,0.490433,0.39172761,-0.1402745,0.451429,0.3898019,-0.12956846,0.441485,0.41310233,-0.16011832,0.463723,0.4293684,-0.18033896,0.483939,0.41310813,-0.14417554,0.446371,0.40570564,-0.14001595,0.439864,0.4251331,-0.16293027,0.457438,0.44080004,-0.18186738,0.470943
0.39219498,-0.22299083,0.454881,0.38473431,-0.18625486,0.455049,0.37249562,-0.21588336,0.459108,0.34306798,-0.19751195,0.460483,0.31113209,-0.17741273,0.456243,0.29680738,-0.15922106,0.455405,0.35356937,-0.14736124,0.460387,0.34535827,-0.10059604,0.452545,0.34205776,-0.081028235,0.448625,0.34052798,-0.068839303,0.44506,0.37403565,-0.14229952,0.455241,0.37161648,-0.12773427,0.446538,0.39804045,-0.16588319,0.473268,0.41168143,-0.18749517,0.490069,0.39120129,-0.14120469,0.450994,0.38960751,-0.12997004,0.441061,0.41283315,-0.16201757,0.463296,0.42916912,-0.18198344,0.48351,0.41278261,-0.14508175,0.445915,0.40539144,-0.14037581,0.439429,0.42486248,-0.16330805,0.457002,0.44054232,-0.18311733,0.470405
0.39250656,-0.22409845,0.454407,0.38448986,-0.18649808,0.454671,0.3727755,-0.21705778,0.458616,0.34279802,-0.19772503,0.460022,0.3110899,-0.17778385,0.456127,0.29669174,-0.15958485,0.455222,0.35334282,-0.14761965,0.460063,0.34516111,-0.10088192,0.452303,0.34187933,-0.081248636,0.448422,0.34027338,-0.069008588,0.444895,0.37384684,-0.14255444,0.454973,0.37154721,-0.12802616,0.446383,0.39802626,-0.16620635,0.473135,0.41164953,-0.18787152,0.489926,0.39104398,-0.14145424,0.450765,0.38962197,-0.13025488,0.440955,0.41288856,-0.16233305,0.463209,0.42918604,-0.18250069,0.48344,0.41262989,-0.14534434,0.445717,0.40532908,-0.14068892,0.439294,0.42484715,-0.16364628,0.456882,0.44055238,-0.18346123,0.470298
0.39246831,-0.22533735,0.453413,0.38392774,-0.18814272,0.453874,0.37342083,-0.21962873,0.457739,0.34264218,-0.20071783,0.458922,0.311536,-0.18098404,0.455897,0.29712897,-0.16193586,0.455746,0.35287455,-0.15109195,0.459564,0.34466927,-0.10452458,0.451927,0.34126858,-0.092228411,0.448109,0.3395198,-0.070542259,0.444637,0.373286,-0.14573249,0.4544,0.37089495,-0.12966908,0.44602,0.39764694,-0.16786686,0.472766,0.41128684,-0.18913951,0.489424,0.39042081,-0.14437419,0.450114,0.38902276,-0.13066574,0.440476,0.4125085,-0.16252282,0.462724,0.42910116,-0.18586974,0.482949,0.41186113,-0.14836965,0.444945,0.40465132,-0.14151052,0.438728,0.42430234,-0.16444875,0.456318,0.43984664,-0.18364818,0.469514
0.39448891,-0.22787458,0.454795,0.38465677,-0.19000447,0.454806,0.37435403,-0.22094907,0.458708,0.34323001,-0.20471835,0.4593,0.31263815,-0.18505139,0.456998,0.2981031,-0.16481203,0.456794,0.35169539,-0.15566391,0.459634,0.34292925,-0.1090736,0.451406,0.33876197,-0.095927492,0.447293,0.33666105,-0.082627092,0.444487,0.37225996,-0.14992297,0.454819,0.37050525,-0.13179531,0.445975,0.39766196,-0.1700744,0.472777,0.41083248,-0.19031667,0.48898,0.3896479,-0.14822844,0.450856,0.38893344,-0.13182774,0.440898,0.41283709,-0.16310578,0.463199,0.43029268,-0.18872703,0.483474,0.41241901,-0.14962366,0.446139,0.4048535,-0.14306455,0.43938,0.42476846,-0.16503944,0.456988,0.439693,-0.18411519,0.46941
0.39541232,-0.23002692,0.455495,0.38510245,-0.19559615,0.455309,0.37513246,-0.22316108,0.459331,0.34369371,-0.20627131,0.460106,0.31273329,-0.18609357,0.457141,0.29860556,-0.16864683,0.45705,0.35207567,-0.15696173,0.459886,0.34323322,-0.11110575,0.451424,0.34022859,-0.097315191,0.447193,0.3375122,-0.083888862,0.443347,0.37269139,-0.1513862,0.455096,0.36993756,-0.1355137,0.446036,0.39734131,-0.17386537,0.47283,0.41094034,-0.19371184,0.488889,0.39011221,-0.14983944,0.45117,0.38950456,-0.14248482,0.441018,0.41335031,-0.17488128,0.463313,0.43065717,-0.19402521,0.483581,0.41212583,-0.15359933,0.446526,0.40451831,-0.14696726,0.439583,0.42450909,-0.16930343,0.457181,0.43982744,-0.18789178,0.469316
0.39511906,-0.23126189,0.454947,0.38480844,-0.19620855,0.455025,0.37482172,-0.22448946,0.458783,0.34338765,-0.20672553,0.459789,0.31270392,-0.186569,0.4571,0.29865965,-0.16929638,0.457158,0.35211119,-0.15754177,0.45981,0.34380302,-0.11159066,0.451574,0.34094367,-0.097842434,0.447457,0.33836262,-0.08444955,0.443713,0.37280764,-0.15207758,0.455113,0.37039174,-0.13636545,0.446355,0.39773769,-0.17481818,0.473191,0.41123753,-0.19481705,0.489276,0.39027179,-0.15061727,0.451243,0.38984371,-0.14260889,0.441402,0.41372591,-0.17504019,0.463734,0.43089295,-0.19533381,0.484036,0.4122846,-0.15447281,0.446626,0.40490201,-0.14793846,0.439874,0.42485543,-0.17027654,0.457502,0.44001005,-0.18892401,0.469564
0.39456594,-0.23269668,0.454648,0.38350729,-0.19805385,0.454849,0.37431201,-0.22603186,0.458574,0.34033134,-0.2088996,0.458072,0.30486748,-0.19063468,0.453414,0.29595503,-0.17217178,0.456083,0.35108642,-0.16035695,0.459842,0.34338583,-0.11351968,0.451721,0.34016537,-0.098827516,0.44766,0.33754552,-0.085410987,0.443969,0.37177381,-0.15506091,0.455078,0.36940943,-0.13941819,0.446449,0.396389,-0.17807311,0.473278,0.40993732,-0.19924775,0.489478,0.38918359,-0.15373647,0.451142,0.38827109,-0.143321,0.4414,0.41211693,-0.17576606,0.463725,0.42938875,-0.19776846,0.48402,0.41105269,-0.15775087,0.446429,0.40369989,-0.15123159,0.439814,0.42342282,-0.17371639,0.457441,0.43831914,-0.19267831,0.469343
0.39278468,-0.23332371,0.452933,0.38226884,-0.19829282,0.454062,0.37292947,-0.226965,0.457295,0.33449727,-0.21058735,0.455076,0.30365196,-0.19317016,0.453425,0.28936367,-0.17817951,0.454689,0.35078932,-0.16101922,0.460325,0.34328733,-0.11422439,0.45254,0.33815088,-0.10251822,0.448647,0.33823312,-0.087939365,0.445391,0.3713403,-0.15562391,0.455351,0.36965408,-0.14020022,0.447732,0.39661697,-0.17894209,0.474569,0.41029858,-0.20035617,0.490743,0.38856073,-0.15419274,0.451168,0.38827618,-0.14397086,0.442301,0.4121166,-0.17647404,0.464628,0.42948168,-0.19882135,0.484925,0.41005333,-0.1580234,0.446022,0.40341204,-0.15175219,0.440316,0.42315307,-0.17436857,0.457972,0.43835967,-0.19355311,0.470099
0.39294009,-0.23905038,0.453367,0.38477473,-0.20909616,0.454777,0.37317541,-0.23287944,0.457874,0.34324123,-0.22298777,0.46111,0.31044555,-0.20283867,0.456407,0.29074861,-0.18315147,0.454355,0.35525106,-0.17005274,0.46144,0.34670504,-0.12634039,0.45392,0.3402568,-0.10377247,0.450161,0.33831628,-0.10274135,0.446742,0.37572382,-0.16431719,0.456386,0.37189819,-0.16025611,0.449071,0.40032145,-0.20066595,0.475904,0.41726846,-0.21797933,0.495071,0.39294944,-0.16269635,0.452115,0.38653002,-0.15859399,0.443506,0.4049055,-0.18986469,0.465828,0.42105701,-0.2185078,0.48612,0.41440277,-0.16653039,0.446823,0.40359237,-0.16632447,0.441399,0.42204296,-0.1925522,0.45906,0.43957158,-0.20620655,0.474643
0.39393699,-0.2409451,0.454524,0.3853306,-0.20939823,0.455434,0.37408148,-0.23466049,0.458903,0.34370349,-0.22328807,0.461731,0.31066117,-0.20297955,0.456724,0.29180311,-0.18361565,0.454241,0.35533112,-0.17009107,0.461544,0.34639341,-0.12622683,0.453512,0.34023739,-0.10407459,0.449495,0.33763622,-0.10253483,0.445844,0.37579462,-0.16434815,0.456472,0.3715073,-0.16008767,0.448599,0.39989666,-0.20045301,0.475399,0.41682175,-0.21774597,0.494541,0.39304678,-0.16273665,0.452227,0.3861692,-0.15844595,0.443092,0.40452044,-0.18968413,0.465385,0.42065164,-0.21829743,0.485652,0.4146031,-0.16661089,0.447039,0.40339304,-0.16624233,0.441181,0.42181496,-0.19244818,0.458812,0.4393169,-0.20608707,0.474368
0.39400316,-0.24389687,0.455056,0.38574119,-0.21173429,0.456681,0.3736416,-0.24160001,0.459833,0.34572331,-0.22610471,0.464648,0.31390471,-0.20600455,0.46125,0.29757427,-0.18797031,0.459239,0.35466458,-0.17797525,0.463847,0.34383284,-0.13398523,0.456484,0.33979213,-0.10760762,0.452802,0.33781497,-0.10374141,0.449456,0.3747035,-0.1712926,0.458535,0.36718723,-0.16143817,0.451437,0.40080419,-0.20152181,0.478213,0.41851065,-0.21978053,0.497339,0.39170071,-0.16882044,0.454036,0.3865076,-0.1604579,0.445546,0.40515827,-0.19147189,0.467816,0.42201021,-0.22048372,0.488061,0.41497141,-0.16860217,0.44844,0.39385143,-0.16864567,0.443319,0.40060047,-0.19312921,0.460955,0.41579904,-0.20799302,0.476516
0.39421488,-0.24531693,0.455392,0.38563441,-0.21273378,0.456936,0.37408065,-0.24313525,0.460288,0.34598013,-0.22702493,0.465095,0.31438799,-0.20677403,0.461839,0.29840781,-0.18905831,0.460321,0.35492226,-0.17810456,0.464184,0.34399252,-0.13404746,0.456696,0.33940301,-0.10879038,0.452953,0.33662472,-0.10394816,0.449549,0.37483588,-0.17135312,0.458697,0.36723196,-0.16145784,0.451492,0.40007518,-0.20146409,0.478216,0.41814517,-0.22016793,0.497304,0.39172228,-0.16882973,0.454061,0.38549618,-0.16097642,0.445415,0.40426584,-0.19179697,0.467637,0.42145467,-0.22093631,0.48784,0.4143877,-0.1692882,0.448312,0.39374216,-0.16859888,0.443196,0.4004675,-0.19306511,0.460802,0.41564285,-0.20791489,0.476337
0.3962543,-0.2493816,0.458006,0.38636246,-0.21733102,0.458549,0.37742403,-0.24959128,0.463081,0.34742172,-0.23128462,0.466859,0.31632343,-0.21049446,0.463828,0.30012871,-0.19115473,0.462564,0.35600644,-0.17970584,0.465227,0.34417156,-0.13525874,0.456591,0.33814186,-0.11215771,0.452272,0.3351306,-0.10458303,0.448346,0.37550521,-0.17270168,0.459169,0.36698856,-0.1625251,0.450803,0.39908699,-0.20187275,0.477297,0.41725604,-0.22075086,0.496221,0.39207594,-0.17000981,0.454141,0.38211053,-0.16351364,0.444229,0.4012283,-0.19380521,0.466251,0.4201138,-0.2213928,0.486271,0.41306786,-0.17252755,0.448077,0.39329445,-0.16951307,0.442333,0.39978558,-0.19390036,0.459789,0.41450295,-0.20910865,0.47519
0.39642407,-0.25325108,0.458421,0.38693287,-0.21829402,0.45899,0.37822259,-0.25099153,0.463812,0.34773086,-0.23519638,0.466538,0.31459408,-0.21390601,0.461023,0.29929668,-0.19780106,0.46123,0.35660465,-0.18082153,0.466077,0.34476629,-0.13873149,0.45738,0.338592,-0.11619141,0.453086,0.33519212,-0.10556815,0.449184,0.37583394,-0.17357476,0.459639,0.36750825,-0.16328079,0.451271,0.39955803,-0.20239483,0.477644,0.41789159,-0.2214605,0.496482,0.39216041,-0.17069796,0.454296,0.38445073,-0.16031934,0.444262,0.41576374,-0.18961667,0.466176,0.43847083,-0.21174425,0.486098,0.41283464,-0.17300344,0.447854,0.39374819,-0.17023047,0.442305,0.4001073,-0.19460286,0.459694,0.41440422,-0.21007798,0.475037
0.39791856,-0.25531244,0.460278,0.38723894,-0.21949308,0.459917,0.37918648,-0.2527585,0.465312,0.34605798,-0.23768886,0.466589,0.31237145,-0.21701039,0.460832,0.29611306,-0.20115045,0.460381,0.35548272,-0.18343176,0.465831,0.34143853,-0.14012356,0.456219,0.33450234,-0.11853045,0.451413,0.32845308,-0.11189557,0.447044,0.37476785,-0.17598508,0.459505,0.36559345,-0.16536403,0.450117,0.3969954,-0.20306176,0.476456,0.41661343,-0.22160707,0.495269,0.3912454,-0.17298454,0.454329,0.38138843,-0.16188093,0.443378,0.41281672,-0.19011786,0.465267,0.43568972,-0.21214684,0.485165,0.41254126,-0.17371415,0.448223,0.39301766,-0.17259829,0.441808,0.39915268,-0.19702305,0.459154,0.41267011,-0.21323297,0.474459
0.40112907,-0.26213069,0.463684,0.38667682,-0.23187417,0.461022,0.38127823,-0.25896283,0.468558,0.34704201,-0.24692723,0.469119,0.31500884,-0.22613749,0.465237,0.29899444,-0.20500148,0.464514,0.35391137,-0.1919359,0.464924,0.33992252,-0.14775271,0.452868,0.33310707,-0.12509244,0.447249,0.32458862,-0.11519168,0.44214,0.37284777,-0.18465252,0.457985,0.36211776,-0.17460194,0.446027,0.39337571,-0.21423197,0.471915,0.41271371,-0.23493837,0.490406,0.38906958,-0.18191157,0.452488,0.37815791,-0.16647868,0.438945,0.40817617,-0.19961006,0.460449,0.4307474,-0.22255163,0.479998,0.40993253,-0.18467171,0.446345,0.39010035,-0.1824099,0.438214,0.39553971,-0.20673896,0.455243,0.40763332,-0.22377664,0.470269
0.40121013,-0.2707046,0.465071,0.38705189,-0.23566901,0.462108,0.3800645,-0.26878148,0.469809,0.34792433,-0.2497323,0.470606,0.31635549,-0.2277883,0.466491,0.29993997,-0.20845687,0.465497,0.35488579,-0.19479254,0.465603,0.34141774,-0.15048716,0.453261,0.33633318,-0.13036334,0.447333,0.32811066,-0.11947902,0.441944,0.37445714,-0.1910114,0.458728,0.3632032,-0.18108464,0.446444,0.39317374,-0.22142931,0.472317,0.4125875,-0.23874385,0.490798,0.39072044,-0.18906725,0.453306,0.37941828,-0.17625983,0.43948,0.40847399,-0.20781386,0.460973,0.43088954,-0.22692606,0.480512,0.41143626,-0.19285672,0.447298,0.39095867,-0.19024269,0.438879,0.3956594,-0.2144406,0.455891,0.40779904,-0.22778881,0.470901
0.40074677,-0.27297095,0.465603,0.38680856,-0.2371647,0.46286,0.37955633,-0.27081471,0.470292,0.34775644,-0.25095978,0.471327,0.31691053,-0.22917981,0.468041,0.30118013,-0.21042132,0.467426,0.35481049,-0.19801166,0.466469,0.34171667,-0.15198828,0.454377,0.33541946,-0.13191484,0.44833,0.32710004,-0.13054766,0.442834,0.37403024,-0.19159768,0.459732,0.36287848,-0.18181363,0.447698,0.39299372,-0.2221813,0.473648,0.41277442,-0.24067922,0.492183,0.39039137,-0.18959329,0.454405,0.37922325,-0.17692736,0.440856,0.40839034,-0.20848962,0.462416,0.43125779,-0.22899313,0.482015,0.41123567,-0.19329788,0.448478,0.39080619,-0.19083047,0.440185,0.39558299,-0.21511487,0.457246,0.40808084,-0.22971713,0.472301
0.40071013,-0.27471271,0.466002,0.38711889,-0.23824444,0.463416,0.37987812,-0.27246444,0.470907,0.34676063,-0.25374279,0.471243,0.31266399,-0.23521242,0.465742,0.29874404,-0.2157805,0.465906,0.35527107,-0.19908375,0.467416,0.34198038,-0.1554889,0.455434,0.33366217,-0.13508336,0.449443,0.3268523,-0.13299371,0.443997,0.37429314,-0.19235923,0.460466,0.36297769,-0.18300908,0.44859,0.39324991,-0.22329858,0.474483,0.41260255,-0.24442385,0.492978,0.39050461,-0.19009363,0.454953,0.37925394,-0.17801825,0.441483,0.40850874,-0.20948791,0.462991,0.43101655,-0.23282072,0.482544,0.41119223,-0.19347009,0.448781,0.39071254,-0.19145777,0.440721,0.39574896,-0.21589019,0.457755,0.40774535,-0.23318531,0.472785
0.39944264,-0.27984102,0.466377,0.38699619,-0.24065331,0.463874,0.37974706,-0.27624517,0.471486,0.34653043,-0.25602221,0.471997,0.31320524,-0.23681964,0.466954,0.29721969,-0.22010523,0.466053,0.35572879,-0.20003694,0.468189,0.34125387,-0.1575715,0.456243,0.33396879,-0.13626278,0.45027,0.32710298,-0.13436728,0.44484,0.37457559,-0.1931046,0.461019,0.36317492,-0.1839924,0.449219,0.39349309,-0.22425378,0.47504,0.4129637,-0.24546349,0.493483,0.39063835,-0.19066649,0.455317,0.3793133,-0.17889069,0.441848,0.40857868,-0.21031731,0.463291,0.43119857,-0.23367811,0.482785,0.41114715,-0.19382896,0.448907,0.39069569,-0.19208753,0.441023,0.39583911,-0.2165945,0.458018,0.40789349,-0.23398804,0.473014
0.40027323,-0.28124979,0.467476,0.38745343,-0.24124098,0.464465,0.38064934,-0.27741681,0.472653,0.34657489,-0.25660669,0.472101,0.31292097,-0.23700437,0.466679,0.29721514,-0.22065892,0.46623,0.3557817,-0.20054798,0.468464,0.34101134,-0.15795351,0.455958,0.33355923,-0.13653324,0.449704,0.32661418,-0.1346224,0.44402,0.37441279,-0.19344565,0.461032,0.3596504,-0.16862153,0.448663,0.38702653,-0.20711779,0.474319,0.40651588,-0.23200557,0.486846,0.390315,-0.19088348,0.455154,0.3786504,-0.17899547,0.441071,0.40783519,-0.2102842,0.462373,0.43033324,-0.23359488,0.481738,0.41069242,-0.19391859,0.448612,0.39009772,-0.19211,0.440415,0.39515732,-0.2164043,0.457302,0.40663626,-0.23437003,0.472202
0.39664565,-0.27909852,0.462601,0.38982007,-0.24323643,0.466808,0.38007784,-0.27738515,0.471156,0.34947164,-0.26064959,0.474317,0.32022764,-0.24377607,0.475861,0.30602285,-0.22779061,0.478626,0.36563696,-0.21564225,0.480663,0.35357938,-0.17476766,0.475147,0.34828727,-0.15359012,0.473717,0.34316392,-0.13450794,0.472418,0.38253641,-0.20598847,0.471607,0.36721739,-0.17284797,0.467167,0.39650654,-0.20379451,0.492637,0.41652331,-0.22839861,0.502237,0.39662301,-0.20091609,0.463823,0.38018323,-0.17222346,0.456613,0.41063053,-0.19748854,0.477722,0.44057156,-0.22120417,0.496913,0.41447628,-0.19860967,0.453929,0.4002842,-0.19861134,0.452869,0.40616824,-0.22211166,0.469816,0.41770857,-0.2412498,0.48477
0.39779024,-0.28346516,0.465017,0.391332,-0.24638206,0.468899,0.38035346,-0.2787207,0.4721,0.34780233,-0.25956691,0.472984,0.31833556,-0.24139541,0.473214,0.30524691,-0.22317985,0.475412,0.36608174,-0.2150782,0.480685,0.3561178,-0.17432675,0.475169,0.35512845,-0.15348223,0.47341,0.34708941,-0.13512628,0.471811,0.38452275,-0.20744904,0.473327,0.37062463,-0.17420686,0.468598,0.39930753,-0.20629058,0.494789,0.41730827,-0.23266385,0.50472,0.39985941,-0.20407259,0.466965,0.3849611,-0.17547094,0.46003,0.41500867,-0.20203935,0.481771,0.44386436,-0.2305125,0.501536,0.41891448,-0.20855592,0.458814,0.4092512,-0.19674188,0.456634,0.41397826,-0.21527005,0.473992,0.42225505,-0.24167585,0.489309
0.40065775,-0.28660705,0.468904,0.39277814,-0.24912854,0.471014,0.38212508,-0.28098954,0.474765,0.34797053,-0.26016729,0.473517,0.31891596,-0.24218454,0.473781,0.3045115,-0.22413395,0.474733,0.36568182,-0.21478514,0.479897,0.35490279,-0.17475793,0.472758,0.35074697,-0.15843546,0.469188,0.34329137,-0.14156391,0.465943,0.38484841,-0.20797141,0.473421,0.36989706,-0.17407924,0.466765,0.3981907,-0.20604017,0.493214,0.41594272,-0.23237644,0.503924,0.40091499,-0.20533213,0.467925,0.38636212,-0.17761657,0.459475,0.4155241,-0.20521046,0.48145,0.4436573,-0.23317414,0.501427,0.42104838,-0.20994336,0.46107,0.40943157,-0.19726627,0.4569,0.41494376,-0.21574587,0.474367,0.41666247,-0.23822747,0.482608
0.39932758,-0.28622229,0.467155,0.39294153,-0.25194097,0.470888,0.38176578,-0.28254399,0.474409,0.35207872,-0.26592105,0.475519,0.32135977,-0.24725785,0.473941,0.30515038,-0.22798834,0.475518,0.36797397,-0.21687686,0.482766,0.35627721,-0.17766519,0.477042,0.34929597,-0.15654254,0.475848,0.34407584,-0.13797441,0.474763,0.38630674,-0.20943757,0.475146,0.3729095,-0.17615859,0.470235,0.40080536,-0.20785733,0.496321,0.41614634,-0.23433298,0.506286,0.40150164,-0.2062484,0.46858,0.38790219,-0.17903026,0.46139,0.41686926,-0.20631909,0.483041,0.44521003,-0.23510553,0.502723,0.42022825,-0.20951461,0.460209,0.41096789,-0.19762766,0.458019,0.41814239,-0.2152439,0.475316,0.4176805,-0.23651501,0.482793
0.40541174,-0.29483939,0.474632,0.39700479,-0.26711068,0.474637,0.38328618,-0.28955102,0.476215,0.34497516,-0.27063923,0.468512,0.31730042,-0.24864188,0.468379,0.3020869,-0.22945427,0.467382,0.3665929,-0.22520057,0.476591,0.35154839,-0.18368205,0.469557,0.34382334,-0.16211884,0.46604,0.33585684,-0.13705705,0.462843,0.38931133,-0.22245351,0.474643,0.37907243,-0.17947476,0.466138,0.39592168,-0.17275252,0.485429,0.41294091,-0.17705444,0.504422,0.40843232,-0.22320818,0.473039,0.40733053,-0.21191317,0.464319,0.43246183,-0.24685802,0.487091,0.45022467,-0.27227736,0.507792,0.43229169,-0.22982017,0.471131,0.41415818,-0.19007789,0.463541,0.41138647,-0.1746668,0.462741,0.42668211,-0.17698275,0.476138
0.4073455,-0.30483067,0.479532,0.3998463,-0.2710928,0.479858,0.38313851,-0.29397432,0.478136,0.34538464,-0.27257451,0.470461,0.31858635,-0.25277278,0.470842,0.30336383,-0.2310552,0.468761,0.36643077,-0.22648301,0.478397,0.35099072,-0.18073997,0.47092,0.34392536,-0.16086755,0.467182,0.33698113,-0.14041225,0.463784,0.39247873,-0.22533482,0.48023,0.37326896,-0.1786302,0.472094,0.36537573,-0.15467173,0.467348,0.37388226,-0.1421982,0.4824,0.41464831,-0.22749196,0.481712,0.39657441,-0.18564538,0.473989,0.41332618,-0.17596427,0.496822,0.42822254,-0.16452575,0.51758,0.44247024,-0.2360566,0.483427,0.42612939,-0.19504663,0.475934,0.42052196,-0.17715939,0.472491,0.43131205,-0.168091,0.484481
0.39686046,-0.31075763,0.473335,0.3937576,-0.27332141,0.478634,0.37496793,-0.29970474,0.473514,0.34016856,-0.27317969,0.472577,0.31767989,-0.25033568,0.470642,0.30405049,-0.22898299,0.470352,0.36889901,-0.22924956,0.483037,0.35645844,-0.18622441,0.480386,0.35085298,-0.16429846,0.479061,0.34566531,-0.14394183,0.477856,0.39376312,-0.22946771,0.484679,0.38355776,-0.18346896,0.483179,0.38066416,-0.15651053,0.482303,0.37742821,-0.13626317,0.481678,0.4155979,-0.23226485,0.48561,0.40628093,-0.19198252,0.486857,0.40338461,-0.17200955,0.487496,0.39745747,-0.15077922,0.488076,0.44033536,-0.24536112,0.485925,0.43941828,-0.20851122,0.489394,0.43908971,-0.19149991,0.490989,0.43911487,-0.17588218,0.492395
0.39669761,-0.31375842,0.475901,0.3926434,-0.27807802,0.481448,0.37547485,-0.30264372,0.476537,0.34672474,-0.28397072,0.483099,0.32009347,-0.25713307,0.476869,0.30887817,-0.2376246,0.477439,0.37020102,-0.232422,0.486612,0.35957489,-0.18881953,0.484361,0.3537674,-0.16788174,0.483236,0.34917212,-0.14645794,0.482213,0.39561061,-0.23391632,0.487777,0.38744757,-0.18687385,0.485552,0.38266554,-0.15920542,0.484254,0.37918592,-0.13899905,0.483326,0.41696524,-0.23758635,0.488295,0.40971212,-0.19468307,0.490521,0.40590958,-0.17389549,0.49166,0.40266887,-0.15330766,0.492695,0.44231605,-0.24789785,0.488079,0.4424224,-0.2118478,0.492728,0.44256155,-0.19509869,0.494864,0.44284299,-0.18003201,0.496749
0.39759899,-0.31634213,0.478633,0.39406965,-0.27948698,0.483155,0.37665612,-0.30511198,0.479462,0.34724149,-0.28439394,0.483819,0.32015693,-0.25811303,0.478073,0.30958891,-0.23911394,0.479192,0.37102368,-0.23344754,0.487749,0.3598478,-0.18944271,0.484617,0.35393869,-0.16820061,0.483052,0.34892474,-0.14687541,0.481629,0.39612528,-0.23457542,0.488315,0.38933453,-0.18832328,0.487725,0.38528873,-0.16091654,0.48738,0.38232816,-0.14084728,0.487134,0.41713094,-0.23807953,0.488421,0.41063254,-0.19566022,0.491399,0.40737038,-0.17469586,0.492923,0.40446471,-0.15417239,0.494308,0.44213618,-0.24827175,0.48787,0.44321609,-0.21286074,0.493608,0.44379872,-0.19633483,0.496245,0.44441714,-0.18154811,0.498572
