sluyters/QuantumLeap/backend/src/datasets/gesture/HandGestureDataset_SHREC2017_csv/Gesture9/finger_1/subject_28_essai_9_skeletons_world.csv
Wrist_x,Wrist_y,Wrist_z,Palm_x,Palm_y,Palm_z,thumb_base_x,thumb_base_y,thumb_base_z,thumb_first_joint_x,thumb_first_joint_y,thumb_first_joint_z,thumb_second_joint_x,thumb_second_joint_y,thumb_second_joint_z,thumb_tip_x,thumb_tip_y,thumb_tip_z,index_base_x,index_base_y,index_base_z,index_first_joint_x,index_first_joint_y,index_first_joint_z,index_second_joint_x,index_second_joint_y,index_second_joint_z,index_tip_x,index_tip_y,index_tip_z,middle_base_x,middle_base_y,middle_base_z,middle_first_joint_x,middle_first_joint_y,middle_first_joint_z,middle_second_joint_x,middle_second_joint_y,middle_second_joint_z,middle_tip_x,middle_tip_y,middle_tip_z,ring_base_x,ring_base_y,ring_base_z,ring_first_joint_x,ring_first_joint_y,ring_first_joint_z,ring_second_joint_x,ring_second_joint_y,ring_second_joint_z,ring_tip_x,ring_tip_y,ring_tip_z,pinky_base_x,pinky_base_y,pinky_base_z,pinky_first_joint_x,pinky_first_joint_y,pinky_first_joint_z,pinky_second_joint_x,pinky_second_joint_y,pinky_second_joint_z,pinky_tip_x,pinky_tip_y,pinky_tip_z,
0.371697677,-0.418788199,0.496606,0.353180816,-0.374099724,0.471463,0.354155127,-0.416491512,0.476856,0.343591875,-0.374850277,0.445292,0.333604621,-0.339485982,0.417959,0.323158325,-0.318039607,0.405604,0.306549064,-0.332790562,0.431169,0.269487643,-0.294117748,0.405724,0.277706453,-0.28772271,0.393002,0.29270919,-0.297497651,0.39418,0.33161279,-0.331090099,0.450212,0.350244105,-0.326341725,0.423113,0.337470817,-0.32815098,0.407305,0.331572153,-0.331490586,0.399936,0.354842329,-0.334657021,0.468393,0.317720547,-0.290957789,0.441036,0.308432543,-0.270911021,0.427039,0.315530166,-0.263587527,0.414315,0.386404292,-0.347569279,0.493915,0.379784705,-0.322439431,0.46886,0.376840008,-0.310826733,0.457339,0.374410724,-0.300600671,0.447173
0.401485416,-0.34008213,0.473807,0.343564045,-0.324460299,0.456595,0.391771332,-0.356813799,0.479357,0.39364142,-0.391915091,0.478152,0.399607748,-0.409123553,0.466112,0.3913264,-0.41986453,0.453809,0.299061571,-0.336631173,0.45375,0.277453993,-0.349096827,0.430396,0.290347949,-0.341718147,0.41872,0.30406788,-0.334449997,0.423622,0.295927749,-0.311355243,0.442046,0.289521604,-0.326828955,0.419159,0.303494699,-0.315931941,0.405808,0.314025127,-0.309847502,0.41111,0.298927513,-0.291980562,0.434121,0.279620852,-0.306112975,0.411234,0.292511348,-0.303049083,0.399524,0.304153433,-0.290625477,0.392331,0.312370542,-0.271883092,0.427905,0.293781144,-0.2903304,0.412745,0.285132979,-0.299207435,0.40578,0.277493451,-0.307277023,0.399635
0.400669796,-0.335098844,0.467861,0.33968759,-0.316470071,0.446531,0.38982107,-0.350623674,0.472104,0.396307103,-0.383322344,0.474083,0.39745105,-0.405292368,0.463059,0.38932037,-0.416773539,0.451775,0.296078579,-0.324116681,0.439586,0.268439771,-0.334484418,0.41948,0.282254611,-0.334497869,0.409427,0.297093779,-0.329563072,0.414606,0.29344174,-0.299923734,0.428501,0.267341115,-0.311482193,0.404466,0.256744977,-0.320332629,0.390446,0.259634772,-0.339581106,0.394767,0.297130082,-0.28167738,0.421497,0.272928714,-0.29711986,0.401095,0.286716678,-0.294763608,0.390657,0.307380581,-0.292583001,0.396311,0.311966285,-0.263273223,0.417068,0.306069447,-0.282988628,0.398906,0.303346422,-0.291992392,0.390561,0.316498445,-0.302186873,0.39414
0.402006948,-0.330677117,0.467086,0.345320132,-0.305152308,0.446598,0.390884262,-0.345908784,0.471052,0.400288689,-0.374129255,0.476767,0.399865394,-0.393123635,0.463505,0.392186545,-0.404118239,0.452099,0.298184002,-0.313839109,0.439785,0.272446034,-0.326447659,0.422604,0.285567042,-0.328239601,0.414014,0.302223284,-0.329135937,0.420517,0.295868507,-0.290307417,0.429279,0.270063179,-0.302346555,0.405758,0.259627285,-0.311465963,0.392036,0.262943795,-0.330828656,0.396942,0.299781522,-0.27246061,0.422668,0.272835161,-0.286057507,0.403347,0.286685293,-0.286998946,0.393462,0.311459075,-0.290315814,0.39993,0.314822228,-0.25430603,0.418549,0.309023729,-0.274411326,0.400631,0.306344517,-0.283586847,0.392399,0.319846384,-0.294031432,0.396404
0.406415913,-0.325135849,0.467363,0.347050597,-0.302586875,0.447095,0.394501025,-0.339888845,0.470763,0.39874608,-0.371559956,0.476169,0.397514893,-0.391312798,0.46346,0.388883828,-0.402052549,0.451834,0.300285427,-0.307452719,0.439677,0.274934595,-0.318800781,0.422605,0.287834782,-0.321224319,0.414069,0.303935749,-0.323378626,0.420958,0.299359629,-0.284098126,0.429963,0.273757923,-0.294845379,0.406372,0.265097167,-0.303680944,0.39261,0.271039784,-0.322849463,0.39784,0.304389224,-0.266471648,0.423981,0.277534883,-0.278467627,0.404357,0.291070781,-0.279842575,0.394316,0.314293218,-0.283099606,0.401066,0.320671361,-0.24873242,0.420557,0.314281658,-0.268461748,0.402393,0.311336846,-0.277488131,0.394048,0.323011722,-0.291946194,0.398261
0.412729485,-0.350862712,0.488485,0.351019341,-0.315686433,0.459828,0.389324443,-0.36060445,0.487258,0.381375039,-0.385006403,0.477507,0.389883823,-0.38786695,0.458182,0.385115302,-0.393511274,0.441696,0.294354579,-0.301853804,0.441512,0.270175072,-0.311652915,0.415753,0.279824687,-0.310028734,0.402874,0.293586631,-0.306512345,0.405851,0.305765647,-0.286239584,0.435606,0.276099742,-0.282875501,0.403973,0.261678815,-0.285659917,0.38552,0.261969367,-0.299711727,0.387263,0.324792206,-0.2740604,0.433594,0.284774747,-0.269474575,0.405262,0.28903155,-0.275994374,0.390766,0.307951738,-0.277752115,0.393454,0.353151549,-0.267994701,0.436247,0.338577751,-0.283093657,0.41115,0.331806469,-0.289631109,0.399619,0.339613834,-0.299566921,0.400836
0.402697561,-0.349479035,0.488389,0.342078254,-0.301577693,0.457203,0.369049532,-0.34717146,0.486293,0.34932254,-0.338148061,0.473205,0.320385159,-0.329848493,0.461886,0.294663989,-0.315201045,0.451134,0.283966524,-0.279288741,0.436284,0.269865073,-0.293801899,0.408505,0.275683235,-0.290342355,0.394615,0.287187829,-0.286728851,0.396086,0.300189542,-0.265317701,0.430844,0.265884429,-0.258662856,0.397121,0.265089728,-0.265322006,0.37745,0.273625726,-0.269257695,0.377742,0.318681758,-0.257941879,0.429466,0.280949174,-0.256082818,0.399035,0.285635225,-0.260306431,0.383465,0.301618839,-0.263936496,0.384553,0.349335341,-0.256689109,0.433299,0.33037397,-0.271708662,0.406564,0.321620992,-0.278124859,0.39428,0.330021274,-0.287424994,0.394327
0.399533573,-0.353023061,0.495071,0.347022587,-0.304059693,0.463722,0.370114788,-0.35065965,0.491034,0.350185657,-0.336971131,0.475165,0.309066599,-0.320768313,0.46226,0.281985601,-0.305022038,0.451448,0.289117654,-0.273286813,0.440189,0.26976028,-0.27887453,0.407583,0.274241961,-0.277777634,0.391279,0.28336466,-0.27514783,0.391729,0.309007099,-0.261448931,0.437225,0.273999492,-0.2490202,0.402783,0.27254715,-0.257600408,0.382692,0.281002258,-0.262288867,0.383188,0.330042006,-0.256377591,0.437903,0.31652938,-0.266725456,0.404718,0.317344288,-0.270117389,0.38774,0.325884352,-0.269978784,0.388428,0.362840231,-0.258757437,0.444154,0.339173657,-0.266940689,0.416332,0.330536209,-0.272786637,0.403549,0.338609679,-0.282000894,0.403613
0.39327738,-0.346314137,0.49343,0.347034426,-0.291744074,0.463649,0.368588734,-0.34652817,0.490129,0.352438843,-0.326022922,0.479022,0.311437451,-0.312238261,0.465806,0.28364398,-0.29614777,0.454103,0.29029793,-0.264133947,0.441986,0.271077369,-0.26996758,0.409573,0.27570471,-0.269533709,0.393366,0.285314863,-0.26764505,0.394425,0.309891238,-0.251891319,0.438476,0.275404921,-0.239800871,0.404849,0.274357522,-0.249294232,0.385234,0.283423705,-0.254844684,0.38649,0.330528134,-0.246399427,0.438548,0.316647477,-0.25658928,0.404869,0.317260807,-0.260289552,0.387638,0.326165412,-0.260803761,0.388763,0.362568195,-0.248116388,0.443821,0.340609939,-0.258623847,0.417099,0.332732557,-0.265303424,0.404821,0.340831995,-0.278734273,0.405627
0.384382548,-0.338868274,0.486117,0.344109946,-0.2797513,0.460059,0.355739126,-0.329628464,0.482056,0.341326529,-0.312204071,0.472443,0.301849611,-0.288056415,0.455431,0.279933777,-0.269451185,0.447145,0.295236465,-0.241928403,0.439583,0.27972308,-0.197917078,0.423123,0.27098153,-0.18150583,0.414893,0.262926493,-0.166173261,0.407412,0.31812471,-0.236570256,0.438033,0.28637763,-0.221983383,0.407467,0.280511844,-0.235432881,0.389637,0.288906205,-0.244848201,0.393142,0.340263305,-0.237165103,0.43935,0.318926929,-0.244977208,0.409288,0.316598769,-0.253790873,0.393907,0.326315758,-0.259426419,0.397676,0.371855805,-0.246769386,0.445421,0.34095679,-0.257867653,0.420234,0.338890258,-0.272117594,0.430811,0.342661124,-0.287597241,0.443776
0.380051348,-0.331945488,0.487918,0.350237231,-0.279655714,0.467276,0.352704952,-0.323519666,0.484814,0.346937675,-0.307077212,0.479023,0.30879774,-0.281719698,0.462904,0.28941478,-0.264215749,0.457434,0.306575872,-0.237595314,0.451203,0.293497368,-0.194812996,0.436693,0.287555771,-0.173640954,0.430353,0.282242706,-0.154286218,0.424745,0.329736769,-0.232704363,0.449828,0.30177123,-0.214803424,0.423586,0.297407841,-0.230468863,0.408277,0.306874378,-0.241918625,0.414285,0.351483429,-0.233621304,0.45075,0.332898564,-0.238596373,0.425119,0.331819166,-0.250264128,0.412005,0.343776577,-0.260882405,0.418568,0.381545398,-0.243470553,0.455418,0.351265645,-0.249986769,0.433654,0.351968695,-0.269084376,0.445866,0.354748923,-0.285488962,0.458261
0.379070722,-0.330536427,0.488686,0.353724656,-0.276742609,0.473148,0.353108269,-0.322672568,0.486482,0.347727527,-0.303447378,0.484484,0.3105204,-0.278172305,0.469933,0.292955797,-0.265146515,0.465123,0.310482449,-0.239077705,0.461221,0.30056113,-0.19717741,0.451972,0.296269388,-0.176468648,0.448385,0.292462067,-0.157522416,0.445295,0.33355826,-0.233555284,0.460014,0.309192579,-0.215528823,0.438275,0.307525384,-0.23266384,0.425594,0.319973686,-0.249726866,0.433718,0.3548959,-0.233789371,0.460566,0.339494114,-0.235583245,0.439279,0.340811489,-0.248676196,0.428388,0.35523815,-0.263077457,0.437241,0.383911402,-0.242551601,0.463915,0.356493082,-0.247311705,0.445552,0.358333101,-0.268026703,0.458942,0.362493735,-0.289232272,0.470597
0.378997199,-0.330691544,0.490496,0.354073021,-0.277196542,0.474877,0.353715348,-0.323007499,0.488647,0.346783295,-0.304631188,0.485577,0.310394191,-0.279388136,0.471826,0.293427326,-0.263765452,0.469273,0.312023629,-0.239811488,0.463363,0.302545028,-0.19787088,0.454084,0.298447582,-0.177124514,0.450435,0.29481632,-0.158146794,0.447283,0.334753286,-0.234506564,0.461675,0.309380319,-0.216366494,0.439873,0.30711713,-0.233609483,0.427155,0.3197308,-0.249518425,0.435228,0.355755804,-0.234944565,0.461839,0.338796179,-0.236663924,0.440282,0.33951952,-0.249855464,0.429254,0.354042672,-0.264323602,0.437989,0.384293385,-0.243995196,0.464751,0.355868234,-0.248581095,0.446491,0.35776032,-0.268892253,0.459852,0.360638792,-0.285436699,0.471459
0.378758516,-0.330609308,0.491395,0.355197251,-0.277591136,0.4779,0.354599852,-0.323608008,0.490543,0.349203441,-0.3051959,0.488894,0.313567449,-0.279931019,0.476013,0.297251436,-0.264281487,0.474093,0.316859941,-0.241996302,0.46892,0.313174106,-0.201568791,0.464621,0.310829256,-0.181241274,0.462471,0.306681623,-0.162672271,0.460517,0.339106991,-0.236787987,0.466494,0.315406117,-0.220351417,0.44656,0.313519009,-0.238375427,0.434933,0.32547075,-0.25216173,0.443752,0.359406612,-0.237241497,0.465839,0.34332302,-0.238333358,0.445799,0.344518978,-0.252073299,0.435546,0.359605194,-0.267581344,0.445002,0.38667607,-0.245582961,0.467428,0.359496823,-0.25012818,0.450898,0.361599619,-0.270719197,0.464633,0.364166236,-0.287053652,0.475776
0.378249878,-0.331283132,0.492388,0.356559918,-0.279660298,0.480511,0.355698321,-0.3254475,0.493387,0.352438287,-0.306949555,0.497344,0.321831489,-0.28256016,0.490047,0.306888666,-0.265560683,0.488217,0.321600176,-0.245412168,0.474875,0.317141973,-0.204684036,0.470099,0.31559723,-0.184564076,0.468735,0.314297029,-0.166161051,0.467658,0.342292406,-0.23956578,0.470471,0.318521869,-0.223011126,0.451593,0.313762167,-0.240731009,0.440581,0.328595209,-0.256070692,0.449675,0.360785857,-0.23917515,0.468027,0.341571037,-0.239390435,0.448613,0.338949356,-0.250781026,0.43868,0.359188497,-0.269231906,0.448312,0.38607376,-0.246474657,0.467254,0.35720429,-0.251483431,0.452575,0.359349908,-0.271964544,0.466426,0.36376162,-0.287625531,0.476963
0.377496238,-0.331463073,0.492649,0.35669214,-0.280365578,0.481155,0.355466542,-0.325833635,0.494012,0.352490241,-0.307677413,0.498783,0.322824775,-0.283395732,0.492486,0.308243122,-0.266262632,0.490826,0.32241663,-0.24632189,0.476215,0.318191609,-0.205546823,0.47152,0.31680329,-0.185448069,0.470253,0.315649667,-0.167075398,0.469269,0.342808624,-0.24040138,0.471439,0.318536244,-0.223492754,0.452879,0.314336712,-0.24143082,0.442052,0.328995938,-0.257278373,0.451224,0.361112448,-0.239901145,0.46865,0.341487225,-0.239068515,0.449429,0.339656337,-0.251304105,0.439595,0.358896077,-0.269681491,0.449275,0.385928605,-0.247144689,0.46741,0.356950574,-0.251388975,0.453142,0.359063048,-0.271940243,0.467013,0.363319484,-0.287810656,0.477413
0.377084048,-0.331755714,0.493079,0.356769082,-0.280826667,0.481569,0.35524636,-0.326080529,0.494416,0.352204524,-0.307770023,0.499063,0.322771964,-0.283331116,0.492869,0.308381319,-0.266147183,0.491273,0.322622374,-0.246622169,0.476586,0.318673594,-0.205950524,0.472167,0.317404944,-0.185889236,0.47101,0.316358536,-0.167549735,0.470123,0.343006285,-0.240777034,0.47184,0.318364384,-0.223608154,0.453268,0.314373683,-0.241588279,0.442435,0.328787948,-0.257712879,0.451606,0.361349521,-0.2403637,0.469077,0.341459211,-0.238917636,0.449854,0.339983944,-0.251546494,0.440019,0.358597681,-0.269859896,0.449701,0.386125999,-0.247779175,0.46787,0.356946056,-0.25142783,0.45358,0.35903189,-0.272013003,0.467452,0.363137014,-0.288022721,0.47786
0.375418836,-0.331126162,0.491779,0.356402949,-0.28118207,0.481415,0.353967574,-0.325627495,0.493327,0.351634544,-0.307597732,0.498781,0.32361335,-0.2830565,0.493452,0.310005973,-0.264847067,0.492696,0.323060282,-0.247541451,0.477374,0.320948351,-0.208170525,0.475066,0.320153126,-0.188356043,0.474477,0.319316794,-0.170187535,0.473942,0.343465266,-0.241705869,0.472655,0.318205571,-0.223161969,0.455137,0.313991174,-0.236786555,0.444919,0.330297807,-0.258923569,0.454495,0.361764758,-0.241543371,0.469799,0.341264915,-0.237542544,0.451583,0.339187993,-0.246875563,0.442263,0.357562969,-0.270181317,0.452381,0.385705279,-0.249665501,0.468285,0.359582131,-0.250783434,0.454802,0.360654816,-0.271295803,0.468856,0.363652604,-0.288366907,0.47905
0.373648431,-0.330872505,0.492173,0.356420692,-0.281678544,0.481694,0.353764983,-0.326018487,0.493598,0.351562017,-0.307751731,0.499029,0.324167305,-0.282864399,0.493828,0.310917046,-0.264425084,0.493032,0.323033344,-0.247909608,0.477428,0.321615167,-0.208885189,0.475892,0.320877825,-0.189134995,0.47543,0.320026599,-0.171028991,0.475009,0.343508734,-0.242140174,0.472837,0.318186632,-0.222524896,0.455225,0.314014463,-0.236804117,0.444952,0.329863185,-0.258603312,0.454509,0.361879031,-0.242037183,0.470099,0.341178303,-0.236974446,0.451831,0.339358253,-0.246999486,0.442485,0.357367899,-0.269721188,0.452594,0.385956182,-0.250229085,0.468741,0.359936471,-0.25046436,0.455128,0.360983333,-0.270994138,0.46918,0.363639964,-0.288308052,0.479419
0.374173342,-0.33200313,0.494174,0.356869473,-0.282483918,0.482574,0.35403152,-0.326624739,0.495192,0.351010581,-0.308845667,0.498991,0.323702679,-0.282634753,0.493036,0.310291632,-0.26477127,0.491822,0.322609728,-0.248068793,0.477124,0.321456372,-0.209215902,0.475988,0.320595762,-0.18943975,0.475429,0.319420173,-0.170819971,0.474921,0.343244439,-0.242380823,0.472768,0.317279808,-0.221660097,0.454147,0.313550563,-0.239041601,0.443285,0.32805424,-0.257277722,0.452485,0.361849364,-0.242400611,0.470335,0.343304128,-0.239414677,0.451179,0.341329779,-0.252447917,0.441378,0.359189763,-0.269900337,0.451128,0.386422785,-0.250838502,0.469528,0.359928037,-0.250063831,0.455027,0.361811907,-0.271366415,0.468929,0.363690135,-0.288061753,0.479423
0.373290576,-0.332511454,0.494294,0.356729814,-0.282734009,0.482604,0.353098459,-0.326865442,0.495137,0.350585139,-0.308811926,0.498599,0.323119864,-0.282257893,0.492085,0.310157283,-0.264563683,0.491418,0.322277331,-0.248176425,0.476874,0.321269746,-0.209404235,0.475948,0.320432655,-0.189679879,0.475485,0.319304271,-0.171142377,0.475064,0.34305124,-0.242564649,0.472723,0.317094939,-0.221366213,0.454039,0.313341455,-0.238634352,0.44314,0.327676341,-0.257055538,0.452339,0.361792427,-0.242650058,0.470467,0.343208751,-0.239477269,0.451311,0.341609289,-0.252598114,0.44151,0.359192798,-0.270107683,0.451277,0.386578104,-0.251169561,0.469882,0.360153682,-0.249913506,0.455242,0.36200244,-0.271245142,0.469151,0.36393575,-0.288027169,0.479697
0.372275439,-0.33292391,0.493905,0.356232759,-0.283093209,0.48245,0.352095279,-0.327034574,0.494636,0.350093928,-0.308644212,0.498066,0.322703106,-0.281996672,0.491401,0.309885253,-0.264259162,0.490838,0.322041555,-0.248277361,0.476713,0.321164338,-0.209567791,0.475969,0.320357569,-0.189887836,0.475597,0.319270456,-0.17142326,0.475259,0.342959025,-0.242748655,0.472768,0.31720839,-0.221321807,0.454319,0.313556284,-0.238611722,0.443557,0.327352468,-0.257251688,0.452869,0.361817542,-0.242890731,0.47066,0.343423952,-0.23972427,0.451787,0.342208146,-0.253003214,0.442131,0.358956511,-0.270529361,0.452038,0.386737231,-0.25145205,0.470204,0.360083025,-0.249598621,0.455655,0.361959767,-0.27102271,0.469623,0.363950037,-0.287845649,0.480159
0.371500344,-0.333273622,0.493489,0.35587021,-0.28343471,0.482317,0.351262761,-0.3272052,0.494065,0.349213866,-0.308000599,0.497561,0.322241084,-0.281675294,0.490658,0.309518676,-0.26388849,0.490138,0.321825821,-0.248337066,0.476544,0.321087526,-0.209698324,0.475993,0.320321319,-0.190062729,0.475717,0.319278342,-0.171666727,0.475467,0.342935327,-0.242931294,0.472873,0.317417495,-0.221371465,0.45471,0.313888367,-0.238719301,0.444115,0.327427438,-0.257514348,0.453565,0.361951022,-0.243159528,0.470962,0.343459913,-0.2396164,0.452441,0.342937597,-0.253515541,0.442964,0.359279728,-0.270934063,0.453044,0.386849225,-0.252199049,0.470687,0.360628716,-0.24975768,0.456239,0.362312772,-0.270834706,0.470277,0.364247068,-0.287856728,0.480805
