sluyters/QuantumLeap/backend/src/datasets/dynamic/HandGestureDataset_SHREC2017_csv/Gesture9/finger_2/subject_21_essai_2_skeletons_world.csv
Wrist_x,Wrist_y,Wrist_z,Palm_x,Palm_y,Palm_z,thumb_base_x,thumb_base_y,thumb_base_z,thumb_first_joint_x,thumb_first_joint_y,thumb_first_joint_z,thumb_second_joint_x,thumb_second_joint_y,thumb_second_joint_z,thumb_tip_x,thumb_tip_y,thumb_tip_z,index_base_x,index_base_y,index_base_z,index_first_joint_x,index_first_joint_y,index_first_joint_z,index_second_joint_x,index_second_joint_y,index_second_joint_z,index_tip_x,index_tip_y,index_tip_z,middle_base_x,middle_base_y,middle_base_z,middle_first_joint_x,middle_first_joint_y,middle_first_joint_z,middle_second_joint_x,middle_second_joint_y,middle_second_joint_z,middle_tip_x,middle_tip_y,middle_tip_z,ring_base_x,ring_base_y,ring_base_z,ring_first_joint_x,ring_first_joint_y,ring_first_joint_z,ring_second_joint_x,ring_second_joint_y,ring_second_joint_z,ring_tip_x,ring_tip_y,ring_tip_z,pinky_base_x,pinky_base_y,pinky_base_z,pinky_first_joint_x,pinky_first_joint_y,pinky_first_joint_z,pinky_second_joint_x,pinky_second_joint_y,pinky_second_joint_z,pinky_tip_x,pinky_tip_y,pinky_tip_z,
0.332610607,-0.364550335,0.397007,0.32980651,-0.322164897,0.394174,0.313395686,-0.352764015,0.396742,0.29048298,-0.326632924,0.38761,0.272396593,-0.302199473,0.377538,0.263906358,-0.283640088,0.374472,0.30640321,-0.27640338,0.391975,0.297267059,-0.260530148,0.384152,0.292619524,-0.252644473,0.38044,0.28562862,-0.246189164,0.377065,0.32795193,-0.277575183,0.391337,0.316094425,-0.257475519,0.382681,0.308950727,-0.246412805,0.377631,0.303727606,-0.238209028,0.374059,0.346225638,-0.281513916,0.391,0.337213292,-0.257099059,0.382985,0.332487375,-0.246583035,0.378884,0.326738994,-0.235743426,0.375408,0.369062655,-0.292168212,0.390959,0.368867588,-0.263326833,0.384105,0.368736311,-0.250160537,0.380956,0.368628971,-0.238487909,0.378177
0.339755329,-0.373895043,0.402078,0.33108284,-0.322923777,0.392432,0.316464333,-0.356715831,0.397306,0.2939165,-0.325359617,0.381789,0.269959707,-0.294392789,0.371043,0.25671042,-0.274356672,0.362666,0.297486641,-0.276043297,0.380255,0.283843378,-0.235842838,0.36629,0.276752451,-0.231640123,0.359308,0.269702517,-0.23009954,0.352961,0.321001607,-0.272902932,0.382798,0.305681434,-0.2356749,0.368101,0.297136508,-0.225763927,0.359528,0.288441633,-0.22243135,0.353405,0.341760125,-0.278490685,0.385527,0.328815245,-0.239641737,0.37119,0.322170674,-0.228839573,0.363855,0.313743127,-0.222803399,0.357187,0.368900864,-0.291805972,0.39003,0.364367353,-0.259029165,0.378938,0.362241973,-0.244519699,0.373842,0.360262819,-0.233309302,0.369345
0.336958696,-0.368480107,0.397683,0.33014316,-0.320767623,0.389977,0.314418173,-0.352988167,0.393827,0.292895037,-0.321476659,0.379656,0.270092424,-0.293401196,0.370681,0.256917335,-0.273118571,0.362008,0.297614657,-0.273983761,0.380211,0.285390759,-0.234335464,0.367904,0.279290398,-0.226140103,0.361751,0.273426383,-0.225142004,0.356158,0.320150696,-0.27206179,0.382305,0.307132971,-0.234049468,0.369282,0.299739746,-0.216631031,0.361684,0.294377003,-0.210249626,0.356258,0.340637936,-0.276757353,0.384539,0.329526439,-0.233717789,0.371915,0.323718969,-0.223693677,0.365456,0.318341473,-0.217255944,0.359585,0.368644286,-0.288008062,0.388202,0.365011555,-0.250694772,0.37868,0.363454056,-0.239503823,0.374305,0.361170445,-0.23186956,0.370444
0.335233061,-0.366058963,0.394666,0.328490758,-0.318873836,0.38811,0.313593304,-0.351515368,0.391799,0.292246472,-0.320257291,0.378982,0.270754331,-0.293546699,0.371526,0.257811971,-0.272980911,0.362771,0.298299552,-0.273479892,0.380313,0.286685902,-0.234271806,0.369071,0.280824378,-0.225326917,0.36345,0.275092811,-0.218541612,0.358341,0.321539104,-0.273745631,0.381597,0.308400978,-0.231389296,0.36963,0.300885805,-0.217436706,0.362649,0.295608587,-0.209454651,0.357663,0.341369903,-0.276737385,0.383088,0.329620593,-0.236269593,0.371553,0.324271174,-0.222810904,0.365651,0.319193595,-0.21212374,0.360285,0.366762642,-0.287739521,0.385716,0.363664741,-0.254124639,0.376792,0.361482107,-0.239690486,0.372692,0.360168647,-0.230836454,0.369075
0.332306123,-0.361993938,0.390484,0.327299488,-0.305282996,0.384213,0.309849707,-0.345681141,0.387818,0.293459423,-0.31348665,0.385391,0.26783817,-0.284717054,0.371517,0.256875935,-0.266126832,0.362708,0.298752925,-0.259043325,0.376848,0.284756215,-0.218964226,0.365836,0.278605564,-0.210444028,0.360329,0.272923688,-0.20244292,0.355324,0.322187584,-0.261358998,0.377983,0.309041147,-0.218965192,0.366271,0.302442659,-0.203095431,0.359438,0.297700978,-0.191348965,0.354558,0.34202095,-0.266236898,0.379333,0.328761933,-0.225799414,0.368032,0.323400358,-0.212387727,0.36225,0.317456716,-0.203749747,0.356994,0.365323616,-0.279565937,0.381755,0.363286623,-0.247351941,0.375374,0.362676399,-0.233961545,0.372442,0.362022034,-0.224353834,0.369855
0.326914396,-0.355251571,0.385438,0.322661286,-0.296859783,0.379264,0.30710387,-0.329950933,0.382553,0.285360904,-0.300080183,0.378669,0.263039122,-0.270088138,0.368642,0.255610442,-0.250374168,0.366201,0.293761366,-0.247574504,0.371712,0.282353333,-0.209562873,0.363799,0.278058052,-0.201072385,0.359842,0.274084273,-0.193002781,0.356245,0.317310101,-0.2501389,0.373154,0.305232235,-0.211215263,0.361461,0.298345389,-0.189155136,0.35464,0.293411913,-0.173166729,0.349768,0.337323311,-0.255367488,0.37475,0.324854114,-0.214118466,0.363462,0.319998031,-0.198799029,0.357687,0.315593669,-0.184472863,0.352437,0.36244183,-0.267802482,0.377454,0.360744842,-0.235339506,0.37147,0.360442348,-0.221409163,0.368721,0.360184085,-0.209070854,0.366295
0.324517196,-0.339851181,0.381432,0.319642255,-0.291716043,0.37636,0.304385136,-0.325388149,0.37967,0.283540047,-0.296300088,0.377108,0.26051055,-0.266312003,0.366371,0.253991529,-0.248063254,0.365836,0.291374169,-0.241772219,0.370902,0.281191802,-0.206471052,0.362289,0.276051933,-0.189301617,0.357982,0.271374578,-0.17718101,0.354067,0.314132179,-0.243420429,0.371347,0.302810828,-0.202512506,0.360703,0.296590863,-0.18315603,0.354494,0.292890051,-0.171115623,0.350059,0.333439988,-0.247824943,0.372051,0.32394775,-0.211016295,0.36183,0.320079631,-0.189576983,0.356601,0.316205793,-0.172933249,0.351847,0.357584131,-0.259110136,0.373546,0.358065101,-0.227413489,0.367638,0.358366698,-0.213164686,0.364923,0.358770649,-0.204477941,0.363766
0.319601153,-0.329302543,0.375376,0.315996518,-0.274769905,0.370616,0.299301079,-0.314543721,0.373483,0.278748889,-0.280701484,0.371651,0.254542477,-0.252754211,0.360728,0.248419149,-0.23907743,0.360483,0.288785889,-0.228733334,0.365217,0.277446662,-0.190829716,0.356267,0.272105013,-0.17591273,0.351791,0.267270675,-0.162748609,0.347723,0.311760597,-0.230545991,0.365933,0.300151557,-0.191428738,0.355465,0.293512398,-0.16908469,0.349359,0.288750691,-0.152880871,0.344997,0.331142643,-0.235039316,0.366839,0.320843335,-0.195770552,0.356831,0.315892172,-0.176605996,0.351711,0.311588156,-0.159679867,0.347057,0.355152168,-0.24629649,0.368536,0.355359488,-0.215491679,0.364612,0.355615207,-0.201570231,0.362808,0.355842136,-0.189283487,0.361217
0.318349947,-0.320696713,0.373623,0.314546523,-0.271002627,0.368703,0.298472924,-0.302105193,0.371589,0.276388976,-0.273653213,0.368757,0.252386962,-0.24600184,0.358684,0.244336503,-0.230003052,0.35613,0.287305972,-0.224948762,0.363034,0.276832862,-0.184509572,0.355041,0.272240278,-0.175109451,0.351045,0.268202115,-0.163942969,0.347412,0.310391036,-0.22683208,0.363871,0.299545337,-0.1842319,0.35326,0.293208863,-0.161330772,0.34707,0.287726091,-0.148322574,0.342649,0.32983142,-0.23138461,0.364888,0.320123421,-0.192340817,0.354743,0.316705556,-0.170063733,0.349553,0.311066108,-0.155308513,0.344835,0.353857748,-0.242701049,0.366739,0.354919723,-0.212275861,0.363382,0.355505035,-0.19845726,0.36184,0.35624885,-0.186423126,0.360479
0.317246809,-0.317337127,0.371295,0.313788669,-0.268732762,0.366612,0.29775853,-0.299814921,0.369517,0.27728359,-0.272579534,0.367673,0.253817802,-0.244837415,0.357935,0.245081319,-0.225386272,0.35432,0.287598291,-0.221267193,0.361412,0.278317849,-0.184410762,0.355308,0.27456266,-0.172997799,0.352256,0.269893047,-0.160767058,0.349481,0.310536233,-0.223083626,0.362017,0.299160769,-0.183038679,0.351664,0.292730349,-0.160404301,0.345625,0.287302306,-0.146448929,0.341311,0.329837272,-0.227581495,0.362828,0.320293544,-0.188501726,0.352902,0.315601449,-0.169094702,0.347823,0.310267972,-0.153556886,0.343206,0.353660856,-0.238831122,0.364401,0.35533008,-0.208606921,0.361536,0.356241681,-0.194903627,0.36022,0.356126392,-0.184734281,0.359059
0.317791552,-0.309810361,0.370241,0.314465317,-0.25542356,0.364729,0.298387756,-0.29399839,0.368602,0.277680038,-0.264121099,0.366841,0.251608045,-0.23918575,0.353975,0.242627528,-0.222427205,0.351957,0.286006959,-0.211048714,0.359173,0.274468924,-0.17286518,0.349122,0.268748493,-0.154974169,0.344097,0.263681162,-0.140864844,0.339529,0.308680141,-0.211877045,0.359336,0.297372939,-0.171645373,0.3483,0.290786409,-0.148115431,0.341863,0.286077554,-0.131231853,0.337265,0.327868418,-0.215549234,0.359838,0.318393264,-0.176396447,0.349288,0.313545133,-0.156386312,0.34389,0.309357707,-0.138307141,0.339224,0.351727722,-0.225761226,0.361151,0.352993045,-0.194991249,0.357069,0.353848709,-0.181124435,0.355194,0.355482221,-0.170692738,0.353539
0.31641146,-0.303617437,0.368441,0.31262391,-0.252273829,0.363347,0.296386013,-0.289575695,0.366607,0.273265426,-0.254531152,0.36365,0.249733673,-0.227273053,0.353952,0.240410362,-0.207534541,0.34959,0.286068556,-0.203721821,0.357824,0.274067553,-0.165692392,0.347809,0.268196411,-0.147762966,0.342801,0.262907101,-0.137022102,0.338248,0.30840957,-0.208660554,0.358366,0.298025644,-0.164903354,0.34763,0.292064446,-0.142406654,0.341368,0.286779175,-0.128591223,0.336895,0.327714058,-0.213031876,0.359153,0.318620277,-0.173803047,0.348897,0.314297513,-0.154653279,0.34365,0.310372613,-0.137072883,0.33888,0.351556373,-0.224107526,0.360753,0.352891936,-0.193459738,0.356868,0.353999673,-0.179757673,0.355082,0.35575115,-0.169394332,0.353507
0.315108114,-0.293037856,0.366084,0.310994271,-0.245495794,0.361038,0.295815783,-0.279530761,0.365099,0.27130092,-0.247130745,0.360691,0.247359876,-0.223077025,0.351428,0.238799243,-0.20463639,0.349145,0.286502054,-0.196633291,0.356584,0.27389755,-0.159265207,0.346837,0.267619073,-0.140909894,0.341964,0.262301245,-0.129457959,0.337534,0.308566258,-0.198201,0.356108,0.297481516,-0.15798972,0.345558,0.29100984,-0.134432519,0.339404,0.286287229,-0.121468494,0.335008,0.327093906,-0.202520229,0.356056,0.318103621,-0.163730467,0.345941,0.313581914,-0.144016427,0.340765,0.309473806,-0.12600723,0.336061,0.349938382,-0.213599492,0.356646,0.351228441,-0.18316295,0.353311,0.352531418,-0.169775003,0.351778,0.353741708,-0.157865817,0.350426
0.311913424,-0.287694426,0.361462,0.31037863,-0.238545938,0.358184,0.291927122,-0.271607664,0.359984,0.269546396,-0.242526526,0.357128,0.247253865,-0.213203909,0.348862,0.23790047,-0.19782854,0.347176,0.284851202,-0.193279525,0.354273,0.272747181,-0.156299733,0.345595,0.266852923,-0.138414559,0.341256,0.261762887,-0.123570413,0.337312,0.307881052,-0.195274747,0.354988,0.297824149,-0.155608091,0.345731,0.291983525,-0.132320706,0.340331,0.287806013,-0.115560078,0.336474,0.327220488,-0.199891014,0.355797,0.317488459,-0.160271875,0.348731,0.316713764,-0.150005712,0.345116,0.311177945,-0.157585962,0.341829,0.351007886,-0.211242926,0.357188,0.351092692,-0.180032404,0.352574,0.351892916,-0.166356316,0.350454,0.352698286,-0.154294425,0.348583
0.310671841,-0.281283492,0.359383,0.309703823,-0.231108306,0.355542,0.292690166,-0.265143673,0.358703,0.270756516,-0.23335942,0.356394,0.245871559,-0.209746841,0.347138,0.237115746,-0.191177446,0.344499,0.285700652,-0.18299519,0.352242,0.273036588,-0.146267349,0.343446,0.266693839,-0.127840997,0.339048,0.260507582,-0.116929481,0.335049,0.307783224,-0.184390884,0.351797,0.297028539,-0.144160167,0.342239,0.290986103,-0.121510935,0.336663,0.285689514,-0.10843311,0.33268,0.326293512,-0.188519495,0.35169,0.317515402,-0.149644831,0.342531,0.313390814,-0.130582301,0.337844,0.30992063,-0.113927437,0.333584,0.348996154,-0.199261901,0.352061,0.349872981,-0.169626393,0.350036,0.351163144,-0.156414942,0.349106,0.352777139,-0.147976291,0.348285
0.30943323,-0.278232008,0.357897,0.308554025,-0.228945544,0.354498,0.291419189,-0.262299965,0.357359,0.269848979,-0.231601598,0.355541,0.246256356,-0.205573877,0.347303,0.236863845,-0.186420391,0.34344,0.284834117,-0.181936224,0.351657,0.272347829,-0.145099093,0.343233,0.266114388,-0.126795988,0.339022,0.260556953,-0.111345615,0.335193,0.306899535,-0.183512097,0.351186,0.296846523,-0.143343292,0.342007,0.291163813,-0.120465147,0.336653,0.287140021,-0.104054902,0.332828,0.325332117,-0.187776507,0.351028,0.316739426,-0.14885137,0.342244,0.312832695,-0.129952841,0.33775,0.309421189,-0.11295009,0.333665,0.347820113,-0.198650533,0.351279,0.349627554,-0.169309595,0.349765,0.351238297,-0.156057075,0.349069,0.352922435,-0.146619314,0.348455
0.309023199,-0.268996712,0.355162,0.306509275,-0.220508717,0.352021,0.289829371,-0.255390435,0.35432,0.269061751,-0.222479447,0.353076,0.24534217,-0.196392078,0.344789,0.236253778,-0.180251598,0.341398,0.281382817,-0.172891087,0.348976,0.271569716,-0.137430271,0.34422,0.267432834,-0.124134577,0.341843,0.263162065,-0.108775654,0.339681,0.303892382,-0.173905072,0.348963,0.294217659,-0.13358645,0.339921,0.288826436,-0.110487141,0.334646,0.28546976,-0.0982859264,0.330878,0.322767244,-0.177695388,0.349164,0.314598582,-0.13880904,0.340517,0.311010859,-0.119771942,0.336092,0.307758311,-0.102177433,0.33207,0.345940243,-0.18797673,0.349812,0.348841832,-0.158614342,0.347689,0.351145709,-0.145326194,0.346714,0.353221758,-0.133429006,0.345853
0.310237269,-0.263902157,0.356032,0.308129095,-0.213544487,0.35287,0.290803469,-0.250133055,0.354981,0.270252788,-0.214645849,0.353624,0.247164385,-0.187351312,0.344531,0.238500348,-0.167465884,0.339911,0.282891132,-0.166045623,0.349557,0.271622206,-0.129506851,0.341102,0.266102304,-0.111974302,0.336874,0.25945375,-0.100408892,0.33303,0.305429969,-0.167348481,0.349793,0.295245806,-0.128015686,0.3407,0.289283952,-0.104739526,0.335396,0.285386855,-0.0911621004,0.331607,0.32440951,-0.171357363,0.350201,0.316810574,-0.132888682,0.341517,0.31336296,-0.113992844,0.337074,0.309546912,-0.0997956939,0.333036,0.347866942,-0.181915047,0.351098,0.350454774,-0.151796568,0.347911,0.351863974,-0.13801054,0.346446,0.352854779,-0.129483063,0.345154
0.309897003,-0.253820797,0.354915,0.307429431,-0.206252339,0.351736,0.29033689,-0.240260099,0.35373,0.268244597,-0.210870718,0.351865,0.244752551,-0.184634681,0.343124,0.236115409,-0.165911751,0.340226,0.283068307,-0.15888763,0.348247,0.270934829,-0.122140478,0.340663,0.265304142,-0.104861777,0.33687,0.260879538,-0.0929963146,0.333422,0.305911827,-0.160773694,0.348639,0.296234954,-0.120440563,0.339517,0.290739181,-0.09699554,0.334195,0.285431922,-0.0839233421,0.330394,0.32418734,-0.168082386,0.349176,0.315758033,-0.126408712,0.340468,0.312086433,-0.107561864,0.336013,0.309100976,-0.0934153949,0.331963,0.347473901,-0.178933984,0.350229,0.350127069,-0.149095586,0.347681,0.351619328,-0.135403519,0.34651,0.35298509,-0.123286763,0.345476
0.310116537,-0.250047961,0.354015,0.308315415,-0.199622367,0.351165,0.291642226,-0.233894122,0.353906,0.26919155,-0.202359577,0.350828,0.243848618,-0.18004871,0.342851,0.234758005,-0.162238868,0.341201,0.284498334,-0.153389565,0.349202,0.271928608,-0.119998265,0.342364,0.265295876,-0.099641077,0.338945,0.259528527,-0.0833448963,0.335836,0.306362039,-0.153816291,0.348391,0.295236535,-0.113890021,0.33973,0.288909407,-0.0907287056,0.334678,0.285986245,-0.0772646656,0.33107,0.324680872,-0.157095921,0.347915,0.316100806,-0.118577296,0.339576,0.312313864,-0.0995488098,0.33531,0.308757514,-0.0864025829,0.331432,0.347187635,-0.166711061,0.347716,0.3498907,-0.137473278,0.346533,0.351120565,-0.124125328,0.345989,0.352887905,-0.112177859,0.345509
0.31235278,-0.240534454,0.354646,0.310611607,-0.193057806,0.351952,0.293149129,-0.227570447,0.354174,0.270755687,-0.195128664,0.352026,0.24638818,-0.169138873,0.343064,0.236560231,-0.149672421,0.338455,0.285053425,-0.14707601,0.349645,0.271863165,-0.114268817,0.341714,0.266430818,-0.0933629763,0.337749,0.259526908,-0.0801921519,0.334144,0.307125854,-0.147433861,0.349328,0.295847212,-0.108297263,0.340722,0.289550487,-0.0881411568,0.335702,0.285009233,-0.0715070468,0.332116,0.325777689,-0.15059951,0.349249,0.317132396,-0.11248161,0.341006,0.313077803,-0.093468757,0.336788,0.310049457,-0.0795223113,0.332955,0.348977132,-0.160036026,0.349504,0.35071948,-0.129971865,0.346693,0.351506553,-0.116240905,0.345401,0.352070663,-0.107875966,0.344261
0.311044469,-0.237755867,0.353542,0.308819201,-0.188317932,0.351079,0.292011391,-0.224893511,0.35321,0.27001244,-0.193783207,0.351781,0.246015085,-0.167465823,0.342718,0.236557591,-0.148026387,0.338411,0.283824825,-0.145710356,0.349091,0.271614019,-0.109670209,0.341358,0.265632354,-0.0919774682,0.337491,0.259496622,-0.0782734528,0.333976,0.305884715,-0.146307503,0.348679,0.295180185,-0.106858055,0.340281,0.288976614,-0.0837146016,0.335382,0.284632346,-0.0671019047,0.331882,0.324417076,-0.149685615,0.348505,0.316154122,-0.111491289,0.340463,0.312391519,-0.0924541111,0.336348,0.309078854,-0.0749740491,0.332608,0.347255961,-0.159375694,0.348616,0.349487708,-0.129497375,0.346185,0.350504627,-0.115828422,0.345069,0.351560478,-0.103698814,0.344083
0.310666689,-0.231086012,0.351092,0.307933725,-0.185184357,0.349369,0.291689415,-0.218667412,0.351081,0.272637598,-0.18762136,0.351952,0.247130217,-0.163750412,0.34288,0.237135035,-0.145965202,0.338235,0.283023409,-0.141591305,0.348246,0.271047151,-0.105321308,0.341092,0.265328519,-0.0880275817,0.337515,0.260090976,-0.0720345722,0.334263,0.305744426,-0.138931813,0.347688,0.295364347,-0.0994130588,0.339928,0.289159309,-0.0792385578,0.335401,0.285166833,-0.0626635309,0.332167,0.32426213,-0.141776901,0.347344,0.31484212,-0.103747765,0.339909,0.310252267,-0.0843285426,0.336104,0.306071459,-0.0665171967,0.332646,0.347055288,-0.150783881,0.347157,0.349367599,-0.121449278,0.345673,0.350519173,-0.107961327,0.344991,0.351551179,-0.0996952662,0.344389
0.311360924,-0.226365514,0.3523,0.308568077,-0.1778121,0.350052,0.291490177,-0.21336908,0.351213,0.271834848,-0.180524232,0.352865,0.24893287,-0.154482475,0.344588,0.239403878,-0.138797456,0.339948,0.281623194,-0.13146487,0.347277,0.270228924,-0.0951288313,0.340294,0.264744599,-0.0770892748,0.336803,0.25998195,-0.0656201247,0.333629,0.304632133,-0.132379068,0.347856,0.293900385,-0.0925226248,0.339499,0.287866926,-0.06922388,0.334625,0.283954618,-0.0558825611,0.331143,0.323901111,-0.136050323,0.348484,0.314711873,-0.0979400621,0.340521,0.310868101,-0.0817583931,0.336446,0.30705311,-0.0640435236,0.332743,0.347452213,-0.146115096,0.349525,0.349149932,-0.116492664,0.347312,0.349914333,-0.103003544,0.346296,0.352169305,-0.0934251593,0.345399
0.311489382,-0.22413907,0.35332,0.306968448,-0.171875098,0.350611,0.29183028,-0.205994357,0.352513,0.26676737,-0.174018356,0.351221,0.243245566,-0.148845926,0.343586,0.236643002,-0.132622597,0.340541,0.281233732,-0.125224396,0.347879,0.269994422,-0.0895115418,0.340951,0.265191388,-0.0749246843,0.337487,0.260721636,-0.0595260006,0.334339,0.303793288,-0.126444068,0.347962,0.293706823,-0.0864407833,0.339292,0.288103788,-0.0630715592,0.334235,0.283763655,-0.0494040658,0.330622,0.322612765,-0.130361135,0.348212,0.313996788,-0.0948846869,0.339925,0.309907679,-0.0724872308,0.335686,0.306724613,-0.0579256497,0.331831,0.346174048,-0.143274183,0.348862,0.348010272,-0.114106185,0.346907,0.349443136,-0.10060075,0.346009,0.351083669,-0.0883945391,0.345217
0.311944979,-0.216157344,0.354189,0.3073403,-0.165947701,0.351218,0.29149764,-0.200092296,0.353566,0.267450098,-0.167788059,0.350377,0.24276437,-0.145664854,0.342452,0.233496511,-0.127290509,0.339949,0.282580252,-0.119464543,0.348543,0.269501735,-0.0835308456,0.341191,0.263456322,-0.0658523145,0.337516,0.259346172,-0.0534662275,0.334174,0.304890451,-0.120232143,0.348315,0.294039688,-0.0803169295,0.339466,0.288177163,-0.0570874645,0.334304,0.284263637,-0.0433857586,0.330617,0.323560514,-0.123769907,0.348327,0.313633635,-0.085460444,0.339861,0.308949138,-0.065885066,0.335529,0.305400091,-0.0511630488,0.331592,0.346458126,-0.133655764,0.348726,0.347671383,-0.104860297,0.348134,0.348571527,-0.0913470246,0.347862,0.349513599,-0.0792521158,0.347622
0.311585101,-0.210248744,0.35388,0.308751003,-0.160967966,0.351578,0.292031859,-0.197682573,0.35328,0.268304775,-0.166577927,0.350544,0.243994571,-0.141926774,0.342915,0.23396963,-0.12560626,0.339991,0.282317498,-0.119292982,0.349362,0.270330673,-0.0831583974,0.34163,0.26456739,-0.0650996584,0.337765,0.259442939,-0.0491143523,0.334251,0.304692028,-0.119335747,0.349328,0.29360352,-0.0798197196,0.341023,0.287480401,-0.0567643632,0.336179,0.283133974,-0.0400002441,0.332718,0.323563559,-0.122207266,0.349455,0.314599173,-0.0840838014,0.341505,0.310261223,-0.0644861676,0.337437,0.306322851,-0.0464412752,0.333739,0.346314006,-0.128310837,0.349905,0.347375939,-0.098647062,0.346804,0.347185979,-0.0876950731,0.345379,0.347702358,-0.0766971417,0.344122
0.311774428,-0.208361493,0.353916,0.308648631,-0.15980056,0.351669,0.292022851,-0.193237568,0.353152,0.26873412,-0.165515575,0.350946,0.244355044,-0.140711653,0.343042,0.23479548,-0.122223018,0.340199,0.282032204,-0.117832754,0.349287,0.270098514,-0.0817081081,0.341557,0.264531338,-0.0638173113,0.337692,0.259525437,-0.0476683751,0.334178,0.304006569,-0.116665104,0.349471,0.292478275,-0.0772803835,0.34119,0.286270774,-0.0543322821,0.336359,0.283227127,-0.0385699761,0.332908,0.323056636,-0.119303122,0.349773,0.314357251,-0.0811916189,0.341858,0.310599255,-0.0632335046,0.337808,0.306847332,-0.0451759967,0.334127,0.346748908,-0.128005363,0.350425,0.346318898,-0.0981581039,0.346644,0.346926018,-0.0841594713,0.344907,0.346884812,-0.0748042199,0.343374
0.310629443,-0.206654863,0.353351,0.307348298,-0.158844001,0.351382,0.290817493,-0.191798763,0.352632,0.268576107,-0.162203958,0.352154,0.244918009,-0.13642406,0.343782,0.235532101,-0.118866456,0.340018,0.280430285,-0.115857293,0.349233,0.269094565,-0.0781187179,0.341711,0.264133415,-0.0602234322,0.337951,0.259695215,-0.0466024449,0.334532,0.303032069,-0.115897023,0.349454,0.291991268,-0.0765086854,0.341407,0.286050135,-0.0534950489,0.336713,0.281785185,-0.0367065282,0.333359,0.322066555,-0.118766597,0.349768,0.313770739,-0.0806754339,0.342076,0.310008417,-0.0611576348,0.33814,0.3067987,-0.0444024377,0.334562,0.345612662,-0.127751383,0.350398,0.345828803,-0.0982453618,0.34695,0.346784744,-0.084313009,0.345366,0.347377574,-0.0742272655,0.343969
0.309565122,-0.202062808,0.35223,0.305025815,-0.154500803,0.350245,0.290478024,-0.188038378,0.351919,0.268452898,-0.159315523,0.352664,0.244940385,-0.133196484,0.344083,0.236012779,-0.115762738,0.340296,0.277920325,-0.11158665,0.348581,0.26827553,-0.0752726437,0.341527,0.263494085,-0.0572529527,0.337999,0.259598072,-0.0424350481,0.334793,0.30011417,-0.111456494,0.348298,0.290024492,-0.0719869614,0.340305,0.284402305,-0.0487913831,0.335643,0.281101908,-0.0331614195,0.332313,0.318785939,-0.114198554,0.348197,0.311098052,-0.076044491,0.340502,0.307480578,-0.0564147152,0.336565,0.304837066,-0.0396551925,0.332985,0.342311172,-0.119552943,0.348332,0.343605909,-0.0909206915,0.345063,0.345017415,-0.0770949465,0.343561,0.345809288,-0.0696495822,0.342235
0.310539349,-0.198634611,0.35255,0.306204672,-0.149170494,0.350502,0.290945267,-0.18660099,0.352185,0.269659432,-0.155876027,0.352446,0.244686453,-0.131725909,0.343588,0.235707833,-0.112643769,0.340154,0.279385414,-0.107637269,0.348731,0.268214594,-0.0718083032,0.341671,0.263188517,-0.0559783258,0.338141,0.259073627,-0.041174436,0.334932,0.301629454,-0.107196432,0.348492,0.290723788,-0.0679047769,0.34046,0.28483781,-0.0449213429,0.335774,0.280460665,-0.0303657929,0.332428,0.320398252,-0.109672926,0.348431,0.311494274,-0.0715512199,0.340703,0.307247118,-0.0519080733,0.336748,0.303378389,-0.0337823908,0.333154,0.343671731,-0.118197374,0.348622,0.343825623,-0.0896544738,0.345547,0.344893628,-0.0758271473,0.344134,0.346134854,-0.0641773363,0.342888
0.312123622,-0.19801367,0.353797,0.308026989,-0.148645562,0.351399,0.29227706,-0.185867269,0.353213,0.269874838,-0.155202269,0.351991,0.244697456,-0.131293746,0.343374,0.235467046,-0.112567222,0.340278,0.282007744,-0.105422042,0.349136,0.268999784,-0.0708342407,0.341785,0.263364807,-0.0531050859,0.33811,0.258211517,-0.0367677625,0.334768,0.304373169,-0.105158138,0.349047,0.291593112,-0.0671634092,0.340708,0.285322185,-0.0441736432,0.335843,0.280808935,-0.0273970282,0.332368,0.323228978,-0.107783421,0.349132,0.312532879,-0.0708347956,0.341116,0.308008097,-0.051199261,0.337015,0.303882465,-0.0330684344,0.333286,0.346604435,-0.116486976,0.349543,0.344748056,-0.0888382811,0.345995,0.345459255,-0.0750013485,0.344364,0.346301452,-0.0630664313,0.342926
0.312719556,-0.197169574,0.35406,0.308711892,-0.148273416,0.351589,0.292895955,-0.185073179,0.353524,0.270238519,-0.155014363,0.352099,0.244994808,-0.131191233,0.343654,0.235536063,-0.112623271,0.34066,0.282486308,-0.10537106,0.349339,0.26939654,-0.0703452293,0.341845,0.263568469,-0.0524678259,0.338097,0.25826817,-0.0360368849,0.334691,0.304783781,-0.105052044,0.349166,0.291982203,-0.066782561,0.340779,0.285571315,-0.0438013633,0.335886,0.280957264,-0.0270317569,0.332392,0.323588429,-0.107634443,0.349187,0.31286732,-0.0704350159,0.341121,0.308247388,-0.0508214164,0.336994,0.304034339,-0.0327003354,0.333242,0.346910863,-0.116291174,0.349531,0.345031907,-0.0883844944,0.346041,0.345701146,-0.0745789499,0.344438,0.346463412,-0.0625262158,0.343023
0.313119696,-0.196473602,0.354193,0.309143813,-0.148060342,0.351727,0.29338736,-0.184461803,0.353778,0.270545761,-0.154952925,0.35228,0.245247429,-0.131152085,0.343917,0.235646673,-0.112691517,0.341008,0.282876488,-0.105401796,0.349627,0.269591792,-0.0700397284,0.341826,0.263562554,-0.0520602663,0.337925,0.258096825,-0.0355709973,0.334379,0.305062003,-0.105024106,0.349309,0.292323026,-0.0665786847,0.340947,0.285855289,-0.0435986631,0.33607,0.281198051,-0.0268272406,0.332586,0.323763945,-0.107558583,0.34921,0.313102685,-0.0702032134,0.341162,0.308448141,-0.0506042046,0.337044,0.30420247,-0.0324877098,0.3333,0.346949855,-0.116155047,0.34941,0.345184591,-0.0881078948,0.346051,0.345871037,-0.0743306615,0.344507,0.34662602,-0.062214036,0.343146
0.312643116,-0.195425299,0.35379,0.308841059,-0.147418046,0.351544,0.293111414,-0.182242938,0.353395,0.271025065,-0.153444165,0.35247,0.24752326,-0.124299018,0.345167,0.236329555,-0.111067215,0.342137,0.282806824,-0.10477008,0.34961,0.270009836,-0.0685828864,0.341973,0.264228462,-0.0498281538,0.338154,0.258629461,-0.0331145181,0.334683,0.305028953,-0.104532824,0.349341,0.293012994,-0.0653755162,0.341156,0.286577203,-0.0424546015,0.336381,0.281820812,-0.026273186,0.332971,0.323737252,-0.107178344,0.349268,0.313696126,-0.0691563683,0.341397,0.309078485,-0.0496487579,0.337369,0.304901104,-0.0321344989,0.333708,0.346875795,-0.115899627,0.349469,0.345871807,-0.0871082924,0.346656,0.346483902,-0.0733791587,0.345363,0.347289186,-0.0610631323,0.344223
0.312396727,-0.193389744,0.353447,0.308610605,-0.146952745,0.351397,0.292859628,-0.181480032,0.353205,0.270833555,-0.1527043,0.352271,0.247486688,-0.124280652,0.345116,0.23684327,-0.11029504,0.342481,0.282903855,-0.104402009,0.349776,0.270322887,-0.0682077375,0.342321,0.264556146,-0.0494471103,0.338593,0.25904536,-0.0327084528,0.335205,0.305028447,-0.104212656,0.349387,0.293313803,-0.0650650144,0.341385,0.287036966,-0.0421182709,0.336717,0.282382014,-0.0258873889,0.333383,0.323622459,-0.106892755,0.349202,0.313869457,-0.0689128163,0.341503,0.309432857,-0.0494321008,0.337564,0.305384876,-0.0318797319,0.333982,0.346565083,-0.115642072,0.349245,0.346044513,-0.0869018335,0.346872,0.346756054,-0.0732052063,0.345782,0.347743946,-0.0609270478,0.34482
0.312709648,-0.192334153,0.354163,0.308921799,-0.146834012,0.351838,0.293145628,-0.180276762,0.353825,0.271116571,-0.152411703,0.352675,0.24744151,-0.124257965,0.345053,0.23715462,-0.109716763,0.342646,0.282992894,-0.104146175,0.349919,0.270292583,-0.0678754161,0.342248,0.264404524,-0.0491240586,0.338412,0.258838081,-0.0323768692,0.334926,0.305144308,-0.104023569,0.349553,0.29333317,-0.0647997381,0.341321,0.286991139,-0.0418231124,0.336518,0.282291344,-0.0255511101,0.333088,0.323774094,-0.106765876,0.349407,0.313906154,-0.0687198881,0.341484,0.309436375,-0.0492374895,0.337431,0.305345029,-0.0316464443,0.333747,0.346784686,-0.115605395,0.34953,0.346058806,-0.0867266084,0.346917,0.346585185,-0.0730039318,0.345717,0.347474322,-0.0607257038,0.344657
0.312340212,-0.190879555,0.353827,0.308701059,-0.14652154,0.351654,0.292914334,-0.178857439,0.35362,0.270866037,-0.151931668,0.352376,0.24729235,-0.124183061,0.344845,0.237395332,-0.109286043,0.34278,0.283032759,-0.103944288,0.349993,0.270487645,-0.0676807427,0.342469,0.264627712,-0.048954999,0.338707,0.259123016,-0.0321943778,0.335287,0.305091958,-0.103834221,0.349518,0.293484371,-0.0646309551,0.341432,0.287252047,-0.0416448055,0.336715,0.28263302,-0.0253269477,0.333345,0.323619321,-0.106582158,0.349271,0.313943998,-0.0685775585,0.341481,0.309589165,-0.0491154585,0.337495,0.305595671,-0.03149417,0.333872,0.346463496,-0.115415903,0.349254,0.346093656,-0.0866010861,0.346975,0.346717522,-0.0729079388,0.345928,0.347745248,-0.0606574137,0.345004
0.311979215,-0.189157672,0.352794,0.308683301,-0.14638886,0.351531,0.293224727,-0.177574818,0.353293,0.270508759,-0.151581951,0.35166,0.247443972,-0.127590723,0.345538,0.238530297,-0.11009095,0.344042,0.284220379,-0.104325586,0.351319,0.272325027,-0.0680937917,0.344617,0.266533391,-0.0498651957,0.341266,0.261309842,-0.0330811888,0.338219,0.305856995,-0.104060868,0.350289,0.295007988,-0.0649484277,0.343047,0.289021204,-0.0423782459,0.338823,0.284876415,-0.025486747,0.335805,0.323923525,-0.106664809,0.349526,0.314943849,-0.0688239963,0.342517,0.310809558,-0.0497682384,0.338932,0.307211106,-0.0316527771,0.335672,0.346015945,-0.115267376,0.348775,0.347310219,-0.086761594,0.348017,0.348653621,-0.0731461819,0.347669,0.350275395,-0.0609186938,0.347362
0.314943324,-0.190155359,0.355885,0.31042458,-0.14646884,0.353109,0.29538646,-0.178020368,0.355529,0.272108367,-0.152358567,0.353538,0.247444256,-0.127473198,0.345268,0.238282898,-0.109434334,0.343384,0.283954793,-0.104184356,0.350877,0.271072447,-0.0677434249,0.34289,0.264790943,-0.0494978532,0.338896,0.259131527,-0.0327589897,0.335266,0.306010837,-0.104086262,0.350381,0.294038374,-0.0647205771,0.341794,0.28757985,-0.0416931097,0.336784,0.282938842,-0.0248745595,0.333206,0.324562627,-0.106861265,0.350157,0.314397798,-0.0687270436,0.341882,0.309735976,-0.0492027303,0.337649,0.305508144,-0.031120606,0.3338,0.347496449,-0.115761024,0.350245,0.346741283,-0.086504542,0.347305,0.347086026,-0.072682851,0.345954,0.347775273,-0.0603411052,0.344762
0.315681085,-0.190287807,0.356682,0.310976211,-0.146460156,0.353598,0.296072125,-0.178081236,0.356236,0.272765091,-0.15232359,0.354074,0.247890828,-0.127296018,0.345459,0.238760507,-0.109298572,0.343646,0.2843298,-0.10401909,0.351055,0.271344659,-0.0674342607,0.342828,0.264931362,-0.0490541789,0.338715,0.25916796,-0.0322450597,0.334976,0.306377832,-0.103950125,0.350566,0.29426416,-0.0645136231,0.341719,0.287680757,-0.0414565326,0.336559,0.282951785,-0.0246349344,0.332873,0.324936996,-0.106755611,0.350367,0.314593333,-0.0685762654,0.341846,0.309821184,-0.0490406854,0.337487,0.305493179,-0.0309557618,0.333523,0.347910136,-0.115707676,0.350526,0.346863613,-0.0861727415,0.347156,0.346981427,-0.0723016698,0.345607,0.347437674,-0.0599162553,0.344241
0.315988815,-0.190395147,0.357223,0.311248383,-0.14649933,0.35399,0.296356112,-0.178123855,0.356715,0.273227135,-0.152219541,0.354503,0.248279908,-0.126993515,0.345632,0.239247155,-0.108961702,0.34384,0.284549898,-0.103933277,0.351275,0.271505727,-0.0673166383,0.34293,0.26505735,-0.0489235899,0.338757,0.259258197,-0.0320974226,0.334964,0.306613899,-0.103917109,0.350812,0.294483805,-0.0644370937,0.341838,0.287886548,-0.0413688184,0.336603,0.283149101,-0.0245393156,0.332864,0.325190182,-0.106770525,0.350646,0.314757054,-0.0685694423,0.342004,0.309922788,-0.0490214632,0.337583,0.305539678,-0.0309311832,0.333564,0.348186479,-0.115787219,0.350861,0.347085645,-0.0860500936,0.347277,0.347077608,-0.0721244603,0.34563,0.347418866,-0.0597145536,0.344177
0.316081861,-0.190348011,0.357686,0.311306497,-0.146392838,0.354337,0.296403429,-0.178008372,0.357104,0.273322013,-0.151976891,0.3548,0.24836117,-0.12663953,0.345806,0.239391142,-0.108602484,0.344053,0.284544433,-0.10373622,0.351459,0.271482069,-0.0670967489,0.343012,0.265012646,-0.0486863958,0.338789,0.259200132,-0.0318514513,0.33495,0.306638375,-0.103770273,0.351046,0.294525424,-0.0642606359,0.341968,0.287900633,-0.0411567049,0.336672,0.283145246,-0.0243109315,0.33289,0.325243765,-0.106665774,0.350928,0.314821239,-0.0684461551,0.342189,0.309960848,-0.0488750602,0.337718,0.305554134,-0.030771508,0.333653,0.348286921,-0.115737454,0.351217,0.34717151,-0.0858425898,0.347471,0.347090452,-0.071871773,0.345749,0.347365806,-0.0594362163,0.344231
0.316173874,-0.190300212,0.358148,0.3113664,-0.146287209,0.354686,0.296451568,-0.177893351,0.357494,0.273413735,-0.151732313,0.355093,0.248446722,-0.126287647,0.345986,0.239537212,-0.108244124,0.344269,0.284540741,-0.103540022,0.351645,0.271463117,-0.0668779155,0.3431,0.264972645,-0.0484501374,0.338827,0.25914676,-0.0316062113,0.334942,0.306666445,-0.103624795,0.351284,0.294571271,-0.0640848263,0.342103,0.287920661,-0.0409452419,0.336748,0.283147341,-0.024082952,0.332923,0.32530301,-0.106562968,0.351216,0.314890873,-0.0683239371,0.34238,0.310004393,-0.0487294581,0.337859,0.305575011,-0.0306124954,0.333749,0.34839239,-0.11568939,0.351578,0.347267243,-0.0856371951,0.347675,0.347116366,-0.0716217808,0.345881,0.347327001,-0.0591606514,0.344299
0.316799165,-0.190578877,0.358822,0.311748253,-0.14646603,0.355163,0.296977538,-0.178153142,0.358081,0.273601621,-0.152008554,0.355437,0.248504196,-0.12663933,0.346275,0.239431403,-0.108580316,0.344441,0.284659157,-0.103657428,0.351889,0.271468507,-0.0669519451,0.343179,0.264911708,-0.0485041378,0.338825,0.259032668,-0.0316572917,0.334866,0.306809513,-0.103721433,0.351566,0.294563102,-0.0641477197,0.342216,0.287787923,-0.0409811177,0.336761,0.282924481,-0.0241111899,0.332865,0.325484898,-0.106646116,0.351543,0.314931246,-0.0683684889,0.342544,0.309915295,-0.0487325627,0.337939,0.305362973,-0.0305938555,0.333754,0.348656526,-0.115764915,0.351984,0.347372726,-0.0855775732,0.347814,0.347180689,-0.0715120451,0.345898,0.347272233,-0.0590014042,0.344207
0.31720474,-0.190869105,0.359467,0.311972835,-0.146648482,0.355603,0.297285636,-0.178383587,0.35862,0.273648792,-0.152186447,0.355708,0.248443771,-0.126831066,0.34645,0.239229112,-0.108726283,0.344469,0.284669981,-0.103752602,0.352067,0.271376176,-0.0670151166,0.343183,0.264757688,-0.0485502432,0.338741,0.258838654,-0.0317585073,0.334703,0.306858083,-0.103829274,0.351805,0.294495301,-0.0642259833,0.342274,0.2876073,-0.0410274963,0.336715,0.282661747,-0.0241493832,0.332744,0.325583792,-0.106767194,0.351845,0.314873366,-0.0684566574,0.342676,0.30970964,-0.0487768057,0.337984,0.30501567,-0.0306175084,0.333719,0.348853429,-0.115912497,0.352389,0.347559144,-0.085650441,0.347979,0.347403737,-0.0715493719,0.345952,0.347448429,-0.0589993307,0.344164
0.317610174,-0.191159299,0.360112,0.312196535,-0.146830525,0.356042,0.297591204,-0.178612544,0.359156,0.273692168,-0.152362165,0.355974,0.248379049,-0.127020572,0.346619,0.239021999,-0.108870026,0.34449,0.284678539,-0.103846854,0.352242,0.2712814,-0.0670777256,0.343184,0.264602079,-0.0485960776,0.338655,0.258642997,-0.0318597062,0.334538,0.306905905,-0.103936777,0.352043,0.294427318,-0.0643043714,0.342332,0.287424915,-0.0410736386,0.336667,0.282397383,-0.0241874417,0.332621,0.325683667,-0.10688858,0.352148,0.314815181,-0.0685449189,0.342808,0.309503918,-0.048821036,0.338029,0.304668826,-0.0306411115,0.333684,0.349052257,-0.116060735,0.352796,0.347748579,-0.0857240093,0.348147,0.347631958,-0.0715877647,0.346011,0.34763056,-0.0589982837,0.344127
0.317973135,-0.191423964,0.360709,0.312411492,-0.147008433,0.356471,0.29785369,-0.17881563,0.35964,0.273710987,-0.152524179,0.356208,0.248307154,-0.12720642,0.346778,0.23880592,-0.109009638,0.344498,0.284692154,-0.10394279,0.352423,0.271210306,-0.0671462384,0.343215,0.264479225,-0.0486479842,0.338611,0.258488188,-0.0319661771,0.334426,0.30697566,-0.104051644,0.352306,0.294404718,-0.0643928161,0.342443,0.287302209,-0.0411283732,0.336689,0.282202672,-0.0242314723,0.33258,0.325819695,-0.107021763,0.35249,0.314817268,-0.0686465045,0.343006,0.309370408,-0.0488767061,0.338153,0.30440729,-0.0306732129,0.333742,0.349301484,-0.116225774,0.353254,0.347956967,-0.0858022541,0.348334,0.347864352,-0.0716269831,0.346074,0.347801454,-0.0589953384,0.344079
0.317479566,-0.191245572,0.360536,0.312009424,-0.1468519,0.356354,0.297352461,-0.178600123,0.359446,0.273171111,-0.152269844,0.355961,0.247824065,-0.126965797,0.346585,0.23833987,-0.108784987,0.344334,0.284357628,-0.103808824,0.352318,0.270947308,-0.0670377015,0.343145,0.264245683,-0.0485388396,0.338558,0.25829942,-0.0319227207,0.334389,0.306665915,-0.103947793,0.352246,0.294189977,-0.0643131045,0.342427,0.287100511,-0.0410197399,0.3367,0.282010118,-0.0241129015,0.332609,0.325533715,-0.106938978,0.352464,0.314643466,-0.068578633,0.343028,0.309229338,-0.0487967736,0.3382,0.304295622,-0.0305862315,0.333811,0.349044242,-0.116163923,0.35326,0.347858776,-0.0858395879,0.34839,0.347884138,-0.071687177,0.346152,0.347928916,-0.0590634354,0.344177
0.317049988,-0.191105826,0.360436,0.311639768,-0.146710616,0.356274,0.296900831,-0.178414419,0.359312,0.272662824,-0.152033108,0.355755,0.247373893,-0.126742054,0.346438,0.237905759,-0.10857494,0.344216,0.284021026,-0.103674117,0.35221,0.270659029,-0.0669229264,0.343043,0.263976183,-0.0484230442,0.338459,0.258063884,-0.0318734755,0.334292,0.306357249,-0.103844289,0.352187,0.293947545,-0.0642272717,0.342379,0.286853523,-0.0409046262,0.336658,0.281760807,-0.0239895207,0.332571,0.325252437,-0.106857731,0.352443,0.314440187,-0.0685043393,0.343018,0.30904159,-0.048709427,0.338196,0.304121977,-0.0304930549,0.333812,0.348804689,-0.116107962,0.353284,0.347798727,-0.0858862599,0.348484,0.347952202,-0.0717572684,0.346278,0.348113997,-0.0591413749,0.344332
0.316619172,-0.190965466,0.360335,0.311268303,-0.146568498,0.356192,0.296447405,-0.178227669,0.359176,0.272153832,-0.151795975,0.355548,0.246923037,-0.12651793,0.34629,0.237471746,-0.108364933,0.344098,0.283682331,-0.103538661,0.352099,0.270365235,-0.0668067868,0.342934,0.263700349,-0.0483060553,0.338352,0.257821781,-0.0318233032,0.334187,0.306045315,-0.103739693,0.352124,0.293698855,-0.0641400591,0.342324,0.286599729,-0.0407885042,0.336608,0.281504842,-0.023865615,0.332525,0.324968472,-0.106775606,0.352419,0.31423128,-0.0684287738,0.343002,0.308847384,-0.0486210752,0.338185,0.303941046,-0.0303991492,0.333805,0.348560093,-0.116050326,0.353303,0.347736889,-0.0859324167,0.348576,0.34802027,-0.0718273927,0.346404,0.348300115,-0.0592195094,0.344488
0.316187997,-0.190825012,0.360234,0.310896852,-0.14642636,0.35611,0.295994689,-0.178041374,0.359041,0.271644953,-0.151558875,0.355341,0.246472189,-0.126293837,0.346142,0.237037095,-0.108154639,0.343979,0.283343183,-0.103403046,0.351987,0.270072266,-0.066690835,0.342826,0.263424496,-0.0481890625,0.338245,0.257578523,-0.0317729842,0.334081,0.305733572,-0.103635176,0.352061,0.293450849,-0.0640529669,0.34227,0.286345905,-0.0406723586,0.336558,0.281249007,-0.0237417765,0.332479,0.324683647,-0.106693178,0.352394,0.314023211,-0.0683534026,0.342987,0.308652253,-0.0485325534,0.338173,0.303760168,-0.0303052365,0.333798,0.348315397,-0.115992672,0.353322,0.347676257,-0.0859788038,0.348669,0.348089349,-0.0718976752,0.346531,0.348486258,-0.0592977136,0.344644
