sluyters/QuantumLeap/backend/src/datasets/dynamic/HandGestureDataset_SHREC2017_csv/Gesture9/finger_2/subject_20_essai_1_skeletons_world.csv
Wrist_x,Wrist_y,Wrist_z,Palm_x,Palm_y,Palm_z,thumb_base_x,thumb_base_y,thumb_base_z,thumb_first_joint_x,thumb_first_joint_y,thumb_first_joint_z,thumb_second_joint_x,thumb_second_joint_y,thumb_second_joint_z,thumb_tip_x,thumb_tip_y,thumb_tip_z,index_base_x,index_base_y,index_base_z,index_first_joint_x,index_first_joint_y,index_first_joint_z,index_second_joint_x,index_second_joint_y,index_second_joint_z,index_tip_x,index_tip_y,index_tip_z,middle_base_x,middle_base_y,middle_base_z,middle_first_joint_x,middle_first_joint_y,middle_first_joint_z,middle_second_joint_x,middle_second_joint_y,middle_second_joint_z,middle_tip_x,middle_tip_y,middle_tip_z,ring_base_x,ring_base_y,ring_base_z,ring_first_joint_x,ring_first_joint_y,ring_first_joint_z,ring_second_joint_x,ring_second_joint_y,ring_second_joint_z,ring_tip_x,ring_tip_y,ring_tip_z,pinky_base_x,pinky_base_y,pinky_base_z,pinky_first_joint_x,pinky_first_joint_y,pinky_first_joint_z,pinky_second_joint_x,pinky_second_joint_y,pinky_second_joint_z,pinky_tip_x,pinky_tip_y,pinky_tip_z,
0.64355318,-0.40569817,0.6549,0.64401733,-0.37445716,0.668831,0.62798457,-0.40532182,0.66162,0.59359294,-0.39291925,0.667218,0.55304623,-0.36666272,0.650062,0.53511366,-0.34991553,0.648118,0.62505539,-0.35149193,0.687043,0.61503794,-0.31629203,0.695627,0.61065469,-0.29840088,0.699919,0.6047621,-0.28204254,0.703821,0.64671312,-0.34437468,0.682099,0.65375532,-0.30716589,0.694527,0.65597635,-0.28326879,0.701777,0.65833268,-0.26580073,0.706955,0.66331628,-0.34457255,0.676526,0.66893543,-0.30639884,0.686081,0.67325355,-0.2886465,0.69097,0.6761113,-0.27082731,0.695414,0.68371825,-0.34659904,0.667439,0.69885561,-0.31521909,0.672112,0.70585206,-0.29965282,0.674259,0.7120601,-0.28579964,0.676154
0.64399057,-0.40577361,0.656068,0.64703244,-0.37307003,0.669024,0.62772188,-0.40535024,0.662199,0.60099988,-0.39223558,0.666306,0.5602491,-0.36743361,0.649493,0.53867299,-0.35065535,0.646831,0.62682064,-0.35276837,0.685806,0.62111335,-0.31412277,0.69237,0.61437566,-0.29688716,0.695652,0.61368522,-0.27689691,0.698635,0.64729003,-0.34362219,0.681362,0.65325063,-0.30675734,0.693777,0.65540934,-0.28277173,0.701019,0.65750129,-0.26520415,0.706191,0.66628239,-0.33879888,0.676307,0.66995903,-0.30510734,0.684708,0.67218572,-0.28575501,0.689006,0.67431739,-0.26859092,0.692913,0.6879161,-0.34468453,0.668003,0.70157566,-0.31260972,0.672127,0.70829744,-0.29686602,0.674022,0.71302389,-0.28417985,0.675694
0.6441504,-0.40464121,0.655222,0.64603014,-0.37153631,0.667554,0.62680775,-0.4038391,0.660306,0.59650671,-0.39084585,0.66312,0.55563392,-0.36603598,0.646933,0.53417682,-0.34796408,0.643773,0.62470837,-0.34992055,0.682548,0.61787609,-0.31358593,0.691016,0.61604687,-0.29388754,0.69525,0.61325524,-0.27635919,0.699099,0.64658773,-0.34146716,0.679298,0.65194193,-0.30605006,0.692986,0.65542208,-0.28229925,0.700971,0.65786884,-0.26484298,0.706674,0.66593254,-0.33784077,0.675292,0.66939411,-0.30229956,0.683914,0.67205909,-0.28459319,0.688325,0.67417533,-0.26734488,0.692335,0.68907548,-0.34446944,0.668325,0.70289482,-0.31232936,0.672787,0.70982838,-0.29664285,0.674837,0.71487911,-0.28378832,0.676645
0.64563259,-0.40571048,0.656343,0.64724029,-0.37120837,0.668022,0.62899697,-0.40391191,0.661077,0.59911051,-0.38923743,0.663395,0.55593326,-0.36568893,0.647381,0.5363636,-0.34862129,0.644801,0.62626474,-0.34543886,0.682116,0.62335319,-0.31368473,0.695265,0.62278776,-0.29718223,0.70184,0.62169744,-0.28032756,0.707816,0.64677017,-0.33936797,0.679144,0.6535563,-0.30218438,0.693346,0.65613793,-0.27881216,0.701631,0.65851852,-0.26441085,0.707549,0.66689214,-0.33526887,0.675437,0.6773253,-0.29724741,0.685969,0.68152596,-0.27863754,0.691372,0.68537661,-0.26173568,0.696316,0.68943625,-0.33717282,0.66894,0.70925861,-0.30609143,0.672796,0.71772243,-0.29265296,0.674567,0.71791213,-0.28188482,0.676131
0.64565305,-0.40567621,0.656305,0.64843735,-0.37126507,0.668051,0.62882172,-0.40356715,0.660866,0.60023806,-0.38767943,0.662829,0.56138521,-0.36711219,0.652123,0.54215601,-0.3520686,0.652059,0.62670111,-0.34519598,0.681967,0.62598864,-0.31492937,0.697423,0.62677393,-0.29954208,0.705521,0.62677815,-0.28284934,0.712882,0.64816796,-0.33903592,0.679238,0.65564226,-0.30235043,0.695021,0.6590031,-0.28124445,0.704227,0.66164485,-0.26517491,0.710803,0.66858338,-0.33625125,0.675725,0.67886813,-0.29907569,0.686999,0.68350903,-0.28112844,0.692944,0.6877517,-0.26484668,0.698371,0.69292761,-0.3377309,0.66944,0.71193429,-0.30751396,0.674644,0.72113213,-0.29437863,0.677036,0.72565769,-0.28287291,0.68012
0.64589749,-0.40522616,0.65572,0.64806872,-0.37009119,0.66645,0.62944036,-0.40322578,0.660598,0.60052485,-0.38527183,0.662359,0.56054548,-0.3645145,0.651092,0.54309067,-0.34931792,0.649363,0.62544723,-0.3441609,0.680089,0.62453383,-0.31433315,0.695294,0.6251134,-0.29833834,0.702897,0.62474812,-0.28187596,0.709808,0.6483962,-0.33674136,0.676669,0.65376936,-0.30084521,0.692444,0.65715389,-0.27810478,0.701646,0.65948374,-0.26379382,0.708219,0.66738463,-0.33427183,0.672697,0.67943439,-0.299311,0.686941,0.68542943,-0.28200823,0.694229,0.69087728,-0.26624913,0.700854,0.69006392,-0.33612614,0.66607,0.7065606,-0.30481774,0.668837,0.71442048,-0.29132514,0.670108,0.71905664,-0.27904543,0.67123
0.64642864,-0.40468448,0.654738,0.64939097,-0.36969533,0.665802,0.63051307,-0.40293238,0.660069,0.60177505,-0.38547376,0.662494,0.56192759,-0.36475996,0.650643,0.54164134,-0.34793467,0.646561,0.62625791,-0.34453554,0.680258,0.62652811,-0.31474904,0.695617,0.62633833,-0.29887173,0.703297,0.62670428,-0.2830004,0.710278,0.64873518,-0.33678434,0.676339,0.65365864,-0.30023046,0.691532,0.65674975,-0.27724559,0.700395,0.65853086,-0.26273996,0.706725,0.66728465,-0.33402452,0.67192,0.68002759,-0.3001851,0.68604,0.68538192,-0.28190872,0.693264,0.69086955,-0.26576132,0.699831,0.68944214,-0.33591651,0.66471,0.7057951,-0.30449321,0.667273,0.71333434,-0.29138157,0.66845,0.72007004,-0.27966361,0.669489
0.64594671,-0.40409049,0.653395,0.64870257,-0.36930063,0.665121,0.62862695,-0.40272982,0.658792,0.59918441,-0.38440758,0.661783,0.56003385,-0.36324509,0.651753,0.54145647,-0.34884719,0.649391,0.62650057,-0.34422562,0.680113,0.62703918,-0.31482813,0.695813,0.62700105,-0.29897267,0.703663,0.62779082,-0.28347882,0.710799,0.64913941,-0.33686193,0.676289,0.65383611,-0.29994367,0.691195,0.65680927,-0.27678806,0.69989,0.65832196,-0.26208897,0.7061,0.66757358,-0.33553678,0.671876,0.68012705,-0.30060137,0.685619,0.68605741,-0.28287088,0.69265,0.69082495,-0.26569044,0.699041,0.68889654,-0.33958808,0.66455,0.70416967,-0.30716487,0.667947,0.71436161,-0.29178937,0.669508,0.71765603,-0.27874329,0.670885
0.64327748,-0.40162353,0.650639,0.65167012,-0.3680683,0.666794,0.62860539,-0.40018565,0.657184,0.59968153,-0.38279343,0.664734,0.56086231,-0.36228958,0.653445,0.54126059,-0.34920159,0.651308,0.63948403,-0.33998515,0.686287,0.63216266,-0.30969249,0.699031,0.62906623,-0.29781276,0.705402,0.62754733,-0.28289418,0.711194,0.66240817,-0.33504806,0.682179,0.66178071,-0.29708042,0.693212,0.6602636,-0.27435036,0.699648,0.66005301,-0.25725791,0.704245,0.6802594,-0.33428273,0.677055,0.68554566,-0.30108381,0.688427,0.68822285,-0.28298415,0.694244,0.691746,-0.26542919,0.699533,0.69725214,-0.33910405,0.668071,0.71581416,-0.30837868,0.675168,0.72727673,-0.29406149,0.678429,0.73510391,-0.2814688,0.681306
0.64509144,-0.40067415,0.651206,0.65175051,-0.36753497,0.666831,0.62913072,-0.39982116,0.657887,0.6000887,-0.38271296,0.665498,0.55848855,-0.36085942,0.652371,0.54072367,-0.34812581,0.649455,0.63853327,-0.34009586,0.686143,0.63197723,-0.31293977,0.699376,0.62867382,-0.29819913,0.705992,0.6282366,-0.28292052,0.712007,0.66112167,-0.33486582,0.681712,0.66165175,-0.29787207,0.694141,0.66045103,-0.27563063,0.701392,0.66079366,-0.25856816,0.706571,0.67875774,-0.33388029,0.67638,0.68361048,-0.30105321,0.68805,0.68757696,-0.28211798,0.69402,0.69176692,-0.26506155,0.699448,0.69469685,-0.33797638,0.667253,0.7136847,-0.30766254,0.673826,0.72402214,-0.29344869,0.676846,0.73042667,-0.28148498,0.679511
0.64543902,-0.39935285,0.650967,0.65175822,-0.36710579,0.666805,0.62951145,-0.39832718,0.657629,0.5997161,-0.38230523,0.665241,0.5581264,-0.36053371,0.651938,0.54099239,-0.34732662,0.649686,0.63834765,-0.34020264,0.686236,0.63232538,-0.3130392,0.699793,0.62921943,-0.29806266,0.706572,0.62885559,-0.28297188,0.712734,0.66101561,-0.3349685,0.681889,0.66164037,-0.2981503,0.694484,0.66096964,-0.27558099,0.701831,0.66137354,-0.25846901,0.707078,0.67870599,-0.33396679,0.676602,0.68403759,-0.30097226,0.688279,0.68797267,-0.28202952,0.694254,0.69208005,-0.26489977,0.699685,0.69528933,-0.33815162,0.667488,0.71425473,-0.30797483,0.674293,0.72411642,-0.29372153,0.677419,0.73099067,-0.2816207,0.680178
0.64545511,-0.39817802,0.650908,0.65179227,-0.36658621,0.66654,0.6295101,-0.3968739,0.657504,0.59983938,-0.38312189,0.66515,0.55931462,-0.36218846,0.651801,0.54176538,-0.34758078,0.651454,0.63836516,-0.33982885,0.685745,0.64144943,-0.31166021,0.702974,0.64234936,-0.2979539,0.711588,0.64480215,-0.28355105,0.719419,0.66106865,-0.33462582,0.681427,0.66023032,-0.29691215,0.69238,0.66030361,-0.27223657,0.69877,0.65983544,-0.25730345,0.703334,0.67881006,-0.33365698,0.676186,0.68642763,-0.29969438,0.688364,0.68983432,-0.28143971,0.694594,0.69308786,-0.26476024,0.700258,0.69707487,-0.33837266,0.667165,0.71483733,-0.30795387,0.673909,0.72422218,-0.29332004,0.677007,0.73100919,-0.28137707,0.679741
0.64561365,-0.39711984,0.650737,0.65177926,-0.36614816,0.666287,0.62965345,-0.39564303,0.657276,0.59942902,-0.38286158,0.664857,0.5591407,-0.36195792,0.651639,0.54164976,-0.34757483,0.651506,0.63829433,-0.33956125,0.685363,0.6414549,-0.31166287,0.70298,0.6425299,-0.29803764,0.711788,0.64514005,-0.28369964,0.719796,0.66104936,-0.33439428,0.681097,0.65970329,-0.29631352,0.691453,0.65949147,-0.27148652,0.697493,0.66044342,-0.25575373,0.701808,0.67884415,-0.33345706,0.675908,0.68646652,-0.2993894,0.688027,0.68987426,-0.28104137,0.694228,0.69305097,-0.2643259,0.699864,0.69724886,-0.33821458,0.666963,0.71491161,-0.30781591,0.673683,0.72429699,-0.29308336,0.67677,0.73097256,-0.28111375,0.679494
0.6452859,-0.39689577,0.650413,0.65236912,-0.36611515,0.666258,0.62940195,-0.39518226,0.656964,0.59991702,-0.38316338,0.664457,0.56374131,-0.36438798,0.656149,0.54886487,-0.35098607,0.658042,0.63893829,-0.3401746,0.685549,0.6401455,-0.31375639,0.705091,0.64454573,-0.2997311,0.714862,0.64222213,-0.28714409,0.723745,0.66178115,-0.33504158,0.681349,0.66446374,-0.29842008,0.695618,0.67089154,-0.27819806,0.703942,0.67102186,-0.25901028,0.709887,0.67962119,-0.33411188,0.676183,0.69505352,-0.30662007,0.691692,0.70169478,-0.2909771,0.699627,0.70823109,-0.27365799,0.70684,0.69863992,-0.33878796,0.667208,0.71682194,-0.30857484,0.674257,0.72682096,-0.29365507,0.677495,0.73227231,-0.28258554,0.680353
0.64436127,-0.3963863,0.649677,0.65160179,-0.36522321,0.664851,0.62881302,-0.39449342,0.656456,0.6005431,-0.38309651,0.664409,0.55982746,-0.36139578,0.651545,0.54248468,-0.34662681,0.651106,0.63924692,-0.33971653,0.683983,0.64030637,-0.31139413,0.701236,0.64064026,-0.29722887,0.709862,0.64245481,-0.28272863,0.717704,0.66162774,-0.33454774,0.679302,0.66578938,-0.29752208,0.693766,0.67086649,-0.27657659,0.702204,0.67342751,-0.26040416,0.708231,0.67908973,-0.33362978,0.673811,0.69533104,-0.30554703,0.690816,0.70255669,-0.2898945,0.699516,0.70940237,-0.27345748,0.707426,0.69769378,-0.33838747,0.664586,0.7177889,-0.30956736,0.670808,0.72418729,-0.29274875,0.673666,0.72933113,-0.27999363,0.676189
0.64643626,-0.39692565,0.650805,0.65686073,-0.36621503,0.664835,0.63014409,-0.39454984,0.656839,0.60817298,-0.38578403,0.662799,0.56629227,-0.36132294,0.644898,0.54723416,-0.34607534,0.645298,0.64031124,-0.34199968,0.68222,0.63735331,-0.31002738,0.696193,0.63880354,-0.29337273,0.703179,0.63567645,-0.27907626,0.70953,0.66313459,-0.33629979,0.678197,0.66190808,-0.29488192,0.686235,0.6635897,-0.26857464,0.690924,0.65894428,-0.25414637,0.694273,0.67924292,-0.33354845,0.673372,0.69615213,-0.30544246,0.691242,0.70377581,-0.29012535,0.700385,0.71086171,-0.27419681,0.708697,0.69903424,-0.33828683,0.665134,0.71568331,-0.30556528,0.670556,0.72455179,-0.29015006,0.673047,0.73379738,-0.27831497,0.675245
0.64746949,-0.39697563,0.650966,0.65714964,-0.36654734,0.66401,0.63121517,-0.39463637,0.657054,0.61072224,-0.38715255,0.662474,0.56557237,-0.36149624,0.642291,0.54590391,-0.34366632,0.636992,0.64005316,-0.34592313,0.680796,0.63644698,-0.31096234,0.693198,0.63456315,-0.29310478,0.699399,0.62826413,-0.27807066,0.705036,0.66152114,-0.33634197,0.676432,0.65992037,-0.293714,0.683094,0.65894851,-0.26828461,0.686981,0.65945709,-0.25573215,0.689757,0.67848143,-0.33382163,0.671433,0.69390075,-0.30486581,0.689062,0.70127384,-0.28920943,0.698082,0.70667083,-0.27234703,0.706282,0.69750064,-0.33730257,0.663178,0.71728708,-0.30490632,0.667562,0.72376314,-0.28998923,0.669576,0.72651288,-0.27629654,0.671353
0.64490778,-0.39434252,0.646866,0.65624405,-0.36616243,0.66258,0.63001644,-0.39304731,0.654279,0.61135944,-0.38596327,0.66207,0.56622214,-0.35778451,0.642087,0.54622626,-0.34128119,0.636515,0.64165768,-0.34756454,0.682906,0.63654718,-0.31122508,0.693083,0.6339539,-0.29284377,0.698171,0.63168994,-0.27714395,0.704506,0.66249528,-0.33744412,0.677547,0.66298173,-0.29619747,0.687333,0.66397658,-0.27173345,0.693041,0.66124184,-0.25546388,0.697119,0.67782737,-0.33330812,0.671439,0.69401561,-0.30506215,0.689402,0.70148737,-0.28942794,0.698593,0.70832118,-0.27338426,0.706948,0.69486059,-0.33613672,0.661397,0.71689453,-0.30278089,0.667075,0.72400401,-0.28853382,0.669684,0.72775532,-0.27616787,0.671986
0.64513543,-0.39411595,0.645656,0.65575009,-0.36596688,0.661738,0.63033195,-0.39319639,0.653211,0.61095593,-0.38490982,0.661084,0.56617937,-0.3565877,0.641124,0.5466467,-0.3405492,0.636843,0.64108267,-0.34764081,0.682496,0.63657228,-0.31137812,0.692988,0.63428053,-0.29306247,0.698234,0.63176578,-0.2770575,0.704162,0.66193474,-0.33756339,0.677053,0.66275721,-0.2964229,0.687195,0.66378167,-0.2721288,0.693111,0.66171553,-0.25566534,0.697337,0.67776738,-0.33348985,0.670837,0.69321352,-0.3048069,0.688756,0.7006025,-0.28904038,0.697923,0.70732641,-0.27292154,0.706257,0.69459644,-0.33574625,0.660599,0.71596764,-0.30249533,0.666429,0.72343908,-0.28803525,0.669107,0.72763207,-0.27565287,0.671471
0.64515241,-0.39371548,0.644131,0.65490759,-0.36546416,0.660493,0.63095206,-0.39341636,0.652336,0.61146356,-0.38327809,0.660741,0.56702723,-0.35410978,0.640019,0.54782162,-0.33903345,0.638268,0.64113576,-0.3475663,0.682288,0.6373717,-0.31139102,0.693176,0.63605175,-0.29288558,0.69862,0.63265797,-0.27649848,0.703832,0.66120475,-0.33730639,0.676075,0.66243253,-0.29626006,0.686472,0.66367688,-0.27206914,0.692537,0.66621773,-0.25711346,0.699785,0.67727396,-0.33372156,0.669194,0.69240368,-0.30435494,0.687626,0.70009252,-0.28862536,0.697056,0.70706214,-0.27255434,0.705629,0.69355386,-0.33472665,0.658133,0.71264306,-0.30139529,0.663498,0.7207389,-0.28581906,0.665963,0.72774093,-0.27312714,0.668138
0.64722929,-0.39433388,0.645048,0.65098155,-0.36225585,0.657516,0.63124842,-0.39291907,0.651454,0.60530841,-0.37583696,0.657463,0.55954132,-0.35116328,0.639359,0.54602198,-0.33772304,0.637182,0.63692801,-0.33432923,0.674325,0.63487607,-0.29861415,0.686827,0.63217054,-0.2813917,0.693078,0.63217853,-0.27242818,0.70365,0.66225711,-0.32699909,0.669389,0.6622782,-0.28992046,0.68268,0.66423583,-0.266218,0.690433,0.66603012,-0.25129864,0.695971,0.67981045,-0.32573475,0.663982,0.68948969,-0.29274239,0.678485,0.69483705,-0.27604547,0.686292,0.70115521,-0.26887914,0.699202,0.69391199,-0.33245103,0.655362,0.70923496,-0.29909602,0.659353,0.716234,-0.28337849,0.661187,0.72264614,-0.27030388,0.662805
0.64551751,-0.39222929,0.642146,0.65252342,-0.35397519,0.653582,0.63041907,-0.39137328,0.649388,0.6051645,-0.37316125,0.656185,0.56007042,-0.34910175,0.639002,0.54338883,-0.33335931,0.634403,0.63701487,-0.32880798,0.670781,0.63104114,-0.29470361,0.68321,0.62799892,-0.27752545,0.689425,0.6252018,-0.26183789,0.695075,0.65762772,-0.32197626,0.664474,0.6570774,-0.28161955,0.675817,0.65581994,-0.25501044,0.682434,0.65853387,-0.24187046,0.689299,0.67441652,-0.3170583,0.658047,0.68244505,-0.28351625,0.672038,0.68669227,-0.26641718,0.679333,0.69248505,-0.25642417,0.690102,0.69285134,-0.32078799,0.648438,0.70394772,-0.28692988,0.650753,0.70858613,-0.27056491,0.651817,0.71297716,-0.25963163,0.652756
0.64663477,-0.39171008,0.641936,0.65206185,-0.3524812,0.652655,0.63102833,-0.39061374,0.648693,0.60451889,-0.36931409,0.654119,0.56063445,-0.34520235,0.63759,0.5396876,-0.3283783,0.631692,0.63511468,-0.32690716,0.668733,0.62834884,-0.29237422,0.680353,0.62443332,-0.27316963,0.686164,0.62178392,-0.25906925,0.691492,0.65625846,-0.31826416,0.662863,0.65344374,-0.27693742,0.67278,0.65177936,-0.25274484,0.678566,0.6505794,-0.23542638,0.682698,0.67323635,-0.31612146,0.656873,0.68143194,-0.28267546,0.671082,0.68562389,-0.26555465,0.678352,0.68936479,-0.2495441,0.684961,0.69238464,-0.32005869,0.647906,0.70304721,-0.2860416,0.649871,0.70752556,-0.26970649,0.650774,0.71166278,-0.25766745,0.65157
0.64365909,-0.38826097,0.638228,0.64891931,-0.3473782,0.649706,0.62472222,-0.3814921,0.644045,0.59314454,-0.36014506,0.649446,0.55151555,-0.33709902,0.634351,0.53138802,-0.31918004,0.628919,0.62457733,-0.30731533,0.665075,0.62460357,-0.27844684,0.678862,0.62454577,-0.26381813,0.685756,0.6231637,-0.25339182,0.692023,0.65097786,-0.30069933,0.660637,0.65485197,-0.26883625,0.674407,0.65602805,-0.25282522,0.68244,0.6584803,-0.2394382,0.689474,0.67250122,-0.29944684,0.655745,0.6827786,-0.27098644,0.672119,0.68788951,-0.25558499,0.680496,0.69246471,-0.24118113,0.688111,0.69707338,-0.30546317,0.647909,0.70977311,-0.27023197,0.653093,0.71670057,-0.25466381,0.656513,0.72279983,-0.24099272,0.65953
0.6387721,-0.37661857,0.631348,0.64555374,-0.3378185,0.643933,0.62155306,-0.37430565,0.637561,0.59617047,-0.35525664,0.643666,0.55425856,-0.33068577,0.625785,0.53471774,-0.31909535,0.626419,0.62148323,-0.30370447,0.660572,0.62443126,-0.27697007,0.677283,0.6258311,-0.26340415,0.685638,0.627063,-0.25096062,0.693234,0.6474897,-0.29588462,0.65592,0.65463723,-0.26577017,0.672813,0.65874969,-0.24797527,0.682668,0.66033643,-0.23640264,0.689706,0.67017647,-0.28986833,0.650732,0.67979017,-0.26114291,0.666664,0.6858228,-0.24692257,0.675898,0.69211659,-0.2376634,0.68643,0.69533546,-0.29318791,0.642345,0.71032622,-0.26000107,0.650085,0.71717994,-0.24494032,0.653641,0.72406845,-0.23202091,0.657558
0.63416219,-0.36866693,0.624584,0.63982419,-0.32719702,0.633886,0.61261902,-0.35967676,0.627009,0.57870901,-0.33707845,0.626533,0.54244312,-0.31762404,0.619003,0.52897584,-0.30587626,0.623039,0.60832876,-0.28576938,0.643361,0.61825929,-0.26435262,0.666206,0.6232454,-0.25745627,0.679506,0.62733199,-0.24852106,0.691597,0.63851621,-0.28124096,0.642745,0.64150713,-0.25062743,0.657207,0.64323407,-0.23271216,0.665643,0.65568076,-0.22712823,0.68261,0.66202286,-0.28370407,0.641236,0.66945616,-0.2501654,0.653969,0.67403373,-0.2346677,0.662055,0.67839611,-0.22062637,0.669608,0.69190099,-0.29046345,0.637736,0.70644775,-0.25744793,0.645934,0.71405195,-0.24278385,0.650565,0.72075269,-0.22990106,0.654651
0.62616166,-0.34969658,0.609438,0.62871539,-0.30822063,0.619216,0.60414941,-0.34661411,0.613085,0.5732259,-0.32123118,0.61335,0.53492957,-0.29661757,0.600781,0.51944402,-0.28032515,0.600472,0.59773436,-0.27503059,0.630605,0.60310021,-0.24898391,0.648416,0.6059175,-0.23233354,0.657322,0.60839108,-0.21687631,0.665418,0.62628134,-0.26820758,0.628528,0.62628156,-0.22773299,0.63967,0.62627055,-0.20407551,0.64617,0.62640787,-0.1872015,0.650969,0.65022956,-0.26722306,0.625763,0.6569232,-0.23233969,0.640314,0.66064742,-0.21327862,0.647758,0.664025,-0.19590164,0.654526,0.67855284,-0.27407561,0.620717,0.68913589,-0.23773879,0.627087,0.69397866,-0.22125977,0.630014,0.69921426,-0.20493085,0.632596
0.60981674,-0.30772437,0.585484,0.61639069,-0.27786892,0.601753,0.59011361,-0.30698591,0.591083,0.56066821,-0.29261688,0.597122,0.52219778,-0.27034074,0.585341,0.50792223,-0.25847835,0.588962,0.5929522,-0.24997635,0.620091,0.59466273,-0.21866663,0.635895,0.595463,-0.20285726,0.643797,0.59616026,-0.18839912,0.650981,0.62077824,-0.24250231,0.617246,0.62192739,-0.20360148,0.630715,0.62256596,-0.18079565,0.638572,0.62300903,-0.16445656,0.644185,0.6434138,-0.24046166,0.61315,0.64063717,-0.20011365,0.622553,0.63919279,-0.17938718,0.627364,0.63786537,-0.160497,0.631737,0.66886537,-0.24520548,0.605338,0.68387139,-0.21308555,0.616288,0.69094618,-0.19754751,0.621319,0.69736385,-0.18304813,0.625759
0.61252505,-0.3069445,0.580773,0.62225107,-0.27852374,0.596065,0.59019401,-0.30225425,0.586142,0.56465544,-0.28347557,0.591178,0.5227959,-0.25901919,0.576728,0.50999108,-0.24277363,0.578227,0.58844277,-0.22993261,0.613441,0.58908645,-0.20053755,0.628333,0.58934143,-0.18567084,0.635778,0.58953721,-0.17206143,0.642547,0.61393162,-0.22310878,0.610629,0.6117077,-0.1858199,0.619693,0.6103411,-0.16382397,0.624979,0.60933602,-0.14800476,0.628756,0.63427505,-0.21915047,0.606666,0.64034693,-0.18658403,0.617527,0.64344411,-0.16986281,0.623083,0.64625598,-0.15462835,0.628135,0.65823519,-0.21822559,0.599191,0.67475661,-0.19320762,0.60747,0.6826614,-0.17928547,0.611274,0.68966434,-0.16688803,0.614631
0.61338982,-0.30626514,0.579741,0.62169913,-0.27629766,0.595141,0.5909729,-0.29933434,0.585333,0.5599251,-0.27561343,0.590624,0.52428245,-0.25287933,0.585545,0.50968586,-0.23727744,0.590061,0.59375792,-0.22049706,0.61288,0.59060476,-0.19774114,0.627866,0.59041962,-0.18387387,0.635359,0.59020795,-0.17116982,0.642171,0.61834682,-0.21620237,0.609807,0.6134108,-0.18356747,0.619278,0.61197418,-0.16229619,0.624803,0.61090708,-0.14696809,0.628749,0.63536556,-0.21647413,0.605617,0.64005862,-0.18379654,0.616763,0.64244381,-0.16699746,0.622465,0.64460371,-0.15167999,0.627649,0.65816749,-0.21656307,0.597859,0.67618351,-0.1918795,0.608136,0.68514946,-0.17776,0.612857,0.69311666,-0.16507281,0.617024
0.61257305,-0.30374196,0.577802,0.61791763,-0.26925508,0.591194,0.58926769,-0.29573118,0.582473,0.55606714,-0.27152817,0.586271,0.51556117,-0.24609456,0.575469,0.49686163,-0.22700053,0.573549,0.58703497,-0.21662339,0.606371,0.57979703,-0.18094986,0.619059,0.57700029,-0.16417144,0.625999,0.57467147,-0.14900632,0.632523,0.61202681,-0.21188976,0.603948,0.60579121,-0.171723,0.611033,0.60370231,-0.15008906,0.616467,0.60289673,-0.13479722,0.621053,0.63192297,-0.20972991,0.600509,0.63073746,-0.16844049,0.609975,0.63147767,-0.14921947,0.615932,0.63259523,-0.13191808,0.621763,0.65524131,-0.21116095,0.594001,0.66751879,-0.17388445,0.59986,0.67315013,-0.15833423,0.602552,0.67921319,-0.14172448,0.604927
0.60383552,-0.29474006,0.570206,0.60862122,-0.2490034,0.582688,0.58472203,-0.28332857,0.57517,0.54969512,-0.25387994,0.578538,0.50599293,-0.22846913,0.565996,0.48570779,-0.20603386,0.559637,0.58007492,-0.20918687,0.597629,0.57697902,-0.17233713,0.613809,0.57448449,-0.15536333,0.621899,0.57301616,-0.14437191,0.63041,0.60418961,-0.20344108,0.594576,0.59787816,-0.1575673,0.602751,0.59372997,-0.13283033,0.608224,0.59082911,-0.11519672,0.612188,0.62355712,-0.20084357,0.590717,0.62139388,-0.15621523,0.598841,0.62000077,-0.13526581,0.603764,0.61901976,-0.11635679,0.608495,0.64871374,-0.1997784,0.583891,0.65935727,-0.16418372,0.592249,0.66423568,-0.14816033,0.596089,0.6690442,-0.13100565,0.599477
0.57886251,-0.25091355,0.545247,0.5854109,-0.22272551,0.563984,0.55784568,-0.24478091,0.551306,0.52816395,-0.23035479,0.558484,0.48844246,-0.20900866,0.547295,0.47858375,-0.19975648,0.553164,0.56162547,-0.18566879,0.584596,0.56219637,-0.15539905,0.603114,0.56247326,-0.14024617,0.612373,0.56272002,-0.12646095,0.62079,0.58564716,-0.17932926,0.581828,0.58645542,-0.14331599,0.595124,0.58690451,-0.12223392,0.602881,0.5909805,-0.11154558,0.612334,0.60435065,-0.17583886,0.577528,0.61292457,-0.1432783,0.594021,0.61740384,-0.1266919,0.602537,0.62126578,-0.11418543,0.610384,0.62526993,-0.1753847,0.569016,0.64564776,-0.14916975,0.5829,0.65502538,-0.13701657,0.58928,0.66386308,-0.12644847,0.594908
0.58233398,-0.24720995,0.545247,0.58939194,-0.21367583,0.561957,0.56036139,-0.24081725,0.550401,0.5294568,-0.22333018,0.555845,0.48953814,-0.20616186,0.547368,0.47159786,-0.18963842,0.546026,0.5619846,-0.1753596,0.580016,0.55790744,-0.14434051,0.595371,0.55581531,-0.12872948,0.603049,0.55730666,-0.12026998,0.614314,0.58653639,-0.16891868,0.577871,0.58235217,-0.13422155,0.589027,0.58356059,-0.11808578,0.59939,0.5850395,-0.10363231,0.606792,0.60598229,-0.16555412,0.574304,0.60675337,-0.13209289,0.586767,0.60724298,-0.11499779,0.593234,0.6076877,-0.099455961,0.599113,0.62828172,-0.16560042,0.567022,0.64216517,-0.13675108,0.577312,0.64916868,-0.12064521,0.58204,0.6553586,-0.1063232,0.586211
0.58144937,-0.24503492,0.543135,0.58621258,-0.2120144,0.558598,0.55827105,-0.2378284,0.547073,0.52412348,-0.21944398,0.55002,0.48660669,-0.19880463,0.542487,0.46768883,-0.18010844,0.539275,0.55669033,-0.17045665,0.574225,0.55455326,-0.14732886,0.591901,0.55601167,-0.12810482,0.600739,0.55593406,-0.11278099,0.608773,0.58224458,-0.16665153,0.573324,0.57848127,-0.13133158,0.583644,0.57742711,-0.11086337,0.590866,0.57663868,-0.096149391,0.596024,0.60279629,-0.16419774,0.570916,0.60538661,-0.1318692,0.58476,0.60703647,-0.1154011,0.592156,0.61240861,-0.10409136,0.602245,0.62664746,-0.16541824,0.565214,0.63971747,-0.13670725,0.574868,0.64652373,-0.12086468,0.579304,0.65344493,-0.10566098,0.583218
0.58074624,-0.24292425,0.541797,0.58469798,-0.21054631,0.557418,0.55767255,-0.23603307,0.545947,0.52314528,-0.21483377,0.548886,0.48435478,-0.1891656,0.540931,0.46741924,-0.17326695,0.538949,0.55487931,-0.17143383,0.57343,0.55246212,-0.13996499,0.589382,0.55144889,-0.12379958,0.597358,0.55210236,-0.10952914,0.604609,0.58032447,-0.16567161,0.572296,0.57682858,-0.1293157,0.582057,0.57600273,-0.10575451,0.58775,0.57387181,-0.092802261,0.592466,0.60065641,-0.16288181,0.569678,0.60265322,-0.12803407,0.582383,0.6039797,-0.11032839,0.588883,0.60518175,-0.094219213,0.594792,0.62427497,-0.16363551,0.563704,0.63708565,-0.13513082,0.572503,0.64416181,-0.11898529,0.576546,0.65031937,-0.1041899,0.580114
0.57782651,-0.24183007,0.540785,0.5811478,-0.20876199,0.556096,0.55543215,-0.23478877,0.545366,0.51763797,-0.20996991,0.549018,0.48212228,-0.18731048,0.539602,0.46529544,-0.16830904,0.537908,0.55339722,-0.16852323,0.572459,0.54952535,-0.13424593,0.586787,0.54794775,-0.11737984,0.593951,0.54649449,-0.10200379,0.600464,0.57860068,-0.16398301,0.570677,0.57307558,-0.1166438,0.581382,0.57032027,-0.091376735,0.587905,0.56836856,-0.073379574,0.592563,0.5982777,-0.16048428,0.56756,0.59880236,-0.12260074,0.578042,0.6000837,-0.10404086,0.584024,0.60125509,-0.087191389,0.589463,0.62125995,-0.16160968,0.561064,0.63448121,-0.1328972,0.570105,0.64100292,-0.11800037,0.574259,0.64790105,-0.10190084,0.577925
0.57702538,-0.2408011,0.540841,0.57866499,-0.20648677,0.555671,0.55473428,-0.23351737,0.545427,0.51678169,-0.20826346,0.549024,0.47893079,-0.18410429,0.539647,0.46161718,-0.16520061,0.537719,0.55222148,-0.16365664,0.571714,0.54806454,-0.13228714,0.585197,0.54606005,-0.11539689,0.591939,0.54420746,-0.099975182,0.598068,0.57685187,-0.16054793,0.569795,0.57240582,-0.11557635,0.580845,0.56958396,-0.090263735,0.58729,0.56757466,-0.072197786,0.591895,0.59666906,-0.15819226,0.566616,0.59710162,-0.11896062,0.576955,0.59614069,-0.096759359,0.582301,0.59761888,-0.081863097,0.587525,0.62015493,-0.16132315,0.560139,0.6312326,-0.1268696,0.567598,0.63620378,-0.1083494,0.571024,0.64236873,-0.097811624,0.574048
0.57551109,-0.24018053,0.539963,0.57878836,-0.20740515,0.555212,0.55341905,-0.23282827,0.544675,0.51609591,-0.2084054,0.548476,0.47836989,-0.18357126,0.539111,0.46250821,-0.16574396,0.537722,0.55211898,-0.16670989,0.571703,0.54674665,-0.13272081,0.584291,0.54433675,-0.1157163,0.590586,0.54214912,-0.10001741,0.596308,0.57694053,-0.16161665,0.569734,0.57112654,-0.11655655,0.580425,0.56794653,-0.091285475,0.586661,0.56568208,-0.073252641,0.591116,0.59681467,-0.16007111,0.56647,0.59742186,-0.12103303,0.577751,0.59809253,-0.10185513,0.583535,0.5987103,-0.084452556,0.588793,0.61944192,-0.16138661,0.559815,0.63046302,-0.12714602,0.567606,0.63579461,-0.11181882,0.571185,0.64172942,-0.097708201,0.574344
0.57452867,-0.23977906,0.539448,0.57801032,-0.2073253,0.554852,0.55256377,-0.23236662,0.54424,0.51572201,-0.20846374,0.548169,0.4780344,-0.18328364,0.538781,0.46195811,-0.16502787,0.537284,0.5517047,-0.16661199,0.571555,0.54599795,-0.13299075,0.583792,0.54342902,-0.11593458,0.589911,0.54111566,-0.10008021,0.595474,0.57647244,-0.16159282,0.569524,0.57046911,-0.11704312,0.580197,0.56720079,-0.091808207,0.586422,0.56487206,-0.073797855,0.590869,0.59627867,-0.15999413,0.566191,0.59710475,-0.12122613,0.577808,0.59785623,-0.1020306,0.583751,0.59854736,-0.084609494,0.589154,0.61876051,-0.16138708,0.559428,0.62975449,-0.12721926,0.567319,0.63510579,-0.11175109,0.570945,0.64092364,-0.097581864,0.574144
0.57339725,-0.23805956,0.53832,0.57470194,-0.20441687,0.553196,0.5515635,-0.22931339,0.543017,0.51485248,-0.2069946,0.546554,0.47857945,-0.18386795,0.538157,0.46157322,-0.16525699,0.536822,0.54903361,-0.16345395,0.569415,0.54368496,-0.1323938,0.581618,0.53987478,-0.11722291,0.58772,0.53744203,-0.10167622,0.593267,0.57425675,-0.15714351,0.567364,0.56666948,-0.11721878,0.576368,0.56447884,-0.095616262,0.58162,0.56212319,-0.079874903,0.585371,0.59386474,-0.15514328,0.564072,0.59600644,-0.12056311,0.576781,0.59738293,-0.10177419,0.583283,0.59863314,-0.084688872,0.589194,0.61591183,-0.15691865,0.557454,0.62631768,-0.12512712,0.564909,0.63133505,-0.10961396,0.568335,0.63628776,-0.096273134,0.571357
0.5726396,-0.23674481,0.537556,0.57430285,-0.20315787,0.552537,0.55089547,-0.22811554,0.542381,0.51487806,-0.2062587,0.54612,0.47875585,-0.1837097,0.538181,0.46218647,-0.16573855,0.537525,0.54855391,-0.16273258,0.568994,0.54347185,-0.13231786,0.581604,0.53985199,-0.11741735,0.587908,0.53750031,-0.10231481,0.59364,0.57341994,-0.15638638,0.566805,0.56644711,-0.11719013,0.575928,0.56411877,-0.095555271,0.581249,0.5618159,-0.079831238,0.585051,0.59285524,-0.15425941,0.563388,0.59560904,-0.12016836,0.576422,0.59719054,-0.10161595,0.583091,0.59862479,-0.08473575,0.589154,0.61482948,-0.15579827,0.556605,0.62523056,-0.12444295,0.564073,0.63019558,-0.10918335,0.567504,0.63518175,-0.095595907,0.570532
0.57154772,-0.23494049,0.536524,0.57442121,-0.20338926,0.552079,0.55011476,-0.22765628,0.541823,0.51531111,-0.2066881,0.546506,0.47877931,-0.18434442,0.537761,0.46263763,-0.16733941,0.537417,0.54898404,-0.16270619,0.569542,0.54382913,-0.1346197,0.582169,0.54044543,-0.11775678,0.588483,0.53821448,-0.10221322,0.594223,0.5730743,-0.15837584,0.566893,0.56715962,-0.11720148,0.576717,0.56353571,-0.094008487,0.582447,0.56111788,-0.077170377,0.586541,0.59202516,-0.15602806,0.563035,0.59510503,-0.11999288,0.576094,0.59668511,-0.10147659,0.582775,0.59811794,-0.0846287,0.588849,0.61366202,-0.15725554,0.555633,0.62370685,-0.12465258,0.563364,0.6287138,-0.10949471,0.566916,0.63361179,-0.094976912,0.57005
0.55906921,-0.23774115,0.531351,0.56278435,-0.21704986,0.548747,0.54023117,-0.23025002,0.538144,0.50600461,-0.21644518,0.54542,0.47324337,-0.19200593,0.538988,0.46286725,-0.17011883,0.538674,0.55056224,-0.17801524,0.569407,0.54293661,-0.14616421,0.581323,0.53902651,-0.13005786,0.587281,0.53541669,-0.11531384,0.592697,0.57304186,-0.17376316,0.565314,0.57252919,-0.12690768,0.57681,0.57211175,-0.1017219,0.583516,0.57201299,-0.084059232,0.588306,0.59020292,-0.17193025,0.560069,0.59047175,-0.13024479,0.572893,0.59066553,-0.10911137,0.579454,0.59372916,-0.084954717,0.585418,0.60869762,-0.17343015,0.550711,0.61923036,-0.13851225,0.559407,0.62364416,-0.11209553,0.563403,0.62972537,-0.094369895,0.566928
0.56479742,-0.23804774,0.534712,0.56625934,-0.21698505,0.551436,0.54577032,-0.23104541,0.541743,0.51394011,-0.22153868,0.549575,0.47874758,-0.19887491,0.541635,0.46256301,-0.1790164,0.54191,0.55124053,-0.17511863,0.57195,0.5437772,-0.14488127,0.582996,0.54007413,-0.12838076,0.588519,0.53695887,-0.10719561,0.593539,0.57069007,-0.16947531,0.567364,0.56703028,-0.13067328,0.578571,0.56485138,-0.107913,0.585109,0.56714791,-0.084863589,0.589779,0.58752363,-0.1657047,0.561786,0.59132089,-0.13050462,0.57431,0.59209371,-0.11064256,0.580717,0.59275593,-0.091672566,0.586542,0.60628615,-0.16524781,0.552167,0.620112,-0.13892458,0.560591,0.62558652,-0.12500644,0.564462,0.63052134,-0.11136192,0.567877
0.56497158,-0.23689884,0.534983,0.56832518,-0.21723245,0.552632,0.54459076,-0.2322973,0.541902,0.514918,-0.2229497,0.54991,0.47993118,-0.20165772,0.54327,0.46540217,-0.18597332,0.545037,0.55113497,-0.17899827,0.573627,0.5449771,-0.14626254,0.585527,0.54178539,-0.12966099,0.591477,0.53881996,-0.11443649,0.596886,0.57335681,-0.17290811,0.569441,0.56918542,-0.13218592,0.58173,0.56780311,-0.10885588,0.588899,0.56678582,-0.092084432,0.59402,0.58855242,-0.16787101,0.564091,0.59269439,-0.13230857,0.575974,0.59401052,-0.11443316,0.582054,0.5956194,-0.09749017,0.587581,0.60759913,-0.16692929,0.554565,0.62229729,-0.13886602,0.563053,0.62801049,-0.12102191,0.566953,0.63372501,-0.10961378,0.570395
0.56080145,-0.25229426,0.53866,0.56634298,-0.23286212,0.555596,0.54342361,-0.24534058,0.546514,0.51405681,-0.23824906,0.556207,0.47953668,-0.21521259,0.548838,0.46649651,-0.19960425,0.551749,0.55317306,-0.19046487,0.577327,0.54806444,-0.15831801,0.589105,0.54544846,-0.142109,0.594994,0.54268539,-0.12209822,0.600348,0.57412596,-0.18486023,0.571726,0.57414736,-0.14573942,0.583442,0.57409039,-0.12266643,0.590276,0.57401995,-0.10607505,0.595158,0.59012778,-0.18220124,0.565289,0.59270255,-0.14612687,0.576707,0.59385964,-0.12697605,0.582549,0.59483281,-0.10923046,0.587859,0.6074099,-0.18327012,0.554634,0.61995289,-0.15296306,0.562302,0.62543957,-0.13679954,0.565825,0.62995692,-0.121321,0.568934
0.56349039,-0.25539069,0.540542,0.5709944,-0.233488,0.557388,0.54687599,-0.2500203,0.548486,0.5221535,-0.24200642,0.55827,0.48394465,-0.21927768,0.548062,0.46768371,-0.20132204,0.550467,0.55510742,-0.19198709,0.579172,0.55018322,-0.1596458,0.590712,0.54767026,-0.14336001,0.596482,0.5453567,-0.12849,0.601727,0.5760138,-0.18570177,0.573431,0.57443213,-0.1463096,0.585052,0.57345706,-0.12316013,0.591831,0.57273754,-0.10655007,0.596673,0.59204708,-0.18246153,0.566888,0.59592269,-0.14874229,0.579173,0.59880928,-0.13460923,0.585459,0.59938854,-0.11385492,0.591173,0.60957163,-0.18277319,0.556126,0.62190232,-0.15337567,0.563461,0.62742042,-0.13765686,0.56683,0.6321086,-0.12282545,0.569803
0.56688948,-0.2698298,0.544033,0.57602782,-0.24597074,0.560091,0.54838913,-0.26231384,0.551085,0.52236135,-0.25201673,0.558542,0.48734824,-0.22907608,0.55159,0.47107192,-0.20748521,0.550868,0.55481575,-0.20537204,0.58018,0.55260222,-0.17342249,0.592969,0.5513433,-0.15681733,0.599364,0.55016154,-0.14162763,0.605177,0.57688595,-0.19870492,0.575384,0.57336731,-0.15616247,0.585459,0.57131732,-0.13135181,0.591337,0.57104611,-0.10878247,0.595535,0.59411795,-0.19514585,0.569705,0.59739422,-0.15387398,0.580172,0.59878393,-0.1356345,0.585528,0.59910023,-0.11527977,0.590396,0.61354057,-0.19503536,0.560094,0.62649226,-0.16505326,0.568394,0.63251838,-0.14931093,0.572208,0.63877697,-0.12987028,0.575573
0.56716989,-0.27412951,0.546088,0.57535688,-0.24982262,0.562607,0.54788201,-0.26879287,0.553626,0.52283221,-0.25499639,0.562121,0.4870319,-0.23118911,0.553815,0.47473183,-0.21541,0.557091,0.55783303,-0.2080053,0.583641,0.55486278,-0.1763499,0.596266,0.55328173,-0.16016705,0.602578,0.55181535,-0.14538553,0.608316,0.57945131,-0.20185899,0.578338,0.5793479,-0.16706304,0.589885,0.57946293,-0.14534291,0.59662,0.5795223,-0.12974485,0.601431,0.59615187,-0.19875872,0.572192,0.59870372,-0.15982063,0.582285,0.60026194,-0.13805515,0.587449,0.60127928,-0.12012171,0.592144,0.61363853,-0.20284919,0.561952,0.62833652,-0.17326586,0.570686,0.63508591,-0.15969051,0.574698,0.64093887,-0.14628987,0.578239
0.57238724,-0.28651592,0.55225,0.57757643,-0.25729337,0.567568,0.55422695,-0.27888298,0.559748,0.52606136,-0.2655817,0.567865,0.4909059,-0.24280322,0.560617,0.47890241,-0.2291692,0.565552,0.55968171,-0.2174716,0.587736,0.55622027,-0.18620573,0.600876,0.55433581,-0.17009573,0.607447,0.5539051,-0.15246237,0.61342,0.581882,-0.20837355,0.582157,0.58016744,-0.17520263,0.591627,0.57949224,-0.15249874,0.597151,0.5789085,-0.13587526,0.601097,0.59839953,-0.20559575,0.575912,0.59890342,-0.17216556,0.58417,0.59959985,-0.15269393,0.588395,0.60019626,-0.13478237,0.592236,0.61676232,-0.20659471,0.565785,0.63017528,-0.17602495,0.572668,0.63627023,-0.1607174,0.57583,0.641612,-0.14640308,0.57862
0.57381766,-0.28898603,0.553597,0.58117193,-0.26396423,0.571004,0.55680636,-0.28277296,0.562406,0.52996467,-0.27510331,0.572705,0.49345224,-0.25385237,0.565941,0.48075966,-0.2407847,0.570624,0.56336349,-0.23311431,0.594296,0.55934423,-0.19996538,0.606043,0.55704556,-0.18285655,0.611916,0.55485707,-0.16705761,0.617256,0.58265013,-0.22379973,0.587582,0.58429753,-0.18791203,0.598753,0.58466916,-0.16598226,0.60527,0.58485974,-0.15002215,0.609924,0.59748097,-0.2177023,0.580177,0.6009984,-0.18063303,0.588778,0.60273982,-0.16138791,0.593178,0.60475319,-0.13984164,0.597179,0.61620992,-0.2118903,0.56831,0.63172883,-0.18550207,0.57456,0.63542283,-0.17024725,0.577432,0.63870243,-0.15617358,0.579966
0.58412429,-0.32242036,0.56624,0.58893969,-0.29007357,0.58052,0.56652101,-0.31558112,0.574647,0.54175291,-0.29534987,0.582311,0.50347289,-0.27080093,0.572458,0.49224429,-0.25658617,0.57747,0.56901974,-0.24758631,0.601168,0.5680198,-0.21741076,0.61509,0.56735951,-0.20191192,0.622051,0.56673285,-0.18775562,0.628379,0.5888642,-0.2402337,0.594121,0.58624105,-0.20386213,0.602436,0.58458683,-0.18219678,0.607287,0.58337831,-0.16662318,0.610752,0.60430744,-0.23619872,0.586778,0.60466005,-0.19882209,0.592898,0.60481601,-0.179578,0.596028,0.60494438,-0.16200551,0.598874,0.62179573,-0.23571583,0.575572,0.63485437,-0.20402156,0.57957,0.63869504,-0.1908854,0.581407,0.64216372,-0.17869362,0.583028
0.58166292,-0.32623034,0.570143,0.58855019,-0.29325476,0.583961,0.56533308,-0.31882286,0.578709,0.5357404,-0.30251864,0.58824,0.50110093,-0.27993695,0.581701,0.49024638,-0.26617503,0.587089,0.57238312,-0.25002987,0.604501,0.56844552,-0.2185558,0.61661,0.56636276,-0.20253823,0.622664,0.56442954,-0.18789275,0.628168,0.59177352,-0.24317734,0.597121,0.58937258,-0.2057947,0.605426,0.58789651,-0.18371201,0.61027,0.58682329,-0.16786617,0.61373,0.6068297,-0.23966858,0.589555,0.60786427,-0.20174841,0.595571,0.60824932,-0.18212021,0.598649,0.6083689,-0.16396381,0.601448,0.62280701,-0.2433085,0.578175,0.63359233,-0.21116024,0.582257,0.63953827,-0.19313633,0.584132,0.64081875,-0.1795888,0.585787
0.58287977,-0.33244006,0.573118,0.58952978,-0.30950499,0.588384,0.5669398,-0.32493022,0.581921,0.54095783,-0.31437282,0.591755,0.50753911,-0.29063057,0.585907,0.497113,-0.27505958,0.590401,0.57746216,-0.2663179,0.610216,0.57542007,-0.23627899,0.62498,0.57431856,-0.22107623,0.632362,0.57327221,-0.20715298,0.639073,0.59688831,-0.26001619,0.602924,0.59537698,-0.22000956,0.612642,0.59443634,-0.19643748,0.618311,0.59462397,-0.17333702,0.622361,0.61176377,-0.25685366,0.595274,0.6116012,-0.21865845,0.603728,0.61141499,-0.19895769,0.608054,0.61124234,-0.18103554,0.611986,0.62798213,-0.25749269,0.583524,0.63812413,-0.22316064,0.589182,0.64260661,-0.20700819,0.591782,0.64656318,-0.19272835,0.594075
0.57670237,-0.34959513,0.577019,0.58290768,-0.32235752,0.590504,0.56596016,-0.34292215,0.589635,0.53895135,-0.32638338,0.598613,0.50898684,-0.30119624,0.594167,0.49879356,-0.28002291,0.594819,0.58406164,-0.27939264,0.619512,0.57855471,-0.24646374,0.629391,0.575737,-0.22983807,0.63433,0.57216263,-0.21430597,0.638821,0.60117917,-0.27407698,0.610084,0.60261095,-0.23331952,0.618773,0.60343551,-0.20947509,0.623842,0.60358358,-0.19199068,0.627462,0.6145248,-0.27210615,0.601361,0.6163373,-0.23336592,0.609694,0.61821198,-0.21390733,0.614894,0.61990943,-0.19618199,0.61962,0.62895318,-0.27461017,0.588929,0.64124615,-0.24174312,0.593405,0.64552838,-0.2249119,0.595462,0.64932492,-0.20989546,0.597276
0.58074375,-0.35510294,0.581681,0.58851107,-0.32641485,0.595355,0.57006697,-0.34867208,0.59459,0.54619821,-0.33684146,0.605165,0.51231507,-0.31309264,0.598703,0.4991426,-0.29550703,0.599852,0.58773378,-0.28448824,0.624899,0.58533058,-0.25610254,0.639115,0.58475572,-0.24041288,0.646223,0.5841352,-0.22597782,0.652685,0.60482436,-0.27843751,0.615169,0.60515182,-0.23790242,0.624297,0.60167021,-0.21685653,0.629622,0.60521339,-0.19693896,0.633425,0.61817014,-0.27585036,0.606177,0.62019957,-0.23632077,0.613993,0.62123573,-0.21607304,0.617993,0.62177279,-0.19727777,0.621628,0.63170466,-0.27842565,0.593388,0.64507062,-0.24363648,0.597562,0.64950673,-0.22662505,0.599481,0.6534478,-0.21140214,0.601173
0.5872835,-0.36703431,0.589359,0.60179712,-0.34054043,0.603657,0.58034892,-0.36414089,0.603842,0.56142767,-0.35170053,0.615914,0.52713992,-0.32782523,0.609626,0.51780709,-0.31356044,0.615811,0.6007519,-0.30170098,0.635763,0.59710536,-0.27031299,0.648468,0.59524593,-0.25453175,0.654821,0.59353466,-0.24013594,0.660596,0.61588159,-0.2932551,0.624382,0.61464148,-0.25371764,0.634754,0.61389151,-0.2305525,0.640804,0.61334487,-0.21396159,0.645126,0.62768412,-0.28869372,0.613977,0.62985858,-0.2495194,0.622343,0.63057045,-0.22914177,0.626624,0.6304152,-0.21008584,0.630515,0.64051806,-0.28800411,0.599392,0.65076378,-0.25344604,0.60358,0.65452932,-0.23658609,0.605505,0.65927673,-0.21626818,0.607203
0.58628391,-0.36853306,0.588742,0.60011638,-0.34224182,0.60435,0.57750573,-0.36336615,0.603344,0.55494491,-0.35423088,0.61677,0.52310089,-0.33293633,0.613985,0.51607827,-0.31623321,0.618443,0.60161292,-0.30498773,0.637941,0.59843195,-0.2735636,0.650496,0.59681811,-0.2577924,0.656774,0.5962486,-0.24379421,0.663495,0.61723294,-0.29693684,0.626973,0.61795364,-0.25807606,0.638719,0.61833827,-0.23526373,0.64557,0.61859814,-0.21890668,0.650464,0.62929787,-0.29259818,0.616814,0.63343821,-0.25401462,0.626601,0.63520829,-0.23389782,0.631608,0.63640646,-0.21528069,0.63616,0.64215949,-0.29197313,0.602331,0.65709659,-0.26430198,0.610257,0.66233686,-0.24800373,0.613898,0.66778607,-0.22930407,0.617112
0.58709031,-0.37146295,0.589441,0.60048901,-0.34869911,0.60677,0.57987246,-0.37236192,0.604286,0.55739437,-0.36244129,0.61807,0.52553089,-0.34055581,0.615096,0.51814029,-0.32919517,0.623796,0.6040132,-0.3192033,0.64242,0.60434949,-0.28719759,0.655477,0.60509857,-0.27137862,0.662672,0.60575408,-0.25691534,0.669213,0.62015566,-0.31079358,0.631889,0.62361804,-0.27247125,0.645018,0.62559386,-0.24990617,0.652677,0.62698508,-0.23369579,0.658147,0.6325295,-0.30596178,0.621963,0.63865074,-0.26819251,0.63317,0.64152659,-0.24850469,0.638904,0.64412568,-0.23048823,0.644117,0.64556529,-0.3043514,0.607511,0.66094757,-0.2721564,0.614535,0.66680971,-0.25588397,0.617763,0.67138512,-0.23802911,0.62061
0.59084016,-0.37818123,0.593368,0.6016449,-0.35586884,0.609685,0.58076515,-0.37591696,0.606943,0.55561713,-0.36340886,0.618776,0.52640161,-0.34293411,0.618491,0.5190014,-0.33074189,0.626773,0.60322402,-0.32087673,0.642765,0.60628084,-0.29586871,0.661844,0.60832558,-0.28251682,0.671384,0.61283762,-0.26574869,0.680056,0.62062161,-0.31373137,0.633336,0.62301269,-0.27485776,0.645443,0.62430706,-0.25190387,0.652506,0.62514292,-0.23531508,0.65755,0.6340784,-0.3099542,0.62439,0.63958596,-0.27186572,0.634821,0.64183799,-0.25172206,0.640158,0.64385156,-0.23317287,0.645009,0.64748742,-0.3130442,0.611263,0.66357132,-0.27999404,0.617904,0.6696243,-0.26353769,0.620955,0.67497212,-0.24566313,0.623647
0.58676792,-0.38920495,0.593928,0.59958074,-0.36878496,0.612066,0.57866632,-0.38541867,0.609213,0.55549831,-0.37442246,0.623464,0.53108568,-0.35641469,0.627667,0.52027038,-0.33378778,0.628749,0.60888624,-0.33642716,0.649074,0.61005805,-0.30596809,0.664114,0.61040961,-0.29034595,0.671634,0.6097545,-0.2728627,0.678521,0.62499862,-0.32973886,0.638358,0.63097153,-0.29194689,0.652958,0.63438585,-0.26952398,0.661474,0.63606875,-0.2527242,0.667558,0.63700811,-0.32618875,0.62822,0.64567563,-0.29058679,0.641527,0.64929299,-0.27127006,0.648335,0.65254159,-0.25343387,0.654524,0.64896675,-0.32584089,0.613396,0.66513473,-0.29300349,0.622206,0.67095637,-0.27697665,0.626254,0.67612142,-0.26249842,0.629826
0.58761372,-0.3930325,0.595841,0.60124703,-0.3711111,0.613734,0.57939781,-0.38889733,0.610891,0.55769962,-0.37793913,0.625697,0.53178969,-0.36313467,0.629248,0.52407671,-0.35017045,0.637034,0.60960765,-0.33760557,0.65021,0.61058596,-0.30740676,0.66486,0.61096109,-0.29211849,0.672186,0.6134989,-0.27916951,0.681308,0.62592665,-0.33103673,0.639672,0.63190429,-0.29348271,0.653933,0.63503343,-0.27095401,0.662252,0.63612741,-0.25453938,0.668194,0.63815291,-0.32764154,0.629699,0.64644595,-0.29121092,0.64251,0.65006651,-0.27170878,0.649064,0.65332524,-0.25372668,0.655023,0.65044551,-0.32759299,0.615108,0.66668258,-0.29610853,0.623775,0.67206035,-0.28027728,0.627757,0.67656251,-0.26619771,0.631271
0.58921936,-0.39511853,0.596702,0.60358163,-0.37231297,0.614835,0.58123896,-0.39139003,0.612248,0.56140106,-0.38244325,0.627612,0.5332691,-0.36399822,0.629067,0.52579924,-0.35176384,0.63744,0.61092011,-0.33946435,0.652153,0.61263151,-0.31150382,0.667281,0.61372082,-0.29722527,0.674845,0.62054068,-0.28696938,0.688174,0.62696928,-0.33237895,0.641119,0.63284953,-0.29524261,0.655812,0.63602597,-0.27310466,0.664383,0.63654671,-0.25931339,0.670505,0.63895931,-0.32855107,0.63072,0.64737596,-0.29339638,0.643646,0.65085119,-0.27361316,0.65026,0.65395267,-0.25565971,0.656272,0.65099715,-0.3279418,0.615583,0.6674344,-0.29578078,0.623885,0.67306886,-0.28003101,0.627699,0.67789924,-0.26591182,0.631065
0.60119515,-0.40880517,0.605458,0.61676264,-0.38089218,0.620858,0.59093929,-0.40408728,0.619543,0.57517918,-0.39081575,0.63119,0.54476559,-0.37030862,0.630151,0.53705346,-0.35718384,0.638321,0.61201849,-0.34079018,0.653612,0.61767139,-0.3149843,0.672707,0.62092212,-0.30351742,0.682254,0.62333112,-0.28941109,0.690934,0.62888175,-0.33381816,0.64318,0.6347419,-0.29699803,0.657866,0.63801383,-0.27657796,0.666874,0.64532829,-0.26624954,0.677708,0.6418114,-0.33025034,0.633475,0.64767399,-0.29662322,0.644617,0.65061086,-0.27578186,0.650318,0.65313439,-0.25663537,0.6555,0.65556867,-0.33066512,0.61957,0.66900677,-0.29619823,0.625054,0.67360587,-0.28036533,0.627574,0.67752753,-0.26634309,0.629797
0.59954956,-0.40825892,0.605126,0.61174746,-0.37835441,0.620027,0.58913692,-0.4030164,0.61883,0.5669677,-0.38656207,0.630166,0.53659427,-0.36474771,0.628262,0.52899915,-0.35216294,0.636,0.61020236,-0.33989141,0.651813,0.61782991,-0.31504014,0.672325,0.6224927,-0.30378818,0.682883,0.62650522,-0.2924262,0.692482,0.62735589,-0.33324569,0.641627,0.63099296,-0.29527309,0.653919,0.63302473,-0.27200521,0.661089,0.63384426,-0.25717079,0.666211,0.64055326,-0.32998635,0.632161,0.64746493,-0.29713576,0.644338,0.65083808,-0.27814952,0.650568,0.65410861,-0.2577975,0.656232,0.65473497,-0.33091586,0.618616,0.66775174,-0.29601098,0.623686,0.67384842,-0.28101956,0.626015,0.67868536,-0.27046793,0.62807
0.5972809,-0.40890595,0.603684,0.6107969,-0.38328068,0.620086,0.58889032,-0.40511487,0.618116,0.56701335,-0.39448035,0.631356,0.53570022,-0.37155739,0.62833,0.52922719,-0.35327354,0.634653,0.61594959,-0.34648666,0.654286,0.62169787,-0.31762803,0.672736,0.62537901,-0.30428623,0.681961,0.62586752,-0.29158878,0.690347,0.63245544,-0.34116292,0.64386,0.63588323,-0.30050713,0.656356,0.63978898,-0.27896734,0.664643,0.64257511,-0.26355493,0.670563,0.64492704,-0.33908246,0.634087,0.6526901,-0.30147442,0.647398,0.65973748,-0.28469156,0.654207,0.66428874,-0.26788614,0.660398,0.65760738,-0.34118311,0.619954,0.67394593,-0.30905215,0.626532,0.68015006,-0.292798,0.629554,0.6845502,-0.27868016,0.63222
0.60247984,-0.41328704,0.606785,0.61517012,-0.38424895,0.621732,0.59387156,-0.40921533,0.621029,0.57585013,-0.39430509,0.63296,0.54302716,-0.37134609,0.6288,0.52967668,-0.35541138,0.632516,0.61649738,-0.34768254,0.654215,0.62302479,-0.31952827,0.672016,0.6236778,-0.30417652,0.680917,0.62544822,-0.29126992,0.689008,0.63284997,-0.34123757,0.643399,0.63648707,-0.30180286,0.654339,0.63854018,-0.2788674,0.6628,0.64037236,-0.26190464,0.668843,0.64536273,-0.33825054,0.633412,0.65458831,-0.30221123,0.648034,0.66180138,-0.28527565,0.655515,0.6668494,-0.26886838,0.662316,0.65764939,-0.33734263,0.619233,0.67279982,-0.30539657,0.624177,0.67808498,-0.28899096,0.626448,0.68038498,-0.27300847,0.628452
0.60364046,-0.41432879,0.607223,0.61571299,-0.38473525,0.621639,0.59452226,-0.40996756,0.621065,0.57505768,-0.3947416,0.632408,0.5430127,-0.37230172,0.629142,0.53063817,-0.35655603,0.633353,0.61576556,-0.34747894,0.653093,0.62297362,-0.31987669,0.671483,0.62643415,-0.30585234,0.680679,0.62855871,-0.29250953,0.689038,0.63239282,-0.34087189,0.642536,0.63470527,-0.3009066,0.652789,0.63603467,-0.27747404,0.658771,0.63366198,-0.25836278,0.663043,0.64521449,-0.33775782,0.632801,0.6582372,-0.30437881,0.649342,0.66564464,-0.28765437,0.657805,0.67093212,-0.27150552,0.665498,0.65810822,-0.33732335,0.619002,0.67269649,-0.30424212,0.623547,0.67774115,-0.28780726,0.625635,0.67987203,-0.27269997,0.627478
0.60464073,-0.41527154,0.607532,0.61696312,-0.38632809,0.621767,0.59483228,-0.41048643,0.620806,0.57341289,-0.39671937,0.631628,0.54025789,-0.37286508,0.626629,0.52967456,-0.35650978,0.632074,0.61552209,-0.34787926,0.65235,0.62052514,-0.31940439,0.668415,0.62273615,-0.3045051,0.676448,0.62426823,-0.29054958,0.683751,0.63282572,-0.34160155,0.642399,0.63484136,-0.3012761,0.652266,0.63598995,-0.27759086,0.658022,0.63679789,-0.26060115,0.662133,0.64624193,-0.33874223,0.633177,0.65798018,-0.30469662,0.648673,0.66397765,-0.28719514,0.656601,0.66942613,-0.27123845,0.663809,0.66177811,-0.33947562,0.620021,0.68030754,-0.30935187,0.623266,0.68412512,-0.29806585,0.624757,0.68458046,-0.29460438,0.626073
0.60507322,-0.41576786,0.607424,0.61727717,-0.38666249,0.621626,0.59501868,-0.41084415,0.620563,0.5728795,-0.39689852,0.631216,0.53972596,-0.37292581,0.626096,0.52908211,-0.35651233,0.631281,0.61548131,-0.34817868,0.652016,0.61998181,-0.31959473,0.667573,0.62184495,-0.30434499,0.675352,0.62319155,-0.29015746,0.682423,0.63300449,-0.34199535,0.642235,0.63497862,-0.30152433,0.652009,0.63609672,-0.2777194,0.65771,0.63688067,-0.26062898,0.661782,0.64661039,-0.3392026,0.63316,0.65807955,-0.30500429,0.648522,0.66393884,-0.2874167,0.656382,0.6692599,-0.27137652,0.663527,0.66225903,-0.34020347,0.620191,0.68051929,-0.30944816,0.62346,0.6843496,-0.29816365,0.624962,0.68481446,-0.29470508,0.626287
0.60972452,-0.42051023,0.609926,0.62062313,-0.38942928,0.622581,0.59779103,-0.41382956,0.622241,0.57713035,-0.40151548,0.631761,0.54613036,-0.37874958,0.628547,0.52954903,-0.35781802,0.62986,0.61703537,-0.34930585,0.65045,0.62024799,-0.32039404,0.66612,0.6214096,-0.30461574,0.673955,0.62231147,-0.29026484,0.681078,0.63506318,-0.34355986,0.641043,0.63532111,-0.30174944,0.648946,0.63521341,-0.27707134,0.653556,0.63358084,-0.25864607,0.656849,0.64919206,-0.34117462,0.632393,0.65763085,-0.30526212,0.645813,0.66239312,-0.28742421,0.65268,0.6659924,-0.26955353,0.658922,0.66484606,-0.34298692,0.620162,0.67939917,-0.30812998,0.622823,0.68450368,-0.29118919,0.624045,0.68901839,-0.27619596,0.625124
