sluyters/QuantumLeap/backend/src/datasets/dynamic/HandGestureDataset_SHREC2017_csv/Gesture9/finger_2/subject_2_essai_3_skeletons_world.csv
Wrist_x,Wrist_y,Wrist_z,Palm_x,Palm_y,Palm_z,thumb_base_x,thumb_base_y,thumb_base_z,thumb_first_joint_x,thumb_first_joint_y,thumb_first_joint_z,thumb_second_joint_x,thumb_second_joint_y,thumb_second_joint_z,thumb_tip_x,thumb_tip_y,thumb_tip_z,index_base_x,index_base_y,index_base_z,index_first_joint_x,index_first_joint_y,index_first_joint_z,index_second_joint_x,index_second_joint_y,index_second_joint_z,index_tip_x,index_tip_y,index_tip_z,middle_base_x,middle_base_y,middle_base_z,middle_first_joint_x,middle_first_joint_y,middle_first_joint_z,middle_second_joint_x,middle_second_joint_y,middle_second_joint_z,middle_tip_x,middle_tip_y,middle_tip_z,ring_base_x,ring_base_y,ring_base_z,ring_first_joint_x,ring_first_joint_y,ring_first_joint_z,ring_second_joint_x,ring_second_joint_y,ring_second_joint_z,ring_tip_x,ring_tip_y,ring_tip_z,pinky_base_x,pinky_base_y,pinky_base_z,pinky_first_joint_x,pinky_first_joint_y,pinky_first_joint_z,pinky_second_joint_x,pinky_second_joint_y,pinky_second_joint_z,pinky_tip_x,pinky_tip_y,pinky_tip_z,
0.37680253,-0.32461864,0.445869,0.36182864,-0.27382658,0.440547,0.35575178,-0.31926194,0.443096,0.33262386,-0.30217921,0.442817,0.29504508,-0.27880886,0.422083,0.28205348,-0.26784921,0.4215,0.32710971,-0.24833446,0.433322,0.29936733,-0.2054567,0.420143,0.28809948,-0.18889179,0.413554,0.28458736,-0.18703792,0.407564,0.3502642,-0.24409765,0.435478,0.32438128,-0.19810405,0.422319,0.31253046,-0.17597653,0.414643,0.31792281,-0.17082679,0.428501,0.37090403,-0.24448442,0.437828,0.35314323,-0.19775354,0.425181,0.34422932,-0.17393943,0.418711,0.33547094,-0.15635606,0.412829,0.39763507,-0.25179256,0.441555,0.3847338,-0.21039121,0.433691,0.38167499,-0.19458141,0.430078,0.37874561,-0.18369878,0.42689
0.3763375,-0.32181555,0.445431,0.36098487,-0.27200939,0.439797,0.35519215,-0.31640208,0.442495,0.33192913,-0.30024172,0.441604,0.29288651,-0.27540715,0.418506,0.27876584,-0.26321543,0.415827,0.32607552,-0.24610561,0.432147,0.31862104,-0.20173808,0.426919,0.31526801,-0.18071237,0.424304,0.3122074,-0.1614103,0.421928,0.34934514,-0.2420663,0.434431,0.32237571,-0.19526075,0.419523,0.31078574,-0.17461041,0.410827,0.31905307,-0.17011785,0.42413,0.37009607,-0.24263673,0.436919,0.35147977,-0.19591808,0.42373,0.34208355,-0.17206489,0.416982,0.33351554,-0.15023583,0.410848,0.39698868,-0.25020404,0.440865,0.38454653,-0.20851917,0.432587,0.38102305,-0.1916471,0.428784,0.3779109,-0.17646097,0.425428
0.37733716,-0.31163764,0.447186,0.36064026,-0.25543106,0.439083,0.35536204,-0.30246016,0.443893,0.3290627,-0.28206352,0.436457,0.29029543,-0.25858669,0.415281,0.27735202,-0.24765265,0.414929,0.3251187,-0.22697699,0.429292,0.32149359,-0.18525391,0.426354,0.31973598,-0.16434618,0.424885,0.31816901,-0.14521535,0.42355,0.34855629,-0.22392715,0.431366,0.32182367,-0.17581693,0.413798,0.3113059,-0.15957088,0.40355,0.31882973,-0.15487624,0.415971,0.36952715,-0.22548603,0.433948,0.3527225,-0.17779116,0.422164,0.34454079,-0.15393317,0.416135,0.33708556,-0.13212737,0.410654,0.39682839,-0.23454472,0.438467,0.38238019,-0.19251062,0.428935,0.37793166,-0.17581955,0.424555,0.37419034,-0.16120305,0.42069
0.37618603,-0.29673002,0.447211,0.36028163,-0.24614842,0.438539,0.35450971,-0.29016438,0.443599,0.3263733,-0.27077384,0.432775,0.28899965,-0.24895978,0.413461,0.27739961,-0.23926939,0.415158,0.32401283,-0.21748148,0.427946,0.31715427,-0.17414938,0.420639,0.31378488,-0.15253764,0.416986,0.31338383,-0.13854663,0.417173,0.34763736,-0.21443698,0.430279,0.32047104,-0.16642766,0.412061,0.30975029,-0.15008358,0.401434,0.31716376,-0.14489719,0.413614,0.36885349,-0.21601824,0.433136,0.35110781,-0.1676752,0.419969,0.34292906,-0.14421468,0.413232,0.33491252,-0.1270001,0.407108,0.39659906,-0.22515014,0.438081,0.38127981,-0.18285878,0.427615,0.37653506,-0.16613333,0.422806,0.37248521,-0.15137752,0.418563
0.3745267,-0.29163917,0.444742,0.3598228,-0.24238667,0.437511,0.35405262,-0.2860308,0.442607,0.32600222,-0.2626805,0.432013,0.29012886,-0.24140785,0.413844,0.27931337,-0.23182948,0.416517,0.32592512,-0.21195142,0.429822,0.32105287,-0.16993595,0.425605,0.31874143,-0.14996266,0.423496,0.3200907,-0.13975813,0.426047,0.34848295,-0.20808784,0.430625,0.32770601,-0.1633484,0.420232,0.31804284,-0.1428629,0.414169,0.32792936,-0.14102847,0.428908,0.36865375,-0.20894014,0.432066,0.35220102,-0.16128903,0.420813,0.34445249,-0.1378924,0.415055,0.33771468,-0.12019087,0.40982,0.39492166,-0.21709576,0.435098,0.3839443,-0.17705416,0.429488,0.38077284,-0.16075727,0.426911,0.37799109,-0.14992905,0.424637
0.37349494,-0.28292881,0.444087,0.36095219,-0.22937837,0.435984,0.35345999,-0.27322819,0.442242,0.32247428,-0.25374975,0.427383,0.28617176,-0.23568698,0.408279,0.2753212,-0.22593338,0.410554,0.32925246,-0.20033282,0.42808,0.32205121,-0.1569993,0.421686,0.31869545,-0.13551141,0.418489,0.3156356,-0.11578395,0.415582,0.35167076,-0.19808102,0.428268,0.33863791,-0.14938777,0.413554,0.33137635,-0.12176911,0.40497,0.34217873,-0.10720706,0.418387,0.37126209,-0.20031715,0.429296,0.3498208,-0.15270436,0.415675,0.33964929,-0.12934034,0.408706,0.3309515,-0.11129507,0.402371,0.3960185,-0.21009974,0.432011,0.38641925,-0.17083256,0.428055,0.38211808,-0.15286059,0.426238,0.37865648,-0.13694174,0.424634
0.37580579,-0.27594124,0.444003,0.36369672,-0.2266091,0.435853,0.35648628,-0.26557301,0.442087,0.32912058,-0.24957965,0.42712,0.29126581,-0.23001094,0.405814,0.27540567,-0.22063062,0.406294,0.33095721,-0.19815336,0.427823,0.32166608,-0.15477606,0.420452,0.31740507,-0.13386579,0.416767,0.31353717,-0.1146504,0.413417,0.35514916,-0.19258163,0.428091,0.33880284,-0.14672756,0.413256,0.33063759,-0.11916453,0.404602,0.34075616,-0.1045396,0.417977,0.37497705,-0.19376173,0.429189,0.35148209,-0.14776411,0.417534,0.33993329,-0.12467962,0.411571,0.33157796,-0.10639486,0.40615,0.40062404,-0.20233358,0.431996,0.38642163,-0.16408486,0.427983,0.38025942,-0.14652167,0.426139,0.37713197,-0.13416659,0.424511
0.37521734,-0.27348675,0.44262,0.36317508,-0.22520214,0.434938,0.35583834,-0.2679472,0.441492,0.32497222,-0.24843313,0.4291,0.28602025,-0.23027515,0.407748,0.27540492,-0.2200438,0.407767,0.33127911,-0.19749287,0.428253,0.32094226,-0.15373239,0.41988,0.31618922,-0.13286811,0.415693,0.3118782,-0.11371872,0.411887,0.35386774,-0.19222737,0.427622,0.33783275,-0.14540782,0.412411,0.32936349,-0.11784993,0.403539,0.33929901,-0.10319354,0.416797,0.37302192,-0.19316136,0.42793,0.35232035,-0.14832602,0.419494,0.34211796,-0.12560183,0.415179,0.33295152,-0.10487865,0.411255,0.39767278,-0.20139229,0.429731,0.38451449,-0.16352283,0.426574,0.3788136,-0.14608524,0.425124,0.37575651,-0.13294715,0.423844
0.3736301,-0.26593143,0.440334,0.36091834,-0.21232546,0.43341,0.35416722,-0.2600201,0.438879,0.32552526,-0.23732078,0.428671,0.28675897,-0.21533192,0.40564,0.27313168,-0.20361621,0.404092,0.32898131,-0.18464104,0.426813,0.31814359,-0.14101565,0.417819,0.3131389,-0.12033747,0.413322,0.30859861,-0.10132486,0.409234,0.35118038,-0.18148285,0.426815,0.3353835,-0.13275322,0.410825,0.32657169,-0.10520186,0.401497,0.33630741,-0.08995375,0.414495,0.37070489,-0.18292136,0.427563,0.34779518,-0.13644249,0.415027,0.3365274,-0.11309333,0.408614,0.32842769,-0.098065475,0.405938,0.39558567,-0.19171027,0.429733,0.38325142,-0.15373671,0.426741,0.37772974,-0.13635401,0.425367,0.37345645,-0.12084261,0.424154
0.37605352,-0.25176644,0.440603,0.36333654,-0.20074839,0.432422,0.35696965,-0.24666923,0.440012,0.32839413,-0.23001361,0.431078,0.28778904,-0.21053986,0.408592,0.27402614,-0.20243518,0.406643,0.33027327,-0.17444635,0.426098,0.32422702,-0.1328922,0.422634,0.32126284,-0.11174417,0.420902,0.31855247,-0.092316304,0.419328,0.35109694,-0.16965855,0.42463,0.33198577,-0.12098202,0.40705,0.32147324,-0.094013185,0.396794,0.33102219,-0.083800032,0.409231,0.36972935,-0.16977145,0.424304,0.35196606,-0.12469732,0.416576,0.34314902,-0.10162921,0.412623,0.33509817,-0.080517998,0.409029,0.39408376,-0.17701889,0.425462,0.38336228,-0.13973762,0.423767,0.37847469,-0.12276297,0.422988,0.37547797,-0.10791211,0.422301
0.37498554,-0.24792361,0.439373,0.36179717,-0.19891661,0.432154,0.35648841,-0.24333009,0.439486,0.32894761,-0.22915151,0.43048,0.28823752,-0.20933265,0.407826,0.27401974,-0.20053298,0.405937,0.33001254,-0.17329308,0.4274,0.32312584,-0.13120821,0.422984,0.31971696,-0.11011867,0.420775,0.31657168,-0.091714006,0.418768,0.35037812,-0.16827802,0.425279,0.33199987,-0.11996003,0.408651,0.3217918,-0.093100483,0.398952,0.33051839,-0.078670637,0.41169,0.36851345,-0.16816513,0.42431,0.34534507,-0.11990261,0.409945,0.33417581,-0.09604047,0.402595,0.32401007,-0.074217538,0.395914,0.3920583,-0.1750637,0.424542,0.38180836,-0.13796036,0.423484,0.37711935,-0.12099658,0.422997,0.37365625,-0.10597041,0.422568
0.37771561,-0.24670244,0.44072,0.36353818,-0.19816411,0.432682,0.35976245,-0.23849652,0.439949,0.33650262,-0.22788485,0.429916,0.29751389,-0.20998509,0.410588,0.2819134,-0.20047694,0.411691,0.33018725,-0.17211942,0.42622,0.29848741,-0.130776,0.410193,0.28941056,-0.12354366,0.402179,0.29072711,-0.13184661,0.394894,0.35122252,-0.16727114,0.425027,0.33176486,-0.11880224,0.407641,0.32099421,-0.09181487,0.3975,0.32939976,-0.077048276,0.410012,0.37007842,-0.16731342,0.424911,0.34927499,-0.12615842,0.423207,0.33761258,-0.10630534,0.422335,0.32703975,-0.088308761,0.421543,0.39467722,-0.17300313,0.426287,0.38275563,-0.13668569,0.423664,0.37728668,-0.11946089,0.42246,0.37295355,-0.10420312,0.421396
0.37833133,-0.24008963,0.440043,0.36350468,-0.1867998,0.43203,0.35835944,-0.23492088,0.438475,0.32897987,-0.22653563,0.426773,0.29057009,-0.20889387,0.407571,0.27845759,-0.20134667,0.409554,0.33024962,-0.15953749,0.424546,0.32173797,-0.11656352,0.417905,0.31772143,-0.094890927,0.414584,0.31405868,-0.075026437,0.411565,0.35221295,-0.15575814,0.424398,0.33598987,-0.10826476,0.409549,0.3272754,-0.081095347,0.400887,0.33696452,-0.064761161,0.414263,0.3716974,-0.15670619,0.425141,0.35034917,-0.11115593,0.414594,0.3403914,-0.088074054,0.409198,0.33147727,-0.066903687,0.404292,0.39683845,-0.16494706,0.427508,0.38423784,-0.12637662,0.423039,0.37898478,-0.10843283,0.420985,0.37352419,-0.096821708,0.419173
0.35668087,-0.2026368,0.433125,0.35716368,-0.16032733,0.428637,0.33845344,-0.19339184,0.430844,0.33461188,-0.16977159,0.439884,0.31730942,-0.13949956,0.420084,0.31602705,-0.12173244,0.41779,0.33374235,-0.13269295,0.422619,0.31580014,-0.091921612,0.410019,0.30671376,-0.071001543,0.40372,0.29837896,-0.051642396,0.397993,0.35625711,-0.13317443,0.424362,0.3443625,-0.086923072,0.410781,0.33523054,-0.062538577,0.402859,0.34444208,-0.047273634,0.416611,0.37549963,-0.13713777,0.426282,0.3544547,-0.091043797,0.413756,0.34382301,-0.069884658,0.407347,0.33404314,-0.050399859,0.401521,0.39901474,-0.14837612,0.429354,0.39183952,-0.11471791,0.429137,0.38812154,-0.097309761,0.429037,0.38478793,-0.081700898,0.428949
0.36369612,-0.20729119,0.43815,0.35896149,-0.16308161,0.431589,0.34405853,-0.19839862,0.434994,0.34073576,-0.17942055,0.443375,0.31857423,-0.14968485,0.423723,0.31539154,-0.131958,0.420938,0.32837258,-0.1367657,0.423023,0.31568112,-0.092962238,0.408913,0.31189403,-0.07259142,0.407115,0.31270926,-0.054089464,0.40548,0.3513685,-0.13522857,0.42534,0.33526252,-0.08911867,0.409412,0.32424858,-0.06517754,0.40012,0.33178981,-0.050802459,0.413087,0.37436211,-0.13772708,0.427955,0.35222923,-0.09088067,0.413227,0.34074438,-0.068850769,0.405692,0.33017939,-0.049884482,0.398842,0.399789,-0.14858334,0.432224,0.39149973,-0.11208912,0.429256,0.38739717,-0.094287969,0.427893,0.38376446,-0.078508696,0.42669
0.36384753,-0.20690306,0.437038,0.35913217,-0.16281242,0.431477,0.34447045,-0.19831682,0.434431,0.33888915,-0.17792954,0.442074,0.31621912,-0.14849008,0.421383,0.31271388,-0.13083817,0.418302,0.33172019,-0.13445674,0.424305,0.31812751,-0.092073164,0.411167,0.3154214,-0.070605782,0.407399,0.31229157,-0.050648348,0.403974,0.35466773,-0.1339109,0.42618,0.34455584,-0.086235319,0.411783,0.33773575,-0.058145294,0.403384,0.34962632,-0.040481866,0.416854,0.37462346,-0.13723869,0.428323,0.35266429,-0.090778586,0.414723,0.34162078,-0.068741136,0.407765,0.3317943,-0.050087887,0.401439,0.39958985,-0.14805267,0.431856,0.39066879,-0.11034483,0.427258,0.38743983,-0.090138599,0.425145,0.3828544,-0.076312578,0.423281
0.36453665,-0.20706045,0.437226,0.35925234,-0.16266724,0.431475,0.34490564,-0.1984099,0.434447,0.33790651,-0.17732223,0.441197,0.31473184,-0.14796054,0.41973,0.31084839,-0.13028372,0.416207,0.33115012,-0.1338884,0.423951,0.31802954,-0.091182953,0.410665,0.31387414,-0.069093539,0.405218,0.30955986,-0.048942075,0.400267,0.35437279,-0.13341411,0.425998,0.34413337,-0.08576329,0.411473,0.33750338,-0.058024615,0.402999,0.34932336,-0.040584963,0.416414,0.37458084,-0.1368526,0.428304,0.35200521,-0.09038153,0.414453,0.34083607,-0.068343315,0.407367,0.33107382,-0.049917069,0.400925,0.39987413,-0.14786624,0.432061,0.38950306,-0.10910457,0.425405,0.38568148,-0.089047798,0.422346,0.38213923,-0.072905474,0.419648
0.36412461,-0.20648617,0.435959,0.35883441,-0.16215277,0.430492,0.34389992,-0.19753695,0.432476,0.33663449,-0.17636729,0.439218,0.31324943,-0.14714,0.417368,0.30943211,-0.12959997,0.413941,0.32947176,-0.13189707,0.422244,0.31854318,-0.088410736,0.409384,0.31306999,-0.066274174,0.402954,0.30762305,-0.047694066,0.397108,0.35402037,-0.13282858,0.425286,0.34430727,-0.085391527,0.411244,0.33823362,-0.057789291,0.403052,0.35019793,-0.040354816,0.416544,0.37498582,-0.13656182,0.428381,0.35200206,-0.090265066,0.414395,0.34008883,-0.067658996,0.40724,0.33101025,-0.049293301,0.400735,0.40118025,-0.14796898,0.433,0.38844986,-0.10659111,0.423004,0.3842878,-0.087208076,0.418411,0.37994962,-0.07077909,0.414359
0.36116631,-0.20294735,0.432233,0.35629124,-0.14845483,0.425462,0.34009715,-0.19344606,0.427526,0.32746552,-0.16396989,0.43092,0.30458829,-0.13526271,0.406578,0.2995911,-0.12366921,0.401522,0.32527586,-0.11638173,0.414733,0.31588108,-0.071505849,0.401085,0.31424058,-0.049674338,0.398139,0.31276766,-0.029520173,0.395461,0.35090624,-0.11765705,0.419013,0.33699011,-0.071171422,0.4034,0.33093296,-0.045564406,0.394292,0.34245784,-0.036663139,0.407148,0.37293408,-0.12278117,0.423268,0.36038964,-0.078003919,0.417516,0.3543237,-0.054796267,0.414573,0.34896169,-0.033412251,0.411898,0.40003073,-0.13604142,0.42948,0.38920917,-0.096383061,0.422117,0.38547738,-0.077569943,0.418734,0.3821808,-0.060856814,0.415749
0.36150807,-0.2021547,0.432483,0.35491095,-0.15618298,0.424871,0.34019317,-0.19250042,0.427522,0.32581437,-0.16338062,0.429015,0.30260033,-0.13797989,0.403585,0.29653828,-0.12029433,0.397564,0.32387371,-0.11711789,0.41324,0.31350451,-0.072095201,0.398604,0.31210514,-0.050374428,0.396096,0.31085052,-0.030265666,0.393816,0.34958487,-0.1183277,0.417621,0.33456489,-0.071544553,0.400833,0.32776207,-0.046007338,0.39104,0.33899797,-0.032237867,0.403502,0.37179073,-0.1234265,0.422049,0.35800683,-0.078331554,0.415,0.35151098,-0.054849901,0.411393,0.3458885,-0.033174094,0.408114,0.39929017,-0.13672352,0.42862,0.38657568,-0.096108383,0.419304,0.38196309,-0.077151825,0.415024,0.3774124,-0.06628542,0.411247
0.36135475,-0.2006682,0.431398,0.3559735,-0.14863704,0.423951,0.34003788,-0.19113327,0.426484,0.32493367,-0.16282786,0.427252,0.30027665,-0.13583785,0.401307,0.29409766,-0.11973183,0.394972,0.3237509,-0.11676397,0.412493,0.31291741,-0.071735436,0.398067,0.31080627,-0.049905771,0.395058,0.30889972,-0.029739185,0.392322,0.34944156,-0.11760813,0.416858,0.33370062,-0.071158137,0.400327,0.3267025,-0.045483125,0.390684,0.33809609,-0.030946005,0.403231,0.37166734,-0.12239482,0.421255,0.35658558,-0.077296861,0.413619,0.34956478,-0.053769767,0.409712,0.34354876,-0.032033414,0.40616,0.39926018,-0.13530195,0.427758,0.38633771,-0.095047958,0.419003,0.3816875,-0.076157043,0.41498,0.37757929,-0.059378887,0.411431
0.3692645,-0.1952742,0.439281,0.35659135,-0.13953712,0.426507,0.3492809,-0.1862222,0.436338,0.33021494,-0.16431475,0.432227,0.30306816,-0.13941563,0.405904,0.29251996,-0.12155666,0.396501,0.32482836,-0.10783303,0.414,0.31306709,-0.063069893,0.393823,0.31726361,-0.042418658,0.396373,0.32117887,-0.02267043,0.398691,0.34602079,-0.10726821,0.414341,0.31447905,-0.11267277,0.392035,0.30394164,-0.13286362,0.379023,0.31281978,-0.15302175,0.389711,0.36531384,-0.11103376,0.415999,0.35808292,-0.064956688,0.40866,0.35321531,-0.040870257,0.404906,0.34877141,-0.018697153,0.401493,0.39074252,-0.12318666,0.420324,0.38253853,-0.08214681,0.411508,0.38024599,-0.064002766,0.409046,0.37897554,-0.048218796,0.407683
0.36308216,-0.18897318,0.432459,0.35208318,-0.13223356,0.418694,0.33828199,-0.16229919,0.425294,0.33568972,-0.13515132,0.429413,0.30083463,-0.11470905,0.407995,0.29305314,-0.097390603,0.402704,0.31976623,-0.092338401,0.400015,0.30722587,-0.04800521,0.380322,0.31452828,-0.027864629,0.387268,0.32125681,-0.0084316303,0.393582,0.34595169,-0.096248009,0.405585,0.33175922,-0.087158433,0.381591,0.31836976,-0.10919185,0.367594,0.32404156,-0.12293878,0.377235,0.36889286,-0.10352686,0.411655,0.36040315,-0.057699422,0.405598,0.35649727,-0.033733193,0.4025,0.35293619,-0.01171025,0.399683,0.39802798,-0.11947137,0.421288,0.39552174,-0.082187425,0.418841,0.39536791,-0.064966902,0.418415,0.39551625,-0.049882341,0.418338
0.36186403,-0.18599259,0.430376,0.35454533,-0.12720446,0.417375,0.33769108,-0.16141642,0.421588,0.3327283,-0.1318203,0.416483,0.29993785,-0.10844998,0.397477,0.29868837,-0.091695294,0.398395,0.31826052,-0.092043811,0.397101,0.30620994,-0.048033575,0.378422,0.31383025,-0.028023282,0.385933,0.32084205,-0.0086741202,0.39276,0.3462257,-0.096398895,0.404994,0.33481876,-0.087097313,0.381646,0.32507626,-0.10922588,0.368026,0.32678753,-0.12311107,0.377481,0.37076125,-0.10403694,0.412894,0.36151006,-0.058139664,0.406573,0.35732195,-0.034154593,0.403339,0.35160841,-0.014308313,0.400399,0.4018972,-0.12041559,0.424508,0.39723212,-0.082834475,0.420856,0.3963732,-0.065588429,0.420103,0.39600182,-0.050525357,0.419844
0.3704859,-0.18868268,0.438807,0.35844539,-0.12973586,0.421258,0.34480381,-0.17646251,0.428619,0.33606044,-0.14089794,0.418174,0.29864471,-0.11832942,0.396405,0.2946393,-0.10117259,0.394921,0.31383496,-0.098840385,0.396073,0.30054321,-0.054474953,0.374288,0.3095853,-0.034721928,0.381789,0.31570829,-0.018863187,0.388609,0.34164936,-0.10018041,0.404544,0.33016606,-0.086554045,0.37645,0.31797093,-0.10775456,0.360062,0.32130603,-0.1224675,0.367289,0.37014922,-0.10431615,0.413412,0.35644833,-0.056156495,0.398554,0.35054963,-0.031174627,0.390952,0.34519166,-0.0083426853,0.384041,0.40375968,-0.12006556,0.427003,0.39791753,-0.08155115,0.42109,0.39662974,-0.063750182,0.419116,0.39581044,-0.048150135,0.417648
0.3553021,-0.17708424,0.418499,0.35164996,-0.12662532,0.412589,0.33554048,-0.16087534,0.412653,0.32319916,-0.14051022,0.408402,0.2826754,-0.12311438,0.385271,0.27423738,-0.10839313,0.384018,0.31800611,-0.097886368,0.400962,0.31057688,-0.057769228,0.389399,0.31117089,-0.034487138,0.385072,0.3116643,-0.015201101,0.381139,0.34616338,-0.097314881,0.406961,0.3273649,-0.047856539,0.391715,0.31878181,-0.020205308,0.382822,0.31703159,-0.0048386671,0.376469,0.36816669,-0.10229927,0.412538,0.35632248,-0.055079719,0.400598,0.35160226,-0.025749717,0.394489,0.34631302,-0.0088115448,0.389425,0.39636417,-0.11298428,0.420122,0.39381739,-0.074847296,0.4155,0.39437814,-0.056410603,0.413377,0.39525609,-0.039922215,0.411503
0.35683065,-0.17881363,0.41946,0.35385472,-0.12789565,0.412916,0.33816979,-0.16913684,0.414512,0.33155974,-0.14630808,0.41211,0.29001146,-0.12914703,0.387711,0.28239692,-0.11294752,0.384354,0.3201575,-0.098842369,0.402028,0.30407368,-0.059739781,0.389345,0.30062818,-0.045473126,0.383004,0.30112963,-0.040870772,0.377239,0.34691604,-0.099015023,0.406684,0.32851893,-0.050354003,0.391683,0.31895809,-0.023172131,0.382933,0.31598389,-0.0063347004,0.376683,0.36879924,-0.10364322,0.411223,0.3576728,-0.055471116,0.398088,0.35257421,-0.030606196,0.391367,0.34673054,-0.0061717153,0.385258,0.39588983,-0.11673423,0.417722,0.39458581,-0.077007802,0.41362,0.39548424,-0.058632757,0.411735,0.3963392,-0.040282729,0.410072
0.36133961,-0.17624288,0.419417,0.35419414,-0.12815358,0.41265,0.33960219,-0.16744001,0.41431,0.3351099,-0.14863506,0.409334,0.29039659,-0.12649534,0.381286,0.27875795,-0.11227851,0.374245,0.32010605,-0.10070544,0.401404,0.30272212,-0.060055636,0.388554,0.29979015,-0.044936164,0.38213,0.30033662,-0.042020378,0.376289,0.34516159,-0.098503783,0.406206,0.32788932,-0.050983509,0.391327,0.31809126,-0.0239774,0.382648,0.31512068,-0.006996457,0.376448,0.36792484,-0.10228324,0.41089,0.3566323,-0.053451174,0.397942,0.35168097,-0.028626419,0.391317,0.34731878,-0.0058630972,0.385295,0.3955836,-0.11234429,0.417598,0.39242584,-0.073319391,0.413197,0.39310124,-0.054876645,0.411175,0.39562223,-0.039103958,0.40939
0.36181037,-0.17552925,0.418552,0.35455882,-0.12813408,0.412403,0.34157986,-0.16557407,0.41431,0.33665034,-0.14871514,0.409861,0.29102177,-0.12696275,0.381293,0.27618689,-0.11209487,0.37337,0.32115249,-0.099971806,0.402702,0.30661894,-0.060145259,0.394008,0.29940423,-0.036684827,0.389661,0.29539263,-0.017437142,0.385709,0.34632476,-0.097996869,0.406547,0.32896485,-0.051214593,0.392559,0.31929624,-0.024259699,0.3844,0.3165583,-0.011480194,0.378571,0.36767674,-0.10185674,0.410376,0.3567732,-0.05452681,0.399008,0.35172724,-0.029875784,0.393192,0.34775865,-0.0077054459,0.387904,0.39451774,-0.11139048,0.415976,0.39502492,-0.072455648,0.413345,0.39681046,-0.054008542,0.412136,0.39784634,-0.038550243,0.411069
0.36159018,-0.17469312,0.417206,0.35409249,-0.12786605,0.411398,0.34046296,-0.16474096,0.411882,0.33605871,-0.14821667,0.408724,0.2902804,-0.12668384,0.380089,0.27543852,-0.11155431,0.372297,0.31964107,-0.099556201,0.400522,0.30411825,-0.05937245,0.391076,0.29676008,-0.036499077,0.386353,0.29247513,-0.017399399,0.38206,0.34585159,-0.097859687,0.405868,0.32861192,-0.051243427,0.392162,0.3188975,-0.024406471,0.384167,0.31668023,-0.0085193829,0.378456,0.368282,-0.10176949,0.410896,0.35702643,-0.054397436,0.399213,0.3519037,-0.029754796,0.393236,0.3480363,-0.0075874558,0.387802,0.39655981,-0.11154649,0.417824,0.39425105,-0.071959311,0.412228,0.39462983,-0.05340446,0.409657,0.39462301,-0.037775824,0.407389
0.36268623,-0.17275024,0.416587,0.35402466,-0.12776713,0.410973,0.34054127,-0.16455277,0.411145,0.33591237,-0.14803377,0.408338,0.29015743,-0.12665235,0.379812,0.27566189,-0.1111004,0.372221,0.31944577,-0.099534537,0.400074,0.30374234,-0.059129142,0.390762,0.29653631,-0.036517542,0.386106,0.2922911,-0.017433223,0.381873,0.34572821,-0.097822211,0.405627,0.32861604,-0.051299908,0.392183,0.31890456,-0.024524937,0.38434,0.31685965,-0.0089172103,0.378739,0.36830894,-0.10157846,0.410805,0.35705574,-0.054271385,0.399185,0.35200908,-0.029661876,0.393239,0.34835318,-0.007497864,0.387835,0.39681033,-0.11131655,0.41787,0.39428812,-0.07172987,0.412062,0.39451288,-0.053183968,0.409393,0.39452469,-0.037436609,0.407038
0.36428318,-0.17126052,0.415717,0.35245896,-0.12662406,0.409635,0.34165563,-0.16332638,0.409944,0.33529029,-0.14699339,0.40742,0.28960592,-0.12591731,0.379072,0.27639023,-0.10956146,0.371574,0.31798048,-0.098185115,0.397986,0.30289123,-0.058258054,0.389922,0.2963117,-0.035619991,0.38589,0.29261521,-0.016659679,0.382225,0.34418496,-0.096470293,0.403842,0.32731293,-0.050214892,0.389958,0.32026401,-0.018794233,0.38186,0.31562825,-0.0046089242,0.376075,0.36701749,-0.098851931,0.40932,0.35660667,-0.051398802,0.39834,0.35223963,-0.026998292,0.392722,0.34887866,-0.0056176018,0.387614,0.39611557,-0.10869565,0.416822,0.39392658,-0.069656077,0.41149,0.3942103,-0.051238428,0.409039,0.39498068,-0.034757694,0.406877
0.36492314,-0.17094669,0.415963,0.35317784,-0.12640526,0.409463,0.34209515,-0.16305058,0.409983,0.33527947,-0.14647778,0.407299,0.28950205,-0.12554268,0.378924,0.27639125,-0.10933294,0.371318,0.31748936,-0.097630629,0.39726,0.3025578,-0.057689677,0.389675,0.29627034,-0.035092864,0.385882,0.29280807,-0.016194252,0.382434,0.34373284,-0.095969432,0.403273,0.32690652,-0.04949078,0.388971,0.31999719,-0.01827696,0.380628,0.31494135,-0.0031597404,0.374669,0.3667573,-0.098198508,0.408924,0.35612996,-0.05061971,0.39755,0.35165158,-0.026207844,0.391731,0.34910835,-0.0039295826,0.386441,0.39611661,-0.10804862,0.416706,0.39396092,-0.068923712,0.411344,0.39421337,-0.050522937,0.408881,0.39506787,-0.034113884,0.406707
0.36674763,-0.17056849,0.415996,0.35427027,-0.12530484,0.409441,0.34385965,-0.1632688,0.410103,0.33595101,-0.14336705,0.407699,0.28987658,-0.12525278,0.37949,0.27665894,-0.10921888,0.371986,0.31755707,-0.097302529,0.397316,0.30230662,-0.056843908,0.389727,0.29613742,-0.034807106,0.385933,0.29271435,-0.015961584,0.382484,0.3433525,-0.0928244,0.403198,0.32694841,-0.047975688,0.388805,0.31748588,-0.020904982,0.380409,0.31475565,-0.0024920703,0.374412,0.36627493,-0.095100333,0.408749,0.35632817,-0.046772219,0.396929,0.35155539,-0.022534163,0.390882,0.34845637,-0.0048801759,0.385384,0.39638228,-0.10338497,0.416424,0.3941976,-0.063975317,0.41045,0.39404768,-0.045559614,0.407705,0.39415664,-0.032684407,0.405283
0.36863514,-0.16996076,0.416773,0.35468181,-0.12424522,0.409457,0.34546022,-0.16282217,0.410594,0.33676876,-0.14267072,0.408418,0.29072874,-0.12319016,0.380444,0.27751336,-0.10905134,0.372962,0.3170238,-0.094321329,0.396442,0.30141238,-0.054312441,0.389594,0.29629325,-0.034462817,0.386169,0.29316274,-0.015694813,0.383056,0.34307412,-0.092131171,0.40249,0.3268671,-0.044894302,0.387309,0.3178871,-0.01732431,0.378454,0.31312945,-0.0016355627,0.372129,0.3667707,-0.09341089,0.408259,0.35639003,-0.046237011,0.396976,0.35158116,-0.022202222,0.391204,0.3494066,-0.0042196641,0.385956,0.39658317,-0.10253296,0.416329,0.39365171,-0.06299633,0.409922,0.39322491,-0.044513165,0.406978,0.39398307,-0.027786931,0.40438
0.35840832,-0.14837426,0.418175,0.3492835,-0.10354033,0.410726,0.33578442,-0.13943614,0.412793,0.31031712,-0.1168129,0.404704,0.27385265,-0.093701779,0.38101,0.26470774,-0.078438236,0.379261,0.3154942,-0.074356176,0.398657,0.29394228,-0.03188834,0.382499,0.2830714,-0.010230497,0.374419,0.27732445,0.0012535052,0.367074,0.34146377,-0.074253846,0.403631,0.32302226,-0.02729529,0.386479,0.31226963,3.6071649e-05,0.376473,0.30768336,0.01130485,0.369326,0.36424444,-0.07799929,0.40853,0.35285043,-0.030003557,0.394103,0.34701246,-0.0057155416,0.386722,0.34457071,0.0020116425,0.380012,0.39312746,-0.089353715,0.415616,0.39018256,-0.049048218,0.407847,0.38888584,-0.030690636,0.404277,0.38794745,-0.014261584,0.401128
0.35801406,-0.14821104,0.417715,0.34915934,-0.10350352,0.41058,0.33563556,-0.13937432,0.41261,0.31006179,-0.11671678,0.404371,0.27385481,-0.093702517,0.381013,0.26497018,-0.078516,0.379637,0.3158345,-0.074436378,0.399087,0.2945294,-0.031952033,0.383263,0.28377601,-0.010255963,0.375351,0.27814342,0.0012572069,0.368158,0.34159405,-0.074282177,0.403785,0.32343682,-0.02733032,0.386975,0.31284693,3.6138336e-05,0.377169,0.30838233,0.011330531,0.370165,0.36414904,-0.077978861,0.408423,0.35293997,-0.03001117,0.394203,0.34719641,-0.0057185714,0.386927,0.34473964,0.003494753,0.380313,0.39268383,-0.089252884,0.415147,0.39000175,-0.049025489,0.407658,0.38882813,-0.030686081,0.404217,0.38799871,-0.014263469,0.401181
0.35951642,-0.14963547,0.419713,0.34905078,-0.10464579,0.410907,0.33651374,-0.14066515,0.414094,0.30843455,-0.11738366,0.403527,0.27231576,-0.094383618,0.380214,0.26355705,-0.079183664,0.37887,0.31421166,-0.075661976,0.397609,0.2920345,-0.033275484,0.37996,0.28232639,-0.016240699,0.371135,0.27688964,-0.0072510743,0.363113,0.340041,-0.075500666,0.402521,0.32038428,-0.028657969,0.383863,0.30804168,-0.0045091367,0.372979,0.3065087,0.005286389,0.365204,0.36286063,-0.07915309,0.407514,0.34811073,-0.033444088,0.390821,0.34105233,-0.0086288488,0.382279,0.33657283,0.0052078199,0.374515,0.39212197,-0.090347266,0.414966,0.38890295,-0.050753589,0.407666,0.38748366,-0.032753818,0.404313,0.3887009,-0.024410921,0.401354
0.35865012,-0.14967871,0.418825,0.34848696,-0.10506515,0.410471,0.33573659,-0.14080595,0.413341,0.30736115,-0.11761814,0.402765,0.27131908,-0.094646022,0.379498,0.26272098,-0.079479997,0.378302,0.31402275,-0.076419722,0.397656,0.29246893,-0.034122484,0.380497,0.28292126,-0.016274919,0.371917,0.27765524,-0.0072711234,0.364117,0.33979455,-0.076223588,0.402515,0.32056357,-0.029469974,0.384349,0.30867927,-0.0045184698,0.373751,0.3068814,0.0053124222,0.366182,0.36253557,-0.079807299,0.407417,0.34843406,-0.033475152,0.391184,0.34158673,-0.0086423695,0.382878,0.33730347,0.0052191251,0.375328,0.3916535,-0.090851203,0.414677,0.38844593,-0.0516251,0.407764,0.38703396,-0.03379896,0.404588,0.38811207,-0.024031786,0.401786
0.36869015,-0.16083555,0.421902,0.35143659,-0.10726141,0.413713,0.3461116,-0.15214597,0.417648,0.31544776,-0.12912038,0.411043,0.28031159,-0.10576374,0.387663,0.2702095,-0.089373896,0.380749,0.31702394,-0.087358613,0.402612,0.29806677,-0.049721692,0.386769,0.28947403,-0.030425812,0.378847,0.28244733,-0.010970397,0.371646,0.34168819,-0.08094944,0.405914,0.32251981,-0.03946671,0.388633,0.31155572,-0.012419419,0.378552,0.30815105,-0.0079289279,0.371352,0.36342683,-0.083526517,0.409516,0.35017309,-0.03851228,0.394505,0.34468089,-0.010584634,0.386825,0.34119109,0.00032862113,0.379843,0.3920335,-0.091624075,0.415236,0.38894042,-0.052360936,0.408593,0.38759872,-0.03441449,0.405541,0.3872708,-0.018879511,0.402849
0.37032379,-0.16108835,0.424625,0.35961117,-0.12366666,0.415816,0.34931284,-0.15677258,0.419988,0.31612634,-0.14006801,0.412014,0.28156468,-0.11610809,0.388199,0.27047344,-0.099255338,0.37882,0.31786583,-0.097720221,0.403797,0.29861958,-0.054791282,0.386878,0.2865247,-0.037048042,0.378419,0.27984162,-0.02891298,0.370728,0.34230288,-0.095260653,0.407428,0.32264613,-0.050048196,0.388974,0.31112574,-0.023144181,0.378209,0.30498112,-0.016141337,0.37052,0.36849408,-0.09467857,0.411367,0.35425886,-0.046678757,0.395559,0.34740846,-0.02296388,0.387472,0.33853765,-0.013155143,0.380119,0.39645384,-0.10409991,0.417594,0.39315384,-0.064447986,0.41067,0.39167261,-0.047044893,0.407489,0.39131504,-0.026887861,0.404682
0.3681766,-0.15951154,0.422242,0.35713076,-0.12087739,0.414742,0.3502761,-0.15922527,0.41813,0.32316959,-0.13907327,0.411382,0.28341657,-0.11625479,0.387242,0.27209769,-0.10004865,0.379543,0.3184955,-0.097281036,0.404294,0.2998358,-0.055573284,0.389177,0.28914676,-0.03676884,0.381619,0.28303635,-0.029133191,0.374748,0.34252313,-0.093732534,0.4076,0.325571,-0.043626052,0.391405,0.31282291,-0.015922065,0.381959,0.3064344,0.00013091132,0.379306,0.36629283,-0.092135846,0.411131,0.35412561,-0.046042894,0.397232,0.34770478,-0.022041815,0.390121,0.34428796,0.0050033919,0.383657,0.39435533,-0.096753352,0.416639,0.39085239,-0.057557123,0.410239,0.38873058,-0.038687548,0.407299,0.38901576,-0.024592781,0.404705
0.36691843,-0.15822744,0.422144,0.3522607,-0.11250673,0.414383,0.34094893,-0.14800583,0.416591,0.31186221,-0.12859953,0.408432,0.27869986,-0.10638636,0.388052,0.26315471,-0.085074365,0.378167,0.31577275,-0.087505111,0.401881,0.29535228,-0.05437049,0.385526,0.28506596,-0.034745905,0.377349,0.27977169,-0.028881149,0.369915,0.34212639,-0.082521453,0.406991,0.32344349,-0.038205716,0.390075,0.31152825,-0.015058869,0.380207,0.30677054,0.0071685042,0.373159,0.36514264,-0.086674996,0.412036,0.35163705,-0.041466268,0.39754,0.34505306,-0.017048584,0.390123,0.34278219,0.0063801806,0.383381,0.39509797,-0.095936219,0.41935,0.3900531,-0.05656276,0.411504,0.38791956,-0.038344585,0.4079,0.38774376,-0.024139826,0.404719
0.36639603,-0.15755233,0.423145,0.3523606,-0.11293231,0.414882,0.34158719,-0.14857185,0.417629,0.3117744,-0.12900277,0.409027,0.27771663,-0.1065909,0.387559,0.26465685,-0.090059284,0.379291,0.31567877,-0.087601229,0.402087,0.2947321,-0.053505059,0.385139,0.28411817,-0.03396508,0.376664,0.27924837,-0.029046913,0.368961,0.34184432,-0.083305279,0.407012,0.32214097,-0.041655513,0.389519,0.31086664,-0.014618393,0.379315,0.30531825,0.0069330552,0.372027,0.36479385,-0.087033903,0.411958,0.35155462,-0.038902201,0.396727,0.34481645,-0.014207265,0.388934,0.33974085,0.0031678704,0.381849,0.39467053,-0.096336413,0.419253,0.38990322,-0.056865577,0.411609,0.3879195,-0.038539677,0.408096,0.38681173,-0.023853877,0.404997
0.35987007,-0.15422144,0.419975,0.3505012,-0.111523,0.414602,0.33728118,-0.14475331,0.415683,0.29689179,-0.1222083,0.404482,0.26724502,-0.10093893,0.387783,0.25443065,-0.086623512,0.384419,0.31801618,-0.087855482,0.405364,0.2982997,-0.047063283,0.391287,0.28837376,-0.026887249,0.384249,0.28358354,-0.01999157,0.37785,0.34296801,-0.086514878,0.409485,0.32653987,-0.040784711,0.394675,0.31662861,-0.013709251,0.386037,0.309038,0.0045875698,0.379866,0.36576459,-0.087741789,0.413458,0.35348317,-0.041929875,0.400522,0.34753411,-0.017343389,0.393904,0.34187869,0.003598112,0.387888,0.39304084,-0.098932752,0.419079,0.38804152,-0.05926314,0.411159,0.3860046,-0.040469022,0.40752,0.38362527,-0.029620653,0.40431
0.36052949,-0.15687747,0.420066,0.35038249,-0.12352006,0.41553,0.33819776,-0.15023047,0.415488,0.31189268,-0.1397485,0.410367,0.27420224,-0.11804627,0.387874,0.2637667,-0.10457815,0.387461,0.31885405,-0.096998783,0.406486,0.2990331,-0.05306893,0.393601,0.28693972,-0.034413292,0.387159,0.28568573,-0.027642923,0.381302,0.34423272,-0.094654228,0.411209,0.32768769,-0.044748651,0.398022,0.31711622,-0.022605039,0.393687,0.31523905,0.0012376853,0.390591,0.36671206,-0.09631163,0.415588,0.35531503,-0.050886125,0.404137,0.34665702,-0.027458551,0.398279,0.3439467,0.00082878704,0.392953,0.39430135,-0.10761229,0.421523,0.39028444,-0.067604695,0.414855,0.38849515,-0.049256547,0.411791,0.38696217,-0.033003815,0.409088
0.36072003,-0.15918713,0.421233,0.35005086,-0.12426871,0.417361,0.3369243,-0.15082277,0.416408,0.30986608,-0.1412607,0.412836,0.27397596,-0.11872703,0.38883,0.26256027,-0.10484301,0.387015,0.31632248,-0.096337928,0.408447,0.29729223,-0.055871684,0.396203,0.28771077,-0.035166558,0.390081,0.28548739,-0.030029317,0.384515,0.34228168,-0.095761094,0.413673,0.32533943,-0.049859648,0.401142,0.31550602,-0.022942005,0.393832,0.3103358,-0.0024523661,0.388611,0.36488653,-0.099043068,0.418393,0.3538679,-0.052686539,0.407838,0.34855731,-0.028464652,0.402438,0.34643797,-0.0011438101,0.397529,0.39312335,-0.1097602,0.4246,0.38618205,-0.070024195,0.416109,0.38334536,-0.051384272,0.412208,0.38231449,-0.032922654,0.408766
0.36057961,-0.16231028,0.424076,0.34787218,-0.12668959,0.419295,0.3378205,-0.15813105,0.419315,0.31012941,-0.1457098,0.41748,0.27168577,-0.1253425,0.393909,0.2639144,-0.1079599,0.391868,0.31494736,-0.099047475,0.409847,0.29655896,-0.056899434,0.396753,0.28676968,-0.036084289,0.390207,0.28180021,-0.030072778,0.384255,0.34072059,-0.098549708,0.414741,0.32306866,-0.052280083,0.4011,0.31293241,-0.025204209,0.393143,0.30846084,-0.003748157,0.387459,0.36318251,-0.10198647,0.419287,0.34914755,-0.058040099,0.407225,0.3435624,-0.034138303,0.401054,0.33847772,-0.01184209,0.395444,0.38998341,-0.115908,0.425462,0.38439898,-0.074027146,0.416946,0.38258963,-0.058074723,0.413032,0.38032934,-0.038232725,0.40958
0.36310461,-0.16633115,0.42476,0.34949077,-0.12859648,0.42055,0.34037298,-0.16317552,0.421266,0.3151,-0.15444419,0.420227,0.27589385,-0.13260072,0.394475,0.26219218,-0.11871396,0.389855,0.31821962,-0.1035316,0.41314,0.29941286,-0.058914144,0.40091,0.28792931,-0.041795793,0.394796,0.28205058,-0.029239826,0.389237,0.34295153,-0.10256334,0.41654,0.32544554,-0.056259268,0.403538,0.31539442,-0.029177543,0.395953,0.30825346,-0.0078469411,0.390536,0.36438593,-0.10563987,0.419794,0.35228587,-0.060344833,0.410493,0.34714539,-0.036465038,0.405735,0.34244582,-0.014186309,0.401409,0.39105219,-0.11620171,0.424362,0.38181929,-0.077439638,0.41438,0.37939908,-0.059496743,0.409794,0.37715341,-0.047103023,0.405747
0.35708036,-0.1731936,0.423891,0.34698358,-0.1406431,0.423245,0.33769531,-0.16815268,0.424748,0.3109553,-0.16219049,0.425102,0.27297331,-0.14040871,0.401359,0.26080274,-0.12695435,0.398774,0.32249202,-0.11513993,0.423922,0.30339539,-0.075974205,0.415756,0.29350386,-0.055719722,0.411674,0.28695707,-0.04461813,0.407962,0.34365577,-0.11241288,0.42263,0.32836503,-0.06675822,0.413506,0.31943251,-0.040054047,0.408184,0.31705931,-0.013761485,0.404383,0.36162198,-0.11391992,0.421635,0.35134901,-0.068880001,0.413376,0.34623172,-0.045070051,0.40915,0.34435209,-0.017197601,0.405308,0.38343806,-0.12231528,0.420602,0.37961603,-0.085234216,0.41532,0.3802161,-0.06437264,0.412894,0.37952454,-0.049015598,0.410752
0.35365108,-0.18130279,0.424024,0.34705756,-0.14916342,0.424262,0.33682937,-0.1779021,0.424963,0.31198466,-0.17006345,0.426438,0.27490264,-0.1476499,0.403811,0.26353858,-0.13112092,0.402366,0.32256095,-0.12405383,0.425646,0.3041992,-0.086152969,0.419387,0.29484704,-0.065925104,0.416258,0.28961229,-0.048785218,0.413413,0.34391723,-0.12122025,0.424489,0.32950838,-0.076215989,0.416414,0.32115422,-0.049868878,0.411705,0.31567596,-0.025907957,0.40834,0.36197015,-0.12261184,0.42351,0.35193692,-0.077978472,0.416216,0.34742483,-0.054437095,0.412484,0.34328359,-0.032363132,0.409092,0.38377934,-0.13079064,0.422329,0.37726216,-0.091600696,0.416704,0.37492209,-0.073020842,0.414119,0.37285813,-0.056349868,0.411839
0.35177489,-0.19171794,0.423928,0.34699413,-0.15921222,0.42419,0.33411254,-0.19034035,0.424523,0.31401386,-0.17978148,0.428177,0.27850607,-0.15766622,0.408144,0.26830052,-0.14044647,0.408584,0.32216001,-0.13390856,0.425142,0.30417584,-0.095884215,0.41947,0.29511467,-0.075760366,0.416634,0.28910251,-0.062453746,0.414056,0.34386915,-0.13128066,0.424439,0.32957718,-0.086212636,0.416421,0.32130792,-0.05985365,0.411744,0.31550114,-0.040667965,0.408403,0.36222764,-0.13284061,0.423832,0.35224676,-0.088034648,0.416606,0.34789463,-0.064638034,0.412909,0.34390179,-0.042698768,0.409548,0.38440784,-0.14122065,0.423079,0.37770032,-0.10182734,0.417251,0.37535277,-0.083311903,0.414573,0.37328343,-0.066707803,0.412211
0.3520816,-0.19923028,0.423898,0.3472513,-0.16190704,0.424897,0.33491147,-0.19403821,0.425175,0.31565187,-0.18700327,0.430371,0.28022883,-0.16516138,0.410759,0.27038928,-0.14896002,0.411324,0.32225754,-0.14066128,0.42724,0.30371232,-0.10347795,0.422487,0.29401478,-0.083873434,0.420111,0.28954577,-0.067055835,0.417951,0.34413876,-0.1343058,0.425849,0.32779383,-0.092480425,0.418651,0.31877416,-0.066496268,0.414452,0.31507391,-0.04429892,0.411453,0.36200845,-0.13526177,0.424597,0.35175894,-0.090696758,0.418049,0.34477724,-0.069926679,0.414699,0.3427786,-0.045585424,0.411654,0.38358981,-0.14286076,0.422955,0.37812223,-0.10449379,0.419075,0.37620864,-0.086179096,0.417293,0.37451484,-0.06974196,0.41572
0.35328613,-0.20656073,0.424978,0.34788438,-0.16744089,0.425443,0.33627713,-0.20155249,0.426464,0.31709858,-0.19056879,0.432203,0.28186363,-0.16832444,0.412508,0.27158691,-0.15532557,0.412602,0.32351393,-0.14348345,0.427694,0.30366158,-0.10485117,0.420953,0.29422671,-0.087211076,0.417583,0.28661068,-0.076442653,0.414519,0.34504015,-0.14254835,0.425886,0.32986532,-0.097801218,0.418238,0.32091697,-0.071671914,0.413776,0.31297468,-0.050151824,0.410589,0.3626051,-0.14329121,0.424348,0.35234007,-0.098691551,0.417378,0.34673644,-0.075606116,0.413812,0.34029063,-0.051061785,0.410571,0.38399909,-0.15072365,0.422474,0.37965225,-0.11242303,0.419071,0.37770875,-0.094166563,0.417507,0.3744687,-0.075003199,0.416127
0.3557787,-0.20762801,0.425383,0.34988608,-0.1679963,0.425646,0.3382183,-0.20266474,0.42631,0.32368234,-0.19545494,0.432455,0.28629527,-0.17466017,0.41176,0.27218269,-0.15998157,0.410952,0.32529964,-0.14588644,0.427033,0.30396533,-0.10702089,0.419792,0.2932795,-0.087515614,0.416172,0.28628738,-0.076064553,0.412881,0.34643027,-0.14192915,0.425897,0.32988945,-0.097194412,0.417824,0.32027181,-0.071048888,0.413115,0.31263237,-0.050565723,0.409752,0.36452444,-0.14237129,0.424933,0.35148622,-0.096011758,0.417764,0.34557644,-0.072764432,0.414096,0.34132654,-0.04906787,0.410761,0.38570618,-0.14788246,0.423765,0.37993535,-0.11024491,0.420901,0.3777642,-0.092109493,0.419585,0.37659414,-0.073853747,0.418424
0.36044285,-0.21371454,0.428447,0.35282532,-0.18062479,0.427534,0.34361204,-0.2112781,0.428868,0.32656985,-0.20949096,0.435185,0.28911249,-0.18994265,0.415674,0.27612019,-0.17906016,0.415439,0.32393832,-0.1581444,0.427462,0.29971366,-0.11921958,0.418909,0.28796643,-0.099559423,0.414633,0.28122454,-0.088393783,0.410745,0.34511654,-0.15275192,0.426664,0.32525183,-0.11104985,0.420268,0.31445723,-0.086008079,0.416536,0.30663232,-0.067771254,0.413871,0.36352117,-0.15205175,0.426106,0.34829646,-0.10680088,0.418494,0.3412182,-0.083389771,0.414599,0.3347372,-0.061832631,0.411059,0.38671409,-0.15482689,0.42563,0.37764136,-0.11969063,0.422372,0.37452273,-0.10170314,0.420876,0.37538907,-0.082036634,0.419555
0.36547129,-0.22016571,0.431856,0.3542024,-0.18421766,0.429514,0.34873137,-0.22263812,0.431866,0.3263113,-0.21628126,0.434498,0.28830025,-0.19750451,0.414891,0.27504381,-0.18741448,0.415023,0.32284442,-0.16498497,0.427936,0.29904887,-0.12593214,0.419581,0.28745315,-0.10613279,0.415403,0.28086271,-0.090770252,0.411606,0.34391917,-0.15880578,0.427283,0.32921323,-0.11406913,0.42314,0.32390118,-0.090688893,0.420723,0.31899303,-0.072030735,0.418997,0.36340703,-0.15492212,0.426998,0.35054044,-0.10937731,0.419889,0.34448906,-0.085874465,0.416252,0.33899863,-0.064290688,0.412945,0.38713869,-0.16039242,0.427107,0.37772494,-0.12199579,0.423166,0.37466681,-0.1040201,0.421355,0.37194492,-0.087864261,0.419758
0.37032575,-0.2319779,0.435123,0.35521423,-0.19866033,0.43117,0.35132582,-0.23232644,0.434465,0.32645761,-0.22761029,0.43469,0.28927939,-0.20901471,0.416192,0.27678411,-0.19968176,0.417313,0.32260802,-0.17588061,0.427629,0.30037202,-0.13725362,0.42142,0.28938824,-0.11770357,0.418316,0.28156179,-0.10332183,0.415494,0.34397238,-0.16987571,0.427405,0.33126276,-0.12727505,0.423558,0.32437138,-0.10172998,0.421314,0.31957425,-0.083172158,0.419711,0.36299744,-0.16873788,0.427647,0.35246789,-0.12284508,0.420923,0.34742718,-0.099269987,0.417484,0.34290917,-0.077685979,0.414356,0.38763197,-0.17408625,0.42867,0.3771131,-0.13495628,0.423278,0.37385075,-0.11711602,0.4208,0.37095216,-0.10104497,0.418614
0.37209044,-0.24021617,0.437843,0.35534051,-0.20169918,0.432363,0.35265373,-0.23697964,0.437142,0.32621469,-0.23329987,0.433496,0.29042542,-0.21599505,0.417342,0.27950104,-0.20463771,0.420517,0.32207064,-0.1783546,0.42773,0.29870106,-0.13871101,0.419734,0.28715531,-0.11889946,0.415735,0.2799479,-0.1103087,0.412101,0.34320228,-0.17232207,0.427145,0.3304567,-0.12910546,0.422743,0.32342611,-0.10343136,0.420176,0.3184802,-0.084844206,0.418342,0.36211131,-0.17122788,0.427253,0.35201432,-0.12526016,0.420425,0.34727414,-0.10164538,0.416931,0.34305555,-0.079992199,0.413755,0.38675957,-0.17673411,0.428409,0.38040691,-0.13926285,0.422598,0.37841594,-0.12076985,0.419928,0.37335413,-0.1025693,0.417572
0.37457331,-0.25046063,0.441667,0.35599393,-0.21431198,0.434119,0.35439613,-0.24677885,0.440115,0.32482707,-0.24179301,0.431309,0.29025541,-0.22547594,0.416944,0.28053943,-0.21844806,0.421839,0.32072061,-0.19005411,0.426973,0.29877031,-0.15065528,0.420688,0.2879435,-0.13125765,0.417546,0.28108344,-0.11461615,0.41469,0.34217665,-0.18413432,0.42693,0.32976044,-0.14071716,0.422741,0.3228647,-0.1151137,0.420297,0.31790678,-0.096665418,0.418551,0.36158647,-0.18320253,0.427709,0.3525314,-0.13726125,0.421227,0.34833087,-0.11371077,0.41791,0.34466161,-0.092120029,0.414895,0.38723056,-0.18904323,0.430031,0.38048325,-0.14848292,0.423425,0.37832996,-0.13003041,0.42039,0.37666997,-0.11370999,0.417711
0.37840644,-0.25402993,0.444011,0.35970959,-0.21548065,0.434762,0.35701891,-0.25246079,0.440876,0.33159891,-0.24243407,0.428616,0.29538857,-0.22553634,0.412139,0.28418773,-0.21830013,0.41594,0.3245072,-0.19169133,0.424399,0.29984375,-0.15222955,0.419945,0.28904091,-0.13337225,0.417718,0.28258389,-0.12110006,0.415694,0.3440781,-0.18469757,0.425953,0.33141141,-0.14234157,0.423443,0.32429792,-0.11734151,0.421978,0.3191851,-0.099352691,0.420932,0.36458807,-0.18406424,0.42823,0.35379529,-0.13796855,0.421049,0.34884339,-0.11437727,0.417374,0.34452415,-0.092757079,0.414034,0.39202902,-0.19036501,0.432611,0.38524259,-0.15008428,0.426945,0.38260998,-0.13175808,0.424341,0.38040429,-0.11561732,0.422044
0.38061922,-0.25970339,0.445045,0.36292725,-0.21923462,0.435196,0.36033793,-0.25861315,0.441703,0.32788543,-0.24853382,0.424371,0.29557583,-0.23629732,0.414188,0.28785101,-0.23240163,0.422712,0.32387986,-0.19424308,0.424155,0.29894351,-0.15955212,0.419034,0.28680992,-0.14107125,0.416474,0.28142771,-0.12665858,0.414146,0.34623897,-0.1882804,0.425815,0.3329803,-0.14614395,0.423643,0.32535864,-0.12146488,0.422376,0.31997898,-0.10166867,0.421471,0.36680542,-0.18735951,0.428244,0.35504739,-0.14098318,0.42034,0.34961039,-0.11729476,0.416296,0.34417259,-0.094267247,0.41262,0.39454474,-0.19333837,0.432914,0.38760459,-0.15338426,0.427992,0.38400155,-0.13404931,0.42573,0.38179367,-0.11798813,0.423735
0.38083463,-0.2586913,0.445372,0.36101526,-0.21853889,0.435388,0.36083091,-0.25973111,0.442418,0.32608413,-0.24883299,0.425549,0.29852175,-0.24037418,0.421603,0.29284563,-0.2383079,0.433365,0.32370515,-0.19471308,0.424761,0.30110963,-0.15802995,0.421849,0.28985387,-0.13975836,0.420393,0.28373684,-0.12865161,0.419069,0.34569672,-0.18865012,0.42588,0.33337755,-0.14663019,0.424309,0.32625727,-0.12201812,0.423393,0.32119512,-0.10261618,0.422738,0.36592384,-0.18766689,0.427877,0.35524025,-0.14176864,0.421219,0.35028597,-0.11823637,0.417812,0.34562558,-0.095495404,0.414715,0.39323038,-0.19359475,0.432072,0.3866912,-0.15314353,0.428249,0.38452537,-0.13503146,0.426493,0.38267717,-0.11903582,0.424943
0.38724569,-0.27087301,0.452382,0.36629868,-0.23659134,0.444653,0.36508533,-0.26816017,0.450295,0.33188179,-0.25104033,0.438502,0.3136417,-0.24517376,0.441566,0.29992091,-0.22999544,0.437967,0.33206517,-0.21081841,0.436687,0.3131185,-0.19775392,0.421355,0.30597107,-0.20108766,0.413689,0.30659544,-0.21771567,0.408989,0.35389991,-0.20615097,0.437292,0.33735564,-0.16144532,0.428237,0.32802558,-0.1353021,0.423433,0.32137063,-0.116505,0.420055,0.37378023,-0.20612832,0.438624,0.36300159,-0.15892933,0.429462,0.35748825,-0.13480497,0.424774,0.35198737,-0.11344598,0.420513,0.40048278,-0.21305979,0.441622,0.39649331,-0.17378676,0.436831,0.39399233,-0.15658427,0.434629,0.39171108,-0.14149341,0.432687
0.3733137,-0.26972248,0.439186,0.36004873,-0.23485003,0.43878,0.34996867,-0.27188835,0.439351,0.32888856,-0.25180929,0.429611,0.30825219,-0.24078882,0.43188,0.2926323,-0.22407487,0.42623,0.33319216,-0.21163134,0.438721,0.31185008,-0.17195622,0.43079,0.30342514,-0.16438808,0.426824,0.30324181,-0.17354203,0.423219,0.35446803,-0.20751591,0.438395,0.33954533,-0.16288334,0.429619,0.33077132,-0.13649278,0.424499,0.32447221,-0.1174729,0.420843,0.37301045,-0.20770311,0.438169,0.36370317,-0.16113769,0.430288,0.35859644,-0.13788673,0.426256,0.35326777,-0.12278804,0.422591,0.39560271,-0.21741218,0.437984,0.39098958,-0.17771584,0.431441,0.38832206,-0.16167736,0.428435,0.38592055,-0.1476574,0.425782
