sluyters/QuantumLeap/backend/src/datasets/dynamic/HandGestureDataset_SHREC2017_csv/Gesture9/finger_2/subject_7_essai_3_skeletons_world.csv
Wrist_x,Wrist_y,Wrist_z,Palm_x,Palm_y,Palm_z,thumb_base_x,thumb_base_y,thumb_base_z,thumb_first_joint_x,thumb_first_joint_y,thumb_first_joint_z,thumb_second_joint_x,thumb_second_joint_y,thumb_second_joint_z,thumb_tip_x,thumb_tip_y,thumb_tip_z,index_base_x,index_base_y,index_base_z,index_first_joint_x,index_first_joint_y,index_first_joint_z,index_second_joint_x,index_second_joint_y,index_second_joint_z,index_tip_x,index_tip_y,index_tip_z,middle_base_x,middle_base_y,middle_base_z,middle_first_joint_x,middle_first_joint_y,middle_first_joint_z,middle_second_joint_x,middle_second_joint_y,middle_second_joint_z,middle_tip_x,middle_tip_y,middle_tip_z,ring_base_x,ring_base_y,ring_base_z,ring_first_joint_x,ring_first_joint_y,ring_first_joint_z,ring_second_joint_x,ring_second_joint_y,ring_second_joint_z,ring_tip_x,ring_tip_y,ring_tip_z,pinky_base_x,pinky_base_y,pinky_base_z,pinky_first_joint_x,pinky_first_joint_y,pinky_first_joint_z,pinky_second_joint_x,pinky_second_joint_y,pinky_second_joint_z,pinky_tip_x,pinky_tip_y,pinky_tip_z,
0.65501574,-0.46067267,0.665105,0.66463833,-0.41722965,0.670901,0.64899006,-0.45499162,0.67783,0.63761531,-0.42651154,0.690355,0.6214501,-0.40127903,0.693028,0.61889872,-0.38343671,0.697319,0.66719778,-0.3807255,0.691476,0.65866902,-0.34653059,0.698212,0.65428704,-0.32913648,0.70158,0.65023542,-0.31315185,0.704642,0.67747263,-0.37319574,0.677972,0.67476009,-0.32953196,0.678923,0.67314355,-0.30364631,0.679478,0.67197265,-0.28496577,0.679874,0.68522761,-0.36985803,0.666397,0.68703332,-0.32542362,0.664838,0.68796499,-0.30258524,0.66404,0.68881722,-0.28176134,0.663315,0.69316106,-0.3714021,0.651722,0.70022058,-0.33317847,0.648367,0.70347875,-0.31556861,0.646826,0.70636069,-0.30000497,0.645466
0.69117405,-0.46289366,0.68133,0.68740215,-0.41968697,0.678905,0.67609048,-0.4522434,0.687581,0.66097381,-0.43004654,0.692639,0.63201005,-0.40044412,0.684036,0.62515728,-0.38199983,0.686253,0.66566869,-0.37007266,0.684515,0.65530967,-0.33562812,0.690623,0.65006489,-0.3182531,0.693678,0.64396349,-0.30595536,0.696454,0.6827977,-0.36690606,0.675946,0.67407714,-0.32048032,0.672171,0.66810143,-0.29382679,0.669968,0.6620078,-0.27758786,0.668395,0.69739257,-0.36780256,0.669092,0.6892943,-0.32339221,0.664528,0.68889205,-0.30043121,0.663532,0.68852847,-0.27950016,0.662627,0.71559603,-0.37558843,0.661296,0.70880865,-0.33336707,0.652899,0.70578207,-0.31541879,0.649042,0.70737969,-0.29987284,0.648081
0.65374319,-0.44512646,0.666277,0.66089218,-0.39550776,0.670114,0.63934235,-0.42325948,0.673334,0.62723653,-0.39008041,0.674533,0.62612556,-0.38637958,0.694893,0.63624884,-0.38986573,0.712795,0.6521222,-0.3470679,0.682054,0.64553648,-0.30965649,0.686079,0.64223734,-0.29092855,0.688091,0.63923472,-0.27389054,0.68992,0.67123269,-0.34729964,0.674789,0.67029175,-0.30133933,0.672499,0.66985813,-0.27459267,0.671163,0.66955449,-0.25531899,0.670209,0.68619492,-0.35065317,0.668503,0.68724725,-0.30551556,0.665594,0.68793038,-0.28252566,0.664106,0.68857107,-0.26143619,0.662754,0.70263519,-0.36064048,0.660429,0.70834149,-0.32320934,0.657179,0.71103589,-0.30573007,0.655686,0.71345266,-0.29015565,0.654369
0.65301431,-0.43134111,0.666391,0.6608145,-0.38735804,0.669885,0.63947419,-0.41941688,0.673154,0.62498058,-0.38197076,0.673162,0.6233803,-0.37812257,0.692815,0.63440689,-0.38534643,0.711064,0.65020784,-0.33881782,0.681171,0.6471067,-0.30345478,0.686618,0.64554327,-0.28504654,0.689342,0.64251239,-0.27131096,0.691818,0.66968376,-0.33869033,0.674142,0.67288272,-0.29547229,0.676671,0.67481301,-0.26981678,0.678147,0.6762104,-0.2512955,0.679201,0.6850695,-0.34178205,0.668078,0.68533446,-0.29619189,0.664456,0.68556884,-0.27292991,0.662604,0.68580618,-0.25165975,0.660919,0.70223718,-0.35153053,0.660321,0.70792177,-0.31306704,0.656591,0.71057216,-0.29530828,0.654877,0.71293051,-0.27957271,0.653365
0.65260491,-0.42042287,0.667484,0.65969312,-0.37242755,0.670097,0.6374989,-0.39963572,0.673776,0.62491836,-0.368025,0.677549,0.62578144,-0.35782542,0.696702,0.63433946,-0.35281264,0.711013,0.65132331,-0.32224541,0.680054,0.64302962,-0.28246126,0.679007,0.63860693,-0.26350978,0.678484,0.63457828,-0.24670213,0.678008,0.67072807,-0.32346337,0.673281,0.67871129,-0.28202615,0.678565,0.68336262,-0.25793791,0.681647,0.6864556,-0.23974654,0.683849,0.68600044,-0.32770265,0.667497,0.68523082,-0.28202063,0.663721,0.68482759,-0.25878008,0.661789,0.68424029,-0.24849461,0.660033,0.70286115,-0.33891756,0.660209,0.70739596,-0.30026981,0.656966,0.70948744,-0.28248132,0.655476,0.71134468,-0.26673464,0.654162
0.65813629,-0.38693922,0.665613,0.66729034,-0.3477557,0.669991,0.64876786,-0.37739311,0.676215,0.64058418,-0.35048894,0.687013,0.63526773,-0.33269439,0.699113,0.64168496,-0.32369043,0.710864,0.66368099,-0.30277904,0.686747,0.65915605,-0.26979684,0.690633,0.65522268,-0.25473776,0.692575,0.65195993,-0.24337671,0.694342,0.67840889,-0.30030445,0.675324,0.68257446,-0.25768511,0.6792,0.68500326,-0.23284761,0.68146,0.68572432,-0.21447027,0.683075,0.68970256,-0.30137625,0.665574,0.69295321,-0.25765951,0.664054,0.6942695,-0.23496535,0.663276,0.69242519,-0.22166308,0.662569,0.70167688,-0.30854014,0.65329,0.70682671,-0.27022201,0.650291,0.70820683,-0.25346506,0.648912,0.70947905,-0.23837835,0.647696
0.64807921,-0.36527388,0.661794,0.66266294,-0.32821873,0.668286,0.64082553,-0.35534064,0.672916,0.64032031,-0.32950806,0.688395,0.63244397,-0.30373768,0.693882,0.6382962,-0.29077841,0.703211,0.66620559,-0.28464049,0.687481,0.67193148,-0.25578117,0.698644,0.67200262,-0.23813807,0.704225,0.6719494,-0.22165971,0.709299,0.68039823,-0.2832261,0.676194,0.69211805,-0.24728195,0.682133,0.69511202,-0.22240156,0.685597,0.69640222,-0.20504381,0.688072,0.69091664,-0.28503006,0.666385,0.69610255,-0.24172711,0.667612,0.69876118,-0.21951462,0.66824,0.70074669,-0.1988667,0.66881,0.70124995,-0.29282669,0.65371,0.70959965,-0.25527826,0.652796,0.71346211,-0.23792207,0.652376,0.71688465,-0.22255293,0.652006
0.64092748,-0.3404431,0.658304,0.65808218,-0.30466019,0.666579,0.63290032,-0.32972885,0.668171,0.63820764,-0.30116059,0.683818,0.62670196,-0.27398403,0.684992,0.63286151,-0.25993205,0.694611,0.66276772,-0.2611525,0.685752,0.67164418,-0.23051346,0.701156,0.67606818,-0.2151075,0.708858,0.68008222,-0.20105386,0.71586,0.67900618,-0.26095663,0.67666,0.6905342,-0.22527922,0.681545,0.69315523,-0.19996007,0.684394,0.69407861,-0.18240582,0.68643,0.69111663,-0.26371165,0.668514,0.7042787,-0.224316,0.674325,0.71165832,-0.20437439,0.677932,0.71836811,-0.18623864,0.681211,0.7030587,-0.27256505,0.657546,0.71484034,-0.23719112,0.65835,0.72033224,-0.22103909,0.658811,0.72610221,-0.20708638,0.660067
0.63327197,-0.29339278,0.637682,0.6552665,-0.26962236,0.652276,0.62725289,-0.29103879,0.64988,0.62824905,-0.27022236,0.668465,0.62492554,-0.25002545,0.67966,0.63281028,-0.24241276,0.692309,0.66689356,-0.2480731,0.679694,0.66927272,-0.21256074,0.691613,0.67030866,-0.19414531,0.697573,0.67115935,-0.17701866,0.70299,0.68176087,-0.24183488,0.670044,0.69201676,-0.20053918,0.680058,0.69800075,-0.17585343,0.6859,0.70163993,-0.1576342,0.690073,0.69250874,-0.23848823,0.660928,0.70474947,-0.19893147,0.670476,0.7106066,-0.17807843,0.675361,0.71593823,-0.15890688,0.679802,0.7024345,-0.23799248,0.647837,0.72247321,-0.21051173,0.654246,0.72897373,-0.19445628,0.65719,0.72780497,-0.1837402,0.659788
0.64433549,-0.30184623,0.646686,0.66261891,-0.27201082,0.657937,0.63571055,-0.29538411,0.656633,0.6393092,-0.27183935,0.675438,0.62751902,-0.24439746,0.677649,0.62935946,-0.22667097,0.683354,0.66859184,-0.23181119,0.679742,0.66661385,-0.19511634,0.687672,0.66555372,-0.1764861,0.691636,0.66455091,-0.15938705,0.695241,0.68606341,-0.23053006,0.671635,0.69317642,-0.18864705,0.677536,0.69686754,-0.16331803,0.680979,0.69917206,-0.14463545,0.683437,0.69917153,-0.23225488,0.664058,0.70940837,-0.19446998,0.670033,0.71028654,-0.17494747,0.673089,0.71341037,-0.15488246,0.675868,0.71030793,-0.23981818,0.653313,0.72422645,-0.21089146,0.657062,0.72808177,-0.19445866,0.658784,0.72802091,-0.18150381,0.660304
0.67222044,-0.2969698,0.664031,0.68010627,-0.25725763,0.66833,0.65705155,-0.28468993,0.669329,0.64546594,-0.25588431,0.677273,0.62725903,-0.22867123,0.676183,0.6248271,-0.20986249,0.679592,0.66812781,-0.20841343,0.678502,0.6661071,-0.17311239,0.686558,0.66508852,-0.15543051,0.690586,0.66415795,-0.13933832,0.694248,0.68971934,-0.2087796,0.673565,0.69124787,-0.16911168,0.675285,0.69234505,-0.14231379,0.676288,0.69313048,-0.12271873,0.677005,0.70695003,-0.21230863,0.669155,0.70698504,-0.17278662,0.668769,0.70763208,-0.14986925,0.668571,0.70824085,-0.12851306,0.668392,0.72637626,-0.22266915,0.663246,0.72958337,-0.18777245,0.660959,0.73168439,-0.16999946,0.659909,0.73358702,-0.15405224,0.658982
0.66626061,-0.2882268,0.661285,0.67491668,-0.2456736,0.668097,0.65294606,-0.27707866,0.668263,0.63854359,-0.24074012,0.675746,0.62249199,-0.21224511,0.674239,0.62146042,-0.19189488,0.67595,0.66922917,-0.20421145,0.682472,0.66563667,-0.16419545,0.684565,0.66380955,-0.14396151,0.685612,0.66213028,-0.12543516,0.686564,0.68926133,-0.20427857,0.676389,0.69179852,-0.16046896,0.677233,0.6931377,-0.13335893,0.677726,0.69410384,-0.11368035,0.678078,0.70492768,-0.20705549,0.670836,0.70715313,-0.16325463,0.67155,0.70836007,-0.13986327,0.671915,0.70947211,-0.11818147,0.672247,0.72204473,-0.21559718,0.663179,0.72727721,-0.17769876,0.6628,0.72968768,-0.16024448,0.662626,0.73181726,-0.14482173,0.662472
0.66439254,-0.27277509,0.657373,0.68085479,-0.2314365,0.666447,0.65051345,-0.26184147,0.663992,0.64548548,-0.22877858,0.674903,0.62674929,-0.20000283,0.671619,0.62471029,-0.17933011,0.672829,0.67294896,-0.18819068,0.682309,0.66853343,-0.14957338,0.685925,0.66630617,-0.13016785,0.687733,0.66426949,-0.11247057,0.689376,0.69447279,-0.1888882,0.677496,0.69658849,-0.14624377,0.680238,0.69843358,-0.11987707,0.681838,0.70008696,-0.10032341,0.682981,0.71127748,-0.19226505,0.672803,0.71335665,-0.14977986,0.675574,0.71505146,-0.12692468,0.676991,0.71681751,-0.10564154,0.67828,0.72961581,-0.20162235,0.665826,0.73727367,-0.16385856,0.667449,0.74082421,-0.14630108,0.668195,0.74397361,-0.13069999,0.668853
0.68398357,-0.25063352,0.669087,0.68957978,-0.21549186,0.67692,0.66762362,-0.24376233,0.674802,0.65745212,-0.21792119,0.686727,0.63864374,-0.19021091,0.684793,0.63622314,-0.17229623,0.689151,0.67477976,-0.17869994,0.690601,0.66787505,-0.13876045,0.692434,0.66428636,-0.1181591,0.69335,0.66056978,-0.099472989,0.694184,0.69643438,-0.17360486,0.686441,0.69672969,-0.13022409,0.687227,0.69577944,-0.10347549,0.687686,0.69326698,-0.084958017,0.688013,0.7141757,-0.17212426,0.682388,0.71755829,-0.12914086,0.682573,0.71928134,-0.10725618,0.682668,0.71786922,-0.086586247,0.682755,0.73500253,-0.17567475,0.676363,0.74252321,-0.14304684,0.676967,0.74559816,-0.12697095,0.677244,0.74618259,-0.11136143,0.677489
0.67188598,-0.22231576,0.659439,0.68427818,-0.1915798,0.6722,0.66152136,-0.21918282,0.669806,0.65296732,-0.19650161,0.685114,0.63611705,-0.17283016,0.687679,0.63126179,-0.15138462,0.687043,0.68245153,-0.16271383,0.695789,0.68062192,-0.12383856,0.703446,0.67958082,-0.10385282,0.707274,0.67856143,-0.085362692,0.710755,0.69935484,-0.15484846,0.687714,0.70705132,-0.11689432,0.694094,0.70644888,-0.090551093,0.697816,0.70594422,-0.071275652,0.700475,0.71255594,-0.15073611,0.680042,0.72142475,-0.11178528,0.685136,0.72595014,-0.092004158,0.687743,0.72356396,-0.073020739,0.690112,0.72681796,-0.15045048,0.668954,0.74402988,-0.12595456,0.679749,0.75104059,-0.11259268,0.684708,0.75722639,-0.10081877,0.689085
0.67179997,-0.23206329,0.658509,0.68311025,-0.19367909,0.671499,0.65960225,-0.22081434,0.668251,0.64686631,-0.20099784,0.68138,0.62874271,-0.17752544,0.683568,0.62217154,-0.15604606,0.681874,0.67786695,-0.16493395,0.694514,0.67831441,-0.12514382,0.701683,0.67762159,-0.10549024,0.705268,0.67694511,-0.087396132,0.708527,0.69651857,-0.15843983,0.687291,0.70372197,-0.1215838,0.694004,0.70562638,-0.092845609,0.697919,0.70564508,-0.073504149,0.700716,0.71117432,-0.15553683,0.680301,0.72232688,-0.12526796,0.685352,0.72282095,-0.10301849,0.687936,0.72432034,-0.085009995,0.690285,0.72723118,-0.15681142,0.66999,0.74299216,-0.12778884,0.6796,0.74950233,-0.11443808,0.684015,0.7552201,-0.10260674,0.68791
0.67280927,-0.22337062,0.657219,0.68494706,-0.19337048,0.671876,0.66072328,-0.21977352,0.667046,0.64750358,-0.2008388,0.680238,0.62967313,-0.17971993,0.684504,0.62224721,-0.15896667,0.683329,0.68073799,-0.16427961,0.696412,0.68043424,-0.12632055,0.704825,0.68020327,-0.10696804,0.709032,0.6799466,-0.089158845,0.712856,0.69973808,-0.15733397,0.689694,0.71186308,-0.12843338,0.705076,0.71761734,-0.10387051,0.714049,0.72155346,-0.085561176,0.720458,0.71463479,-0.15395466,0.682985,0.72536667,-0.12648441,0.690333,0.72522235,-0.10465551,0.694093,0.72953068,-0.080424161,0.69751,0.73119546,-0.15298554,0.672755,0.74783118,-0.12851651,0.685328,0.7519437,-0.11786964,0.691106,0.76203918,-0.10490693,0.696203
0.67273975,-0.22273967,0.655678,0.68546024,-0.19341534,0.671667,0.66077574,-0.21939727,0.665931,0.64798749,-0.20128959,0.680144,0.63013963,-0.18091354,0.684986,0.6224946,-0.1604131,0.684057,0.68093121,-0.1656226,0.697861,0.68279403,-0.1278388,0.707629,0.68184207,-0.11119957,0.712513,0.68322162,-0.093246941,0.716953,0.70095658,-0.15806558,0.691105,0.70992661,-0.12869923,0.703158,0.71361415,-0.10361781,0.710189,0.71811362,-0.080052317,0.715211,0.71588098,-0.15464979,0.68426,0.72690016,-0.1273907,0.692489,0.72794627,-0.10567281,0.6967,0.73119821,-0.084642077,0.700528,0.73226212,-0.15416726,0.673661,0.74849161,-0.1296839,0.686632,0.75356051,-0.11874519,0.692592,0.76270748,-0.10599663,0.69785
0.6767644,-0.22325327,0.656693,0.69865535,-0.19538853,0.672853,0.66642539,-0.21939911,0.667216,0.66436128,-0.20412032,0.684299,0.64550109,-0.18411193,0.688393,0.63867406,-0.16406472,0.688439,0.69152967,-0.16797063,0.699525,0.69282764,-0.13271089,0.709817,0.69344204,-0.11493803,0.714962,0.69398224,-0.098699961,0.71964,0.71084667,-0.16112588,0.6925,0.72134703,-0.13157832,0.706133,0.72602656,-0.1062809,0.714085,0.72501521,-0.086409026,0.719766,0.72598785,-0.15774152,0.685418,0.73569648,-0.12594432,0.694829,0.73503957,-0.10568466,0.699644,0.73823407,-0.086800927,0.704022,0.74260715,-0.15800258,0.674512,0.75943958,-0.13412857,0.69011,0.76711378,-0.1222386,0.697276,0.77387322,-0.11155397,0.703599
0.7001468,-0.21838854,0.691151,0.70636861,-0.17890979,0.695861,0.68252378,-0.20619435,0.694693,0.66831492,-0.17650757,0.700952,0.64648965,-0.14675232,0.694422,0.64391782,-0.12902521,0.699073,0.69000929,-0.13062815,0.704217,0.69111018,-0.10051129,0.718395,0.69164145,-0.085112062,0.725484,0.69209694,-0.070588972,0.731928,0.71393207,-0.13092712,0.701587,0.72065696,-0.09237951,0.711291,0.72458237,-0.069934316,0.716951,0.72749253,-0.053063022,0.720994,0.73324227,-0.13436401,0.699043,0.72175448,-0.09779861,0.697219,0.71953759,-0.075623216,0.696285,0.71748084,-0.054730672,0.695436,0.75544452,-0.14455767,0.695293,0.74992333,-0.11144169,0.693244,0.74921596,-0.093050813,0.692302,0.74963893,-0.07826243,0.691471
0.69529519,-0.2126277,0.690102,0.70087254,-0.16931387,0.697055,0.67909854,-0.20081847,0.694904,0.66245665,-0.16503677,0.701362,0.64235744,-0.13474864,0.695355,0.64018829,-0.11773391,0.700413,0.68912897,-0.12281809,0.708868,0.69027606,-0.094310335,0.722955,0.69080009,-0.078623785,0.729998,0.69126718,-0.062523306,0.736401,0.71226212,-0.1232571,0.705508,0.71883227,-0.085438519,0.713978,0.72289956,-0.061263926,0.718918,0.72589622,-0.043149504,0.722447,0.73065889,-0.12668219,0.702184,0.72158322,-0.090811032,0.703002,0.72143232,-0.070534774,0.70342,0.72369317,-0.053294994,0.7038,0.75127638,-0.13661444,0.697162,0.75146756,-0.10875608,0.704463,0.75165495,-0.095795999,0.707818,0.75437404,-0.080776987,0.710778
0.67080738,-0.19697654,0.691253,0.68648585,-0.16404102,0.699176,0.65907926,-0.18676733,0.698346,0.66053876,-0.15700122,0.712427,0.65202954,-0.13284209,0.716136,0.65818679,-0.11680446,0.724225,0.68555647,-0.12473344,0.714627,0.69421455,-0.095008905,0.73154,0.69836956,-0.079042722,0.739996,0.70182135,-0.062671837,0.747684,0.70536697,-0.12478633,0.708807,0.7188212,-0.085531966,0.71656,0.723595,-0.060616372,0.721083,0.72705145,-0.042310833,0.724313,0.72063306,-0.12742566,0.70338,0.72520893,-0.082111132,0.705498,0.72756885,-0.058576004,0.706582,0.72972379,-0.036971277,0.707566,0.73677436,-0.1355778,0.695706,0.74720481,-0.10980386,0.700132,0.74873108,-0.094390584,0.702165,0.75823553,-0.081551357,0.703959
0.6801685,-0.20007657,0.689736,0.6960237,-0.16366925,0.69835,0.66816564,-0.18964683,0.697323,0.67045824,-0.15661077,0.711826,0.66229006,-0.13241307,0.716141,0.66833823,-0.11728898,0.724769,0.69585132,-0.12428752,0.714998,0.70439545,-0.094303114,0.731926,0.7085245,-0.078201256,0.740391,0.71201947,-0.060920145,0.748086,0.71551712,-0.12410745,0.708823,0.72646863,-0.084737849,0.71686,0.73256871,-0.059099956,0.721548,0.7369369,-0.040583162,0.724897,0.73099227,-0.12694268,0.703048,0.7359842,-0.082737971,0.705776,0.73883891,-0.059832136,0.707171,0.74144344,-0.038869123,0.70844,0.74746647,-0.13569673,0.694853,0.75714274,-0.11109702,0.699852,0.76182152,-0.093345201,0.702148,0.76369314,-0.081410698,0.704174
0.67717674,-0.19826564,0.686557,0.69615739,-0.16407693,0.698841,0.66628314,-0.18836468,0.695218,0.66976591,-0.15678129,0.7113,0.66158268,-0.13301779,0.716094,0.66378438,-0.11828199,0.724375,0.69929874,-0.12605512,0.719929,0.70579828,-0.095467396,0.734467,0.70895087,-0.079222811,0.741736,0.71162851,-0.061850009,0.748344,0.71913897,-0.12601287,0.713775,0.72774625,-0.085943467,0.720323,0.73447244,-0.060095656,0.724142,0.73839103,-0.041546177,0.72687,0.73486853,-0.12823318,0.707723,0.75401931,-0.10278654,0.711554,0.76287882,-0.079521609,0.713514,0.76347856,-0.067513152,0.715296,0.750445,-0.13651733,0.698635,0.75302566,-0.10942022,0.705371,0.75562789,-0.094080178,0.708466,0.75675009,-0.078333121,0.711197
0.68786154,-0.19969588,0.690583,0.70628187,-0.16148005,0.701304,0.67456172,-0.18961994,0.697659,0.68043047,-0.16000864,0.714116,0.66083675,-0.13270289,0.713923,0.66286407,-0.11785258,0.722851,0.69586198,-0.11923268,0.719114,0.70592859,-0.092230981,0.735033,0.70969149,-0.077902775,0.742993,0.71303496,-0.060110739,0.750229,0.71770534,-0.11673813,0.714338,0.72739105,-0.082172431,0.72807,0.73298144,-0.060311386,0.736081,0.73694243,-0.043855406,0.741803,0.73501428,-0.11766596,0.709544,0.73963978,-0.078782747,0.717594,0.74200734,-0.058906652,0.721712,0.74416097,-0.040847693,0.725456,0.75426482,-0.124456,0.702195,0.75240126,-0.090031702,0.705186,0.75155989,-0.074319245,0.70656,0.75253412,-0.060184994,0.707773
0.69171149,-0.19966611,0.69271,0.70790419,-0.16126403,0.703159,0.67827603,-0.18985567,0.700017,0.67327102,-0.1584334,0.71187,0.65680915,-0.13432758,0.712997,0.65483351,-0.11894139,0.72138,0.69749708,-0.11896039,0.721023,0.70488583,-0.089285436,0.735679,0.70858427,-0.074466995,0.743007,0.71220987,-0.058857719,0.749669,0.71899256,-0.11639943,0.715863,0.72743968,-0.081663292,0.728358,0.73228591,-0.058852266,0.735646,0.73571626,-0.041409876,0.740852,0.73601785,-0.11727947,0.710776,0.74054384,-0.078366166,0.718731,0.74286144,-0.058478981,0.722801,0.74496954,-0.040412243,0.726501,0.75495099,-0.12401836,0.703119,0.75293379,-0.08957579,0.705965,0.75202314,-0.073859569,0.707273,0.75292837,-0.059714146,0.708426
0.69420444,-0.20322512,0.692991,0.70529211,-0.1664763,0.704119,0.68087125,-0.19350041,0.700704,0.67365705,-0.16897624,0.713308,0.65117882,-0.14331758,0.710322,0.65038739,-0.12946054,0.719564,0.69693615,-0.12688161,0.723058,0.70385995,-0.095928364,0.735979,0.70640308,-0.079922263,0.74244,0.70884403,-0.06096858,0.748314,0.71779775,-0.12595103,0.717648,0.72576354,-0.087839537,0.727764,0.72792785,-0.065123034,0.733665,0.73399933,-0.042822611,0.737881,0.73430059,-0.12464702,0.7123,0.73797338,-0.087656528,0.721403,0.73986509,-0.068818508,0.72606,0.74172898,-0.04852218,0.730294,0.75298169,-0.1310112,0.704229,0.7509539,-0.09712526,0.707756,0.75004017,-0.081666278,0.709376,0.75388997,-0.062170184,0.710806
0.69850485,-0.20691971,0.693182,0.70694572,-0.17416245,0.70373,0.68488506,-0.19947325,0.701417,0.67456033,-0.17834765,0.714035,0.64954865,-0.14959265,0.706336,0.64869426,-0.13047871,0.712017,0.69583861,-0.13587881,0.722817,0.70158483,-0.10570082,0.735367,0.70447215,-0.090670574,0.741643,0.70669541,-0.072074854,0.747348,0.71626894,-0.13270802,0.716553,0.72726605,-0.098285219,0.731304,0.73364478,-0.077164894,0.739908,0.73818372,-0.061638592,0.746054,0.73548775,-0.13037532,0.71055,0.73822112,-0.09469674,0.720606,0.73905885,-0.077518536,0.72575,0.74123883,-0.057341439,0.730427,0.75295441,-0.13763873,0.701787,0.75474737,-0.10812215,0.708369,0.75573712,-0.093857111,0.711392,0.75807232,-0.078432689,0.71406
0.69998289,-0.20797587,0.694705,0.70731543,-0.1730948,0.704573,0.68494049,-0.1984799,0.701546,0.67302465,-0.17309102,0.711766,0.64691019,-0.14508563,0.700063,0.64494302,-0.12515628,0.704077,0.69398276,-0.13446536,0.721368,0.70058031,-0.10451966,0.734954,0.7038857,-0.089571102,0.741747,0.70600517,-0.068140444,0.747922,0.71490997,-0.12964801,0.716568,0.72697307,-0.093548513,0.730212,0.73116786,-0.075647363,0.738171,0.7356254,-0.055793343,0.743856,0.73451035,-0.13023152,0.711824,0.73722209,-0.094241567,0.720517,0.73750351,-0.07547054,0.724965,0.73944468,-0.052710879,0.729008,0.75418503,-0.13643898,0.704665,0.75314934,-0.10616725,0.710033,0.75321964,-0.091655526,0.7125,0.75657218,-0.074039805,0.714676
0.70111868,-0.20736919,0.696409,0.70806496,-0.17361995,0.705436,0.68555729,-0.19815847,0.702926,0.67302199,-0.17361668,0.711895,0.64647382,-0.14464917,0.699776,0.64319504,-0.12367694,0.703541,0.69356344,-0.13380588,0.721119,0.70044155,-0.10377018,0.735069,0.70388462,-0.088759472,0.742045,0.70608454,-0.067444596,0.748386,0.71485404,-0.12955012,0.716409,0.72161126,-0.090301413,0.72534,0.72244223,-0.065603864,0.73055,0.72797918,-0.051048605,0.736867,0.73512869,-0.12989769,0.711808,0.73417012,-0.093408651,0.717974,0.73336232,-0.073414324,0.721128,0.73321808,-0.050259846,0.723996,0.75424204,-0.1363962,0.704947,0.75258533,-0.10525243,0.709655,0.75232292,-0.090427662,0.711818,0.75350296,-0.073296362,0.713726
0.70104051,-0.20687925,0.697576,0.70863767,-0.17435356,0.70634,0.68699545,-0.19919125,0.704087,0.67437664,-0.17559628,0.713266,0.64641981,-0.14423967,0.699814,0.64348288,-0.12501208,0.703876,0.69429079,-0.13205331,0.721791,0.70092242,-0.10324379,0.735694,0.70432343,-0.088175789,0.742645,0.70657799,-0.067226955,0.748965,0.71648879,-0.12834433,0.716993,0.7241149,-0.091674253,0.72817,0.72730212,-0.068400493,0.734689,0.73048822,-0.053316981,0.739346,0.73454089,-0.12936529,0.71234,0.73063886,-0.091469765,0.715255,0.72848908,-0.069899496,0.716747,0.72790889,-0.047737473,0.718103,0.75461672,-0.13628888,0.705458,0.75240436,-0.10312145,0.709468,0.75178207,-0.088026649,0.71131,0.75259471,-0.073069638,0.712935
0.6992862,-0.20615348,0.697124,0.70693839,-0.17180062,0.705961,0.68351609,-0.19685246,0.703077,0.67370334,-0.17273105,0.712795,0.64533237,-0.1416013,0.697909,0.64233848,-0.1236905,0.702561,0.69324122,-0.13046874,0.72079,0.70130145,-0.09968326,0.734981,0.70485621,-0.084423864,0.742076,0.70827569,-0.066138974,0.748526,0.71662934,-0.12749209,0.716705,0.72292304,-0.090722578,0.727705,0.72702959,-0.067815794,0.734122,0.73059691,-0.049652341,0.738705,0.73464122,-0.12844197,0.712631,0.73051528,-0.090006269,0.715115,0.72861428,-0.068640496,0.716386,0.72821178,-0.046773972,0.717542,0.75479885,-0.13461381,0.706429,0.7518648,-0.10165162,0.708959,0.75057341,-0.086310748,0.710121,0.75166249,-0.07076865,0.711147
0.70473365,-0.20871506,0.701706,0.70880632,-0.17313789,0.707812,0.68789669,-0.19923448,0.70696,0.67436316,-0.17300176,0.714245,0.64523497,-0.14196035,0.700793,0.64217257,-0.12397661,0.704377,0.69150203,-0.12828674,0.71946,0.7011409,-0.096268655,0.733698,0.70550218,-0.079411891,0.740817,0.70748633,-0.062770593,0.747288,0.71390372,-0.12692755,0.715235,0.72256686,-0.089145738,0.726873,0.72888526,-0.064927,0.733663,0.73218476,-0.047570129,0.738512,0.73211219,-0.1276912,0.711267,0.72586934,-0.081076553,0.710888,0.72381358,-0.05744961,0.710694,0.72083586,-0.04169437,0.710518,0.75337603,-0.13448294,0.705607,0.75215569,-0.10192607,0.709451,0.7516766,-0.086407804,0.711217,0.75366583,-0.073099052,0.712775
0.70673838,-0.21115441,0.702898,0.71034618,-0.17743833,0.7089,0.68896148,-0.20429997,0.708038,0.67312936,-0.18001535,0.7145,0.64470599,-0.149731,0.702063,0.64142757,-0.12860086,0.704873,0.6922462,-0.1337075,0.720319,0.69936064,-0.10298869,0.733821,0.70291851,-0.08762776,0.740572,0.70579756,-0.068106091,0.74671,0.714682,-0.13148669,0.716197,0.72495776,-0.096603424,0.729054,0.73096986,-0.074591897,0.736554,0.73447364,-0.056863343,0.741912,0.73290125,-0.13311978,0.712321,0.72670216,-0.090877804,0.711811,0.72389913,-0.067423182,0.711551,0.72201424,-0.046565415,0.711314,0.75395035,-0.14175598,0.706787,0.75337414,-0.10970175,0.710628,0.75324493,-0.094010232,0.712393,0.75446528,-0.079800848,0.71395
0.70776697,-0.21278474,0.704228,0.71016011,-0.17530615,0.709224,0.68996876,-0.20318137,0.70882,0.67419756,-0.17479434,0.714324,0.64477866,-0.14572996,0.701169,0.64052005,-0.12511424,0.703562,0.69032951,-0.13026543,0.719114,0.69823882,-0.098711714,0.732766,0.70204445,-0.083203143,0.739592,0.70545583,-0.065552151,0.745797,0.71308028,-0.12741562,0.715298,0.71884393,-0.088042501,0.723522,0.72147701,-0.062287899,0.728319,0.72612564,-0.046869981,0.733151,0.73203305,-0.12766373,0.711756,0.72472144,-0.081430306,0.709899,0.7219616,-0.061738796,0.708949,0.71994438,-0.041372105,0.708085,0.75407723,-0.1345534,0.706774,0.75139657,-0.10188234,0.709362,0.74994947,-0.085410344,0.710552,0.75107122,-0.074489917,0.711601
0.71096788,-0.21497254,0.707642,0.71133176,-0.17448604,0.710256,0.69164858,-0.20498974,0.710852,0.67507766,-0.17428512,0.715311,0.6468269,-0.14357126,0.702367,0.64222388,-0.12392885,0.704294,0.68609524,-0.12774211,0.716423,0.69550759,-0.095512022,0.730162,0.69983681,-0.079533177,0.737032,0.70313617,-0.063183463,0.743277,0.7095722,-0.12505625,0.713434,0.71623765,-0.086174187,0.721073,0.71952005,-0.057722185,0.725529,0.72334826,-0.043620153,0.729674,0.72980533,-0.12570687,0.710764,0.72081298,-0.079835475,0.706216,0.71713773,-0.05611874,0.703889,0.71523636,-0.036406179,0.701774,0.75329099,-0.1329893,0.707184,0.74993434,-0.10033582,0.709126,0.74730787,-0.082395748,0.710018,0.74943666,-0.072430416,0.710805
0.70775062,-0.21540632,0.704529,0.70967846,-0.17818881,0.708585,0.69005225,-0.20598036,0.709349,0.67263203,-0.18111218,0.713846,0.6478767,-0.15123218,0.704625,0.64415833,-0.12943666,0.70787,0.68682874,-0.13655488,0.717955,0.69690193,-0.10336021,0.73168,0.70060324,-0.086263407,0.738543,0.70534441,-0.067565308,0.744781,0.70893649,-0.13371632,0.713515,0.7165347,-0.091869942,0.721553,0.71898066,-0.065955132,0.726242,0.72533031,-0.050229859,0.731685,0.72710166,-0.13458837,0.709535,0.72108977,-0.08891945,0.706546,0.7183701,-0.063163398,0.705017,0.71735799,-0.046772518,0.703627,0.75090111,-0.13904186,0.704175,0.75138382,-0.10952452,0.71035,0.74862952,-0.091859809,0.713188,0.75337337,-0.079034984,0.715691
0.70864413,-0.21543371,0.707114,0.70932235,-0.17329213,0.711214,0.69167659,-0.20408078,0.712437,0.67161487,-0.16799425,0.720846,0.65811874,-0.14239633,0.723678,0.6567913,-0.12489116,0.727756,0.69266842,-0.12726694,0.721242,0.6883244,-0.093126969,0.724444,0.68199889,-0.074071458,0.726046,0.68035743,-0.062686608,0.727502,0.7130252,-0.12593545,0.716199,0.71677579,-0.084551011,0.721043,0.71891217,-0.056731767,0.72387,0.72151174,-0.039970136,0.725888,0.73113885,-0.12766397,0.711719,0.72452399,-0.084547862,0.709445,0.7216177,-0.061250068,0.708281,0.71970536,-0.041482545,0.707223,0.7519359,-0.13587007,0.705757,0.75153487,-0.10246683,0.709295,0.7520914,-0.086891649,0.710921,0.75375735,-0.071865901,0.712355
0.71571663,-0.21762886,0.714908,0.71215786,-0.17644129,0.713107,0.69553922,-0.20703162,0.717105,0.6764775,-0.17482657,0.717952,0.65261975,-0.14514109,0.711346,0.64779787,-0.1255105,0.714613,0.68692785,-0.13037369,0.714277,0.69727962,-0.099780384,0.733397,0.69566947,-0.085083125,0.742958,0.69802224,-0.070101961,0.751649,0.709256,-0.12657212,0.710918,0.7140868,-0.085763304,0.718466,0.71749639,-0.0589574,0.722869,0.71996286,-0.04163986,0.726014,0.72847623,-0.12796359,0.7083,0.71599179,-0.085695677,0.699999,0.71056131,-0.061193767,0.695752,0.70702533,-0.050716247,0.691891,0.75160053,-0.13729019,0.705457,0.74548244,-0.099652799,0.701384,0.74216413,-0.080285542,0.699512,0.73929738,-0.069817102,0.700912
0.71530722,-0.21822667,0.715719,0.71262609,-0.17884186,0.714017,0.69421642,-0.20704631,0.716801,0.67354077,-0.17552299,0.718035,0.64914369,-0.14409878,0.706714,0.64248946,-0.12356333,0.706275,0.68607894,-0.13175901,0.7139,0.6879037,-0.099774815,0.726197,0.68692327,-0.077774333,0.732345,0.68602922,-0.062824877,0.737935,0.71009437,-0.13150185,0.711949,0.7151203,-0.091265472,0.719205,0.7183562,-0.066316854,0.723439,0.7215072,-0.047911321,0.726462,0.72874276,-0.13602944,0.71048,0.71883757,-0.088499337,0.701858,0.71459966,-0.063325561,0.697447,0.71089573,-0.052559665,0.693436,0.75430658,-0.14639112,0.708992,0.74817442,-0.1085374,0.703532,0.74546497,-0.089900494,0.701024,0.74172585,-0.073174836,0.701914
0.71168103,-0.21803215,0.713281,0.71164735,-0.18071909,0.714016,0.69172589,-0.20691316,0.715265,0.67129184,-0.1758813,0.7164,0.64717175,-0.14378365,0.705,0.64022552,-0.12280449,0.703785,0.68895643,-0.13485848,0.717079,0.68874557,-0.10166408,0.728158,0.68730182,-0.082213842,0.733697,0.68688203,-0.064221288,0.738733,0.71266197,-0.13545932,0.714909,0.71752412,-0.094053833,0.721298,0.72089374,-0.069259428,0.725024,0.72375602,-0.050366299,0.727686,0.73248991,-0.13853208,0.713065,0.72403474,-0.091934486,0.706882,0.71970228,-0.067942397,0.703719,0.72035681,-0.05521586,0.700843,0.75614842,-0.14818931,0.710756,0.74890701,-0.11005235,0.705241,0.747268,-0.091102343,0.702707,0.74337988,-0.075354083,0.701329
0.70868349,-0.21733879,0.710141,0.7141671,-0.17874025,0.71535,0.69056326,-0.20668506,0.713904,0.67205156,-0.17624585,0.716027,0.64449957,-0.14526429,0.702765,0.63757943,-0.12516542,0.701302,0.69714578,-0.13551123,0.724403,0.69167117,-0.099923411,0.730491,0.68760229,-0.080220425,0.733534,0.6844843,-0.063822782,0.736301,0.72075535,-0.13526001,0.721682,0.72206222,-0.091735791,0.724781,0.72330331,-0.0667593,0.726589,0.72357691,-0.044464132,0.727881,0.74015019,-0.13666418,0.719024,0.74824064,-0.1005187,0.71626,0.75114976,-0.086342868,0.714845,0.74781749,-0.094925609,0.71356,0.76328738,-0.14290809,0.715061,0.76138181,-0.11342666,0.713067,0.76414446,-0.10264737,0.712151,0.76647838,-0.09927393,0.711342
0.72269093,-0.22080809,0.723844,0.71890389,-0.17656797,0.72025,0.69771937,-0.20798762,0.720998,0.67775891,-0.16569713,0.717779,0.65681141,-0.13764683,0.712947,0.6495186,-0.12476436,0.716366,0.68656723,-0.13253749,0.713695,0.68683314,-0.097963513,0.726093,0.68626276,-0.079640222,0.732292,0.68626824,-0.062732414,0.737927,0.71452827,-0.13335723,0.71588,0.72061514,-0.091649281,0.723251,0.72420007,-0.066600128,0.727551,0.72636334,-0.043712576,0.730623,0.73584825,-0.1386507,0.717966,0.7220408,-0.091724035,0.705994,0.7218057,-0.075579317,0.699869,0.72482237,-0.082848073,0.694301,0.76510168,-0.14919103,0.721001,0.75509444,-0.12113044,0.709048,0.74598662,-0.13497471,0.703556,0.75440451,-0.15201615,0.713608
0.72236605,-0.21885597,0.72353,0.71915379,-0.17631673,0.720702,0.69854629,-0.205348,0.722313,0.66861553,-0.16689264,0.71689,0.64565825,-0.13991612,0.711884,0.63887655,-0.12707831,0.71615,0.68888203,-0.13164431,0.716803,0.6859638,-0.095650684,0.724711,0.68401262,-0.07734818,0.728664,0.69180262,-0.056893308,0.732259,0.71313108,-0.13439038,0.717265,0.71478218,-0.086925608,0.718496,0.71479896,-0.062441826,0.719213,0.71858768,-0.045278029,0.719726,0.73499688,-0.13854376,0.717873,0.72317695,-0.092219612,0.70731,0.72313424,-0.075632008,0.701906,0.72661111,-0.082930011,0.696993,0.76225154,-0.14856509,0.719029,0.75290065,-0.12049302,0.70825,0.74495405,-0.13444338,0.703297,0.75422716,-0.15161143,0.713743
0.7130418,-0.2157016,0.715174,0.71358011,-0.17794584,0.716078,0.6937252,-0.20337325,0.718286,0.67681674,-0.1694629,0.722238,0.65875123,-0.1421838,0.719214,0.65440735,-0.1250538,0.721078,0.69226626,-0.13954474,0.720672,0.6838195,-0.10086027,0.722047,0.68620319,-0.079361548,0.722734,0.68380827,-0.059694307,0.723359,0.71390396,-0.14333979,0.717178,0.70871404,-0.09389647,0.710963,0.70956471,-0.068366801,0.711828,0.71595301,-0.053798399,0.712446,0.73206245,-0.14687166,0.71423,0.72594521,-0.097442112,0.709175,0.72739688,-0.07839487,0.706588,0.73292298,-0.085044235,0.704237,0.75511224,-0.15196974,0.710581,0.74558993,-0.12841953,0.704308,0.74250159,-0.14261879,0.701425,0.75531337,-0.16014392,0.713033
0.7074381,-0.21406936,0.70991,0.71223229,-0.18052174,0.714429,0.68910446,-0.20335403,0.713307,0.67288312,-0.17655175,0.718008,0.65392917,-0.14744377,0.714482,0.64965976,-0.12818858,0.715741,0.69278253,-0.14456496,0.722445,0.68603617,-0.10365469,0.720628,0.68565776,-0.083182489,0.719719,0.6821987,-0.061255276,0.718893,0.71715561,-0.14057769,0.719922,0.71469601,-0.09567106,0.717324,0.71325946,-0.06957281,0.715807,0.7142408,-0.055325998,0.714725,0.73627203,-0.14323679,0.717483,0.73251505,-0.096648587,0.715519,0.73172569,-0.093801441,0.714514,0.72934164,-0.10359332,0.7136,0.75923633,-0.14656468,0.713886,0.75460808,-0.11314359,0.717745,0.75124222,-0.10117698,0.719518,0.75162617,-0.087274244,0.721082
0.71034742,-0.21389322,0.713459,0.71390257,-0.18064112,0.716409,0.6895361,-0.20257443,0.714307,0.67179972,-0.17613619,0.717083,0.65355027,-0.14777392,0.714805,0.64967163,-0.12789191,0.716326,0.69061066,-0.14531503,0.719959,0.68394072,-0.10519821,0.71557,0.68150742,-0.086010382,0.713375,0.6784369,-0.067810106,0.71138,0.71644001,-0.14466484,0.719995,0.71312399,-0.097081948,0.715297,0.71157763,-0.070558114,0.712557,0.70994925,-0.055946787,0.710599,0.73858697,-0.14441342,0.719786,0.73315446,-0.10099839,0.715063,0.73108324,-0.10499131,0.712647,0.72652474,-0.11781296,0.71045,0.76413705,-0.15271196,0.719087,0.75775872,-0.1166958,0.720048,0.75487961,-0.10106328,0.72049,0.75363093,-0.086345714,0.72088
0.70915565,-0.21446525,0.711279,0.71289814,-0.19308109,0.715817,0.68849436,-0.20687991,0.712584,0.66863824,-0.18636867,0.714871,0.65105599,-0.16005523,0.714205,0.64820969,-0.14072127,0.716053,0.69183133,-0.15874167,0.72128,0.68659508,-0.11727952,0.718318,0.68393712,-0.09586974,0.716837,0.68192444,-0.072122934,0.715491,0.71780433,-0.15748875,0.721335,0.71732005,-0.11180527,0.718316,0.71702193,-0.0850604,0.716555,0.7154137,-0.07016592,0.715297,0.73926243,-0.15875261,0.721014,0.73892575,-0.11230335,0.717861,0.73521642,-0.11711069,0.716247,0.73141953,-0.13046323,0.71478,0.76493468,-0.16476861,0.719939,0.75475126,-0.12784448,0.715507,0.75507061,-0.11190116,0.718183,0.7555709,-0.096848987,0.720543
0.69999689,-0.22581806,0.705388,0.70794936,-0.20688621,0.713577,0.68203954,-0.21951464,0.708392,0.6636919,-0.19747568,0.713047,0.64927893,-0.17172194,0.714771,0.64869408,-0.15299546,0.718158,0.69443145,-0.1705207,0.724229,0.69154177,-0.12925385,0.724875,0.69058236,-0.10803912,0.725198,0.68968062,-0.088267669,0.725491,0.719452,-0.17285197,0.723532,0.72197283,-0.12833961,0.724539,0.72359356,-0.10195838,0.725127,0.72700553,-0.085446324,0.725546,0.73948813,-0.17700562,0.722299,0.74453026,-0.13270042,0.723281,0.74713097,-0.10980711,0.723784,0.75529163,-0.095156497,0.724241,0.76233052,-0.18628881,0.719578,0.76916067,-0.14712852,0.719254,0.7723553,-0.12882763,0.719105,0.77445272,-0.11886453,0.718974
0.69914286,-0.24163459,0.706182,0.70754955,-0.21696141,0.713191,0.6810141,-0.23057007,0.709337,0.66468319,-0.20797114,0.714128,0.64985978,-0.18198707,0.715371,0.64923984,-0.16323792,0.7187,0.69340937,-0.18005909,0.723027,0.68975555,-0.13891341,0.722955,0.68844466,-0.11782816,0.72292,0.6872262,-0.09819795,0.722887,0.71777998,-0.18229083,0.721711,0.71914551,-0.13776164,0.721552,0.72011402,-0.1114104,0.72146,0.72298648,-0.095084989,0.721394,0.73733884,-0.18639653,0.720064,0.74177659,-0.14114201,0.719987,0.74413658,-0.1170967,0.719948,0.74672843,-0.09255844,0.719912,0.7597539,-0.19568725,0.71703,0.7656802,-0.15663133,0.715986,0.76846103,-0.13840022,0.715506,0.77025146,-0.12857546,0.715083
0.69616398,-0.25160201,0.704506,0.70590657,-0.22791495,0.713769,0.67883969,-0.24070438,0.70835,0.66318938,-0.21887523,0.714871,0.64935226,-0.19316708,0.717056,0.64897261,-0.17450371,0.720546,0.69480165,-0.19176132,0.72637,0.69230959,-0.15108189,0.728355,0.69146784,-0.13014691,0.729348,0.69069791,-0.11068687,0.730251,0.71917945,-0.19409497,0.725031,0.72325066,-0.14987033,0.727307,0.72576944,-0.1236033,0.728635,0.7295908,-0.10721881,0.729584,0.73854378,-0.1982373,0.723184,0.73776715,-0.1577107,0.72545,0.74236797,-0.13830596,0.726609,0.7484333,-0.13392695,0.727663,0.76031783,-0.20747384,0.719567,0.7680607,-0.16885475,0.720288,0.77168601,-0.15075156,0.720619,0.7742034,-0.14059261,0.720912
0.70421197,-0.26757691,0.712219,0.71589177,-0.24123566,0.720149,0.68912794,-0.25645829,0.718196,0.68298536,-0.23571086,0.72893,0.66947519,-0.21138603,0.732212,0.67026358,-0.19579407,0.738992,0.70672113,-0.19863683,0.734234,0.6993506,-0.161237,0.736834,0.69611847,-0.14188973,0.738135,0.69316687,-0.12424557,0.739317,0.72804232,-0.20080633,0.729789,0.73492975,-0.16973798,0.737447,0.74470191,-0.14952745,0.741915,0.75063588,-0.15284995,0.745106,0.74470352,-0.20522453,0.725493,0.74881644,-0.16153067,0.727906,0.75096073,-0.13810248,0.729141,0.75293491,-0.11613846,0.730264,0.76301413,-0.21550315,0.719163,0.76684433,-0.1771902,0.719289,0.76865033,-0.15912056,0.719348,0.77228316,-0.15180219,0.719399
0.70674547,-0.28329215,0.71769,0.71363651,-0.25569401,0.724594,0.69218708,-0.27163646,0.723701,0.68032522,-0.25017626,0.733874,0.66791493,-0.22274954,0.734891,0.66964623,-0.20431565,0.739323,0.70629284,-0.21469098,0.737851,0.69994392,-0.1755918,0.73978,0.69674746,-0.15593352,0.740745,0.69563846,-0.13774864,0.741622,0.72737362,-0.21611249,0.732987,0.73180623,-0.17730366,0.736417,0.73581203,-0.15264226,0.738417,0.7387347,-0.13426662,0.739846,0.74388504,-0.21987631,0.728429,0.7477746,-0.17521928,0.729289,0.74982103,-0.15153029,0.729729,0.75134334,-0.13192613,0.730129,0.7620329,-0.22934308,0.721945,0.76361268,-0.1906535,0.721457,0.76434895,-0.17267061,0.721232,0.76500506,-0.15669381,0.721034
0.69953719,-0.29326897,0.720015,0.71061512,-0.2641013,0.726474,0.68963962,-0.28358196,0.729461,0.68764314,-0.25654639,0.742871,0.68428532,-0.237343,0.752021,0.69138434,-0.22658189,0.761882,0.7137254,-0.22684815,0.743572,0.71084713,-0.19069628,0.747912,0.7090677,-0.17184722,0.750081,0.70734576,-0.15417955,0.752054,0.7297241,-0.22614871,0.734324,0.73709022,-0.18875036,0.736878,0.73612585,-0.16933582,0.738367,0.7353465,-0.15473465,0.739431,0.74172807,-0.22805991,0.726195,0.74537911,-0.18425463,0.727677,0.74680559,-0.16140729,0.728436,0.74805359,-0.14003732,0.729125,0.75387111,-0.23512199,0.715526,0.75821876,-0.19695154,0.715662,0.76023409,-0.17924716,0.715724,0.76202233,-0.16353768,0.715779
0.73653448,-0.32824391,0.738157,0.73405474,-0.28755943,0.736879,0.71825787,-0.31796808,0.742287,0.70275291,-0.28869527,0.747614,0.6861094,-0.26489367,0.75003,0.68467313,-0.25131628,0.756814,0.71039469,-0.24240694,0.740868,0.71513383,-0.21538328,0.755812,0.71714018,-0.19759369,0.763284,0.72020374,-0.18405117,0.770077,0.7310937,-0.23986132,0.735326,0.73705889,-0.20367572,0.738755,0.73851529,-0.18880623,0.740756,0.73953107,-0.17752205,0.742184,0.74841438,-0.24087031,0.730868,0.74076235,-0.19728269,0.722577,0.73686259,-0.17423826,0.718335,0.73332713,-0.15282261,0.714479,0.7696966,-0.24803778,0.725755,0.76182137,-0.2077745,0.71826,0.75819882,-0.18921598,0.714817,0.75492375,-0.17800862,0.711778
0.73546736,-0.33305465,0.741387,0.73502382,-0.29192786,0.739539,0.71736182,-0.32143947,0.744736,0.70286856,-0.29166019,0.749817,0.68841564,-0.26737717,0.753004,0.68724428,-0.25199422,0.758416,0.71314219,-0.24488227,0.742084,0.71734675,-0.21807746,0.756611,0.72030454,-0.20395427,0.763875,0.72334381,-0.19373768,0.770478,0.73579973,-0.24676723,0.737293,0.72586363,-0.19917929,0.728496,0.71891555,-0.18064003,0.723364,0.71389807,-0.16689047,0.719698,0.75319668,-0.24979961,0.7335,0.74369988,-0.20095039,0.725146,0.73926631,-0.18005922,0.720873,0.73542423,-0.15575149,0.716987,0.77400335,-0.25956357,0.729265,0.76489182,-0.21869407,0.721158,0.76055056,-0.20075554,0.717433,0.75707414,-0.18170037,0.714147
0.73020424,-0.34457622,0.744196,0.73123261,-0.31154501,0.742204,0.71429484,-0.33210153,0.748291,0.70220321,-0.30741429,0.754274,0.6918186,-0.2817738,0.757728,0.69426414,-0.26680569,0.764192,0.71697926,-0.26460968,0.745545,0.72967886,-0.24213792,0.766346,0.7347796,-0.22563246,0.776747,0.74069044,-0.21572317,0.786202,0.73675854,-0.2649266,0.739784,0.7285124,-0.21707336,0.731059,0.72120307,-0.20075178,0.72597,0.71591283,-0.1886348,0.722335,0.75288657,-0.26824275,0.735204,0.7453183,-0.22320342,0.727163,0.74145483,-0.19961247,0.723049,0.73794793,-0.17782645,0.719309,0.77184089,-0.27811471,0.730054,0.7656406,-0.23737661,0.722075,0.76245567,-0.21896666,0.718409,0.75965182,-0.20258695,0.715175
0.71795228,-0.35018955,0.738207,0.72712615,-0.31204439,0.739412,0.70328792,-0.33674429,0.742432,0.69659861,-0.30636172,0.750263,0.68727334,-0.28060088,0.754094,0.69080415,-0.26380957,0.75996,0.71722562,-0.26517917,0.745629,0.73135604,-0.24232582,0.76731,0.7378448,-0.22594274,0.778151,0.74632103,-0.21056528,0.788006,0.73797266,-0.26715855,0.740878,0.74372906,-0.22260145,0.734308,0.74679875,-0.19527961,0.730475,0.748891,-0.17562419,0.727738,0.7544623,-0.27465493,0.736871,0.75119208,-0.22675755,0.732289,0.75045834,-0.20491177,0.729944,0.74924341,-0.18309035,0.727813,0.77270459,-0.28707099,0.731915,0.76999888,-0.24693121,0.726396,0.76875964,-0.22845077,0.723861,0.76709009,-0.20830444,0.721624
0.71004571,-0.34867486,0.730481,0.72291787,-0.31484287,0.736223,0.69726965,-0.33585601,0.73648,0.6905376,-0.30680798,0.744872,0.68291162,-0.28479651,0.750401,0.68949438,-0.27617136,0.763058,0.71986441,-0.26916299,0.748477,0.73119008,-0.24461021,0.767214,0.73723428,-0.22777344,0.776583,0.74167944,-0.21320738,0.7851,0.74018119,-0.27236887,0.743204,0.75124486,-0.23044902,0.741113,0.75786978,-0.20440875,0.739892,0.76261941,-0.18575523,0.739021,0.75583129,-0.27780992,0.738404,0.75818704,-0.23330155,0.738592,0.7594158,-0.21003984,0.738688,0.76054697,-0.18859694,0.738775,0.7724672,-0.28966322,0.731808,0.77402191,-0.25099202,0.730385,0.7747515,-0.23304499,0.729732,0.77540205,-0.21711366,0.729155
0.7287264,-0.36584512,0.732564,0.73392707,-0.32956092,0.740051,0.71568297,-0.35829327,0.742074,0.70754344,-0.33249384,0.754959,0.6872283,-0.30188146,0.749597,0.68622129,-0.28650178,0.75656,0.72264113,-0.2898107,0.758103,0.72832764,-0.25342434,0.766165,0.7311669,-0.23509805,0.770196,0.73141232,-0.21536812,0.773861,0.74028771,-0.28612927,0.749153,0.73633342,-0.24360863,0.751213,0.73404686,-0.21894782,0.752415,0.73242187,-0.20139643,0.753273,0.75632737,-0.28370671,0.741186,0.75862938,-0.24289576,0.739814,0.76100847,-0.22005344,0.739112,0.7632407,-0.19878193,0.738474,0.77068974,-0.28980952,0.730552,0.77456214,-0.25409881,0.730635,0.77651188,-0.23658364,0.730673,0.77794463,-0.21888586,0.730706
0.7355909,-0.3768031,0.739778,0.73578662,-0.34585452,0.742838,0.71879323,-0.36787028,0.745656,0.70702594,-0.3476464,0.754478,0.68667511,-0.31905976,0.75115,0.68585159,-0.30373967,0.758058,0.71640799,-0.30470558,0.752663,0.71183822,-0.2633918,0.749394,0.70954146,-0.24242029,0.747759,0.707447,-0.22316815,0.746273,0.73650404,-0.30080367,0.746558,0.73283804,-0.25500091,0.742584,0.74339432,-0.23246802,0.753128,0.75093759,-0.21592341,0.76066,0.75309457,-0.30052636,0.741288,0.75117658,-0.25813456,0.736756,0.74979748,-0.23675249,0.734437,0.74834507,-0.21736463,0.732328,0.77303913,-0.30583482,0.734545,0.77450572,-0.26676299,0.730612,0.77874508,-0.24998408,0.732161,0.78238655,-0.23492355,0.733527
0.72646224,-0.38595998,0.731098,0.73296146,-0.35617295,0.738675,0.7101942,-0.3773154,0.737,0.70206936,-0.35691218,0.748796,0.68425971,-0.32931282,0.747871,0.68419159,-0.31377863,0.755036,0.71944463,-0.31582574,0.752371,0.72005587,-0.2762285,0.753047,0.720361,-0.2558813,0.753385,0.72063885,-0.23705582,0.753693,0.74111131,-0.31317112,0.747888,0.74311665,-0.26858464,0.748479,0.74377204,-0.24212703,0.748824,0.74399002,-0.2230518,0.74907,0.75862654,-0.31381528,0.743589,0.75208531,-0.27171927,0.745436,0.7487451,-0.25021466,0.746381,0.75082178,-0.23226477,0.75236,0.77882254,-0.32005088,0.73731,0.78263166,-0.28228579,0.737552,0.78431689,-0.26479606,0.737664,0.78569245,-0.24920393,0.737762
0.72308916,-0.39936865,0.730028,0.7324624,-0.37203505,0.738606,0.70970906,-0.39038984,0.738027,0.70176038,-0.36974461,0.749744,0.68578072,-0.34135039,0.748915,0.68706106,-0.32559725,0.756038,0.72678026,-0.33075451,0.755728,0.728917,-0.29131396,0.758747,0.72997687,-0.27116497,0.760256,0.73093479,-0.25259471,0.761627,0.74637875,-0.33021909,0.749034,0.74858937,-0.28892431,0.751677,0.74992551,-0.26454763,0.753219,0.75091675,-0.24678213,0.754321,0.76159206,-0.332524,0.742835,0.77595951,-0.29033505,0.742624,0.78109859,-0.27086226,0.742516,0.78595059,-0.25248999,0.742417,0.77804429,-0.34051042,0.73414,0.78458982,-0.30355515,0.735523,0.78759229,-0.28656016,0.736159,0.79027333,-0.27132701,0.73672
0.72278201,-0.41356125,0.731652,0.73321381,-0.38418354,0.739754,0.71016837,-0.40409831,0.740034,0.70484687,-0.38336185,0.752663,0.68861765,-0.35459657,0.751467,0.68990977,-0.33854285,0.758362,0.72669313,-0.34458292,0.756943,0.73019601,-0.3053202,0.758726,0.7319705,-0.2851854,0.759618,0.73359609,-0.26658113,0.760428,0.74558089,-0.34271458,0.749604,0.74794801,-0.29996962,0.751895,0.749296,-0.27498096,0.753232,0.75020241,-0.25687666,0.754187,0.76034174,-0.3438946,0.742913,0.76947883,-0.30162318,0.742241,0.77431579,-0.27930249,0.741897,0.78193813,-0.25539996,0.741585,0.77651029,-0.35050102,0.733705,0.78304436,-0.31350492,0.73461,0.78577769,-0.29655779,0.735026,0.78821197,-0.28138908,0.735392
0.72948627,-0.42296125,0.74079,0.7335685,-0.39423272,0.743611,0.71245512,-0.41608736,0.745299,0.70665769,-0.38704591,0.755145,0.69872476,-0.36640713,0.761974,0.70311798,-0.35060053,0.768971,0.72279511,-0.35011138,0.75155,0.71874873,-0.31270662,0.748619,0.71636522,-0.29475296,0.747153,0.71397327,-0.27898624,0.745821,0.74389253,-0.35087609,0.74704,0.74046878,-0.30523125,0.743047,0.75407625,-0.28481665,0.756374,0.76374696,-0.26957691,0.765894,0.76083257,-0.35436076,0.743102,0.76523489,-0.31081339,0.738304,0.76675548,-0.28884003,0.735849,0.76766389,-0.26911427,0.733617,0.78019739,-0.36406065,0.737981,0.78142869,-0.32489176,0.733893,0.78201391,-0.30676692,0.732015,0.78254055,-0.29070589,0.730358
0.71508732,-0.43502155,0.731678,0.7273814,-0.40894661,0.738303,0.70209406,-0.43304017,0.738943,0.70574862,-0.40480241,0.753183,0.69581392,-0.37500953,0.753455,0.70116666,-0.35946227,0.761103,0.72396339,-0.36761597,0.752865,0.7252059,-0.32891094,0.754295,0.72582552,-0.3090792,0.75501,0.72638789,-0.29076528,0.75566,0.74312269,-0.36771834,0.746358,0.74529274,-0.32536739,0.746859,0.76206455,-0.30735867,0.762687,0.77388223,-0.29342965,0.773993,0.75801567,-0.37052184,0.740471,0.76486889,-0.32847036,0.740451,0.76828259,-0.306502,0.74044,0.77145616,-0.28608759,0.740431,0.77409697,-0.37911069,0.732446,0.78016563,-0.34171067,0.732076,0.78274552,-0.32443696,0.731906,0.78504641,-0.30904984,0.731757
0.71441507,-0.45378875,0.73185,0.7274809,-0.4282086,0.738404,0.70211591,-0.45237083,0.738966,0.70569802,-0.42433423,0.753129,0.69575389,-0.39435297,0.75339,0.70099807,-0.37872769,0.76092,0.72382395,-0.38637996,0.75272,0.7249915,-0.34795033,0.754072,0.72557364,-0.32826276,0.754748,0.72610239,-0.3100839,0.755363,0.74313663,-0.38663414,0.746372,0.74519095,-0.34401818,0.746757,0.76215748,-0.32636188,0.76278,0.7741142,-0.31272514,0.774225,0.75816922,-0.38958767,0.740621,0.76503107,-0.34791305,0.740608,0.76844965,-0.32616488,0.740601,0.77162703,-0.3059546,0.740595,0.77443834,-0.39840694,0.732769,0.78041927,-0.36108428,0.732314,0.78295834,-0.34388467,0.732105,0.78522128,-0.32856459,0.73192
0.71779807,-0.46936036,0.73228,0.73344929,-0.44017836,0.740896,0.70849867,-0.46103467,0.742743,0.70584159,-0.44101872,0.754997,0.68625534,-0.40868264,0.74903,0.68572463,-0.38899799,0.751728,0.73294411,-0.40268798,0.761079,0.73274183,-0.36594498,0.767191,0.73218786,-0.34743497,0.770247,0.73164728,-0.33039101,0.773026,0.74879528,-0.39898278,0.75137,0.75336056,-0.35650554,0.754863,0.75817172,-0.33266307,0.759051,0.75771573,-0.32196641,0.762043,0.76092052,-0.39864214,0.742688,0.76716952,-0.35780783,0.745641,0.76993461,-0.33660707,0.747151,0.77247513,-0.31685567,0.748524,0.77364044,-0.4034367,0.73103,0.77602402,-0.3674538,0.733868,0.77711583,-0.35072019,0.735172,0.7760943,-0.33996824,0.736323
0.71521382,-0.47206817,0.730668,0.73405322,-0.45016345,0.743584,0.71246974,-0.47284003,0.745725,0.70850036,-0.45049301,0.759561,0.70256228,-0.42501814,0.767164,0.70508954,-0.40448846,0.773821,0.74899985,-0.42252827,0.773068,0.74927847,-0.39322014,0.785979,0.7493103,-0.37777852,0.79264,0.74924542,-0.36324377,0.798789,0.75920605,-0.4153154,0.759286,0.7631973,-0.37728717,0.76883,0.76538617,-0.3540208,0.774397,0.7602581,-0.35069485,0.778374,0.76602595,-0.41166764,0.746906,0.77467349,-0.37348487,0.754821,0.77915853,-0.35308549,0.758919,0.7833099,-0.33402904,0.76271,0.77116776,-0.41171604,0.730187,0.78249094,-0.38091482,0.73767,0.78776418,-0.36604879,0.741109,0.78686736,-0.35615078,0.744142
0.72194699,-0.49565916,0.73962,0.73555769,-0.4711922,0.745108,0.71616314,-0.50034432,0.751327,0.70777746,-0.47048363,0.758786,0.692821,-0.43949122,0.756527,0.69406037,-0.42286345,0.762558,0.74037016,-0.43725206,0.764161,0.73514341,-0.40351361,0.769812,0.73237436,-0.38611777,0.772638,0.72976605,-0.36998951,0.775207,0.75170084,-0.43087231,0.75178,0.74724801,-0.38937577,0.752763,0.74457122,-0.36455165,0.753337,0.73620427,-0.36015213,0.753747,0.76012363,-0.42824756,0.741151,0.76131926,-0.38713688,0.741809,0.76193821,-0.3655497,0.742146,0.76250475,-0.34558877,0.742452,0.76849154,-0.43020745,0.727653,0.77195865,-0.39610888,0.727741,0.7735982,-0.37997712,0.727782,0.76960611,-0.36910718,0.727818
0.7246449,-0.5082558,0.739978,0.73625556,-0.47178885,0.744613,0.71757601,-0.50167293,0.75117,0.705756,-0.4722493,0.757727,0.68889449,-0.4471992,0.758636,0.68988623,-0.43256161,0.766428,0.73712645,-0.43379464,0.762306,0.73176387,-0.39922184,0.766381,0.73302119,-0.38024897,0.772754,0.7335607,-0.36828265,0.778548,0.7500446,-0.42927357,0.750246,0.74696585,-0.38644005,0.750071,0.7439747,-0.36180856,0.749969,0.74482288,-0.34299699,0.749896,0.75930652,-0.42733393,0.739951,0.76021768,-0.38479163,0.736717,0.75801923,-0.36456986,0.735062,0.75600949,-0.34572347,0.733558,0.76893432,-0.43038251,0.726981,0.75968857,-0.39522469,0.727683,0.75460292,-0.37912896,0.728006,0.75009194,-0.36485842,0.72829
0.73085033,-0.5167486,0.746142,0.74263341,-0.48658091,0.749854,0.72187536,-0.50809611,0.755559,0.70540589,-0.48626501,0.759361,0.68527545,-0.45901982,0.758389,0.68476849,-0.44511762,0.766162,0.74111912,-0.44030868,0.764583,0.73329205,-0.40373793,0.767005,0.73917228,-0.39133194,0.777593,0.74366211,-0.37810374,0.787219,0.75630019,-0.44104231,0.754367,0.75275912,-0.39768229,0.752776,0.74805466,-0.37675798,0.751847,0.74420991,-0.36253192,0.751184,0.76773227,-0.44230889,0.745662,0.77324784,-0.39750837,0.741244,0.76888377,-0.38237227,0.738984,0.76482813,-0.36818584,0.736929,0.77989613,-0.44959497,0.734727,0.76699895,-0.41371442,0.733716,0.7610545,-0.39717157,0.733252,0.75579963,-0.38254482,0.732843
0.73501566,-0.52588837,0.750626,0.74559944,-0.49105127,0.753644,0.72410867,-0.5147383,0.758132,0.70253769,-0.49312167,0.759098,0.67773425,-0.46594087,0.755639,0.67460796,-0.45082475,0.76167,0.74287073,-0.44576994,0.765435,0.73349188,-0.40739838,0.765962,0.73703334,-0.39263949,0.774987,0.74014531,-0.3788087,0.783192,0.75996786,-0.44774624,0.757313,0.75429876,-0.40451702,0.754397,0.74845523,-0.3838647,0.752695,0.7443042,-0.36579267,0.75148,0.77281101,-0.45064944,0.750388,0.77990951,-0.40609633,0.745794,0.77506021,-0.3916795,0.743444,0.76997212,-0.37425772,0.741307,0.7866206,-0.45995227,0.741679,0.78012643,-0.42145063,0.739103,0.77551834,-0.40905566,0.737919,0.77138246,-0.39787612,0.736874
0.73383822,-0.52777856,0.751291,0.7453742,-0.4924672,0.754339,0.72610012,-0.518274,0.761423,0.7074655,-0.49236708,0.766174,0.68983024,-0.46260058,0.76303,0.68649134,-0.44477538,0.766182,0.74835698,-0.45129755,0.769381,0.73997679,-0.4147639,0.77212,0.73770917,-0.39731808,0.775588,0.73557856,-0.38121875,0.778741,0.76111872,-0.4491317,0.758044,0.75583836,-0.4057667,0.756101,0.75222287,-0.38008192,0.754967,0.74974274,-0.36133094,0.754158,0.77068223,-0.45030945,0.74847,0.76901776,-0.41119539,0.745517,0.76737201,-0.39074304,0.744007,0.76807886,-0.37155423,0.742634,0.78029672,-0.45742899,0.736602,0.78159153,-0.42352021,0.739275,0.77897745,-0.41803828,0.740503,0.775387,-0.41122344,0.741587
0.73193943,-0.52814378,0.750563,0.74424615,-0.49268286,0.753803,0.72530201,-0.51913919,0.761408,0.70795347,-0.49343696,0.76725,0.6897934,-0.46346822,0.763011,0.68564939,-0.44443841,0.764827,0.74899375,-0.45232925,0.769886,0.74064749,-0.41668588,0.773369,0.73581876,-0.40015281,0.775111,0.73150611,-0.38366006,0.776694,0.76071567,-0.44950706,0.757742,0.75586118,-0.40624668,0.756267,0.75202474,-0.38119055,0.755406,0.7490711,-0.36307634,0.754792,0.7693668,-0.45010904,0.747489,0.76737346,-0.41064663,0.744052,0.76558675,-0.39011775,0.742294,0.76522324,-0.3709485,0.740695,0.77779746,-0.45647147,0.734783,0.78096569,-0.41860601,0.732859,0.77805912,-0.40336397,0.731975,0.77546542,-0.38969726,0.731195
0.73117271,-0.53172869,0.750204,0.74426434,-0.49497727,0.753572,0.72604527,-0.52344407,0.761855,0.71643228,-0.50282339,0.768936,0.69623225,-0.4737425,0.764174,0.69276063,-0.45447967,0.766697,0.75312272,-0.46103154,0.770754,0.74174723,-0.42818705,0.775035,0.73530418,-0.41201062,0.777176,0.72931272,-0.39702966,0.779123,0.76120535,-0.45156783,0.757666,0.75627083,-0.40743527,0.756652,0.75047607,-0.38458418,0.75606,0.74603005,-0.36729628,0.755637,0.76851164,-0.45010071,0.746628,0.76723571,-0.41078797,0.745064,0.75911056,-0.39048868,0.744265,0.75375458,-0.37238893,0.743538,0.77565766,-0.45505248,0.732965,0.76799564,-0.41526534,0.73313,0.76361513,-0.39877999,0.733206,0.75947663,-0.38430102,0.733273
0.73208645,-0.53485932,0.752775,0.73982294,-0.50587726,0.756668,0.72594751,-0.52761352,0.764008,0.70661031,-0.50506137,0.770524,0.68826554,-0.47317731,0.766114,0.68675334,-0.45230206,0.76709,0.74748678,-0.46947293,0.773783,0.74338544,-0.43218111,0.778015,0.7385097,-0.41535218,0.780131,0.73396828,-0.39977014,0.782054,0.75832665,-0.46461366,0.761401,0.75945102,-0.42041931,0.760694,0.75650853,-0.39583948,0.760282,0.75432346,-0.37803416,0.759987,0.76622577,-0.46332008,0.7509,0.76359856,-0.42708543,0.752096,0.7586108,-0.41104286,0.752707,0.7539001,-0.39593969,0.753264,0.77371104,-0.46703462,0.737798,0.76987654,-0.43049791,0.738034,0.76736824,-0.41396487,0.738143,0.76876273,-0.39908141,0.738238
0.72925573,-0.53799324,0.752239,0.74001575,-0.51023494,0.757096,0.71732758,-0.53670638,0.762731,0.7023912,-0.51077047,0.768281,0.68842269,-0.48099218,0.765987,0.68765728,-0.45842047,0.76912,0.7467132,-0.47112047,0.774119,0.7432234,-0.43531068,0.778309,0.74109689,-0.41735981,0.780404,0.73910409,-0.40076695,0.782308,0.75940579,-0.4717868,0.763001,0.76314334,-0.42738675,0.762899,0.76289547,-0.40368312,0.76284,0.75990521,-0.38288723,0.762798,0.76953409,-0.47391856,0.753462,0.78229354,-0.43166364,0.749526,0.77973638,-0.41744827,0.747512,0.77739638,-0.40405941,0.745682,0.77934525,-0.48182584,0.741359,0.77548338,-0.44548504,0.741773,0.77369127,-0.42863885,0.741963,0.77401465,-0.41262447,0.742131
0.72232731,-0.54972457,0.751284,0.7380414,-0.52210079,0.756185,0.71406096,-0.53859669,0.759848,0.70383039,-0.51803363,0.768514,0.68776247,-0.48447014,0.759394,0.68678105,-0.4636996,0.760283,0.7408093,-0.47718004,0.770876,0.73920993,-0.43933474,0.773478,0.73832117,-0.42036726,0.774779,0.73451092,-0.39969889,0.775962,0.7572376,-0.4786274,0.762144,0.76237387,-0.43405099,0.761383,0.7632059,-0.41132324,0.760939,0.76382497,-0.39465717,0.760622,0.76957389,-0.48268183,0.754564,0.78250757,-0.44037231,0.751043,0.78150182,-0.42803215,0.749242,0.78062116,-0.41636744,0.747604,0.78207037,-0.49302615,0.744787,0.77791887,-0.45583597,0.744098,0.77600157,-0.4386477,0.743781,0.77430563,-0.42342888,0.743502
0.72297996,-0.55957278,0.751781,0.73766895,-0.53109804,0.755575,0.71367627,-0.55182693,0.760186,0.70610226,-0.52845908,0.769218,0.69110015,-0.49476023,0.760694,0.69092494,-0.47414866,0.761952,0.73801526,-0.48569655,0.769129,0.73648915,-0.44753273,0.770886,0.73559722,-0.42841952,0.771764,0.73442053,-0.41215892,0.772563,0.75430337,-0.48630529,0.760187,0.75964587,-0.44133904,0.758312,0.75973999,-0.41878781,0.757218,0.75983026,-0.4022636,0.756437,0.76670368,-0.48975116,0.752524,0.78078512,-0.44782626,0.748685,0.77721851,-0.4387938,0.74672,0.77292488,-0.43201499,0.744935,0.77962747,-0.49953414,0.742817,0.78306854,-0.4620784,0.741098,0.78283723,-0.44856503,0.740308,0.78264591,-0.43636693,0.739611
0.72334734,-0.56872136,0.753956,0.73739937,-0.53457537,0.757164,0.7133748,-0.55551348,0.761437,0.71009146,-0.53113614,0.772356,0.70307449,-0.49968905,0.771761,0.7069153,-0.47878448,0.770284,0.73763075,-0.49110009,0.769085,0.73386164,-0.45359957,0.769714,0.73193785,-0.43450595,0.770029,0.7297885,-0.41897018,0.770315,0.75427181,-0.49306629,0.761063,0.75827173,-0.44767069,0.758319,0.75626995,-0.42804425,0.756718,0.75483088,-0.41356883,0.755575,0.76691865,-0.49759782,0.754205,0.78187115,-0.45609528,0.750178,0.77603466,-0.4489226,0.748117,0.77057833,-0.44216006,0.746244,0.77999407,-0.5086386,0.745547,0.78294125,-0.47050409,0.742997,0.78284454,-0.4549685,0.741825,0.78317419,-0.43938917,0.740791
