sluyters/QuantumLeap/backend/src/datasets/dynamic/HandGestureDataset_SHREC2017_csv/Gesture9/finger_2/subject_11_essai_1_skeletons_world.csv
Wrist_x,Wrist_y,Wrist_z,Palm_x,Palm_y,Palm_z,thumb_base_x,thumb_base_y,thumb_base_z,thumb_first_joint_x,thumb_first_joint_y,thumb_first_joint_z,thumb_second_joint_x,thumb_second_joint_y,thumb_second_joint_z,thumb_tip_x,thumb_tip_y,thumb_tip_z,index_base_x,index_base_y,index_base_z,index_first_joint_x,index_first_joint_y,index_first_joint_z,index_second_joint_x,index_second_joint_y,index_second_joint_z,index_tip_x,index_tip_y,index_tip_z,middle_base_x,middle_base_y,middle_base_z,middle_first_joint_x,middle_first_joint_y,middle_first_joint_z,middle_second_joint_x,middle_second_joint_y,middle_second_joint_z,middle_tip_x,middle_tip_y,middle_tip_z,ring_base_x,ring_base_y,ring_base_z,ring_first_joint_x,ring_first_joint_y,ring_first_joint_z,ring_second_joint_x,ring_second_joint_y,ring_second_joint_z,ring_tip_x,ring_tip_y,ring_tip_z,pinky_base_x,pinky_base_y,pinky_base_z,pinky_first_joint_x,pinky_first_joint_y,pinky_first_joint_z,pinky_second_joint_x,pinky_second_joint_y,pinky_second_joint_z,pinky_tip_x,pinky_tip_y,pinky_tip_z,
0.39556856,-0.36396444,0.516456,0.39105232,-0.32255749,0.511663,0.37522555,-0.35707345,0.516135,0.34175627,-0.33882971,0.506039,0.30722478,-0.31509827,0.490602,0.29710591,-0.29870758,0.492999,0.35592995,-0.28871908,0.508358,0.33738768,-0.24243636,0.496673,0.32828362,-0.22019538,0.490831,0.31934206,-0.20121404,0.48552,0.37939958,-0.28358747,0.507458,0.36210992,-0.23464969,0.494762,0.35313157,-0.20630231,0.487357,0.34586241,-0.1880707,0.482067,0.39998209,-0.28353954,0.507174,0.3851639,-0.2348257,0.4964,0.37792403,-0.21374453,0.490888,0.37094352,-0.19470496,0.485876,0.42521881,-0.29192368,0.507652,0.42110661,-0.24839516,0.503041,0.41868849,-0.22904357,0.500922,0.41768165,-0.216271,0.499053
0.39052393,-0.35966825,0.509001,0.38583325,-0.31737158,0.505189,0.37487532,-0.35432599,0.508056,0.33665506,-0.33225701,0.497455,0.30390088,-0.31133488,0.484955,0.29479953,-0.29706741,0.488704,0.34948244,-0.28170764,0.501678,0.3333633,-0.23914911,0.494514,0.32395462,-0.21707407,0.490931,0.3162031,-0.19744813,0.487675,0.37382005,-0.27758503,0.501848,0.35735502,-0.22892361,0.490498,0.34779009,-0.20066128,0.483878,0.34177545,-0.18204172,0.479149,0.39505113,-0.27833474,0.502351,0.38123895,-0.22907448,0.495709,0.37412427,-0.20517756,0.492311,0.36766262,-0.18348375,0.489222,0.42230297,-0.2836444,0.503582,0.41958427,-0.24615851,0.502068,0.41896286,-0.22830771,0.501372,0.41815927,-0.21441106,0.500758
0.39366721,-0.36282956,0.512583,0.38457736,-0.31739618,0.507455,0.37332728,-0.35533872,0.512346,0.3387128,-0.33446338,0.502286,0.30746522,-0.31331089,0.496805,0.29937163,-0.30485377,0.498278,0.35111549,-0.2818858,0.504071,0.33297778,-0.23832702,0.49625,0.3226373,-0.21533237,0.492339,0.31574409,-0.19700994,0.48898,0.37478582,-0.27788886,0.502976,0.35874736,-0.22927782,0.492548,0.34942321,-0.20103191,0.486465,0.34345823,-0.1822318,0.48212,0.39534927,-0.27886095,0.502565,0.38497442,-0.23458034,0.49867,0.37791378,-0.20847278,0.496677,0.37326499,-0.18747181,0.495886,0.42120858,-0.28972983,0.502952,0.42283859,-0.24980266,0.505241,0.42308778,-0.23099932,0.506293,0.4242472,-0.21768171,0.507221
0.38499631,-0.35385245,0.500144,0.37231326,-0.30057222,0.496853,0.36371571,-0.34541386,0.500046,0.32274465,-0.31698612,0.490609,0.28939499,-0.29612871,0.47769,0.27346077,-0.28097839,0.474615,0.34160893,-0.26496366,0.494754,0.32277685,-0.22277223,0.488487,0.31338997,-0.20175395,0.485354,0.30715548,-0.18919957,0.482506,0.36555279,-0.26213365,0.493984,0.35084566,-0.21523244,0.487295,0.34224952,-0.18819699,0.483393,0.33607714,-0.16874693,0.480605,0.38605533,-0.26398221,0.493666,0.37574064,-0.21963874,0.491911,0.37049678,-0.19696355,0.491014,0.36718611,-0.18044936,0.490198,0.41149909,-0.27358625,0.493851,0.41165292,-0.23585898,0.496531,0.41200174,-0.21794441,0.497762,0.41467244,-0.20568708,0.498848
0.38179979,-0.34716673,0.493032,0.37181134,-0.29764126,0.493694,0.36020681,-0.33992236,0.493615,0.32658682,-0.31450675,0.48606,0.29335519,-0.29422156,0.474045,0.27549345,-0.28066652,0.473337,0.34152281,-0.26628368,0.494841,0.32366538,-0.2238285,0.488487,0.31475437,-0.20265205,0.48531,0.30832674,-0.18984746,0.482422,0.36527677,-0.26197266,0.494269,0.35036362,-0.21501699,0.487202,0.34164455,-0.18778179,0.483079,0.33539782,-0.16824498,0.480134,0.38562816,-0.26231795,0.493735,0.37414323,-0.21685079,0.490279,0.36830071,-0.19367965,0.488511,0.36305275,-0.17313799,0.486903,0.41093369,-0.26619911,0.492999,0.41093099,-0.22957394,0.495401,0.41084861,-0.21177067,0.496505,0.41117683,-0.20024448,0.497479
0.37625108,-0.34166425,0.48852,0.36907758,-0.29537168,0.490233,0.35566196,-0.33413012,0.488934,0.31756841,-0.30916975,0.481465,0.28740892,-0.28505747,0.47073,0.27310959,-0.26921484,0.468352,0.33981489,-0.26380849,0.491788,0.3223825,-0.22183957,0.486253,0.31366812,-0.20095041,0.483485,0.30595926,-0.18441635,0.48097,0.36397193,-0.26024854,0.491718,0.34983528,-0.21386582,0.485767,0.34155725,-0.18682221,0.482296,0.33562251,-0.16740801,0.479817,0.38452131,-0.26116114,0.491496,0.37344794,-0.21613895,0.488767,0.36781156,-0.1931527,0.487371,0.36274586,-0.17254982,0.486102,0.40972471,-0.26908812,0.490947,0.40942426,-0.23137519,0.493153,0.40943862,-0.21342826,0.494167,0.40970535,-0.19870222,0.495061
0.36726746,-0.33248723,0.481151,0.36386418,-0.28902927,0.483879,0.34718404,-0.32337123,0.481023,0.30955033,-0.29431944,0.473807,0.28119465,-0.27334438,0.465977,0.26704783,-0.2554868,0.460827,0.33553527,-0.25027362,0.48534,0.31782167,-0.20900974,0.480983,0.30892939,-0.18847815,0.478805,0.30094344,-0.17106239,0.476824,0.36082679,-0.24974012,0.486246,0.35013478,-0.20279773,0.481204,0.34391961,-0.17555319,0.478263,0.33943023,-0.1560488,0.476163,0.38119911,-0.25628838,0.486729,0.3712685,-0.21202254,0.485447,0.36620773,-0.18930291,0.484791,0.3615687,-0.16862071,0.484194,0.40665093,-0.26501562,0.486831,0.40484151,-0.2260923,0.487009,0.40394215,-0.20764995,0.48709,0.40310242,-0.19242351,0.487163
0.35833422,-0.32189862,0.476743,0.35229178,-0.27252218,0.478923,0.33659438,-0.3105653,0.477755,0.30325111,-0.28266305,0.471383,0.27487348,-0.26108072,0.462798,0.26041268,-0.24208184,0.454386,0.3281834,-0.2378554,0.481526,0.31390911,-0.19542025,0.476635,0.30647195,-0.1743622,0.47419,0.29972213,-0.15876357,0.471966,0.35222072,-0.23693194,0.480815,0.34205154,-0.18995197,0.475431,0.33612828,-0.16261091,0.47229,0.33172862,-0.14306914,0.470046,0.37208296,-0.24011262,0.480021,0.36402325,-0.19540172,0.47841,0.35985194,-0.17239593,0.477586,0.35603555,-0.15132609,0.476837,0.39534561,-0.25081142,0.478724,0.39445772,-0.20978916,0.477704,0.39404952,-0.19099817,0.477235,0.39374178,-0.17428106,0.476822
0.35874665,-0.29271302,0.471662,0.35203028,-0.25255621,0.474213,0.33861368,-0.28761234,0.472484,0.3040308,-0.270026,0.4669,0.27270415,-0.25257404,0.458049,0.25762242,-0.23914976,0.453103,0.32255478,-0.22267052,0.476796,0.30875761,-0.18085631,0.472115,0.30108786,-0.16197522,0.469774,0.29389413,-0.1441621,0.467646,0.34628511,-0.21809393,0.476432,0.33325686,-0.17189219,0.47136,0.32565976,-0.14495191,0.468402,0.3199121,-0.12721363,0.466289,0.36657346,-0.21808711,0.475887,0.358177,-0.17323556,0.474634,0.35391701,-0.15050182,0.473993,0.34977865,-0.13034929,0.473411,0.3915909,-0.2248038,0.474821,0.39064447,-0.18497322,0.473606,0.39019162,-0.16632654,0.473048,0.38979162,-0.14955729,0.472555
0.35078537,-0.29684952,0.467487,0.34949896,-0.25176186,0.471326,0.33397277,-0.28580188,0.468851,0.30058629,-0.26586098,0.463181,0.27106532,-0.24302621,0.455647,0.25777056,-0.22675664,0.453406,0.32233183,-0.22132526,0.475378,0.30867917,-0.18235403,0.47207,0.30152786,-0.16426897,0.470416,0.29477738,-0.14711205,0.468912,0.34609222,-0.21763339,0.474673,0.33403611,-0.17188244,0.471016,0.32699072,-0.14512849,0.468883,0.32179667,-0.12661863,0.467359,0.36607411,-0.21831996,0.473727,0.35724905,-0.17369775,0.472705,0.35278334,-0.15089381,0.472182,0.34872985,-0.13025467,0.471707,0.39017356,-0.22574444,0.471974,0.38840105,-0.18551162,0.47094,0.38757862,-0.16691375,0.470464,0.38710958,-0.15040738,0.470045
0.34927291,-0.28846092,0.464417,0.34644397,-0.24917153,0.468743,0.32929069,-0.2819897,0.46487,0.29389465,-0.25536631,0.458352,0.26804298,-0.2357702,0.454135,0.25610119,-0.22158609,0.450232,0.31945133,-0.21671546,0.471917,0.30445425,-0.17325026,0.468724,0.29739989,-0.15276309,0.467128,0.29085996,-0.1337567,0.465677,0.34403585,-0.21530357,0.472515,0.33240953,-0.16977183,0.469208,0.32561287,-0.14313767,0.467279,0.32063782,-0.12442713,0.465901,0.36473066,-0.21681495,0.472595,0.35622745,-0.17235877,0.471742,0.35192478,-0.14955721,0.471306,0.34813545,-0.12891995,0.47091,0.38957576,-0.22518629,0.471958,0.38719636,-0.18433733,0.469894,0.38613628,-0.16549032,0.468946,0.38545756,-0.14889308,0.468109
0.34897545,-0.28367571,0.462939,0.34691049,-0.23196293,0.466029,0.32902312,-0.27300398,0.464914,0.30014762,-0.24590606,0.459736,0.27163762,-0.22614665,0.452226,0.25556798,-0.2126788,0.447248,0.32006409,-0.20169938,0.470419,0.3039431,-0.16174074,0.466654,0.29510193,-0.14299739,0.464771,0.28801273,-0.12917327,0.46306,0.34302499,-0.19736684,0.468722,0.32825082,-0.15208512,0.464467,0.31943806,-0.12548502,0.461984,0.31287913,-0.10648768,0.460211,0.36240898,-0.19757367,0.46703,0.35202116,-0.15385668,0.465801,0.34661945,-0.13130003,0.465172,0.34146739,-0.11036874,0.4646,0.38590549,-0.20452651,0.464532,0.38527355,-0.16595434,0.466688,0.38495553,-0.14787085,0.467679,0.38463915,-0.13145552,0.468553
0.34608583,-0.26877662,0.463243,0.33922544,-0.22460522,0.465564,0.32692603,-0.26236807,0.464461,0.29004561,-0.23608181,0.458691,0.26183118,-0.21556324,0.450793,0.24894341,-0.20040309,0.449866,0.31471091,-0.19188607,0.468518,0.29773886,-0.1504169,0.463867,0.28892144,-0.12954484,0.461541,0.28079105,-0.11025487,0.459427,0.33814269,-0.18963065,0.467585,0.32568696,-0.14335464,0.462422,0.31809567,-0.11613171,0.45941,0.31262497,-0.096453106,0.457259,0.3577328,-0.19158844,0.466594,0.34601341,-0.14696294,0.463834,0.33974759,-0.12381435,0.462422,0.33646579,-0.10604636,0.461138,0.38110459,-0.20072517,0.465045,0.38413977,-0.16475464,0.467243,0.38417545,-0.14654521,0.468253,0.38407508,-0.13013512,0.469144
0.34471791,-0.26631068,0.465384,0.3383912,-0.22096076,0.465962,0.32151457,-0.25503958,0.466205,0.28885185,-0.22904846,0.459885,0.25888947,-0.20761037,0.449058,0.24739822,-0.19627148,0.44884,0.3123594,-0.18224056,0.467364,0.29541381,-0.13978667,0.46104,0.28646177,-0.11860107,0.457878,0.27820896,-0.099007428,0.455003,0.33589688,-0.18074678,0.466467,0.32466262,-0.13419616,0.460339,0.31714012,-0.10698591,0.456764,0.31111326,-0.091499474,0.45421,0.3556121,-0.18349381,0.465674,0.34412934,-0.13675333,0.458726,0.3377424,-0.11285014,0.455172,0.33188223,-0.090789768,0.451941,0.37914091,-0.19382745,0.46465,0.38045788,-0.15577987,0.46565,0.38061869,-0.13706164,0.46611,0.38079355,-0.12409339,0.466516
0.34316952,-0.25819689,0.464577,0.34084666,-0.20890063,0.465173,0.32329084,-0.25111975,0.464772,0.29390202,-0.22317518,0.456707,0.26470019,-0.2040077,0.449215,0.24808032,-0.19021695,0.447241,0.31025936,-0.18010981,0.46578,0.29448443,-0.13754505,0.459175,0.28616762,-0.1174702,0.455873,0.27787121,-0.10204985,0.45287,0.33312717,-0.17377863,0.465694,0.31911474,-0.12688169,0.458574,0.31073955,-0.099363776,0.454421,0.30725422,-0.083018703,0.451454,0.35374828,-0.17358443,0.465567,0.34196132,-0.12703029,0.459142,0.33589836,-0.10296233,0.455854,0.33031261,-0.080603214,0.452866,0.37954938,-0.18009226,0.465318,0.37721548,-0.14044359,0.462855,0.37634975,-0.12140685,0.461723,0.37558793,-0.10415695,0.460725
0.34079029,-0.25559823,0.464167,0.33657069,-0.20766402,0.464749,0.32065158,-0.24483064,0.464165,0.28508473,-0.21886192,0.460919,0.25756288,-0.19639898,0.448627,0.24326902,-0.17835908,0.443314,0.3063615,-0.17115334,0.465097,0.29070614,-0.12818891,0.458429,0.28287465,-0.106693,0.455095,0.27621739,-0.094870562,0.452065,0.33187153,-0.17189828,0.46526,0.31879403,-0.12480612,0.458112,0.31103836,-0.097178408,0.453942,0.30546186,-0.07724194,0.450964,0.35250862,-0.17340738,0.465338,0.34207955,-0.12757152,0.459644,0.33670855,-0.10374885,0.456731,0.33175511,-0.081582992,0.454083,0.37773192,-0.18206212,0.465332,0.37715904,-0.14221551,0.46385,0.37699257,-0.12354843,0.463169,0.37693397,-0.10644723,0.462568
0.33881875,-0.24975766,0.464072,0.33231627,-0.20365746,0.464628,0.31467686,-0.23729901,0.464392,0.28280402,-0.21079063,0.457516,0.25366509,-0.18763768,0.444501,0.24097079,-0.17376934,0.440644,0.30689523,-0.16571148,0.465374,0.29282321,-0.12241049,0.458796,0.28573092,-0.10052314,0.455507,0.27835236,-0.081505081,0.452516,0.33087231,-0.16440449,0.465115,0.31851632,-0.11724823,0.458003,0.31112304,-0.089621486,0.453854,0.30616759,-0.072496387,0.450891,0.35097204,-0.16725716,0.464849,0.342527,-0.12432519,0.459007,0.33716639,-0.10044175,0.456017,0.33206089,-0.079549265,0.4533,0.37634889,-0.18037241,0.464446,0.37669384,-0.14041054,0.462931,0.37750981,-0.12018431,0.462236,0.37703465,-0.10471676,0.461622
0.33978458,-0.24389388,0.464657,0.33431174,-0.19197875,0.464201,0.31689438,-0.23419947,0.464999,0.28742609,-0.206908,0.458894,0.25510773,-0.18704635,0.445957,0.24113521,-0.17078834,0.442977,0.30526065,-0.15874532,0.464367,0.28951215,-0.11543323,0.456838,0.28288389,-0.096730547,0.453074,0.27425438,-0.073238954,0.449652,0.32896037,-0.15539888,0.463802,0.31437048,-0.10803942,0.455645,0.3056701,-0.080174681,0.450887,0.30148749,-0.06472924,0.447488,0.34921712,-0.15658851,0.46338,0.3387661,-0.11037251,0.456748,0.33292508,-0.08632993,0.453355,0.3275589,-0.064077851,0.450271,0.37415335,-0.1650563,0.462964,0.37362096,-0.12664705,0.462161,0.37310326,-0.10755233,0.461793,0.37252885,-0.090522576,0.461467
0.33824532,-0.24082511,0.467962,0.3344834,-0.19136228,0.466282,0.31906495,-0.2298121,0.468308,0.28738839,-0.20157115,0.461589,0.25758283,-0.17911256,0.448438,0.24294971,-0.16123352,0.442897,0.30662092,-0.15333325,0.465711,0.28918758,-0.10997797,0.457215,0.28041387,-0.088102983,0.452968,0.272716,-0.071301051,0.449106,0.32994615,-0.15389881,0.464803,0.31546109,-0.10619283,0.455528,0.3068276,-0.078263332,0.450117,0.30064329,-0.058218164,0.446252,0.3499841,-0.15599626,0.464216,0.33862504,-0.10958212,0.457638,0.33251265,-0.085591712,0.454273,0.32692175,-0.063567637,0.451213,0.37445593,-0.16568786,0.463812,0.37334218,-0.12595063,0.461606,0.37269163,-0.10710318,0.460592,0.37170406,-0.091264087,0.459698
0.3366438,-0.23513569,0.466866,0.33326993,-0.18964881,0.46581,0.31734998,-0.22718823,0.467329,0.28414625,-0.19819834,0.459135,0.2541191,-0.17353689,0.449591,0.24135623,-0.15818379,0.443273,0.30644921,-0.15187443,0.465766,0.28940518,-0.10865996,0.457915,0.28081469,-0.086819372,0.453989,0.27251409,-0.067478439,0.450421,0.33012341,-0.15076184,0.464881,0.31734646,-0.10312022,0.456216,0.30979555,-0.07530462,0.451162,0.30546086,-0.055601504,0.449115,0.34994394,-0.15488742,0.464253,0.33834497,-0.10884196,0.458282,0.33106271,-0.084107951,0.455228,0.32642464,-0.062982129,0.452451,0.37407588,-0.16495808,0.463697,0.37271956,-0.12476289,0.461412,0.37200228,-0.10593514,0.460363,0.37106707,-0.089678851,0.459436
0.33427702,-0.2325558,0.465615,0.32881185,-0.18408996,0.464854,0.31245967,-0.2194868,0.465536,0.27754073,-0.19161531,0.459042,0.25144533,-0.17047286,0.447777,0.23822573,-0.15276608,0.443765,0.30066984,-0.14445096,0.464293,0.28475246,-0.1014791,0.456458,0.27689125,-0.079534722,0.452541,0.27076597,-0.062224915,0.44898,0.32743512,-0.14690062,0.464185,0.31715958,-0.099596319,0.457559,0.31116196,-0.071977789,0.453693,0.30689221,-0.052113145,0.450932,0.34776304,-0.15066336,0.464169,0.33594394,-0.10475565,0.458266,0.33000532,-0.080790085,0.455245,0.32519258,-0.06014434,0.4525,0.3718777,-0.16220411,0.464279,0.37124957,-0.12173396,0.463032,0.3709952,-0.10315377,0.462459,0.37095048,-0.086140563,0.461954
0.33274968,-0.23087256,0.464848,0.32787419,-0.18323392,0.464482,0.31086286,-0.21805382,0.46454,0.2774313,-0.19153975,0.458861,0.25066843,-0.16952988,0.447374,0.23770595,-0.15197029,0.443793,0.30039397,-0.14431842,0.463867,0.28462083,-0.10143219,0.456247,0.27682762,-0.079516443,0.452437,0.27039754,-0.061248641,0.448974,0.32673509,-0.14612049,0.464161,0.31676429,-0.098811769,0.457645,0.31094735,-0.071209534,0.453844,0.30681223,-0.051321895,0.451129,0.34730307,-0.15009823,0.464437,0.33550101,-0.10394061,0.458064,0.32968101,-0.079849739,0.454803,0.32475571,-0.058978274,0.451838,0.37161835,-0.1618691,0.464822,0.37136517,-0.12158479,0.463934,0.37129346,-0.1030573,0.463525,0.37149058,-0.086043099,0.463165
0.33487111,-0.22799943,0.467493,0.32910185,-0.18060289,0.466217,0.31317857,-0.21757214,0.466726,0.28251068,-0.1885072,0.45743,0.25135704,-0.16934748,0.447897,0.23790913,-0.15203861,0.444239,0.30131752,-0.14381244,0.464461,0.28419286,-0.10077063,0.455928,0.27566194,-0.078884294,0.451661,0.26866402,-0.060301111,0.447783,0.3270114,-0.14027822,0.465095,0.31230722,-0.093423043,0.457812,0.3036896,-0.065905382,0.453563,0.3031154,-0.04844876,0.450528,0.3479845,-0.14240398,0.465739,0.33149885,-0.095378785,0.456668,0.3231254,-0.071217857,0.452028,0.31986982,-0.053247536,0.447809,0.37370981,-0.15193406,0.466705,0.37223775,-0.1125235,0.466681,0.37158153,-0.093823301,0.46667,0.37100732,-0.077032951,0.466661
0.33364177,-0.22351775,0.465594,0.33152174,-0.17452295,0.465326,0.31321592,-0.21519345,0.464774,0.28262736,-0.18674576,0.45533,0.25159817,-0.16757932,0.44751,0.23833403,-0.15141844,0.443931,0.30045754,-0.14347896,0.464111,0.28432682,-0.10049608,0.456596,0.27624707,-0.078595679,0.452838,0.26949077,-0.059780697,0.449422,0.32509121,-0.13924327,0.46509,0.30990178,-0.092259911,0.457058,0.30103063,-0.064802283,0.452373,0.29455881,-0.044869297,0.449027,0.34629626,-0.14025857,0.465921,0.33055432,-0.091842559,0.457948,0.32364554,-0.067681025,0.453868,0.31728103,-0.047368562,0.45016,0.37134265,-0.14440285,0.466938,0.36924085,-0.10510176,0.466031,0.36838655,-0.086138425,0.465615,0.368845,-0.072816712,0.465248
0.33173383,-0.2211745,0.463919,0.32861866,-0.17278136,0.464242,0.31087489,-0.21134489,0.463042,0.27462699,-0.1812004,0.456507,0.24638102,-0.16024617,0.448048,0.23205658,-0.14302981,0.443833,0.29640826,-0.13495987,0.463311,0.28062768,-0.091575399,0.456156,0.27266645,-0.06962104,0.452579,0.26538514,-0.049503309,0.449326,0.32221265,-0.13588015,0.464526,0.30820108,-0.089138306,0.456962,0.29988129,-0.061547753,0.45255,0.2947726,-0.042909593,0.449399,0.34352634,-0.13726378,0.465496,0.33041023,-0.091043799,0.458013,0.32379345,-0.066827534,0.454184,0.3177464,-0.044451326,0.450704,0.36978279,-0.14564109,0.466575,0.36828714,-0.10723184,0.466187,0.36883088,-0.090056735,0.466009,0.36833457,-0.072947707,0.465851
0.32991768,-0.21974798,0.462932,0.32245379,-0.17061331,0.463539,0.30912254,-0.20997429,0.46222,0.27194983,-0.18016061,0.455017,0.244642,-0.15933808,0.447979,0.23186566,-0.14350555,0.446141,0.29557296,-0.13520184,0.462994,0.28029373,-0.091828479,0.456127,0.27258427,-0.069875742,0.452694,0.26667144,-0.052110954,0.449573,0.32132354,-0.13561265,0.464075,0.30850475,-0.088955992,0.456831,0.30140876,-0.062390251,0.452605,0.29567862,-0.042272511,0.449586,0.34245238,-0.13773906,0.464907,0.33032824,-0.092382425,0.457635,0.32327256,-0.067045047,0.453914,0.31738942,-0.044661624,0.450532,0.3670025,-0.14851957,0.465777,0.36572955,-0.10950404,0.46496,0.36680746,-0.091450808,0.464585,0.36648095,-0.072909582,0.464254
0.32933678,-0.21907433,0.462864,0.3219809,-0.17112106,0.463462,0.30847998,-0.20943327,0.462135,0.27299447,-0.18066536,0.455723,0.24599079,-0.15893067,0.448038,0.23422208,-0.14078257,0.44259,0.29445496,-0.13570045,0.462891,0.27938903,-0.09247148,0.456044,0.271812,-0.070682338,0.452621,0.26602477,-0.053350446,0.449509,0.32037362,-0.13554727,0.463991,0.30753717,-0.088851154,0.456763,0.29993098,-0.061124761,0.452547,0.29490685,-0.041905448,0.449535,0.34154387,-0.13785078,0.46484,0.32915171,-0.091557026,0.457765,0.32295584,-0.067276611,0.454145,0.31728752,-0.044878883,0.450855,0.36615845,-0.14851481,0.465731,0.36386727,-0.10869839,0.463859,0.36291027,-0.089610993,0.462998,0.36297243,-0.071332802,0.462239
0.32882544,-0.21850442,0.462744,0.32170598,-0.1713543,0.463368,0.3079537,-0.20899452,0.462029,0.27349858,-0.18090577,0.456046,0.24673427,-0.1587725,0.448195,0.23482335,-0.13996184,0.441949,0.29388951,-0.13594838,0.462832,0.27895348,-0.092797203,0.456028,0.27145274,-0.071089913,0.452626,0.26563383,-0.05317562,0.449533,0.31978909,-0.13550226,0.463921,0.30696345,-0.088790429,0.456734,0.2993916,-0.061046321,0.452541,0.29442177,-0.041664627,0.449547,0.34096838,-0.13790579,0.464759,0.32874639,-0.091676058,0.457745,0.32267564,-0.067396848,0.454157,0.31711804,-0.044993982,0.450895,0.36567821,-0.14848851,0.465633,0.36304815,-0.1083289,0.463452,0.3619371,-0.089229689,0.46245,0.36181943,-0.071223124,0.461566
0.32743413,-0.21600137,0.461959,0.32070207,-0.17022311,0.462466,0.30685724,-0.2068941,0.461543,0.27328577,-0.18033804,0.456033,0.24636598,-0.15834939,0.448221,0.23368073,-0.14092138,0.444228,0.29283229,-0.13513571,0.462242,0.27808631,-0.092049122,0.455507,0.27068832,-0.070403739,0.45214,0.26492841,-0.052704177,0.449078,0.31629724,-0.13356533,0.462915,0.30451257,-0.086781918,0.45573,0.29692744,-0.058962563,0.451538,0.29265874,-0.039891707,0.448544,0.33728896,-0.13609797,0.463421,0.32556435,-0.089997331,0.456667,0.31764578,-0.061999641,0.453211,0.31580774,-0.044029613,0.45007,0.36149591,-0.14211412,0.463928,0.3573192,-0.10078834,0.461007,0.35540216,-0.081841842,0.459665,0.3558572,-0.068794359,0.458481
0.32667288,-0.21404499,0.461707,0.3203047,-0.16961416,0.462256,0.30641705,-0.20625853,0.461405,0.27299325,-0.17986013,0.455773,0.2460164,-0.15800043,0.448049,0.23342661,-0.14087998,0.44463,0.29235292,-0.13469817,0.462204,0.2777386,-0.091627178,0.455536,0.27041115,-0.070007494,0.452203,0.26465543,-0.052400998,0.449172,0.31585531,-0.1327437,0.462743,0.30398767,-0.086116754,0.455614,0.29643296,-0.058279124,0.451455,0.2921481,-0.039295768,0.448484,0.33676312,-0.1351506,0.463135,0.32501097,-0.088981467,0.456488,0.31755957,-0.061982815,0.453088,0.31523331,-0.043391073,0.449996,0.36116319,-0.14198332,0.463501,0.35705955,-0.1007151,0.460672,0.35517639,-0.081789852,0.459373,0.3551313,-0.067791278,0.458226
0.32509916,-0.21118721,0.462747,0.31744242,-0.16454672,0.461723,0.30282322,-0.20197167,0.461387,0.2651229,-0.17096369,0.453352,0.23575612,-0.14955891,0.443051,0.22969462,-0.13996334,0.446033,0.28583642,-0.12391319,0.459356,0.26956665,-0.080267209,0.450895,0.26126024,-0.058138082,0.446664,0.25362971,-0.037726746,0.442818,0.31121168,-0.12280727,0.460814,0.2970467,-0.075611138,0.451884,0.29057153,-0.052554043,0.446675,0.28464773,-0.032668551,0.442955,0.33265288,-0.12583669,0.462111,0.31951229,-0.078484162,0.453291,0.3139767,-0.058913954,0.448778,0.31020713,-0.040455204,0.444676,0.35866739,-0.13646107,0.463798,0.35646058,-0.09930021,0.460765,0.35467401,-0.080200877,0.459371,0.35311642,-0.063160104,0.458141
0.32459414,-0.21032373,0.462955,0.31677712,-0.16341396,0.461654,0.30236176,-0.20104135,0.461548,0.26496675,-0.17086301,0.453085,0.23552837,-0.14941444,0.442623,0.22836335,-0.13890598,0.445407,0.28565099,-0.1238328,0.459058,0.26923305,-0.080167875,0.450337,0.26085782,-0.058048531,0.445976,0.25316806,-0.037658077,0.442012,0.31099827,-0.12272306,0.460498,0.29664571,-0.07550907,0.451274,0.28957279,-0.051238068,0.445893,0.2835291,-0.031297638,0.442049,0.33243405,-0.12575391,0.461807,0.31909501,-0.078381661,0.452699,0.31317656,-0.057568147,0.448039,0.30913585,-0.039145903,0.443803,0.3584787,-0.13638927,0.463554,0.35606977,-0.098569404,0.460692,0.35442827,-0.079407703,0.459377,0.35299176,-0.062307407,0.458216
0.32614448,-0.2103085,0.467092,0.31598106,-0.16048078,0.463899,0.30462011,-0.20185843,0.465316,0.26602779,-0.1714571,0.453964,0.23652161,-0.15064065,0.444208,0.2272068,-0.13827637,0.444408,0.28459941,-0.12493503,0.459676,0.26762638,-0.081197931,0.449442,0.25896989,-0.059091798,0.444326,0.25441077,-0.043860755,0.439674,0.30971888,-0.1229975,0.461062,0.29469642,-0.075377704,0.450159,0.28569347,-0.047426569,0.443799,0.28085048,-0.030379044,0.439255,0.32786509,-0.12412901,0.462504,0.3168924,-0.077604393,0.451664,0.30957912,-0.053323649,0.446118,0.3030598,-0.031975665,0.441076,0.35494323,-0.13204355,0.464725,0.34764037,-0.089813921,0.459417,0.3442801,-0.070345388,0.456978,0.34131256,-0.053132616,0.454826
0.32651134,-0.20978837,0.467788,0.31595217,-0.16039439,0.464202,0.30494356,-0.20152439,0.466067,0.26664668,-0.171811,0.454553,0.23684827,-0.15114615,0.444681,0.22645253,-0.1378704,0.443835,0.28396862,-0.12543571,0.459809,0.26695442,-0.081751095,0.449213,0.25826776,-0.059667726,0.443915,0.25336503,-0.04345208,0.439099,0.3088634,-0.1230469,0.461016,0.29379232,-0.075329401,0.449706,0.28472741,-0.047410981,0.443109,0.27970929,-0.029838385,0.438396,0.32775379,-0.12408687,0.462347,0.31575522,-0.077207131,0.451094,0.30833283,-0.053118604,0.445337,0.30170762,-0.032203221,0.440103,0.35477368,-0.13198047,0.464503,0.34748525,-0.089773844,0.459212,0.34413244,-0.070315217,0.456782,0.34117073,-0.053110537,0.454637
0.32554544,-0.20809306,0.466232,0.31712943,-0.16240874,0.463481,0.3042913,-0.20041759,0.465102,0.27084909,-0.17682605,0.454503,0.24169925,-0.15447084,0.446003,0.22666986,-0.13794913,0.443785,0.28517814,-0.12980175,0.460355,0.2691257,-0.086403467,0.45056,0.25826307,-0.063008307,0.445663,0.25569178,-0.047341867,0.441211,0.30868412,-0.12366642,0.461035,0.294077,-0.076064244,0.450552,0.28665146,-0.050076405,0.444436,0.28153699,-0.032183502,0.440068,0.32973795,-0.12502368,0.461853,0.31545448,-0.077596047,0.451409,0.30630196,-0.05379085,0.446066,0.30289424,-0.03439583,0.441209,0.35602661,-0.13352411,0.463269,0.35101104,-0.093141105,0.459705,0.34878255,-0.073980613,0.458068,0.35067394,-0.061385556,0.456624
0.32499093,-0.2073362,0.4661,0.31643882,-0.16261363,0.463276,0.30361851,-0.19976668,0.464906,0.26596794,-0.17208056,0.454211,0.23631408,-0.15108509,0.444292,0.22528442,-0.13667852,0.442641,0.28229117,-0.1285355,0.460022,0.26864383,-0.084640023,0.450122,0.25895525,-0.061267507,0.445172,0.25395231,-0.044676676,0.440672,0.30666995,-0.12497838,0.460764,0.29232212,-0.077235378,0.450136,0.28370584,-0.051266857,0.443937,0.27967009,-0.030152538,0.439509,0.3282217,-0.12775902,0.46164,0.31324575,-0.078731891,0.451068,0.30607433,-0.055526888,0.445659,0.30163294,-0.036208298,0.440742,0.35665056,-0.13734581,0.463136,0.34771544,-0.097990335,0.4587,0.34625408,-0.076681201,0.456663,0.34828992,-0.061094319,0.454865
0.32491638,-0.20706016,0.467051,0.3164346,-0.16321109,0.463917,0.30311144,-0.19930575,0.46529,0.26557231,-0.17246458,0.45384,0.23862816,-0.15259211,0.444752,0.22507092,-0.13657297,0.442494,0.28194227,-0.12906344,0.459749,0.26793958,-0.086201435,0.449439,0.25811233,-0.063519887,0.444284,0.25256383,-0.045509361,0.439598,0.30695432,-0.12770988,0.461129,0.29510165,-0.080888975,0.45017,0.28648687,-0.053119825,0.443776,0.28014048,-0.031420766,0.43921,0.32844528,-0.12913174,0.46256,0.3155645,-0.080730548,0.451598,0.30735155,-0.061831087,0.44599,0.30074394,-0.03699494,0.440891,0.35697463,-0.13854385,0.464756,0.34513969,-0.097646381,0.456665,0.34094778,-0.077869886,0.452947,0.33864551,-0.05980266,0.449667
0.32561974,-0.21209163,0.473462,0.30929756,-0.17548024,0.468254,0.29743998,-0.20405292,0.468941,0.26035746,-0.18082011,0.458391,0.23630193,-0.15313552,0.445641,0.22463274,-0.13667372,0.442406,0.2811853,-0.13162909,0.459285,0.26472065,-0.088229715,0.446215,0.25657968,-0.067819092,0.439679,0.24877089,-0.053954597,0.433738,0.30632762,-0.13684214,0.463622,0.29246909,-0.0885222,0.450078,0.28395268,-0.062701053,0.442176,0.2777705,-0.045236628,0.436533,0.32910205,-0.14234499,0.467682,0.31368335,-0.093900877,0.453854,0.30582748,-0.070142501,0.44678,0.30016768,-0.043115603,0.440348,0.35686792,-0.15624002,0.473299,0.34659278,-0.11259677,0.46215,0.34196053,-0.092611906,0.457028,0.33804418,-0.076458026,0.452508
0.32850099,-0.21719073,0.481589,0.31184018,-0.17912363,0.472643,0.29969947,-0.20887736,0.474967,0.26374223,-0.18482256,0.462978,0.2367021,-0.1598989,0.450953,0.22499967,-0.13760433,0.444502,0.27809743,-0.13729762,0.4587,0.25838221,-0.097546927,0.44134,0.2492162,-0.080957144,0.432661,0.24080312,-0.066093871,0.42477,0.30590144,-0.13915603,0.464686,0.28886944,-0.090157587,0.447263,0.27724923,-0.072292937,0.437099,0.2702546,-0.058932967,0.42984,0.3299356,-0.14489377,0.470454,0.31062633,-0.095533499,0.452202,0.29948434,-0.077828069,0.442863,0.29096907,-0.059265979,0.434374,0.3599368,-0.15935847,0.478694,0.34659055,-0.11396233,0.462848,0.34060254,-0.093789237,0.455567,0.33552116,-0.078156249,0.449143
0.32107652,-0.23243927,0.487406,0.31200162,-0.1935642,0.477343,0.2979776,-0.22043632,0.482176,0.26800365,-0.19669556,0.470334,0.24184657,-0.16589866,0.456313,0.22843469,-0.14309684,0.449263,0.27986438,-0.15177126,0.464501,0.26213218,-0.10652693,0.446831,0.25298405,-0.095171021,0.437996,0.24448563,-0.084423239,0.429964,0.30627101,-0.15329342,0.468393,0.28880302,-0.10402331,0.450059,0.27825344,-0.087654863,0.439364,0.27056482,-0.075384978,0.431725,0.32904283,-0.15875546,0.472542,0.30981467,-0.10908499,0.453677,0.30020621,-0.089632795,0.444025,0.29135752,-0.071311002,0.435251,0.35750336,-0.17289009,0.479075,0.34525821,-0.12672491,0.461972,0.33940794,-0.10676229,0.454113,0.33400911,-0.092004499,0.44718
0.32273242,-0.23710031,0.49088,0.3133417,-0.1961254,0.479297,0.29879322,-0.22781293,0.485132,0.26962884,-0.19960455,0.472979,0.24418877,-0.1701755,0.45759,0.23310102,-0.15014158,0.451763,0.28018634,-0.15366137,0.464862,0.26168831,-0.10812973,0.445875,0.25217936,-0.096711798,0.436382,0.24336567,-0.085941231,0.427751,0.30672505,-0.15528134,0.468994,0.28810469,-0.10604145,0.449143,0.27728878,-0.097297286,0.437563,0.26963334,-0.090472714,0.429292,0.32972262,-0.16087635,0.473483,0.30946595,-0.11080965,0.453114,0.29957856,-0.095153787,0.442692,0.29058229,-0.079957648,0.433218,0.35867173,-0.17528069,0.480667,0.34557423,-0.12870708,0.462422,0.33933227,-0.10864376,0.454039,0.33358705,-0.093843578,0.446642
0.32810474,-0.24471913,0.495081,0.32557981,-0.20437951,0.484018,0.30395787,-0.23600293,0.488787,0.28065135,-0.21017879,0.475438,0.25208502,-0.18215496,0.459734,0.24004565,-0.16222163,0.453542,0.28807392,-0.16305276,0.469204,0.261691,-0.11861833,0.449822,0.25496424,-0.10803425,0.440132,0.24934272,-0.099352734,0.431322,0.31538893,-0.16372345,0.474179,0.29680238,-0.11504593,0.454756,0.29046081,-0.10208395,0.443426,0.28697438,-0.097890867,0.435333,0.33650871,-0.1665992,0.479315,0.32948872,-0.11895535,0.460752,0.32533932,-0.10767989,0.451256,0.32159738,-0.098805298,0.442622,0.36940511,-0.18172692,0.487167,0.35251765,-0.13422102,0.468579,0.34988611,-0.12039918,0.460039,0.34612065,-0.10991487,0.452503
0.32904821,-0.25083922,0.494419,0.32470923,-0.20768819,0.483689,0.30712488,-0.24109196,0.488798,0.28038914,-0.2130465,0.476577,0.2527474,-0.18441847,0.461082,0.24051704,-0.16427298,0.454546,0.28923988,-0.16921576,0.469939,0.26314453,-0.12490764,0.451136,0.25512223,-0.1095054,0.441734,0.2490535,-0.10012364,0.433187,0.3161054,-0.17064438,0.474145,0.29912329,-0.12221439,0.455123,0.29241788,-0.11201719,0.444026,0.28817583,-0.10856933,0.4361,0.33930498,-0.17601738,0.478616,0.33141978,-0.12660623,0.460393,0.32625119,-0.11744297,0.45107,0.32162057,-0.10887929,0.442595,0.36851673,-0.18996253,0.485635,0.34546869,-0.14589775,0.466206,0.33741837,-0.13028623,0.45728,0.33027771,-0.11618426,0.449403
0.33204145,-0.25473614,0.497636,0.32551076,-0.21466548,0.487652,0.31170461,-0.24768084,0.491186,0.27966578,-0.22203369,0.477185,0.25116526,-0.19384621,0.460611,0.23744062,-0.17331928,0.452633,0.28737794,-0.17657991,0.473296,0.26760986,-0.13202511,0.455045,0.25967137,-0.12626415,0.44592,0.25233877,-0.12088697,0.437624,0.31467413,-0.17659995,0.478772,0.29345022,-0.1276233,0.460365,0.28549747,-0.12410853,0.449628,0.27977157,-0.12157599,0.441958,0.34095789,-0.17940476,0.484217,0.31769261,-0.13088599,0.464881,0.31038055,-0.12578977,0.454989,0.30370503,-0.1210421,0.445995,0.37148214,-0.19284978,0.492252,0.34530029,-0.1472236,0.473087,0.33850051,-0.13920306,0.464281,0.33248766,-0.13194139,0.456511
0.33976542,-0.26461289,0.500792,0.32867607,-0.22732287,0.489849,0.31363184,-0.25594045,0.493432,0.28610245,-0.23383513,0.479428,0.25703086,-0.20547381,0.462748,0.24313591,-0.1857607,0.456015,0.28843926,-0.18719467,0.473742,0.26573295,-0.14236563,0.454242,0.25873996,-0.13768482,0.444492,0.25255177,-0.13415479,0.435628,0.31633742,-0.18674831,0.480116,0.29291189,-0.13753538,0.460699,0.28582617,-0.13389477,0.449373,0.28076873,-0.13128399,0.441282,0.34108955,-0.19054844,0.486391,0.31639772,-0.14061192,0.465555,0.30981919,-0.13567161,0.454895,0.30386943,-0.13110099,0.445204,0.37325039,-0.20270222,0.495557,0.34816273,-0.15624469,0.475346,0.3409121,-0.14571753,0.46606,0.33398846,-0.1342645,0.457867
0.34289179,-0.28137589,0.500673,0.32892211,-0.24019104,0.490809,0.31766365,-0.27144226,0.494691,0.28605172,-0.24663335,0.481585,0.25953308,-0.21664676,0.463508,0.24584114,-0.19623169,0.456203,0.29018468,-0.20213465,0.477128,0.27715331,-0.15585707,0.459911,0.26877496,-0.15030646,0.451302,0.25908991,-0.1409259,0.443476,0.31690787,-0.20064103,0.482037,0.29756526,-0.15233647,0.463799,0.28810621,-0.14411199,0.45316,0.28236821,-0.13528194,0.44556,0.34062203,-0.20344199,0.487005,0.31962956,-0.15382952,0.467775,0.31175858,-0.14696938,0.457936,0.3049636,-0.14293526,0.448991,0.37153219,-0.21417407,0.494462,0.34937357,-0.16767841,0.475557,0.34155352,-0.1564033,0.466871,0.33483361,-0.14723155,0.459207
0.33765935,-0.29269014,0.49758,0.32686246,-0.25331506,0.490077,0.31251714,-0.28151709,0.491038,0.28304181,-0.25411278,0.479551,0.25820437,-0.22336551,0.464955,0.24684942,-0.20068703,0.459195,0.292407,-0.21307971,0.477118,0.27673803,-0.16808421,0.461074,0.26982846,-0.16092479,0.453052,0.26344608,-0.15421234,0.445759,0.32024796,-0.21475342,0.483403,0.30272571,-0.16652787,0.467392,0.29266596,-0.14748043,0.458052,0.28730834,-0.14381481,0.451381,0.34439391,-0.22010223,0.489282,0.32756227,-0.17039595,0.471786,0.32064629,-0.1589168,0.462834,0.31159645,-0.1464126,0.454697,0.37488362,-0.23374646,0.497411,0.35723954,-0.18667817,0.480134,0.35115369,-0.17559599,0.472195,0.34577845,-0.16554502,0.465191
0.34172462,-0.30578022,0.501274,0.33332986,-0.26197487,0.492055,0.31657882,-0.29419044,0.494877,0.29120734,-0.26694724,0.480731,0.26280682,-0.23630289,0.461979,0.24996465,-0.2150901,0.453902,0.29468371,-0.22183379,0.478234,0.27324416,-0.17613253,0.460673,0.26809587,-0.16818752,0.451892,0.26288877,-0.15718824,0.44391,0.32208468,-0.22197074,0.483856,0.30268971,-0.17391557,0.466192,0.29632292,-0.15979704,0.455888,0.29387653,-0.15806548,0.448528,0.34609173,-0.22619622,0.48935,0.32633335,-0.18168507,0.47036,0.32080455,-0.16918892,0.460644,0.31728084,-0.1618656,0.451812,0.37587693,-0.2361952,0.497314,0.35814245,-0.19575916,0.478754,0.35114923,-0.18004327,0.470227,0.34444309,-0.16526595,0.462703
0.35520521,-0.31858828,0.50931,0.33960769,-0.27325228,0.496998,0.32784217,-0.30707152,0.500838,0.29718358,-0.28014432,0.484905,0.26869347,-0.25021603,0.466328,0.25358725,-0.23075102,0.459616,0.29532192,-0.23269652,0.478631,0.27672964,-0.18761221,0.458271,0.27064281,-0.1793965,0.448091,0.26511204,-0.17176966,0.438837,0.32352293,-0.23209018,0.486048,0.30389532,-0.18214382,0.465235,0.29776232,-0.1746675,0.453094,0.29344801,-0.16922691,0.444422,0.34880763,-0.23577602,0.49331,0.3266064,-0.19208695,0.470688,0.31970483,-0.17904202,0.459114,0.31509499,-0.17124929,0.448592,0.38225305,-0.24778709,0.503859,0.36212083,-0.20539954,0.48225,0.35400581,-0.18923064,0.472322,0.34721967,-0.17607032,0.463562
0.35297726,-0.31858848,0.504495,0.34279097,-0.27804015,0.501051,0.3275037,-0.30879823,0.498624,0.29245662,-0.28664555,0.483416,0.27003178,-0.25891209,0.46358,0.25564227,-0.23764801,0.453807,0.30399983,-0.24120186,0.491431,0.29094471,-0.2057642,0.478757,0.29044018,-0.20280378,0.472421,0.29016432,-0.20009903,0.46666,0.33219244,-0.24050911,0.497988,0.32039776,-0.20190367,0.486041,0.32026947,-0.1953394,0.479071,0.3204136,-0.19045753,0.474093,0.35734001,-0.24684368,0.50371,0.34555386,-0.21341271,0.489867,0.34236468,-0.19956798,0.482784,0.34256578,-0.19170197,0.476345,0.38831872,-0.25809143,0.510976,0.37810884,-0.23003702,0.497145,0.37342704,-0.21648963,0.49079,0.36934105,-0.20436035,0.485182
0.35470484,-0.32596586,0.50383,0.34270154,-0.29015171,0.500206,0.32941943,-0.31671241,0.498332,0.29194865,-0.29639418,0.482487,0.26935199,-0.26876614,0.462208,0.25514976,-0.24771868,0.452691,0.30454969,-0.25283575,0.490952,0.28935923,-0.21284201,0.478657,0.28926025,-0.20520403,0.47251,0.2886392,-0.2014097,0.466922,0.332361,-0.25233942,0.496982,0.3189946,-0.210068,0.484889,0.31832494,-0.20242911,0.477834,0.31889882,-0.19339994,0.472949,0.35649206,-0.25583599,0.502287,0.34242896,-0.22008252,0.488472,0.33923057,-0.20679813,0.481404,0.34011228,-0.20096406,0.474979,0.3870724,-0.26698833,0.509096,0.37702853,-0.23990867,0.495244,0.37242952,-0.22683969,0.48888,0.36841982,-0.21515517,0.483264
0.33993663,-0.36191331,0.508778,0.34096866,-0.31178678,0.498238,0.31839916,-0.34418953,0.502453,0.2893659,-0.30537724,0.483916,0.27174922,-0.27908389,0.464543,0.26301048,-0.25657084,0.453455,0.3146876,-0.26237827,0.483702,0.29293533,-0.22055976,0.46449,0.28312672,-0.21151716,0.454885,0.27405452,-0.20311142,0.446152,0.34145801,-0.26946368,0.488863,0.3282772,-0.22277966,0.469936,0.31796612,-0.20958653,0.458895,0.31049853,-0.19984811,0.451009,0.36406394,-0.27982816,0.494102,0.34457622,-0.22676894,0.474009,0.33521323,-0.21744721,0.463729,0.32661548,-0.20877214,0.454384,0.39138028,-0.30035831,0.501988,0.3742902,-0.25021348,0.482442,0.36629796,-0.2315515,0.473462,0.35923941,-0.21737238,0.465538
0.35200126,-0.36314397,0.511712,0.35014305,-0.30984526,0.498119,0.33666356,-0.34839407,0.504442,0.30305694,-0.31345957,0.484159,0.27466718,-0.28254498,0.467007,0.26365591,-0.26091491,0.458049,0.31223782,-0.26182547,0.480508,0.28724276,-0.21770121,0.458635,0.27762799,-0.20805,0.447698,0.2687894,-0.19911789,0.437756,0.33957933,-0.26664269,0.486029,0.32208103,-0.21840206,0.464097,0.31202224,-0.20551773,0.451304,0.30479582,-0.19607345,0.442166,0.36405131,-0.27192564,0.49185,0.34899381,-0.22860493,0.469493,0.34131095,-0.20599648,0.458054,0.33546753,-0.20508792,0.447655,0.39524444,-0.28804768,0.500928,0.36870774,-0.23944985,0.478748,0.36139352,-0.2274586,0.468557,0.35373022,-0.21403104,0.459565
0.35485194,-0.36431709,0.511899,0.35000249,-0.31191649,0.498576,0.32997807,-0.34808748,0.503759,0.30209031,-0.31419655,0.482594,0.27598412,-0.28500969,0.464265,0.26331513,-0.26187502,0.456358,0.31179772,-0.26296467,0.480016,0.29003158,-0.21978526,0.458207,0.28260934,-0.21291262,0.447302,0.2748332,-0.20449832,0.437388,0.34006209,-0.26777775,0.486726,0.32285338,-0.22235249,0.464971,0.31222227,-0.20747869,0.452281,0.30513814,-0.19783012,0.443217,0.36464495,-0.27636986,0.493501,0.34169368,-0.22711606,0.470202,0.33123339,-0.20753226,0.458282,0.32347354,-0.20654384,0.447445,0.39719156,-0.29185413,0.503649,0.37151435,-0.24233474,0.481379,0.36476775,-0.2325223,0.471147,0.3590031,-0.22796028,0.462119
0.36511109,-0.36560373,0.51248,0.3513174,-0.31242508,0.498013,0.33970019,-0.35235647,0.505618,0.31217309,-0.32358448,0.485596,0.28170292,-0.29374017,0.463529,0.26556822,-0.27223723,0.453602,0.31233424,-0.26800336,0.480391,0.29086725,-0.2198154,0.458721,0.28478818,-0.21642949,0.447886,0.27655241,-0.20822553,0.438036,0.3391579,-0.26761397,0.485146,0.31872571,-0.22487204,0.462438,0.30880648,-0.21155815,0.449191,0.30169501,-0.20181278,0.43973,0.36273025,-0.27449092,0.490419,0.34297451,-0.22634544,0.467112,0.33460058,-0.21813778,0.455187,0.32828631,-0.21533745,0.444347,0.39420625,-0.28858139,0.499001,0.3732532,-0.24653519,0.476319,0.36423742,-0.2333278,0.465898,0.35556182,-0.22363178,0.456702
0.36653889,-0.36602806,0.51205,0.35237352,-0.31317677,0.498043,0.34115964,-0.35322052,0.505437,0.3125459,-0.32407079,0.485794,0.28314567,-0.29440652,0.463696,0.26712072,-0.27239579,0.452995,0.31334435,-0.26926067,0.481023,0.29414582,-0.22268677,0.459969,0.28697395,-0.2191273,0.449442,0.28218309,-0.22139939,0.439872,0.3399693,-0.26933225,0.485587,0.31971109,-0.22561454,0.463341,0.30993695,-0.21206265,0.450364,0.30338154,-0.19950494,0.441095,0.36338691,-0.27481752,0.490659,0.34389551,-0.22698771,0.467922,0.3364112,-0.21936341,0.45629,0.33029121,-0.21672407,0.445715,0.39478277,-0.28871081,0.498928,0.37438328,-0.24760231,0.476679,0.36560102,-0.23448617,0.466456,0.35705205,-0.22400698,0.457436
