sluyters/QuantumLeap/backend/src/datasets/dynamic/HandGestureDataset_SHREC2017_csv/Gesture9/finger_2/subject_23_essai_1_skeletons_world.csv
Wrist_x,Wrist_y,Wrist_z,Palm_x,Palm_y,Palm_z,thumb_base_x,thumb_base_y,thumb_base_z,thumb_first_joint_x,thumb_first_joint_y,thumb_first_joint_z,thumb_second_joint_x,thumb_second_joint_y,thumb_second_joint_z,thumb_tip_x,thumb_tip_y,thumb_tip_z,index_base_x,index_base_y,index_base_z,index_first_joint_x,index_first_joint_y,index_first_joint_z,index_second_joint_x,index_second_joint_y,index_second_joint_z,index_tip_x,index_tip_y,index_tip_z,middle_base_x,middle_base_y,middle_base_z,middle_first_joint_x,middle_first_joint_y,middle_first_joint_z,middle_second_joint_x,middle_second_joint_y,middle_second_joint_z,middle_tip_x,middle_tip_y,middle_tip_z,ring_base_x,ring_base_y,ring_base_z,ring_first_joint_x,ring_first_joint_y,ring_first_joint_z,ring_second_joint_x,ring_second_joint_y,ring_second_joint_z,ring_tip_x,ring_tip_y,ring_tip_z,pinky_base_x,pinky_base_y,pinky_base_z,pinky_first_joint_x,pinky_first_joint_y,pinky_first_joint_z,pinky_second_joint_x,pinky_second_joint_y,pinky_second_joint_z,pinky_tip_x,pinky_tip_y,pinky_tip_z,
0.317863301,-0.359617611,0.392205,0.273539631,-0.315686906,0.356201,0.295258409,-0.357787581,0.386348,0.248383288,-0.346054754,0.367143,0.215856484,-0.339001905,0.349882,0.193682726,-0.325361591,0.337376,0.227720698,-0.292130886,0.33312,0.188808856,-0.266421966,0.302301,0.169376309,-0.253565311,0.286891,0.161326948,-0.255025111,0.272882,0.246529993,-0.283372363,0.33135,0.212568606,-0.256712263,0.295529,0.192727129,-0.241177925,0.274634,0.179343183,-0.2320647,0.259709,0.265013759,-0.279890413,0.332747,0.230451963,-0.241648854,0.299907,0.218927086,-0.237251358,0.283106,0.212653766,-0.240261815,0.267832,0.292283124,-0.282441433,0.339517,0.284297302,-0.270310181,0.313212,0.280681447,-0.264771821,0.301126,0.277459033,-0.260777217,0.290462
0.301854211,-0.369139507,0.389748,0.258960866,-0.312164894,0.351938,0.266279469,-0.361798101,0.380502,0.238563925,-0.339706071,0.358616,0.21142844,-0.317122914,0.338127,0.196300985,-0.29662576,0.323747,0.214164174,-0.26979375,0.32377,0.18229215,-0.256843711,0.29064,0.168674901,-0.252511283,0.274075,0.163026965,-0.254476313,0.259016,0.236551148,-0.270159432,0.32584,0.207016959,-0.251490934,0.288432,0.188361719,-0.243622942,0.26661,0.175701332,-0.236790326,0.251024,0.260371846,-0.275870256,0.330541,0.230657225,-0.258456909,0.295595,0.217889233,-0.258578135,0.277716,0.20626236,-0.258430574,0.261462,0.288303043,-0.28985115,0.341448,0.278669259,-0.277684865,0.313226,0.274240764,-0.272093153,0.300259,0.266468972,-0.271581659,0.288818
0.303069436,-0.369343618,0.391303,0.259800227,-0.313545194,0.352775,0.268099927,-0.36354783,0.382264,0.239711306,-0.34152749,0.360307,0.212232611,-0.319217245,0.340031,0.196770589,-0.298702678,0.32553,0.214734049,-0.270984623,0.324555,0.18271416,-0.258173729,0.291341,0.167837748,-0.253906911,0.274733,0.16195485,-0.255848165,0.259635,0.236772508,-0.271273513,0.32618,0.205084798,-0.254521033,0.288426,0.185624915,-0.24903288,0.266402,0.172825478,-0.24565025,0.250671,0.259559804,-0.276381859,0.330572,0.22954496,-0.259709418,0.295425,0.216233024,-0.259825373,0.277443,0.204119687,-0.259645965,0.261096,0.288220955,-0.290967138,0.341218,0.277488665,-0.278861,0.312567,0.272549263,-0.27329108,0.299403,0.264292699,-0.272701243,0.287788
0.29234134,-0.37778455,0.392251,0.25930929,-0.314815985,0.353695,0.268069547,-0.364648096,0.384488,0.242026015,-0.345587246,0.364018,0.220185197,-0.331290408,0.34492,0.207436891,-0.313797488,0.330167,0.215931876,-0.272672908,0.327085,0.182525881,-0.263264324,0.294792,0.162944812,-0.258741734,0.278646,0.15547408,-0.261231177,0.263967,0.236745086,-0.272770844,0.327082,0.19925794,-0.264359153,0.28956,0.178502583,-0.259959657,0.267672,0.164413497,-0.259126508,0.252038,0.256301863,-0.279004437,0.330137,0.227551213,-0.262710097,0.294744,0.214654613,-0.258282863,0.276636,0.199192379,-0.251044496,0.260174,0.28344637,-0.297715347,0.339216,0.27521494,-0.281090761,0.310915,0.270691881,-0.275091837,0.297912,0.260024998,-0.275328299,0.286438
0.283707415,-0.375616353,0.390843,0.252524136,-0.314874105,0.357857,0.258087227,-0.360021015,0.384792,0.222438706,-0.33536147,0.366015,0.199387174,-0.320764124,0.350781,0.187190121,-0.306022986,0.337118,0.219854598,-0.269077605,0.335841,0.190275567,-0.272112796,0.30694,0.17160637,-0.272202651,0.29268,0.161576521,-0.275550631,0.279717,0.24203058,-0.277425819,0.335089,0.205253703,-0.275296666,0.301239,0.182080983,-0.27576901,0.281493,0.16703012,-0.275836672,0.267412,0.260365413,-0.28471323,0.337084,0.228223854,-0.278980606,0.306163,0.213066754,-0.276490759,0.290343,0.19832408,-0.27588508,0.275961,0.284875784,-0.303033947,0.344127,0.281326826,-0.289370005,0.318962,0.278893251,-0.284437944,0.307399,0.268449455,-0.28604445,0.297197
0.274779775,-0.373155895,0.389674,0.251530026,-0.313638745,0.357366,0.249122722,-0.354588823,0.383677,0.220734515,-0.332473243,0.364737,0.196796068,-0.315644485,0.348349,0.18452747,-0.30039312,0.334789,0.219788556,-0.267866348,0.335714,0.189256948,-0.271182086,0.30715,0.17144804,-0.271860685,0.293202,0.157783539,-0.273541116,0.280522,0.240712002,-0.275450638,0.335066,0.203107155,-0.270454953,0.301674,0.181941068,-0.268704918,0.282196,0.166788585,-0.267518416,0.268282,0.258389585,-0.285090247,0.337095,0.22755021,-0.278896066,0.306418,0.212210473,-0.276488129,0.290723,0.197258915,-0.275938648,0.276454,0.281477488,-0.304217609,0.344079,0.280105833,-0.291949418,0.319463,0.27889308,-0.285875654,0.308153,0.266569354,-0.288521131,0.298174
0.273725359,-0.372596645,0.390799,0.251770179,-0.312983649,0.358266,0.249729463,-0.353874629,0.385053,0.220350485,-0.330614938,0.366546,0.195633877,-0.313283786,0.350448,0.182732788,-0.297820339,0.336952,0.220335286,-0.267301288,0.336834,0.186797655,-0.268250881,0.308367,0.17070554,-0.27060441,0.294133,0.157155568,-0.272456001,0.281193,0.239630639,-0.273684288,0.33581,0.202484911,-0.269583721,0.302331,0.180723013,-0.268415975,0.282802,0.165098487,-0.267847896,0.268853,0.2572301,-0.283538679,0.337546,0.226644565,-0.278142051,0.306662,0.210904927,-0.27564414,0.29086,0.195590221,-0.27497411,0.276496,0.28097754,-0.303541126,0.34422,0.277832558,-0.292035117,0.319419,0.277237448,-0.28590951,0.308024,0.265057689,-0.288096873,0.297969
0.266723645,-0.367514159,0.388234,0.249551401,-0.308869444,0.3566,0.248168845,-0.350669556,0.383382,0.218549967,-0.326414885,0.366086,0.192232025,-0.30719557,0.350928,0.179881795,-0.294272025,0.337306,0.219362268,-0.262295437,0.336693,0.184073523,-0.262667716,0.309331,0.166645803,-0.26391603,0.295651,0.154548282,-0.268533311,0.283214,0.237582875,-0.26873146,0.334764,0.198380926,-0.26362965,0.302116,0.175397195,-0.263054941,0.283071,0.161162785,-0.265718724,0.269468,0.254216821,-0.27855031,0.335685,0.22101137,-0.271809779,0.305917,0.204207127,-0.269400384,0.290687,0.190176336,-0.271085995,0.276842,0.276669804,-0.298353776,0.341273,0.272298843,-0.287504355,0.316532,0.270413497,-0.282603821,0.305164,0.257112151,-0.283604264,0.295134
0.264019861,-0.361346748,0.38482,0.247465612,-0.294200655,0.355142,0.245497764,-0.340745199,0.380767,0.217040506,-0.312969752,0.365211,0.191962516,-0.295937014,0.350436,0.178574199,-0.280697725,0.33757,0.219112276,-0.250541627,0.337099,0.185226173,-0.254175013,0.311268,0.168290555,-0.256330641,0.298569,0.154853359,-0.259932181,0.287025,0.236895125,-0.256770786,0.334657,0.199321889,-0.254634149,0.303549,0.176842155,-0.254938013,0.285403,0.16059059,-0.255791842,0.272442,0.25303478,-0.266297763,0.334999,0.221572717,-0.262040669,0.306694,0.205279139,-0.260219839,0.292213,0.189361049,-0.260264294,0.279048,0.274647045,-0.285524137,0.339629,0.270570808,-0.275233028,0.315746,0.268860175,-0.270608612,0.304772,0.255580187,-0.271869947,0.295089
0.253571744,-0.342331409,0.381255,0.237052145,-0.282084734,0.350234,0.234772021,-0.323377084,0.374506,0.202888825,-0.305272947,0.353808,0.179832716,-0.292469976,0.334469,0.168397237,-0.279845401,0.319468,0.209664231,-0.235422164,0.328186,0.175473436,-0.241219713,0.299637,0.159698865,-0.24443709,0.285363,0.142830658,-0.247042916,0.272525,0.229940402,-0.244294959,0.328822,0.195339854,-0.243340892,0.296133,0.174127755,-0.244845846,0.277064,0.157069698,-0.24671521,0.263443,0.24775591,-0.256038212,0.331806,0.219476402,-0.251963621,0.301692,0.204910377,-0.250201745,0.286285,0.185420706,-0.253863023,0.272279,0.270657615,-0.277961269,0.339728,0.26500635,-0.270118694,0.314859,0.262535665,-0.266626525,0.303433,0.251054686,-0.268834532,0.293351
0.242501565,-0.330735407,0.376596,0.233247145,-0.27167481,0.345986,0.224302168,-0.311272873,0.369637,0.19758608,-0.292103464,0.348694,0.174421236,-0.278224079,0.329243,0.163093937,-0.265254462,0.314296,0.207280387,-0.224340713,0.32385,0.171826131,-0.229275672,0.295341,0.154401658,-0.231739881,0.281354,0.138145836,-0.23473318,0.268639,0.227378443,-0.234298713,0.324858,0.191244403,-0.238455065,0.292411,0.169398102,-0.240565686,0.273548,0.153623061,-0.242801202,0.260075,0.244964168,-0.246935243,0.328114,0.2158647,-0.242068459,0.298105,0.200856139,-0.23989844,0.282752,0.181331377,-0.243214274,0.268795,0.267392157,-0.269915818,0.336298,0.261458778,-0.262350744,0.311584,0.258872831,-0.259000322,0.300229,0.244672446,-0.262034311,0.29021
0.241279949,-0.325143633,0.375156,0.232853835,-0.261726243,0.34477,0.222978182,-0.301732893,0.368698,0.197401393,-0.281730958,0.348382,0.173780791,-0.267753531,0.329139,0.162097649,-0.254832948,0.31427,0.207588913,-0.21508591,0.323368,0.171461389,-0.220247398,0.295332,0.153739423,-0.222872446,0.281641,0.137264537,-0.226066897,0.269194,0.22706763,-0.22492239,0.323797,0.188328273,-0.227268068,0.291606,0.165071936,-0.230018223,0.272828,0.148555907,-0.231871522,0.259415,0.244116455,-0.237395164,0.32656,0.214182111,-0.232645232,0.29696,0.198721786,-0.230527084,0.281816,0.178909149,-0.233944402,0.268049,0.265863067,-0.260057614,0.334132,0.259068017,-0.252719323,0.309406,0.256085871,-0.249477057,0.298046,0.240822351,-0.24984256,0.288022
0.241513351,-0.323481963,0.375749,0.232852484,-0.261724724,0.344768,0.223323668,-0.300424236,0.369092,0.197473354,-0.281833661,0.348509,0.173887445,-0.267917857,0.329341,0.162216281,-0.255019448,0.3145,0.207258946,-0.214744027,0.322854,0.170915652,-0.219546382,0.294392,0.153115494,-0.22196795,0.280498,0.136588397,-0.224953334,0.267868,0.226778007,-0.224635504,0.323384,0.187768984,-0.226593137,0.29074,0.16438824,-0.229065533,0.271698,0.147801145,-0.230693461,0.258097,0.243904154,-0.237188708,0.326276,0.213660648,-0.232078817,0.296237,0.198053307,-0.229751615,0.280868,0.178140247,-0.232938974,0.266897,0.26582567,-0.260021033,0.334085,0.258754027,-0.252413027,0.309031,0.255633924,-0.249036773,0.29752,0.240271344,-0.249270916,0.287363
0.232791684,-0.308058816,0.368879,0.22504448,-0.248690472,0.341717,0.215627323,-0.287898681,0.361768,0.182317429,-0.265083421,0.340849,0.158848903,-0.251703748,0.321033,0.146461443,-0.234725309,0.306505,0.204283731,-0.201423289,0.320886,0.17519089,-0.207623119,0.293962,0.160775293,-0.211057381,0.280816,0.147678045,-0.214357328,0.268969,0.224566699,-0.213122537,0.322968,0.188793359,-0.217094169,0.292965,0.16787726,-0.219651969,0.275556,0.151288413,-0.223720995,0.263121,0.241650899,-0.226984852,0.326835,0.217691382,-0.202768527,0.298704,0.20162029,-0.206284027,0.284311,0.187709248,-0.213830343,0.271227,0.26230948,-0.25103671,0.335246,0.259075423,-0.244176955,0.312177,0.257779983,-0.241159124,0.301578,0.243519283,-0.241456627,0.292226
0.223864721,-0.295084442,0.367204,0.224548577,-0.237735482,0.340964,0.207359312,-0.274187886,0.359773,0.181090921,-0.252518768,0.338556,0.157064172,-0.236735213,0.318793,0.144839876,-0.218867568,0.304914,0.203800534,-0.190857144,0.320127,0.174888736,-0.197119659,0.293455,0.160635023,-0.200679359,0.280571,0.147688477,-0.204125043,0.268988,0.224486042,-0.202836304,0.322852,0.18912717,-0.207180484,0.293483,0.168466386,-0.210058074,0.276523,0.152028982,-0.214565531,0.264409,0.241902284,-0.216888922,0.327175,0.218213193,-0.192635072,0.29942,0.202264912,-0.196265002,0.28522,0.188459456,-0.204439646,0.272311,0.262890832,-0.241077956,0.335989,0.26008956,-0.23442,0.313399,0.259011708,-0.231495109,0.303019,0.24488177,-0.231976168,0.293861
0.22359099,-0.289395353,0.366755,0.224568334,-0.227348479,0.340994,0.207229631,-0.263492947,0.359548,0.181136922,-0.241798822,0.338642,0.157074518,-0.225777724,0.318814,0.144828001,-0.207833273,0.304889,0.204133488,-0.181062775,0.32065,0.175441195,-0.187564906,0.294382,0.161307172,-0.191282529,0.281745,0.148464288,-0.194896058,0.270401,0.224737053,-0.192842026,0.323213,0.189611776,-0.197387447,0.294235,0.169088411,-0.200430685,0.277544,0.152726429,-0.205252283,0.265622,0.242042024,-0.206676187,0.327364,0.218646092,-0.182376645,0.300014,0.202832944,-0.186107601,0.286021,0.189143226,-0.194898919,0.273299,0.262828237,-0.230507958,0.335909,0.260293715,-0.223882826,0.313645,0.259351052,-0.220967891,0.303416,0.245322599,-0.221542863,0.29439
0.223596477,-0.278745573,0.366764,0.22513093,-0.216941911,0.341499,0.20731001,-0.252990617,0.359634,0.181596929,-0.230617073,0.338867,0.157813866,-0.214038073,0.319115,0.145802789,-0.195866102,0.305305,0.205059152,-0.170980545,0.321467,0.176743677,-0.177152547,0.29551,0.162789013,-0.180726413,0.283047,0.150100431,-0.184230113,0.271872,0.225665624,-0.182650101,0.32406,0.191030091,-0.186842389,0.295465,0.170769915,-0.18972563,0.279021,0.154500482,-0.1947398,0.267275,0.242934734,-0.196369528,0.328197,0.220121699,-0.171377979,0.301184,0.204558527,-0.174901695,0.287363,0.190927397,-0.184313106,0.274799,0.26360833,-0.220029304,0.336654,0.261538412,-0.212935699,0.314672,0.260820567,-0.209788715,0.304573,0.246977157,-0.210294642,0.295661
0.223958607,-0.268522905,0.367358,0.225358369,-0.206748302,0.341844,0.207578929,-0.242708022,0.360047,0.181691246,-0.219946184,0.339043,0.157802491,-0.203048274,0.319092,0.14573593,-0.184764246,0.305165,0.205064255,-0.160888572,0.321475,0.176596545,-0.166824096,0.295264,0.162579665,-0.170245067,0.282683,0.1498426,-0.173590535,0.271405,0.2257854,-0.172529958,0.324232,0.191003583,-0.176477613,0.295424,0.170678722,-0.179191695,0.278872,0.154369263,-0.184232972,0.267048,0.243177523,-0.186225731,0.328525,0.219415998,-0.163339978,0.301268,0.203518109,-0.168742646,0.287322,0.190634889,-0.181080299,0.274644,0.264035862,-0.209862642,0.3372,0.261825157,-0.202435567,0.315017,0.26103551,-0.19911802,0.304824,0.247119165,-0.199545085,0.295831
0.223760643,-0.260566442,0.368011,0.225612606,-0.205172181,0.342302,0.207540116,-0.239846142,0.360592,0.181660795,-0.217323799,0.339442,0.158381762,-0.196769799,0.320146,0.146389998,-0.181402756,0.305788,0.205945657,-0.15902969,0.321713,0.177098157,-0.164206654,0.295327,0.163626842,-0.164682013,0.283382,0.150646724,-0.17099575,0.272522,0.226484779,-0.170995393,0.324557,0.191368104,-0.174065047,0.295588,0.17140173,-0.17373797,0.279665,0.155002166,-0.181844328,0.268291,0.243691602,-0.184966897,0.328937,0.220146412,-0.161318994,0.301507,0.204006838,-0.166322363,0.287474,0.190530209,-0.17558385,0.274716,0.264262506,-0.208956402,0.337741,0.261950584,-0.201209297,0.31539,0.261109341,-0.197738497,0.305121,0.247092733,-0.197839515,0.296059
0.208249237,-0.24571146,0.385135,0.211218955,-0.198071384,0.350079,0.191204436,-0.222494976,0.371913,0.170175725,-0.204367771,0.344197,0.150710736,-0.18267708,0.320625,0.14286826,-0.163973449,0.305064,0.190373245,-0.150500094,0.318061,0.161235834,-0.145855228,0.283768,0.146735803,-0.143441076,0.266622,0.133602697,-0.141179901,0.251034,0.212217839,-0.166401132,0.325883,0.191548179,-0.149296692,0.290098,0.179512999,-0.139329045,0.269224,0.162814122,-0.143665276,0.254313,0.230469383,-0.183345697,0.3351,0.191887874,-0.186601333,0.300015,0.183131632,-0.196019184,0.306058,0.18172806,-0.211717595,0.32264,0.252223451,-0.210343381,0.350916,0.230256634,-0.207927293,0.322205,0.220167412,-0.206781504,0.309014,0.200806158,-0.203474517,0.297374
0.202764558,-0.238602832,0.377185,0.214019498,-0.19724493,0.352905,0.188039657,-0.216517771,0.366355,0.168143203,-0.195423812,0.341624,0.150619759,-0.174534393,0.320902,0.1448963,-0.156131908,0.308402,0.202824484,-0.149613358,0.328605,0.178683942,-0.14883506,0.300859,0.166625673,-0.148701339,0.28717,0.155575185,-0.14888892,0.274797,0.223716116,-0.166776956,0.336145,0.20933805,-0.154784025,0.308007,0.201112773,-0.14786138,0.291593,0.182219691,-0.156288175,0.279869,0.238499959,-0.186331732,0.344278,0.249137384,-0.161505327,0.318544,0.233495191,-0.164583964,0.305378,0.230560389,-0.176168102,0.308598,0.257441499,-0.212651414,0.357285,0.256342159,-0.193571251,0.33432,0.254753685,-0.186525927,0.323769,0.252345952,-0.181489451,0.314459
0.198053205,-0.232992287,0.374311,0.214077519,-0.191839248,0.353464,0.184465211,-0.207058679,0.36452,0.162562713,-0.181379877,0.341362,0.145079027,-0.162094238,0.320325,0.139909704,-0.145604622,0.306892,0.208596588,-0.144174741,0.331976,0.180211665,-0.140428457,0.306742,0.165750602,-0.138710735,0.294126,0.145346563,-0.140901785,0.282656,0.226012354,-0.166041357,0.339074,0.213298699,-0.147608679,0.313669,0.205865427,-0.137939205,0.298849,0.188174813,-0.142407591,0.288264,0.240770882,-0.18443173,0.34657,0.253440419,-0.162445619,0.323191,0.244289883,-0.15861547,0.31123,0.247727333,-0.164782414,0.316148,0.25645055,-0.212849961,0.35834,0.27170212,-0.197806673,0.34127,0.263992745,-0.197773164,0.333427,0.246889747,-0.196912024,0.326506
0.19655323,-0.230023308,0.374027,0.213341271,-0.186664771,0.354305,0.183991609,-0.204123295,0.364734,0.16331685,-0.179742634,0.342281,0.146111764,-0.160416027,0.321891,0.141105938,-0.143867375,0.308949,0.209507233,-0.142668512,0.333938,0.181833836,-0.136152565,0.30964,0.167859882,-0.134210121,0.297491,0.147586072,-0.139782321,0.286446,0.227275939,-0.162003675,0.340692,0.21479888,-0.142074428,0.31621,0.207811619,-0.131687688,0.301929,0.190578145,-0.140174602,0.291728,0.240628887,-0.181141679,0.347815,0.255398212,-0.155255978,0.325383,0.246186351,-0.152422837,0.313907,0.250315795,-0.162158763,0.319447,0.253703389,-0.209421252,0.358987,0.273407455,-0.192204038,0.34303,0.266302472,-0.192054681,0.335698,0.24930093,-0.195145204,0.329229
0.194901083,-0.225197568,0.375402,0.214832235,-0.182622851,0.356231,0.183487706,-0.198147904,0.366143,0.164729434,-0.175507259,0.343817,0.148489229,-0.152861404,0.324252,0.142742249,-0.138766373,0.310745,0.210748718,-0.138635105,0.336147,0.184055078,-0.131339295,0.312185,0.170315849,-0.129124466,0.300204,0.149887789,-0.134954171,0.289312,0.228803199,-0.157728464,0.342998,0.214792088,-0.142245859,0.318963,0.206723455,-0.1329842,0.304942,0.189207577,-0.138220305,0.294927,0.242411623,-0.176714567,0.350158,0.257704589,-0.150672483,0.328088,0.248807882,-0.147509747,0.316797,0.253006989,-0.155814382,0.322527,0.255801958,-0.204904512,0.361296,0.275663837,-0.18795509,0.345714,0.268817367,-0.187615796,0.338554,0.252113266,-0.190467752,0.332237
0.258637712,-0.235925199,0.386847,0.226853296,-0.192263563,0.352934,0.238129125,-0.227333344,0.383353,0.201459184,-0.209720984,0.370041,0.169334942,-0.203143638,0.355636,0.148840149,-0.190536348,0.344064,0.187196854,-0.162577724,0.333761,0.14855033,-0.132582395,0.306599,0.129301783,-0.11763823,0.293018,0.114231013,-0.119997187,0.280672,0.204953269,-0.162224461,0.329526,0.170105255,-0.124429608,0.29619,0.149880917,-0.102539691,0.276744,0.134918491,-0.102999428,0.262854,0.22215133,-0.165388269,0.328728,0.199619628,-0.123190073,0.298222,0.185488821,-0.110349948,0.282615,0.172586443,-0.0985802324,0.268426,0.24697597,-0.175333979,0.332623,0.241885789,-0.146873761,0.307442,0.239457168,-0.133897293,0.295872,0.233036978,-0.133519448,0.285663
0.262513901,-0.239442825,0.388678,0.231094565,-0.195048316,0.356207,0.241915653,-0.23135409,0.385331,0.207876872,-0.216373063,0.370496,0.17305515,-0.202843454,0.356745,0.153137525,-0.189748457,0.345165,0.191485653,-0.165691021,0.337846,0.15362426,-0.134696852,0.310918,0.134771735,-0.119261304,0.297454,0.120088259,-0.121001562,0.285214,0.209446933,-0.164506529,0.333794,0.174123295,-0.127875676,0.301089,0.154031272,-0.106902766,0.282851,0.140243265,-0.0944564576,0.269823,0.228704305,-0.167565033,0.333032,0.203459762,-0.126703212,0.303545,0.190008988,-0.111301192,0.288458,0.17941732,-0.0939556309,0.275691,0.251739634,-0.17635082,0.336764,0.246336066,-0.147092155,0.313231,0.242891476,-0.130657124,0.302419,0.236816498,-0.129363709,0.292879
0.26274383,-0.239397515,0.389071,0.232678109,-0.194592025,0.358165,0.241943808,-0.231108623,0.385418,0.205117067,-0.21323658,0.370929,0.174110652,-0.197997961,0.358541,0.156101288,-0.185913722,0.346656,0.19268433,-0.163264704,0.340096,0.157764109,-0.133456928,0.313628,0.139831632,-0.118410459,0.301391,0.12320313,-0.102932127,0.290266,0.213111547,-0.159250882,0.336831,0.178763962,-0.123697702,0.305024,0.156937546,-0.104674232,0.28647,0.143161787,-0.092130509,0.273217,0.230777717,-0.161568925,0.336594,0.205457547,-0.126607132,0.306555,0.192826847,-0.104961709,0.291741,0.181241319,-0.0912605776,0.278275,0.255857936,-0.170987802,0.340719,0.248488293,-0.140203174,0.317093,0.245047682,-0.126158818,0.306238,0.23929966,-0.127870857,0.29666
0.26347831,-0.239433009,0.38881,0.234428388,-0.194239966,0.359702,0.243200441,-0.231578916,0.385989,0.207613151,-0.213860211,0.371119,0.176835473,-0.197573579,0.359821,0.158077511,-0.183123606,0.349349,0.197610153,-0.161182983,0.343471,0.161169834,-0.131347623,0.318234,0.142902024,-0.116390822,0.305615,0.126243596,-0.102860577,0.294143,0.215649675,-0.158896054,0.339611,0.181234766,-0.123558225,0.309274,0.161081731,-0.103022662,0.291577,0.146655558,-0.0883112274,0.278937,0.232847278,-0.160752089,0.338741,0.208629051,-0.123369434,0.310975,0.196309516,-0.101689709,0.296769,0.184953451,-0.0867609855,0.283854,0.257293797,-0.169693432,0.341866,0.249808396,-0.138569392,0.318828,0.246322905,-0.12435961,0.308242,0.23984024,-0.122650711,0.298903
0.263963513,-0.239255594,0.38858,0.237505002,-0.191482292,0.362188,0.243958823,-0.231574303,0.386175,0.209033996,-0.212208121,0.372531,0.180809833,-0.195720547,0.362235,0.162721325,-0.180928973,0.352489,0.201317339,-0.159771312,0.347666,0.165930851,-0.130034935,0.32374,0.14813417,-0.115076721,0.311777,0.131885607,-0.101417607,0.300902,0.219101419,-0.156950024,0.34397,0.185638425,-0.119104674,0.315644,0.166082827,-0.098227455,0.29912,0.151232643,-0.0859834821,0.287317,0.236101208,-0.158447041,0.343021,0.21183598,-0.117899566,0.316486,0.199561557,-0.0983890288,0.30291,0.188827025,-0.0833373612,0.290568,0.26032078,-0.167155393,0.345667,0.253220328,-0.132242552,0.324236,0.250095469,-0.117480854,0.31439,0.243490911,-0.114475317,0.305701
0.263411963,-0.237734212,0.387396,0.238808463,-0.188775607,0.363194,0.243936036,-0.230531316,0.385763,0.211399208,-0.208649994,0.374081,0.181986713,-0.191735736,0.363648,0.164503013,-0.176504401,0.35438,0.20304933,-0.156880539,0.350604,0.168987517,-0.124074909,0.328183,0.151892694,-0.108640306,0.316972,0.136034833,-0.0977645431,0.30678,0.220610104,-0.153445714,0.346489,0.188024617,-0.114401335,0.319971,0.168911962,-0.0928224268,0.304502,0.155202739,-0.077317551,0.293452,0.2372458,-0.154436336,0.345021,0.213435381,-0.116085085,0.318527,0.202068034,-0.0940910079,0.305715,0.191091515,-0.0789661417,0.294067,0.2607419,-0.162526824,0.346746,0.254534023,-0.130640709,0.326393,0.25165833,-0.116048813,0.317042,0.245505056,-0.113317445,0.308791
0.271869413,-0.229478463,0.398315,0.242480668,-0.183801172,0.369253,0.250745876,-0.223099994,0.394628,0.2171142,-0.200703565,0.382228,0.184555611,-0.188193936,0.367338,0.16629367,-0.172754208,0.356553,0.203461716,-0.157335415,0.351944,0.168618312,-0.122935202,0.327807,0.15119075,-0.107047633,0.315739,0.135285839,-0.0927413142,0.304767,0.222291396,-0.15400079,0.349194,0.189625736,-0.113277111,0.320809,0.170543425,-0.0910825662,0.304251,0.156899543,-0.0752300439,0.292423,0.240330694,-0.153077464,0.349234,0.216865756,-0.114123807,0.322221,0.204900923,-0.0942384509,0.308455,0.19402527,-0.076170613,0.29594,0.265847648,-0.157494718,0.353422,0.257090693,-0.128821903,0.330702,0.253051776,-0.114469869,0.320262,0.24781012,-0.112947829,0.311051
0.275450315,-0.222453097,0.405928,0.243994295,-0.179910706,0.37285,0.253201318,-0.216797544,0.400568,0.216289532,-0.199339458,0.383284,0.184644146,-0.184120247,0.368364,0.16542122,-0.170792226,0.355972,0.202569357,-0.154540494,0.351671,0.169448837,-0.116143533,0.32981,0.153058207,-0.099724806,0.318879,0.138090363,-0.084720169,0.308942,0.222476458,-0.151254757,0.350018,0.192184604,-0.106410961,0.322857,0.174774842,-0.0838083786,0.307014,0.161584304,-0.0714611428,0.295696,0.241388901,-0.150903018,0.351281,0.21896638,-0.108929242,0.325232,0.207753125,-0.0888768008,0.311904,0.197705082,-0.0735529315,0.299788,0.268280014,-0.157361055,0.357476,0.258000033,-0.126655909,0.332829,0.25371209,-0.113539978,0.321505,0.248483627,-0.109397891,0.311513
0.272717648,-0.22551305,0.401379,0.244299856,-0.178612588,0.373581,0.251446611,-0.215183883,0.398064,0.215269999,-0.196648699,0.383429,0.184029822,-0.180960858,0.369114,0.166016239,-0.167581115,0.357265,0.205248593,-0.147740851,0.357293,0.173616316,-0.111484456,0.334625,0.15755649,-0.094586236,0.323291,0.142919491,-0.0791761292,0.312988,0.224617501,-0.143982289,0.354394,0.193527999,-0.105110178,0.325548,0.175346487,-0.0822142326,0.308721,0.162333419,-0.0664153425,0.296702,0.242702291,-0.144491333,0.354212,0.222222073,-0.104541881,0.328719,0.211748485,-0.08414885,0.315676,0.201231924,-0.06859637,0.303819,0.267929201,-0.153581383,0.357958,0.259538633,-0.123913716,0.335782,0.255699193,-0.110325618,0.325593,0.251582607,-0.0976082575,0.316603
0.272343981,-0.224309883,0.400721,0.244700153,-0.175900742,0.374287,0.25137888,-0.214830482,0.397682,0.215827558,-0.19585698,0.383605,0.185823536,-0.178358393,0.370768,0.168120898,-0.163062536,0.360681,0.20697578,-0.146444958,0.358941,0.176962431,-0.107600179,0.33727,0.160125912,-0.0934123847,0.326434,0.145631145,-0.0782664669,0.316583,0.226319442,-0.142696471,0.356041,0.195897531,-0.1021211,0.328833,0.178094074,-0.0791528193,0.312961,0.165366799,-0.0627240284,0.301624,0.244315361,-0.14326439,0.355749,0.224623098,-0.103565132,0.330833,0.214547732,-0.0832456959,0.318086,0.205387265,-0.0647675391,0.306497,0.269224511,-0.150470927,0.359173,0.261208198,-0.120949165,0.337835,0.2575434,-0.107337535,0.328031,0.25432204,-0.0958894574,0.319381
0.271307043,-0.222955962,0.399177,0.246784265,-0.174140341,0.376338,0.251371439,-0.214440575,0.397503,0.217183999,-0.194512929,0.384857,0.187744317,-0.175835376,0.372799,0.171030687,-0.160136689,0.364254,0.212929013,-0.141470939,0.364288,0.180606091,-0.107775115,0.342805,0.164708171,-0.0909050649,0.332064,0.150205371,-0.0755023199,0.3223,0.230639426,-0.140335298,0.360574,0.201993547,-0.0976255284,0.335034,0.184765278,-0.0743120243,0.320136,0.171484543,-0.0598297632,0.309494,0.247896404,-0.141028804,0.359328,0.229629848,-0.099151716,0.336335,0.21999832,-0.0786337088,0.324571,0.211482185,-0.0623818675,0.313877,0.271515631,-0.148527747,0.361119,0.265003834,-0.118537456,0.341564,0.262040856,-0.104679947,0.332579,0.259443546,-0.0924068751,0.324651
0.270679345,-0.219217642,0.398798,0.248083624,-0.171990736,0.377966,0.250988382,-0.213711369,0.39705,0.217074154,-0.192060657,0.384636,0.188047012,-0.172973986,0.374033,0.171996349,-0.157084187,0.366441,0.213883082,-0.14040596,0.366694,0.183244565,-0.105242814,0.346165,0.167859551,-0.0877852368,0.335901,0.153957036,-0.0719319371,0.326796,0.232694352,-0.137098911,0.363587,0.204561009,-0.0968599273,0.339457,0.18805301,-0.0734013356,0.325381,0.176225736,-0.0565580493,0.315327,0.24999415,-0.138186041,0.362682,0.232140341,-0.0953560202,0.340809,0.223243748,-0.0749804449,0.329618,0.215070566,-0.0586946286,0.319445,0.273627468,-0.146347264,0.364587,0.268923537,-0.111676161,0.346706,0.266846931,-0.0976795842,0.33849,0.265068415,-0.0885067138,0.331241
0.270245155,-0.219012016,0.399031,0.248404721,-0.169773673,0.379043,0.250734158,-0.21323207,0.397495,0.215422893,-0.188193201,0.385317,0.186967749,-0.16980866,0.375128,0.17129266,-0.153702687,0.367765,0.214910079,-0.137611525,0.368407,0.185044254,-0.102309901,0.348679,0.170439894,-0.0847914094,0.33953,0.157105874,-0.0687781695,0.331213,0.233780553,-0.134663146,0.365246,0.20724408,-0.0941471592,0.341845,0.191551617,-0.0709960131,0.328195,0.179327426,-0.0560172472,0.318444,0.250938979,-0.136070983,0.36423,0.233985355,-0.0954507045,0.341991,0.225120386,-0.0752295002,0.330613,0.216556245,-0.058222058,0.320269,0.274550105,-0.146184859,0.365884,0.270159299,-0.112884484,0.348415,0.268206969,-0.0986765735,0.340389,0.266507163,-0.0884323042,0.333307
0.268743295,-0.21757537,0.397655,0.247977733,-0.167150179,0.379833,0.249615744,-0.211739773,0.396537,0.214249435,-0.184775089,0.385715,0.186603979,-0.165983123,0.376108,0.17143322,-0.149594351,0.368851,0.216393294,-0.13521195,0.370669,0.187671856,-0.0997533951,0.352542,0.173246665,-0.0819218558,0.343478,0.160091895,-0.0656456809,0.335239,0.235483901,-0.132854298,0.367531,0.210636749,-0.0921616033,0.345924,0.195632767,-0.0664537087,0.33332,0.185176962,-0.0492033343,0.324318,0.252281344,-0.135541725,0.366362,0.236773285,-0.0941319714,0.344762,0.228534304,-0.0738749315,0.33371,0.220033119,-0.0559437979,0.323664,0.275045808,-0.144143072,0.367528,0.272321907,-0.111305618,0.351392,0.270845322,-0.0985306408,0.343979,0.269484533,-0.086497063,0.337438
0.269231928,-0.217423045,0.39885,0.249254468,-0.165463011,0.382392,0.249948295,-0.211249938,0.397515,0.215460012,-0.182380275,0.387444,0.188193915,-0.16360206,0.378345,0.172298861,-0.148587643,0.370025,0.217928567,-0.133197775,0.373546,0.19022323,-0.0975329292,0.355864,0.176295847,-0.0795743698,0.347023,0.163586592,-0.0631671775,0.338986,0.237300839,-0.130771001,0.371032,0.213049234,-0.090061842,0.350339,0.198795402,-0.0659886629,0.338269,0.188557974,-0.0486242486,0.329647,0.254617641,-0.132541785,0.370267,0.239907046,-0.0918979177,0.349794,0.232322589,-0.0711948419,0.33932,0.225425377,-0.0523100435,0.329797,0.277470659,-0.141425316,0.371715,0.276289019,-0.109160283,0.356841,0.275103425,-0.0960551229,0.350007,0.274119788,-0.0843265362,0.343978
0.269345095,-0.216736991,0.399277,0.250774886,-0.163358134,0.384452,0.249934102,-0.209844561,0.398201,0.216440412,-0.181598966,0.388287,0.189530061,-0.163073294,0.379884,0.174687053,-0.14674904,0.373071,0.220510648,-0.131996171,0.376644,0.194193286,-0.0960767834,0.359961,0.180943578,-0.0779520409,0.351619,0.168840424,-0.0613692424,0.344036,0.239919667,-0.129331012,0.37422,0.216442121,-0.0885075641,0.354905,0.202630585,-0.0643373934,0.343637,0.192706025,-0.0468899382,0.335589,0.257199085,-0.130866093,0.373399,0.242868645,-0.0901975762,0.35427,0.235987583,-0.0694511363,0.345146,0.229728607,-0.0504780831,0.336852,0.279883719,-0.139398186,0.374549,0.27926725,-0.107946281,0.360749,0.278629526,-0.0943298093,0.354408,0.278120861,-0.0821694358,0.348814
0.268711788,-0.215314509,0.3994,0.251979897,-0.161281491,0.386453,0.248805021,-0.205087556,0.398942,0.219022977,-0.178384125,0.391863,0.193344802,-0.156705616,0.384769,0.178554283,-0.142824841,0.377455,0.2227354,-0.130411567,0.380245,0.198052905,-0.0940504171,0.36511,0.185647288,-0.073655748,0.357542,0.17423789,-0.0588405964,0.350663,0.24202296,-0.127829515,0.377516,0.219742282,-0.0866543713,0.359917,0.206659289,-0.0603409582,0.349652,0.19720403,-0.0446527689,0.342319,0.259025887,-0.129386467,0.376296,0.245861468,-0.088626778,0.358665,0.239123409,-0.0676906631,0.349644,0.233789215,-0.0487697197,0.342605,0.28105585,-0.137830023,0.376708,0.281533459,-0.107963302,0.363945,0.281650293,-0.0930921844,0.35808,0.281511457,-0.0821203813,0.352906
0.268855451,-0.214233429,0.400275,0.253221435,-0.159345253,0.388381,0.248793475,-0.202754783,0.400059,0.218986125,-0.175550332,0.393111,0.193253649,-0.156623821,0.385754,0.179706545,-0.140263533,0.380418,0.22449622,-0.128141447,0.382939,0.200720248,-0.0915691562,0.368605,0.188736089,-0.0730833243,0.361439,0.177779799,-0.0561511282,0.354924,0.243716485,-0.125844451,0.380172,0.222669015,-0.0843488787,0.36348,0.210265188,-0.0598057042,0.353743,0.201349718,-0.0420806431,0.346789,0.260565067,-0.127616484,0.378838,0.248635879,-0.0867230489,0.362039,0.242531826,-0.0657408629,0.353444,0.238257331,-0.0468782933,0.34749,0.282681547,-0.137510558,0.378965,0.283445734,-0.10543161,0.366847,0.283870756,-0.0914776327,0.361279,0.284250964,-0.080338567,0.356366
0.268722913,-0.212833306,0.400884,0.253606828,-0.158900382,0.389022,0.249063313,-0.201994936,0.400649,0.218978835,-0.175335142,0.393278,0.19327275,-0.156636673,0.38618,0.179711316,-0.140417061,0.381021,0.225077173,-0.127891031,0.38355,0.201368405,-0.0912650445,0.36923,0.189418591,-0.0727543509,0.362069,0.178495528,-0.0558015082,0.35556,0.244314983,-0.125639563,0.380806,0.22339242,-0.0840761657,0.364136,0.211057296,-0.0595066682,0.354412,0.202191104,-0.0417616208,0.347467,0.261170199,-0.127450449,0.379484,0.249278996,-0.0864929223,0.362712,0.243194633,-0.0654882184,0.354131,0.239068447,-0.0466350388,0.348378,0.283141119,-0.137177125,0.37962,0.28399442,-0.105122011,0.367522,0.284323932,-0.0912104058,0.361963,0.284679408,-0.0798682437,0.357059
0.269873308,-0.208659402,0.405266,0.256262311,-0.156970151,0.393102,0.251629573,-0.198272166,0.404952,0.226147037,-0.172627913,0.403049,0.199780557,-0.153617891,0.394084,0.181468441,-0.139738456,0.383196,0.228065145,-0.126872635,0.387399,0.204553784,-0.0900008595,0.372887,0.192704629,-0.0713644193,0.365631,0.181873607,-0.0542950544,0.359035,0.247349208,-0.124930569,0.384678,0.227643486,-0.080458289,0.367746,0.215662062,-0.0559732009,0.357869,0.205722568,-0.0403332746,0.350814,0.264250004,-0.127001301,0.3834,0.252428367,-0.0856243948,0.366433,0.246361218,-0.0645095075,0.357752,0.24250989,-0.0456538776,0.352296,0.285942708,-0.136033954,0.383628,0.286522352,-0.104325433,0.371234,0.286442289,-0.090409322,0.36554,0.286425092,-0.0779756652,0.360515
0.271920203,-0.20712321,0.408395,0.258889098,-0.153584092,0.396782,0.25327339,-0.196291383,0.407941,0.227131953,-0.171457069,0.40445,0.200215694,-0.15220699,0.394638,0.186103831,-0.135509439,0.388128,0.230814877,-0.123448451,0.391126,0.20789991,-0.086553396,0.376789,0.196340615,-0.0678772976,0.369621,0.18576702,-0.0507538489,0.363104,0.250170901,-0.12195991,0.388716,0.230141802,-0.0794885795,0.372193,0.218283103,-0.0546809974,0.362555,0.209779791,-0.0368342537,0.355671,0.267147171,-0.124353435,0.387648,0.256547546,-0.082746744,0.371124,0.250974248,-0.0616910596,0.36267,0.248499111,-0.0430391825,0.358753,0.288872391,-0.133678284,0.388041,0.290278654,-0.102238734,0.376213,0.29069909,-0.0882262114,0.370779,0.291119911,-0.0757237859,0.365983
0.272592439,-0.206324939,0.409461,0.259463025,-0.153261449,0.39764,0.254085164,-0.195540199,0.409046,0.227336868,-0.170972182,0.404697,0.200250299,-0.151652868,0.394605,0.186363176,-0.135136066,0.388589,0.231286857,-0.123074511,0.391928,0.208297952,-0.0860772146,0.377472,0.196707977,-0.067364123,0.370244,0.186111042,-0.0502162401,0.363673,0.250580845,-0.121515108,0.389405,0.230392361,-0.0789586625,0.372735,0.218489811,-0.054078566,0.36301,0.209962171,-0.0362060974,0.356064,0.26751626,-0.12385718,0.388257,0.256966317,-0.0821542996,0.371521,0.251387176,-0.0610912539,0.362959,0.249143316,-0.0424664928,0.359272,0.289221849,-0.133135667,0.388582,0.290832132,-0.101751944,0.376628,0.291374425,-0.0876953644,0.371135,0.291901137,-0.0751675297,0.366289
0.273756444,-0.204361152,0.410875,0.261046008,-0.153078235,0.399309,0.255617312,-0.195201281,0.410707,0.228498012,-0.170825847,0.405675,0.201136899,-0.151517041,0.395333,0.187226647,-0.135186501,0.38953,0.232891279,-0.122076261,0.394011,0.210242705,-0.0847364345,0.379789,0.198857201,-0.065925984,0.372677,0.188469336,-0.048737587,0.366213,0.252063519,-0.120115231,0.391235,0.232154897,-0.0773905734,0.37479,0.220415451,-0.0524586544,0.365197,0.212009862,-0.0345695219,0.358345,0.26889819,-0.122113387,0.389857,0.260436782,-0.0809942731,0.376058,0.255947852,-0.0600228443,0.368997,0.251869398,-0.0408792979,0.362579,0.290510174,-0.130959281,0.389873,0.292650962,-0.099750903,0.378075,0.293546895,-0.0855447623,0.372654,0.294371397,-0.0729252268,0.367871
0.274553242,-0.20376031,0.411624,0.261859222,-0.152886021,0.4001,0.256474942,-0.194723772,0.411484,0.229156134,-0.170708902,0.406193,0.20173078,-0.151482609,0.395892,0.187733411,-0.135208567,0.390071,0.233571236,-0.122136429,0.394842,0.211033462,-0.0846317272,0.380657,0.199719856,-0.0657741239,0.373565,0.189406126,-0.0485646226,0.367117,0.252762804,-0.120037572,0.392032,0.232988018,-0.0772053284,0.375603,0.221282068,-0.0522765324,0.366019,0.212899634,-0.034384702,0.359174,0.269615175,-0.121919775,0.390621,0.26113601,-0.0808118256,0.377038,0.256678885,-0.0598178119,0.370089,0.252627666,-0.0406659016,0.363771,0.291259428,-0.130622252,0.390588,0.293336995,-0.0993526953,0.378811,0.294227105,-0.0850814597,0.3734,0.295040928,-0.072415954,0.368625
0.275040705,-0.203170049,0.411999,0.262354259,-0.152729824,0.400555,0.257011774,-0.194254575,0.41188,0.22955578,-0.170601794,0.406469,0.202093147,-0.151434594,0.396199,0.188031407,-0.13519465,0.390349,0.233982595,-0.122173981,0.395346,0.211535161,-0.0845798692,0.381227,0.200274139,-0.0656954156,0.374167,0.190013781,-0.0484731074,0.367749,0.253191395,-0.119994935,0.392524,0.233524672,-0.0771063127,0.37615,0.221854644,-0.0521795555,0.366599,0.213495706,-0.0342836787,0.359776,0.270054881,-0.121807621,0.391093,0.261501556,-0.0806853681,0.377548,0.257029292,-0.0596741053,0.370617,0.252965119,-0.0405189916,0.364317,0.291714248,-0.130422234,0.391024,0.293780682,-0.0991246022,0.379294,0.294679631,-0.0848166092,0.373904,0.295499872,-0.0721250329,0.369149
0.275818542,-0.201823746,0.413029,0.263010086,-0.152793588,0.401341,0.257860086,-0.194195673,0.412868,0.229987513,-0.170633873,0.406925,0.202477843,-0.151494579,0.396665,0.188360118,-0.135267966,0.390788,0.234423885,-0.122286016,0.395964,0.211902925,-0.0845585841,0.381667,0.200617131,-0.0656343562,0.374519,0.190341413,-0.0483926007,0.368021,0.253654014,-0.120050092,0.393126,0.233896347,-0.0770448202,0.376537,0.222160961,-0.0520971283,0.366861,0.21375761,-0.0341945659,0.359949,0.270550651,-0.12182398,0.391701,0.261902452,-0.0806493854,0.378115,0.257398795,-0.0596098178,0.371165,0.253304676,-0.0404394443,0.364846,0.292282643,-0.130407141,0.39167,0.29420353,-0.0990152445,0.37978,0.295041977,-0.0846575282,0.374317,0.295804761,-0.0719310167,0.369497
0.277217193,-0.201090501,0.414603,0.26373002,-0.152973114,0.402278,0.259218465,-0.193447378,0.414395,0.230241875,-0.170606261,0.407144,0.202713074,-0.15149961,0.39691,0.188552103,-0.135283722,0.391004,0.234825399,-0.122410877,0.396551,0.212078838,-0.0845087684,0.381825,0.200696229,-0.0655366689,0.374461,0.190368598,-0.0482828164,0.367816,0.254014211,-0.120103348,0.393602,0.234031076,-0.0769578874,0.376603,0.222161535,-0.0519872072,0.366688,0.213666793,-0.0340866194,0.359605,0.270901887,-0.121834123,0.392131,0.262123048,-0.0806033231,0.378425,0.257563266,-0.0595407969,0.371413,0.253418198,-0.0403620557,0.365038,0.292689195,-0.130396257,0.392132,0.294239732,-0.0988476722,0.379784,0.294905102,-0.084430581,0.37411,0.295508861,-0.0716679815,0.369104
0.278383702,-0.200722297,0.415985,0.264519115,-0.153281224,0.403092,0.260290829,-0.192910206,0.415593,0.230462697,-0.170572015,0.407336,0.203393583,-0.1510975,0.397516,0.188822448,-0.135082609,0.391119,0.235502323,-0.122414637,0.396879,0.212526651,-0.0845246455,0.381935,0.201064568,-0.0655771666,0.374521,0.190688373,-0.0483519475,0.367876,0.254737982,-0.12023575,0.394008,0.234841735,-0.0771271709,0.377116,0.223746354,-0.0517258168,0.367263,0.214601388,-0.0342089111,0.360224,0.271678753,-0.122085985,0.392645,0.262447032,-0.0807510688,0.378527,0.257658738,-0.0596615854,0.371303,0.253139384,-0.0410484356,0.364737,0.293568535,-0.130824161,0.392849,0.294602587,-0.0990332864,0.380118,0.295020704,-0.084525536,0.374268,0.295400549,-0.0716977123,0.369107
0.279560279,-0.200361187,0.417382,0.265215201,-0.153564905,0.403841,0.261351004,-0.192365088,0.416772,0.230664022,-0.170562682,0.407533,0.203624783,-0.151040011,0.397727,0.189085121,-0.134954777,0.391307,0.23598706,-0.122395951,0.397064,0.212894466,-0.0845448487,0.382056,0.201373623,-0.0656160717,0.37461,0.190945426,-0.0484078417,0.367939,0.255286217,-0.120331766,0.394301,0.235329946,-0.0772120372,0.377286,0.224238164,-0.0518593847,0.36736,0.215069131,-0.0342626795,0.36027,0.27230486,-0.122291653,0.393076,0.262844342,-0.0809106773,0.378816,0.25794282,-0.0598040319,0.37152,0.253329386,-0.0411129872,0.364888,0.29434827,-0.131199715,0.393534,0.294898108,-0.0991821196,0.380395,0.295084722,-0.0845918913,0.374358,0.295254663,-0.0717057635,0.369032
0.27988155,-0.200010382,0.41747,0.265636343,-0.153128878,0.403936,0.261685224,-0.191967155,0.416861,0.231016036,-0.170137845,0.407661,0.203697746,-0.150910885,0.397677,0.189551294,-0.134567064,0.391629,0.236344984,-0.122365614,0.397162,0.213146335,-0.084544235,0.382077,0.201578161,-0.065633317,0.374602,0.191107698,-0.0484415518,0.367906,0.255636384,-0.120366946,0.394399,0.235674966,-0.0772649949,0.377349,0.224589495,-0.0519555186,0.367404,0.215438992,-0.0343050398,0.3603,0.272635515,-0.122379723,0.393175,0.263185678,-0.08104563,0.379081,0.258292571,-0.0599464147,0.37187,0.253856499,-0.040754243,0.365332,0.294634978,-0.131349944,0.393631,0.295017737,-0.0992618737,0.380466,0.295125702,-0.0846419774,0.374417,0.295224531,-0.071733145,0.36908
0.280048994,-0.199980483,0.417402,0.266140784,-0.153141352,0.40417,0.261902579,-0.191907411,0.416844,0.231287883,-0.170036801,0.407717,0.20404101,-0.150786445,0.397828,0.189936054,-0.134457446,0.391829,0.237068119,-0.122336797,0.397595,0.213883312,-0.0845284517,0.38261,0.20233205,-0.0656309374,0.3752,0.191877629,-0.0484527457,0.368563,0.256374154,-0.12037239,0.394847,0.236379488,-0.0772222224,0.377625,0.224948256,-0.0520500768,0.367578,0.216121179,-0.0342526887,0.360403,0.273354588,-0.122403191,0.39361,0.263751848,-0.0810873513,0.379593,0.258800771,-0.0599824578,0.372421,0.254359588,-0.0407987852,0.365987,0.295286016,-0.131380133,0.39401,0.295605286,-0.0992409793,0.381053,0.295696237,-0.0845741455,0.3751,0.295778315,-0.0716268622,0.369847
0.28021377,-0.199948667,0.41733,0.266665566,-0.153165597,0.404435,0.262120603,-0.191848118,0.416828,0.231558475,-0.169934969,0.407771,0.20441543,-0.150685197,0.39804,0.190317855,-0.134345797,0.392023,0.237823454,-0.122324561,0.398082,0.21466716,-0.0845312682,0.383227,0.203136501,-0.0656450178,0.375892,0.192701561,-0.0484776162,0.369324,0.257147535,-0.120394624,0.39535,0.237173062,-0.0772087599,0.378044,0.225377394,-0.0521586056,0.367949,0.216942095,-0.0342226095,0.360739,0.274112469,-0.122444111,0.394101,0.264330469,-0.0811329213,0.380123,0.25935551,-0.0600292987,0.373039,0.254904379,-0.0408500181,0.366702,0.295975181,-0.131427353,0.39444,0.296268049,-0.0992453664,0.381737,0.296359002,-0.084532747,0.3759,0.296440926,-0.0715470412,0.37075
0.279983843,-0.200074558,0.417139,0.266840969,-0.153300008,0.404465,0.261961872,-0.191873202,0.416668,0.23147868,-0.169849199,0.407613,0.204441364,-0.150526338,0.397952,0.190414079,-0.134144664,0.391949,0.238274348,-0.122331476,0.398247,0.215039825,-0.0846212349,0.383435,0.203413566,-0.0657453699,0.376029,0.192875571,-0.0485818288,0.369367,0.25760221,-0.120512189,0.395532,0.237587665,-0.077345867,0.378168,0.225796266,-0.0522721721,0.368039,0.217364903,-0.0343245702,0.360804,0.274540923,-0.1226476,0.39428,0.264640666,-0.0813351468,0.380283,0.259592558,-0.060227271,0.373176,0.255073496,-0.0410416669,0.366816,0.296319755,-0.131725277,0.394582,0.296518963,-0.0994882709,0.381979,0.296563201,-0.084752797,0.376188,0.296604686,-0.071745493,0.371079
0.279820348,-0.200248035,0.417047,0.267005144,-0.153427988,0.404478,0.261844013,-0.19192824,0.416573,0.231424447,-0.169782179,0.4075,0.20447707,-0.150374662,0.397883,0.190517126,-0.133948305,0.391889,0.238658583,-0.122304325,0.398301,0.215377902,-0.084697547,0.383581,0.203721143,-0.0658555809,0.376222,0.193112991,-0.0487020981,0.369531,0.257994206,-0.120600482,0.395618,0.238030119,-0.0774920209,0.378336,0.226292,-0.0524035398,0.368254,0.21789872,-0.0344440953,0.361053,0.274917124,-0.122827722,0.394384,0.26492441,-0.0815292813,0.380405,0.259788594,-0.060415774,0.373254,0.255188409,-0.0412246625,0.366852,0.29664112,-0.132012856,0.394693,0.296731859,-0.0997184216,0.382172,0.296721645,-0.0849598068,0.376418,0.296715689,-0.0719312151,0.371342
0.279729861,-0.200474058,0.417064,0.267204307,-0.153576055,0.404544,0.261763829,-0.192010975,0.416538,0.231384976,-0.169725988,0.407413,0.204522048,-0.150229749,0.397832,0.190626012,-0.133756042,0.391841,0.239023923,-0.122267672,0.398324,0.215665485,-0.0847539713,0.383637,0.203962839,-0.0659445139,0.376293,0.193310325,-0.0488123344,0.369618,0.258395133,-0.120693007,0.395718,0.238446358,-0.07762966,0.378462,0.226742511,-0.0525244506,0.368395,0.218374248,-0.0345544489,0.361205,0.275332991,-0.123025565,0.394545,0.265229753,-0.0817300425,0.380558,0.260032662,-0.0606154519,0.373401,0.255336716,-0.0414130494,0.366936,0.297048231,-0.132338674,0.394918,0.296988202,-0.0999632023,0.382421,0.296904548,-0.0851738533,0.376679,0.296833045,-0.0721184962,0.371613
0.279202422,-0.200823607,0.417017,0.267246713,-0.153882209,0.404725,0.261245044,-0.192160346,0.416405,0.230990546,-0.169616814,0.407217,0.204358643,-0.149970974,0.397792,0.190630305,-0.133422798,0.391864,0.239359298,-0.122341067,0.398499,0.216224597,-0.0848330265,0.383918,0.204597472,-0.0660520237,0.376628,0.194004566,-0.0489271096,0.37,0.258838365,-0.120975099,0.396062,0.239141278,-0.0779692487,0.378965,0.22760754,-0.0528418004,0.368992,0.219359135,-0.0348506286,0.361868,0.275826499,-0.123473464,0.395008,0.265769478,-0.082192211,0.380932,0.260596496,-0.0610809903,0.37373,0.255893185,-0.0418742577,0.367182,0.2975385,-0.132980089,0.395491,0.297286575,-0.100503016,0.383018,0.297088357,-0.0857120527,0.377287,0.296918253,-0.0726481825,0.372231
0.278679747,-0.201177483,0.416978,0.267291088,-0.154189477,0.404909,0.260749163,-0.192326923,0.416309,0.23061714,-0.169523063,0.407058,0.204205519,-0.149719724,0.397772,0.190646271,-0.133097754,0.391911,0.239714191,-0.122424545,0.398707,0.216809293,-0.0849222222,0.384245,0.205259441,-0.0661683695,0.377013,0.194729933,-0.0490496354,0.37044,0.259278102,-0.12125547,0.396401,0.2398352,-0.0783085872,0.379466,0.22847246,-0.0531592319,0.369588,0.22034539,-0.0351471824,0.362532,0.276296881,-0.123910829,0.395438,0.266301435,-0.082651874,0.381295,0.261160968,-0.0615466269,0.37406,0.256487247,-0.042341588,0.367482,0.297977582,-0.133598634,0.395996,0.297622307,-0.101055221,0.383663,0.297351635,-0.0862732573,0.377996,0.297120339,-0.0732069202,0.372996
0.278310097,-0.201349625,0.417015,0.267172637,-0.154369582,0.405082,0.260384286,-0.192448064,0.416329,0.23032462,-0.169515908,0.407059,0.204027974,-0.149628522,0.397843,0.190570377,-0.132976923,0.392041,0.239721325,-0.122553177,0.39892,0.217109203,-0.0849561266,0.384521,0.205676681,-0.0661948026,0.377322,0.195249194,-0.0490596024,0.370777,0.259337674,-0.121452857,0.396671,0.240113164,-0.0785103619,0.379842,0.228875413,-0.0533531262,0.370025,0.220836974,-0.0353304083,0.363013,0.27637745,-0.124161937,0.395744,0.266588765,-0.0829295271,0.381592,0.261556626,-0.0618301741,0.374351,0.256981818,-0.0426285088,0.367768,0.298047881,-0.133908137,0.396327,0.297718095,-0.101368008,0.38408,0.297439077,-0.0866225247,0.378453,0.297203189,-0.0735781997,0.373488
