sluyters/QuantumLeap/backend/src/datasets/dynamic/HandGestureDataset_SHREC2017_csv/Gesture9/finger_2/subject_25_essai_1_skeletons_world.csv
Wrist_x,Wrist_y,Wrist_z,Palm_x,Palm_y,Palm_z,thumb_base_x,thumb_base_y,thumb_base_z,thumb_first_joint_x,thumb_first_joint_y,thumb_first_joint_z,thumb_second_joint_x,thumb_second_joint_y,thumb_second_joint_z,thumb_tip_x,thumb_tip_y,thumb_tip_z,index_base_x,index_base_y,index_base_z,index_first_joint_x,index_first_joint_y,index_first_joint_z,index_second_joint_x,index_second_joint_y,index_second_joint_z,index_tip_x,index_tip_y,index_tip_z,middle_base_x,middle_base_y,middle_base_z,middle_first_joint_x,middle_first_joint_y,middle_first_joint_z,middle_second_joint_x,middle_second_joint_y,middle_second_joint_z,middle_tip_x,middle_tip_y,middle_tip_z,ring_base_x,ring_base_y,ring_base_z,ring_first_joint_x,ring_first_joint_y,ring_first_joint_z,ring_second_joint_x,ring_second_joint_y,ring_second_joint_z,ring_tip_x,ring_tip_y,ring_tip_z,pinky_base_x,pinky_base_y,pinky_base_z,pinky_first_joint_x,pinky_first_joint_y,pinky_first_joint_z,pinky_second_joint_x,pinky_second_joint_y,pinky_second_joint_z,pinky_tip_x,pinky_tip_y,pinky_tip_z,
0.437981355,-0.480919537,0.564856,0.434778836,-0.435492952,0.561205,0.420923787,-0.474762256,0.566956,0.389740927,-0.460441865,0.565034,0.35795576,-0.442655151,0.555398,0.343253716,-0.429293596,0.554135,0.410800143,-0.404274334,0.562134,0.397240323,-0.371006011,0.553893,0.390405413,-0.35417739,0.549772,0.384159074,-0.338759006,0.546026,0.4324167,-0.401978928,0.558511,0.424214485,-0.358783429,0.5481,0.418944572,-0.334802807,0.542027,0.415253503,-0.319432446,0.537689,0.450538592,-0.404846676,0.555927,0.446349709,-0.362678432,0.549264,0.443185251,-0.346251506,0.545854,0.441214359,-0.330251859,0.542755,0.472057485,-0.416338785,0.553646,0.481917525,-0.386482584,0.546007,0.486247597,-0.373679084,0.542497,0.489970976,-0.362794766,0.5394
0.435534982,-0.478353534,0.561867,0.434146486,-0.434917892,0.560514,0.41875901,-0.472485459,0.564203,0.388192908,-0.458836799,0.562916,0.358386941,-0.443428165,0.556175,0.344431863,-0.431100343,0.556175,0.411292268,-0.404884844,0.56294,0.398922413,-0.372794569,0.556382,0.392662529,-0.356483045,0.553103,0.386943913,-0.341505874,0.550147,0.433121996,-0.40272989,0.559516,0.426367984,-0.360797292,0.551242,0.421831187,-0.337403337,0.546416,0.418818881,-0.322543261,0.542969,0.451231056,-0.405571675,0.556844,0.448391178,-0.36475071,0.551997,0.446135792,-0.348684981,0.549517,0.444544957,-0.333299908,0.547263,0.472349719,-0.416766122,0.554033,0.483571847,-0.388191676,0.548108,0.488554473,-0.375937437,0.545385,0.49286439,-0.365512173,0.542983
0.43726891,-0.481341089,0.565034,0.434454666,-0.435919172,0.561336,0.420418667,-0.475305032,0.567313,0.38971098,-0.461414302,0.56584,0.35760804,-0.44303221,0.555594,0.342776062,-0.429508262,0.554034,0.41087947,-0.404851583,0.562497,0.397318702,-0.37153246,0.554395,0.390458763,-0.354831675,0.550344,0.384184143,-0.339514241,0.546661,0.432434517,-0.403134987,0.558627,0.424133838,-0.35927762,0.548491,0.418870483,-0.336196939,0.542578,0.415016406,-0.320113156,0.538355,0.450392536,-0.406546583,0.555849,0.445273474,-0.365057616,0.549159,0.442414459,-0.348189339,0.545737,0.440305856,-0.331065613,0.542625,0.471617894,-0.42569095,0.553364,0.480803522,-0.388556338,0.545453,0.484642335,-0.374797477,0.541819,0.488256626,-0.363310599,0.538612
0.436327115,-0.481353158,0.564471,0.43395266,-0.436089283,0.560913,0.419549199,-0.475225672,0.566747,0.389039136,-0.461339165,0.565368,0.357226569,-0.443054692,0.555445,0.342569859,-0.429633026,0.554048,0.41065981,-0.404988511,0.562146,0.397005667,-0.371339218,0.554225,0.390073296,-0.354624189,0.550265,0.383726418,-0.339277026,0.546664,0.432270712,-0.403616675,0.55831,0.424084534,-0.359139605,0.548401,0.418850349,-0.335944041,0.542622,0.414983021,-0.31991319,0.538493,0.450262579,-0.407095264,0.555547,0.445043069,-0.365757729,0.548855,0.442074445,-0.348466743,0.545431,0.439798129,-0.331549133,0.542319,0.471357951,-0.42545632,0.553059,0.480563323,-0.388982569,0.545279,0.484556774,-0.375310111,0.541704,0.488220423,-0.3635976,0.53855
0.435457346,-0.481359362,0.564087,0.43250149,-0.435181406,0.559325,0.418586159,-0.474942346,0.566149,0.386931291,-0.460296373,0.564276,0.356038165,-0.442041962,0.55467,0.341591961,-0.428749021,0.552973,0.408831365,-0.403393255,0.559666,0.394290391,-0.368683093,0.550659,0.386607394,-0.350933693,0.546156,0.379727181,-0.334877063,0.542062,0.430669192,-0.402202645,0.555856,0.423625356,-0.359613091,0.548075,0.419408857,-0.33602212,0.543537,0.416107448,-0.320482401,0.540295,0.449028311,-0.409594106,0.553251,0.444312893,-0.364115222,0.547086,0.441251908,-0.346760662,0.543932,0.438666821,-0.331156579,0.541064,0.469738823,-0.423712828,0.551175,0.47809287,-0.387316814,0.542518,0.481988584,-0.372745982,0.538541,0.485124078,-0.361324198,0.535031
0.430319397,-0.475584715,0.557304,0.425394935,-0.427348003,0.550849,0.413484655,-0.469107454,0.559171,0.381807267,-0.447351158,0.554656,0.350381525,-0.427145104,0.544451,0.335296468,-0.411913612,0.541222,0.401274523,-0.392024935,0.550063,0.384782501,-0.353551698,0.53958,0.37622475,-0.335497795,0.534339,0.370254018,-0.321724336,0.529574,0.422844001,-0.38992856,0.546141,0.412961836,-0.345221333,0.536254,0.407200487,-0.319192056,0.530487,0.402277266,-0.303031276,0.526367,0.44123991,-0.393456926,0.543631,0.436474585,-0.351028409,0.536416,0.433261312,-0.331595819,0.532724,0.43050193,-0.317867176,0.529368,0.463482118,-0.406536886,0.541981,0.47249127,-0.371571433,0.533808,0.475875976,-0.357567047,0.530054,0.478060031,-0.350713577,0.526741
0.428195626,-0.472968787,0.554633,0.423363601,-0.420307434,0.548354,0.411431862,-0.466637254,0.556582,0.378619217,-0.443200821,0.551751,0.345487902,-0.42018992,0.540994,0.332796834,-0.408002653,0.539334,0.396715048,-0.386141308,0.54777,0.382874201,-0.349587421,0.536927,0.375921159,-0.327900164,0.531506,0.367940072,-0.313772553,0.526578,0.41836356,-0.383412552,0.543776,0.41106833,-0.341518143,0.534188,0.405903157,-0.316049755,0.528594,0.401599719,-0.299709043,0.524599,0.436823263,-0.386418849,0.541186,0.434217686,-0.342969607,0.533499,0.431093724,-0.327579847,0.529566,0.428126334,-0.311285592,0.52599,0.459203627,-0.398890569,0.539409,0.468627847,-0.367193691,0.529887,0.471900068,-0.352815424,0.525512,0.474019411,-0.341831406,0.521652
0.412411159,-0.442518328,0.535017,0.412533318,-0.389942832,0.533361,0.395737645,-0.428207884,0.537233,0.365438301,-0.411030662,0.534997,0.336067954,-0.392501637,0.527681,0.322474724,-0.378389592,0.526582,0.390690349,-0.359375195,0.535494,0.379019359,-0.323379883,0.528648,0.372923236,-0.305873453,0.525225,0.367334447,-0.289758182,0.522114,0.412637774,-0.357957813,0.532153,0.410343046,-0.315732192,0.527482,0.407994867,-0.292686833,0.524758,0.406296796,-0.276010693,0.522812,0.430819101,-0.361719735,0.529587,0.435491286,-0.323834745,0.530103,0.437259683,-0.304881703,0.530367,0.437683119,-0.290600027,0.530608,0.451861788,-0.374506066,0.526967,0.463785643,-0.342825097,0.520863,0.46920175,-0.328371022,0.518058,0.473791189,-0.315927854,0.515583
0.41090698,-0.404377863,0.526923,0.409944893,-0.360550839,0.52603,0.394200606,-0.398889937,0.529305,0.36361528,-0.382956341,0.527498,0.334646585,-0.366401644,0.521595,0.320950773,-0.353191562,0.521134,0.387437063,-0.331590272,0.528774,0.374794225,-0.295902357,0.522587,0.367990235,-0.279436694,0.519494,0.361603174,-0.264850885,0.516682,0.409245321,-0.32914698,0.525377,0.406099647,-0.287560578,0.521756,0.403229503,-0.26453744,0.519644,0.401146449,-0.24784863,0.518136,0.427449447,-0.331970723,0.522679,0.431550883,-0.294892375,0.52435,0.432972166,-0.276041577,0.525204,0.433086349,-0.261411149,0.525981,0.448746116,-0.343528105,0.519763,0.459820982,-0.311459541,0.514157,0.464849111,-0.296784858,0.511581,0.469093134,-0.284066203,0.509308
0.402640103,-0.365488603,0.516576,0.402943688,-0.322868592,0.516916,0.38626516,-0.360319334,0.519346,0.35638023,-0.344494527,0.51826,0.327453058,-0.327700367,0.512161,0.3139891,-0.314448647,0.511824,0.381465749,-0.294799648,0.520815,0.370552537,-0.259242587,0.515586,0.365025852,-0.241142837,0.512971,0.359959522,-0.224494381,0.510594,0.403164707,-0.29226574,0.517164,0.402080482,-0.250917454,0.513973,0.400543509,-0.227345767,0.512112,0.398882571,-0.211191875,0.510783,0.421100146,-0.294891409,0.514117,0.427348993,-0.258302797,0.515938,0.429807692,-0.239405649,0.51687,0.431410675,-0.222835103,0.517716,0.441789178,-0.30598722,0.510565,0.456405955,-0.275704229,0.505763,0.462904552,-0.261926719,0.503556,0.468534903,-0.249829135,0.50161
0.395837853,-0.329574157,0.514041,0.400216501,-0.287068967,0.513649,0.379166349,-0.321944411,0.515677,0.349639256,-0.304629197,0.51419,0.321726983,-0.287470935,0.508881,0.310993896,-0.275543044,0.51152,0.38030757,-0.255481447,0.51565,0.368299426,-0.218374308,0.510116,0.362278082,-0.200388274,0.507349,0.356745526,-0.183793969,0.504833,0.403367809,-0.25644813,0.513363,0.401999642,-0.215358469,0.510887,0.401132477,-0.191339497,0.509442,0.400440902,-0.174315181,0.508411,0.421885592,-0.261974971,0.511523,0.424518173,-0.224596351,0.512982,0.425906034,-0.205226331,0.513729,0.427223998,-0.187741951,0.514407,0.442348417,-0.276373942,0.509494,0.455201116,-0.245471606,0.504574,0.461182995,-0.231146079,0.502313,0.466058818,-0.219346309,0.500319
0.400880492,-0.296764554,0.511848,0.399534909,-0.253224723,0.509699,0.382958432,-0.290491829,0.512867,0.3520549,-0.271096512,0.508386,0.32365706,-0.253077112,0.501799,0.313924882,-0.241548935,0.50533,0.37497987,-0.2227978,0.509964,0.363296704,-0.184793024,0.502428,0.357429241,-0.165648054,0.498659,0.35204005,-0.148382016,0.495233,0.398547612,-0.221748657,0.508127,0.397372217,-0.181472778,0.507171,0.396614394,-0.157561913,0.506613,0.39605925,-0.140255468,0.506215,0.418126027,-0.225752666,0.506857,0.421382031,-0.189103702,0.509053,0.423148996,-0.169685926,0.510177,0.424831816,-0.15171902,0.511198,0.440873563,-0.238627103,0.505818,0.453481401,-0.207214719,0.500256,0.459245156,-0.193125872,0.497701,0.464409811,-0.180589935,0.495446
0.400988916,-0.285264234,0.507094,0.399449211,-0.233811682,0.506051,0.386613871,-0.272422234,0.508589,0.354771095,-0.254500351,0.504335,0.326619067,-0.238887625,0.499554,0.317536808,-0.229476272,0.504919,0.37236938,-0.206694009,0.507526,0.360921497,-0.168547667,0.500688,0.355176995,-0.14946424,0.497269,0.349925144,-0.132102251,0.49416,0.395527196,-0.202932279,0.505288,0.395001647,-0.163491035,0.50544,0.39468568,-0.139758964,0.505528,0.39445682,-0.122476086,0.505591,0.415150742,-0.204598783,0.503562,0.417945753,-0.167961381,0.506117,0.419486762,-0.148595161,0.507424,0.421027043,-0.130420552,0.508613,0.438633682,-0.214580608,0.501788,0.452026543,-0.183557029,0.497098,0.45828971,-0.169358976,0.494943,0.462990234,-0.158778673,0.493042
0.39597061,-0.251329995,0.507203,0.395459389,-0.208522032,0.505782,0.378252097,-0.244952892,0.508453,0.347786067,-0.225135802,0.50452,0.322117759,-0.208874589,0.501615,0.311863401,-0.196445394,0.504362,0.371614884,-0.178065156,0.506733,0.360229577,-0.139848583,0.499914,0.354526489,-0.120683706,0.496504,0.349335856,-0.103227399,0.493404,0.395078838,-0.177588687,0.504741,0.39341321,-0.13743454,0.50363,0.392811322,-0.113184099,0.502982,0.392521566,-0.0955056055,0.502519,0.414307026,-0.181947007,0.503262,0.417210583,-0.14362741,0.503747,0.418816698,-0.12371178,0.503995,0.420477364,-0.105188871,0.504221,0.436314207,-0.194955976,0.501842,0.447806873,-0.163690561,0.496464,0.453254787,-0.149021112,0.493992,0.45811421,-0.136216487,0.491812
0.393390452,-0.216592752,0.501654,0.395333762,-0.174949117,0.50198,0.375531548,-0.209724841,0.502477,0.344617762,-0.192132454,0.499324,0.314281302,-0.174417635,0.490279,0.301641272,-0.16170163,0.491108,0.372514747,-0.144526306,0.503255,0.358222125,-0.107650384,0.497758,0.351064961,-0.0891760568,0.495009,0.345257675,-0.0730072364,0.49251,0.396749068,-0.144650613,0.502219,0.393544376,-0.104995455,0.500744,0.391799542,-0.0806308164,0.499884,0.39079566,-0.063147919,0.49927,0.416510957,-0.149425543,0.501328,0.41665129,-0.112887352,0.501812,0.417071142,-0.0928026241,0.50206,0.417531947,-0.0741022575,0.502286,0.438832828,-0.162849824,0.500246,0.447488768,-0.130034306,0.496156,0.451550739,-0.114771772,0.494277,0.455174075,-0.101203895,0.492619
0.395906272,-0.194585089,0.49762,0.396829581,-0.154256782,0.499766,0.378368956,-0.189321259,0.499363,0.347775987,-0.173462659,0.497685,0.3198239,-0.158144059,0.493089,0.305864171,-0.144455696,0.492094,0.374053162,-0.126703006,0.503223,0.359570539,-0.0903213966,0.499522,0.352252011,-0.0718981234,0.497671,0.345552661,-0.0550109622,0.495988,0.397520716,-0.124745507,0.501356,0.391933737,-0.0851103883,0.500066,0.388497036,-0.0606876717,0.499314,0.385944925,-0.042611439,0.498777,0.416818509,-0.127605873,0.499575,0.415681138,-0.0904019348,0.500922,0.415085401,-0.0707509909,0.501612,0.414526275,-0.0516139088,0.502238,0.438903767,-0.138544782,0.497125,0.447580356,-0.105003382,0.494129,0.451589544,-0.0895285221,0.492753,0.455138987,-0.0758402296,0.491539
0.400048669,-0.189395485,0.504512,0.395525404,-0.139717581,0.503802,0.38022791,-0.176576876,0.505416,0.348020075,-0.159625442,0.50139,0.317864903,-0.143497857,0.493682,0.303179432,-0.129971062,0.492192,0.369322121,-0.111474717,0.504642,0.357826479,-0.0730641609,0.498025,0.352046854,-0.0536840648,0.494716,0.346737461,-0.0371391711,0.491708,0.393161886,-0.108845731,0.503273,0.391175359,-0.0697992884,0.502255,0.389747684,-0.0450088285,0.501662,0.388547764,-0.0267662767,0.501238,0.41322986,-0.111330735,0.502224,0.414753717,-0.0740351214,0.502312,0.41553189,-0.0544147326,0.502357,0.416177597,-0.0351229564,0.502398,0.436988566,-0.122145367,0.501159,0.448338504,-0.0893825982,0.496923,0.453590133,-0.0742523587,0.494977,0.458243552,-0.0608608978,0.49326
0.396280457,-0.18170102,0.506896,0.395151518,-0.139508233,0.505609,0.378029795,-0.175477683,0.507663,0.343340311,-0.153913337,0.503324,0.316157987,-0.136433742,0.498157,0.304167584,-0.123113374,0.498579,0.37036305,-0.109502151,0.505961,0.35770319,-0.0711752582,0.499096,0.351328342,-0.0517934329,0.495664,0.343638249,-0.0320518374,0.492543,0.394311519,-0.10840491,0.504646,0.391297823,-0.0682064322,0.502421,0.389424343,-0.0432549781,0.501123,0.388007381,-0.0248973291,0.500196,0.414211109,-0.112179646,0.503709,0.413860857,-0.0740207366,0.50196,0.413764319,-0.0537944896,0.501065,0.413779448,-0.0345666393,0.500251,0.437355696,-0.124509526,0.502881,0.447410734,-0.0912287618,0.497824,0.452076287,-0.0757722162,0.495501,0.456232119,-0.0620462641,0.493451
0.395372803,-0.181683798,0.507576,0.394880903,-0.139386897,0.506025,0.377132077,-0.175034631,0.508194,0.343636362,-0.154046051,0.503758,0.316121812,-0.136418131,0.4981,0.304351214,-0.123187699,0.49888,0.370442392,-0.108764987,0.506035,0.357320907,-0.0704761812,0.498978,0.350711569,-0.051105567,0.49545,0.343428247,-0.0320322501,0.492242,0.394505117,-0.108205903,0.504861,0.39116079,-0.0676424899,0.502248,0.389145387,-0.0426501159,0.500723,0.387661213,-0.0242656979,0.499635,0.414426412,-0.1124322,0.504068,0.413380775,-0.0739832479,0.501621,0.41295584,-0.0535590957,0.500369,0.412727355,-0.0343599912,0.49923,0.437481221,-0.125297454,0.503458,0.447124955,-0.0918484396,0.49815,0.451603663,-0.0762852245,0.495712,0.455600717,-0.0624485683,0.49356
0.397639448,-0.180792979,0.50914,0.396181835,-0.138535119,0.50751,0.379187914,-0.174507651,0.509755,0.346086582,-0.153957665,0.504863,0.318047953,-0.136545604,0.498796,0.305841101,-0.123388092,0.49936,0.370881036,-0.107237009,0.507474,0.357574114,-0.0689178975,0.500168,0.351477863,-0.0505809256,0.496515,0.344719712,-0.0316378219,0.493194,0.394949318,-0.106714707,0.506287,0.389323651,-0.0648609282,0.501317,0.386069969,-0.0396149515,0.498417,0.384003435,-0.0224877599,0.496346,0.413755828,-0.106663355,0.505493,0.40752883,-0.0662732246,0.499326,0.404563308,-0.0449272137,0.496171,0.401931866,-0.025277993,0.493303,0.437921608,-0.117422853,0.504896,0.448576478,-0.0845252484,0.499933,0.453131547,-0.069186851,0.497653,0.457385056,-0.0609734773,0.495641
0.396070527,-0.180572056,0.509109,0.395482185,-0.138358377,0.50759,0.377782553,-0.174006244,0.509701,0.34374138,-0.154053595,0.505482,0.315466153,-0.136279605,0.498789,0.30508236,-0.123302377,0.499993,0.370802591,-0.106804577,0.507581,0.357095612,-0.0687669906,0.500566,0.350173428,-0.0494570174,0.497058,0.343839816,-0.031725957,0.49387,0.395035205,-0.107181921,0.50645,0.389932369,-0.0656959446,0.50171,0.386898455,-0.0405207531,0.498946,0.384661693,-0.0220870103,0.496971,0.415014657,-0.111306998,0.50569,0.410456733,-0.0714821533,0.501213,0.405479094,-0.0479305138,0.498922,0.402961941,-0.0284414265,0.496839,0.438191152,-0.125716302,0.505114,0.445493554,-0.0928902362,0.499553,0.444740192,-0.0762982125,0.496999,0.453386488,-0.0611413638,0.494744
0.39561702,-0.180693874,0.509846,0.395474452,-0.138400948,0.508231,0.377390504,-0.173922603,0.510396,0.343748776,-0.154037122,0.506278,0.315274384,-0.136269075,0.499348,0.304700398,-0.123280575,0.500493,0.371098833,-0.106644356,0.508115,0.356988219,-0.0687110754,0.501056,0.349862177,-0.0494580043,0.497526,0.343342072,-0.0317815679,0.494318,0.395357583,-0.107129567,0.507019,0.390085074,-0.0654355229,0.501888,0.386943668,-0.0402346059,0.498895,0.384612599,-0.0217912442,0.496757,0.415328206,-0.111470793,0.506301,0.410591644,-0.0716142434,0.502109,0.405886419,-0.048944384,0.499965,0.403305728,-0.0294915271,0.498015,0.43834234,-0.125889072,0.505792,0.445081036,-0.0928161338,0.500057,0.445118714,-0.0763631505,0.497422,0.452428923,-0.0613875762,0.495096
0.396303773,-0.183711932,0.509585,0.395080433,-0.140188219,0.50858,0.376694423,-0.174699084,0.50994,0.34441869,-0.161897748,0.506945,0.315253625,-0.144134543,0.498918,0.304004712,-0.126985285,0.497876,0.371589329,-0.110501396,0.50852,0.358340101,-0.0722929896,0.501765,0.348309217,-0.0574781657,0.498387,0.343947753,-0.0343009687,0.495317,0.396101852,-0.110089092,0.507821,0.390010762,-0.0708113334,0.503373,0.386758461,-0.0459415659,0.500778,0.385644804,-0.0228522845,0.498924,0.416370094,-0.114457514,0.50736,0.408349472,-0.0784853228,0.504289,0.405404829,-0.0577163972,0.502718,0.404076598,-0.0338383445,0.50129,0.438438663,-0.127787896,0.507025,0.443275641,-0.0940509631,0.501552,0.445844548,-0.0780086593,0.499037,0.448070315,-0.0637331763,0.496819
0.396869832,-0.184949327,0.511307,0.393144245,-0.146667369,0.510599,0.377791067,-0.17650785,0.512364,0.344194043,-0.164026862,0.509333,0.314286863,-0.1461844,0.500493,0.30193143,-0.133169565,0.50135,0.369805348,-0.11565182,0.511641,0.356475439,-0.0778931074,0.505453,0.349749291,-0.0587828022,0.502359,0.343529903,-0.0412000128,0.499546,0.393676922,-0.115056143,0.510064,0.387391523,-0.0732397141,0.505437,0.383617756,-0.0483283241,0.502738,0.380802462,-0.0300017061,0.50081,0.413321078,-0.119320138,0.508846,0.407282994,-0.0789877908,0.504264,0.404187789,-0.0580629526,0.50192,0.401352841,-0.0385500302,0.499788,0.435787799,-0.132326662,0.507587,0.441284068,-0.0977539748,0.502152,0.443789312,-0.0816021869,0.499655,0.445939212,-0.0672726821,0.497451
0.396594874,-0.185601124,0.511748,0.392713825,-0.147049197,0.510854,0.377667932,-0.177462003,0.512928,0.344043765,-0.164703581,0.510021,0.313689779,-0.146741239,0.500582,0.301187974,-0.133685823,0.501266,0.369349822,-0.11602087,0.511962,0.356062485,-0.0781945666,0.505618,0.349364943,-0.0590743827,0.502445,0.343153651,-0.0414836978,0.499561,0.393085097,-0.115335633,0.510179,0.386883684,-0.0737033447,0.505714,0.383121382,-0.0487606693,0.50311,0.380324672,-0.0304571092,0.50125,0.412627674,-0.119539926,0.508812,0.40664638,-0.0791009729,0.503908,0.403576916,-0.0581488491,0.501399,0.400752031,-0.038647156,0.499118,0.435005418,-0.132495888,0.50742,0.440465808,-0.097898192,0.50175,0.442946689,-0.0817531983,0.499146,0.44504985,-0.0674645963,0.496847
0.394276054,-0.186320768,0.512103,0.390872849,-0.149749503,0.510297,0.375513262,-0.181638178,0.513272,0.341545384,-0.171658176,0.510156,0.310537849,-0.153155471,0.499777,0.299442613,-0.136600008,0.50131,0.367264901,-0.122550589,0.510902,0.353179683,-0.0844004508,0.503954,0.346116185,-0.0652388948,0.500481,0.340439717,-0.0438060939,0.497323,0.39096196,-0.122335925,0.508932,0.386090715,-0.0807317309,0.505175,0.383159818,-0.0558305172,0.502984,0.380605074,-0.0323342546,0.501419,0.410430321,-0.126953708,0.507514,0.404730655,-0.0873818069,0.503525,0.401837964,-0.0665631473,0.501484,0.400431036,-0.0417291998,0.499628,0.432699666,-0.140421424,0.50624,0.438335755,-0.105980985,0.499913,0.440735636,-0.0901385848,0.497006,0.442932845,-0.0759148421,0.494441
0.392828178,-0.187798548,0.512328,0.390849421,-0.150896818,0.510372,0.375182662,-0.182902693,0.513457,0.341637774,-0.171704611,0.510294,0.310447132,-0.15311073,0.499631,0.299113218,-0.137452252,0.501083,0.367222489,-0.122536437,0.510843,0.353099089,-0.084381191,0.503839,0.346016599,-0.065220124,0.500337,0.340119383,-0.0447658965,0.497153,0.390932,-0.12232655,0.508893,0.386154914,-0.0807451549,0.505259,0.383277893,-0.055847722,0.503139,0.380852571,-0.033465993,0.501625,0.410426278,-0.126952457,0.507509,0.404836756,-0.0874047142,0.503657,0.401999826,-0.0665899593,0.501686,0.400343125,-0.0431186517,0.499894,0.432753514,-0.140438899,0.506303,0.438330494,-0.105979713,0.499907,0.440701939,-0.090131693,0.496968,0.44287372,-0.0759047087,0.494375
0.392963777,-0.189656647,0.51289,0.390448757,-0.154460159,0.510151,0.374551272,-0.187103388,0.514089,0.342555358,-0.172933594,0.510753,0.310353161,-0.154200515,0.49887,0.297459031,-0.141015254,0.499081,0.365987354,-0.123295073,0.510294,0.351693319,-0.0851182316,0.50272,0.344530126,-0.0659635583,0.498933,0.337928885,-0.04872518,0.49549,0.389494066,-0.122361684,0.508075,0.384643221,-0.0811208919,0.504623,0.381639745,-0.0561998708,0.502609,0.379410138,-0.0383867653,0.501171,0.409011699,-0.126406648,0.50656,0.403499517,-0.0866511849,0.502415,0.400668914,-0.065709075,0.500295,0.398090605,-0.0463213509,0.498367,0.431715515,-0.139259076,0.505357,0.437333417,-0.104749003,0.498327,0.439602484,-0.0889679277,0.495097,0.44146771,-0.0751461958,0.492246
