sluyters/QuantumLeap/src/datasets/gesture/HandGestureDataset_SHREC2017_csv/Gesture1/finger_2/subject_3_essai_1_skeletons_world.csv
Wrist_x,Wrist_y,Wrist_z,Palm_x,Palm_y,Palm_z,thumb_base_x,thumb_base_y,thumb_base_z,thumb_first_joint_x,thumb_first_joint_y,thumb_first_joint_z,thumb_second_joint_x,thumb_second_joint_y,thumb_second_joint_z,thumb_tip_x,thumb_tip_y,thumb_tip_z,index_base_x,index_base_y,index_base_z,index_first_joint_x,index_first_joint_y,index_first_joint_z,index_second_joint_x,index_second_joint_y,index_second_joint_z,index_tip_x,index_tip_y,index_tip_z,middle_base_x,middle_base_y,middle_base_z,middle_first_joint_x,middle_first_joint_y,middle_first_joint_z,middle_second_joint_x,middle_second_joint_y,middle_second_joint_z,middle_tip_x,middle_tip_y,middle_tip_z,ring_base_x,ring_base_y,ring_base_z,ring_first_joint_x,ring_first_joint_y,ring_first_joint_z,ring_second_joint_x,ring_second_joint_y,ring_second_joint_z,ring_tip_x,ring_tip_y,ring_tip_z,pinky_base_x,pinky_base_y,pinky_base_z,pinky_first_joint_x,pinky_first_joint_y,pinky_first_joint_z,pinky_second_joint_x,pinky_second_joint_y,pinky_second_joint_z,pinky_tip_x,pinky_tip_y,pinky_tip_z,r
0.30940697,-0.29319823,0.45232,0.30701124,-0.25327947,0.455954,0.2875142,-0.28321204,0.451359,0.26395728,-0.25947956,0.452599,0.24496413,-0.23723432,0.451881,0.2365976,-0.21870178,0.449377,0.27744382,-0.21118745,0.457352,0.26608524,-0.17869413,0.459495,0.26039909,-0.16242872,0.460567,0.25538418,-0.14747752,0.461541,0.30403409,-0.21084861,0.45971,0.30069679,-0.17444981,0.464735,0.29808089,-0.15308038,0.467666,0.29503349,-0.13813506,0.469759,0.32615327,-0.21400308,0.461329,0.33085116,-0.1831834,0.469392,0.33325475,-0.16742214,0.473517,0.33564222,-0.15362608,0.477267,0.35315177,-0.22475558,0.462651,0.3613196,-0.19916577,0.468751,0.36531268,-0.18698736,0.471554,0.36956498,-0.17698608,0.474027
0.30982578,-0.2922142,0.452496,0.30564967,-0.24561043,0.452873,0.28670073,-0.28110779,0.449667,0.26118529,-0.24738287,0.446364,0.24303841,-0.23146553,0.448219,0.23297438,-0.2128205,0.443354,0.27304339,-0.19805766,0.449588,0.2663509,-0.17374287,0.458169,0.26235391,-0.1587548,0.462459,0.25934142,-0.14679427,0.466359,0.30061009,-0.19818448,0.453261,0.29581152,-0.16384854,0.458721,0.29332917,-0.14238601,0.461905,0.29416281,-0.13236692,0.465706,0.32377945,-0.20193447,0.456252,0.32905652,-0.17097844,0.464061,0.3317563,-0.15515448,0.468056,0.33506634,-0.14597557,0.474544,0.35205207,-0.21304159,0.459717,0.36109265,-0.18745051,0.465332,0.36528529,-0.1756804,0.467911,0.36786855,-0.16920942,0.470187
0.30850622,-0.29005945,0.450792,0.30367281,-0.2434468,0.450955,0.28592266,-0.27942917,0.448701,0.25997956,-0.24681445,0.446813,0.23776317,-0.22440679,0.442918,0.23223022,-0.2099332,0.442775,0.27154357,-0.1970785,0.448444,0.26255453,-0.16625621,0.453541,0.25803206,-0.15065926,0.456089,0.25390624,-0.13644068,0.458405,0.29847573,-0.1969506,0.451122,0.2943746,-0.16215756,0.456447,0.29208048,-0.1407571,0.459553,0.2927428,-0.13012685,0.463795,0.32108669,-0.20050716,0.453312,0.32682313,-0.16946663,0.461063,0.32975821,-0.15359816,0.465029,0.33406873,-0.14391995,0.472455,0.34862279,-0.21142689,0.455869,0.35829421,-0.18570864,0.461229,0.36316563,-0.17411134,0.464221,0.36667929,-0.16719133,0.467617
0.30818813,-0.28787062,0.449527,0.30239363,-0.23704829,0.447503,0.28507317,-0.2755116,0.447389,0.2612862,-0.24411786,0.444146,0.23856051,-0.21737702,0.436667,0.22887196,-0.20353249,0.437961,0.2730087,-0.19083295,0.443366,0.26150127,-0.16135159,0.448585,0.25696091,-0.14537204,0.451195,0.25252058,-0.13320983,0.454557,0.29955657,-0.19029702,0.445409,0.29574689,-0.15569142,0.451109,0.29123198,-0.13604704,0.454433,0.28873125,-0.12190501,0.456808,0.32200398,-0.19361428,0.44727,0.32412989,-0.16054374,0.452157,0.32690183,-0.1480313,0.458909,0.33088493,-0.13568264,0.465447,0.3496338,-0.20444822,0.449791,0.35707703,-0.17754795,0.453681,0.36136928,-0.1656896,0.456589,0.36678147,-0.16103408,0.464403
0.30552281,-0.28142088,0.445102,0.30266496,-0.23343164,0.444713,0.28319612,-0.26899759,0.443376,0.26149124,-0.2391442,0.442161,0.23766798,-0.21380324,0.434176,0.22914282,-0.19598069,0.432724,0.27267252,-0.18879781,0.442265,0.26198723,-0.15658395,0.445359,0.25654345,-0.14018689,0.446906,0.25143524,-0.12755952,0.449534,0.29919012,-0.18834726,0.444311,0.2938487,-0.15235053,0.447319,0.29064437,-0.13015624,0.449073,0.28831121,-0.11407055,0.450326,0.3215177,-0.19165328,0.446028,0.32311739,-0.15785536,0.449827,0.32424154,-0.14071899,0.452196,0.32526325,-0.12512489,0.45435,0.348806,-0.20233649,0.448117,0.35619757,-0.17581052,0.452382,0.36033801,-0.16407938,0.455302,0.36626791,-0.15904333,0.463053
0.30109261,-0.27353482,0.43779,0.30061816,-0.22700357,0.439274,0.28015643,-0.26105493,0.43712,0.25726515,-0.2323314,0.435617,0.23324133,-0.20705432,0.427495,0.2260864,-0.19260646,0.428842,0.27170947,-0.18395236,0.439495,0.2604432,-0.15009429,0.440245,0.25479162,-0.13311287,0.440619,0.24964406,-0.11764539,0.44096,0.29778054,-0.18315153,0.440806,0.2892363,-0.14472008,0.438036,0.28525182,-0.11880232,0.436419,0.28168825,-0.1016998,0.435265,0.3195958,-0.18606804,0.441754,0.32069993,-0.15162732,0.443773,0.32126934,-0.13353937,0.444806,0.32178659,-0.11698385,0.445746,0.34602608,-0.19609483,0.442631,0.35417844,-0.17049245,0.448095,0.35862042,-0.15915931,0.451502,0.36367688,-0.15101528,0.45632
0.29836842,-0.26587011,0.4316,0.29833251,-0.2187092,0.432774,0.27815543,-0.25528728,0.431119,0.25408743,-0.22606107,0.428898,0.22984616,-0.20155201,0.421438,0.22055499,-0.18286085,0.418013,0.26911072,-0.17760994,0.433008,0.25575678,-0.14159025,0.428901,0.2501702,-0.12125244,0.426848,0.24484289,-0.10804873,0.42845,0.29497581,-0.1765609,0.433982,0.28746496,-0.1385541,0.432308,0.28289907,-0.11540728,0.431332,0.27963016,-0.099166064,0.430635,0.31664962,-0.1792902,0.43468,0.3191398,-0.14545204,0.437515,0.32043637,-0.12766789,0.438966,0.32161557,-0.11139988,0.440284,0.34296965,-0.18912758,0.435312,0.34788151,-0.16183106,0.436143,0.35247435,-0.14651717,0.436525,0.35483624,-0.13429558,0.436862
0.29654042,-0.26334755,0.429038,0.29413737,-0.2148661,0.426847,0.27623454,-0.25245326,0.428464,0.25094547,-0.22030544,0.423859,0.22380826,-0.19051766,0.410937,0.21703328,-0.1750866,0.409842,0.26550442,-0.1703115,0.424564,0.25101492,-0.13299769,0.416584,0.24470251,-0.11235229,0.412594,0.23751175,-0.09564446,0.408966,0.29069636,-0.16974385,0.4246,0.28542352,-0.12830594,0.421699,0.28280433,-0.10552374,0.421558,0.28095572,-0.089261501,0.42149,0.31186561,-0.17307265,0.424826,0.31450369,-0.13590068,0.422349,0.31724865,-0.1182306,0.423692,0.31974444,-0.10216376,0.424913,0.33767807,-0.18398025,0.425449,0.34096031,-0.1532733,0.419792,0.34204696,-0.13887573,0.417193,0.3430371,-0.12604121,0.4149
0.29123881,-0.2507323,0.417138,0.29228598,-0.19835225,0.414348,0.27004069,-0.23843228,0.415523,0.24289197,-0.2033091,0.405643,0.21633585,-0.17761453,0.394144,0.20905432,-0.16518429,0.398031,0.26186704,-0.15377246,0.410329,0.24805236,-0.11658257,0.403373,0.24128394,-0.098107877,0.399894,0.23503814,-0.080961283,0.396732,0.28804399,-0.15403086,0.411492,0.27980126,-0.11330395,0.407382,0.27509819,-0.089592394,0.405137,0.27175203,-0.072654084,0.403554,0.31001107,-0.15809106,0.4127,0.31322392,-0.12542981,0.413534,0.31534785,-0.10697666,0.413961,0.3175626,-0.092044464,0.414349,0.33677485,-0.16993101,0.41458,0.34648365,-0.1429077,0.417113,0.35191308,-0.13101008,0.419478,0.35670117,-0.12052584,0.421566
0.28906114,-0.24655953,0.412895,0.28758427,-0.19304864,0.406095,0.26832189,-0.23214765,0.410749,0.23909693,-0.19808356,0.398474,0.21154091,-0.17014252,0.382673,0.19917258,-0.15108645,0.377016,0.25850202,-0.14395213,0.39857,0.24322388,-0.10537508,0.389015,0.23552358,-0.086100216,0.384238,0.23062655,-0.074349368,0.386386,0.28420649,-0.14520041,0.399158,0.27444553,-0.10262875,0.390166,0.26875069,-0.077789522,0.38492,0.26468351,-0.060044786,0.381174,0.30587696,-0.15031755,0.400256,0.30649851,-0.11243101,0.394328,0.30679145,-0.093254036,0.391296,0.30672311,-0.078837609,0.388539,0.33236011,-0.16384644,0.402664,0.33970638,-0.13413446,0.399474,0.34300158,-0.12071034,0.398008,0.34605517,-0.11035946,0.396714
0.28519926,-0.23900784,0.404052,0.28710697,-0.18882595,0.399799,0.26809261,-0.22283945,0.402931,0.23785805,-0.19450634,0.392342,0.20991458,-0.16922023,0.377779,0.19798311,-0.15132089,0.374045,0.25848536,-0.14321297,0.395382,0.24259194,-0.1048276,0.385755,0.23462385,-0.085669988,0.380942,0.22733696,-0.069579416,0.376566,0.28375538,-0.14379538,0.395475,0.27250022,-0.10114455,0.385393,0.26593248,-0.076242073,0.379512,0.2612392,-0.058443484,0.37531,0.30496868,-0.14825259,0.395936,0.3043969,-0.10793593,0.386191,0.30273417,-0.087689609,0.381204,0.30110237,-0.073303325,0.378973,0.33070718,-0.16079103,0.397177,0.33645211,-0.13084277,0.392508,0.34192849,-0.115665,0.390363,0.34145633,-0.10606062,0.38847
0.28298802,-0.23022448,0.395559,0.2823765,-0.18026113,0.387551,0.26315708,-0.21620432,0.393739,0.23438991,-0.1845498,0.381574,0.20311582,-0.15855656,0.361692,0.18845146,-0.13922944,0.353833,0.25398404,-0.12941092,0.379622,0.23682228,-0.090318846,0.367336,0.2282537,-0.070820683,0.361193,0.22013246,-0.054111318,0.355608,0.27900343,-0.13071491,0.37944,0.26969817,-0.088563777,0.370079,0.2638853,-0.06413909,0.364618,0.25970683,-0.046353265,0.360718,0.30016494,-0.13593219,0.380016,0.30677698,-0.10026753,0.377217,0.31009213,-0.082286922,0.375785,0.31294573,-0.065543482,0.374483,0.3261192,-0.14968449,0.382008,0.33664836,-0.12085296,0.37691,0.34172619,-0.10746498,0.374568,0.34623223,-0.095605965,0.372501
0.28331139,-0.22509805,0.391537,0.2791442,-0.17292382,0.378524,0.26092485,-0.21228146,0.388038,0.23106055,-0.1807916,0.373023,0.20102,-0.15532997,0.351782,0.18629032,-0.13693819,0.346802,0.24633276,-0.12312196,0.364978,0.23117113,-0.083459285,0.351252,0.22358214,-0.063582984,0.344388,0.21667898,-0.045485778,0.338149,0.27187283,-0.1241573,0.365385,0.26256206,-0.080763492,0.352352,0.25710149,-0.05560543,0.34475,0.25320132,-0.037520712,0.339319,0.29388393,-0.12933398,0.366904,0.29664235,-0.090990066,0.358041,0.29813557,-0.071395259,0.353506,0.29952159,-0.053483739,0.349384,0.32165646,-0.14336941,0.370833,0.33065281,-0.11397321,0.362146,0.33517992,-0.10072923,0.358155,0.33887729,-0.090908282,0.354633
0.27865388,-0.21968328,0.383011,0.27626887,-0.16721571,0.367659,0.2582817,-0.20390406,0.377115,0.22748519,-0.17266475,0.359022,0.19547553,-0.14695556,0.33682,0.18111843,-0.13027112,0.331992,0.24483407,-0.11370441,0.349446,0.22536228,-0.074603954,0.333662,0.21565731,-0.055111361,0.32577,0.20681159,-0.037298591,0.318595,0.27184265,-0.11754816,0.352158,0.26128568,-0.074108061,0.336867,0.25513052,-0.048691358,0.327948,0.250735,-0.030498404,0.321577,0.2949015,-0.12509529,0.355786,0.29971969,-0.088020074,0.349357,0.30210868,-0.069313336,0.346068,0.30567662,-0.053920743,0.343077,0.32362081,-0.14204578,0.362584,0.33128613,-0.11193979,0.351166,0.33556619,-0.098484692,0.346796,0.33954427,-0.086686065,0.343157
0.27439097,-0.21163329,0.371168,0.27112223,-0.16136673,0.355333,0.25359578,-0.19549367,0.364855,0.2207986,-0.16770854,0.346222,0.18942663,-0.14287501,0.32223,0.17284119,-0.12231022,0.309991,0.23858946,-0.10815848,0.336253,0.21853686,-0.06770701,0.317337,0.20941301,-0.050357614,0.307879,0.20105307,-0.034200032,0.299281,0.26573835,-0.11276792,0.339345,0.25750806,-0.069513008,0.325428,0.25271425,-0.044191309,0.317311,0.24959217,-0.028231494,0.316011,0.28877606,-0.12092841,0.343329,0.28969323,-0.082151005,0.32946,0.29122206,-0.064220449,0.322364,0.29289279,-0.048743037,0.315914,0.31721572,-0.13854113,0.350626,0.32647903,-0.10976268,0.33909,0.33068408,-0.096604926,0.333791,0.33484043,-0.087255919,0.329114
0.27180931,-0.20741555,0.364512,0.26798019,-0.15850837,0.346996,0.2508077,-0.19176519,0.357691,0.21748298,-0.16455114,0.338231,0.18838793,-0.14067753,0.313334,0.17116512,-0.12025229,0.303063,0.23348441,-0.10479235,0.326095,0.21657277,-0.06498678,0.305277,0.20755624,-0.047630605,0.294868,0.19931988,-0.031487271,0.285405,0.26034362,-0.10956002,0.329309,0.25019018,-0.065876226,0.308823,0.24310566,-0.041245786,0.296872,0.23819697,-0.023887002,0.288337,0.28612642,-0.11823384,0.333547,0.28760564,-0.079730525,0.317188,0.28893973,-0.06198983,0.308817,0.2903291,-0.045554415,0.301208,0.31503126,-0.13644233,0.341419,0.32303666,-0.10725703,0.328544,0.32704033,-0.094698672,0.322629,0.32731102,-0.083995603,0.317984
0.27209986,-0.20730294,0.363639,0.26884075,-0.15857056,0.346408,0.25153009,-0.19185812,0.357586,0.22015463,-0.16611053,0.339011,0.19231864,-0.14512228,0.318393,0.17849456,-0.12653109,0.309971,0.23743929,-0.10456604,0.326679,0.21882539,-0.065983487,0.306363,0.20977523,-0.047976792,0.296205,0.20151325,-0.031422747,0.286971,0.26418275,-0.10967018,0.329011,0.25256192,-0.065715796,0.309244,0.24604376,-0.041640741,0.297713,0.24150635,-0.024298769,0.289477,0.28690987,-0.11829654,0.332497,0.29016287,-0.080137579,0.317806,0.29218913,-0.061585377,0.310289,0.2942,-0.045968813,0.303456,0.31500295,-0.13657544,0.339437,0.32344033,-0.10734785,0.326811,0.32766342,-0.095016641,0.32101,0.33174522,-0.084069003,0.316115
0.27043469,-0.20517766,0.359955,0.26429045,-0.15479231,0.336439,0.24738049,-0.18795442,0.350101,0.22070925,-0.16607512,0.32656,0.1902766,-0.14437113,0.300193,0.17355352,-0.12510186,0.283383,0.22868364,-0.10080377,0.307501,0.20741329,-0.062418736,0.281659,0.19809235,-0.044071089,0.270294,0.19043663,-0.028377086,0.265403,0.25475316,-0.10523982,0.312695,0.24545725,-0.063687681,0.28993,0.23915616,-0.039623208,0.27665,0.23469835,-0.022253151,0.267165,0.27915342,-0.11449937,0.319109,0.28425036,-0.078761167,0.301455,0.28596036,-0.060390836,0.292423,0.2875773,-0.043592689,0.284212,0.30843028,-0.13316408,0.330528,0.3127576,-0.10910536,0.311236,0.31332437,-0.09926521,0.302372,0.31395848,-0.090925725,0.294551
0.26994504,-0.20408552,0.357251,0.26298344,-0.15431116,0.33419,0.24625217,-0.18709731,0.348368,0.21843411,-0.16674967,0.3259,0.19087961,-0.14839269,0.302989,0.1754822,-0.13525022,0.287228,0.22924666,-0.10000741,0.306796,0.21067321,-0.064973922,0.281689,0.20156455,-0.047520844,0.270133,0.1961335,-0.031725856,0.263472,0.25673338,-0.10622249,0.310905,0.2461155,-0.065487747,0.285182,0.23944624,-0.0420855,0.270177,0.23500381,-0.027251707,0.259459,0.28010681,-0.11570275,0.316384,0.28349179,-0.082305842,0.295756,0.28488278,-0.065089833,0.285203,0.28640136,-0.051641133,0.275609,0.30999784,-0.13777957,0.326628,0.31483363,-0.11312411,0.308036,0.31745241,-0.10194293,0.299736,0.31617325,-0.091246212,0.292787
0.26749071,-0.20295988,0.353592,0.25883694,-0.1558126,0.326002,0.24305092,-0.18530711,0.342467,0.21136135,-0.17186005,0.317179,0.18207087,-0.15557645,0.2915,0.16539439,-0.13921675,0.273178,0.22099114,-0.10241001,0.292601,0.20013963,-0.070034899,0.263897,0.18971926,-0.053701467,0.249545,0.1802496,-0.038746672,0.236497,0.24916518,-0.10993722,0.298143,0.23868306,-0.070076166,0.271751,0.23286951,-0.048871062,0.256356,0.22882418,-0.033485821,0.24536,0.27356624,-0.12059527,0.305215,0.27413622,-0.087324842,0.281976,0.27457915,-0.071790143,0.270087,0.27512717,-0.057523129,0.259278,0.30445932,-0.14137548,0.31808,0.30106347,-0.11805054,0.295215,0.29944668,-0.10841854,0.284709,0.29791102,-0.10087508,0.275439
0.2670445,-0.2035012,0.353435,0.25631755,-0.15956898,0.3233,0.24055958,-0.18474425,0.339472,0.20749811,-0.17621285,0.311237,0.1825121,-0.16539179,0.286104,0.16697615,-0.15079669,0.267583,0.21573773,-0.10667267,0.28453,0.19494117,-0.073396605,0.2532,0.18479486,-0.057706559,0.237534,0.17631325,-0.043592089,0.224229,0.24520615,-0.11377567,0.292872,0.23256255,-0.069669133,0.265008,0.22775472,-0.056500828,0.248754,0.22470646,-0.045873343,0.237144,0.27075931,-0.1216655,0.30248,0.27034414,-0.094374144,0.275996,0.27060041,-0.081480587,0.262446,0.27093859,-0.06969508,0.250128,0.30345828,-0.14253388,0.318747,0.29883054,-0.12749888,0.294149,0.2973652,-0.12130079,0.282847,0.29587975,-0.11695142,0.272875
0.26413173,-0.20312281,0.350174,0.25131853,-0.16165595,0.319876,0.23584445,-0.18337803,0.333585,0.20122279,-0.16890982,0.303133,0.17943641,-0.15214332,0.276113,0.17011163,-0.13810963,0.257694,0.21198675,-0.10504024,0.277674,0.19486596,-0.077041614,0.245131,0.18622545,-0.062767889,0.229656,0.17840418,-0.049703095,0.215587,0.24339405,-0.11446558,0.289283,0.23374707,-0.072650153,0.260254,0.22985425,-0.064319194,0.243321,0.22704096,-0.059948265,0.231226,0.27103439,-0.1296058,0.301594,0.26500991,-0.10524886,0.271363,0.26204491,-0.09349508,0.255896,0.25941912,-0.084022405,0.241836,0.30346849,-0.15284519,0.321069,0.28868609,-0.11502955,0.294032,0.28337637,-0.11353518,0.281609,0.2739519,-0.11971532,0.270648
0.26165281,-0.2042749,0.348711,0.24999332,-0.16635004,0.318437,0.23233797,-0.19009689,0.332712,0.20138542,-0.17118215,0.30272,0.17782891,-0.15605083,0.27581,0.16910872,-0.14034055,0.257464,0.21405853,-0.11149806,0.276998,0.19438636,-0.079744751,0.244679,0.18595046,-0.065701767,0.229884,0.17833121,-0.052798961,0.216434,0.24486033,-0.12239625,0.287868,0.23335567,-0.074946346,0.259735,0.22819635,-0.072357258,0.243324,0.21928979,-0.080445466,0.231602,0.27107628,-0.13564972,0.29957,0.2634637,-0.10614478,0.269328,0.25989165,-0.099363121,0.253855,0.25527669,-0.095950175,0.239789,0.30333475,-0.15912858,0.318323,0.28626772,-0.1264802,0.291261,0.27983906,-0.1196748,0.278827,0.27146334,-0.12160111,0.267855
0.26063061,-0.20929583,0.350514,0.2499759,-0.17161189,0.318484,0.23306713,-0.19264825,0.335302,0.20215443,-0.1744474,0.305872,0.17654345,-0.16043605,0.279674,0.16571756,-0.1461781,0.261262,0.21442087,-0.11402063,0.276807,0.19368832,-0.089372686,0.243951,0.18348475,-0.075955355,0.228032,0.17422887,-0.063696841,0.21356,0.24420522,-0.12949799,0.286143,0.23470467,-0.085697364,0.25638,0.22618726,-0.082109918,0.239019,0.21383397,-0.090023979,0.226617,0.26904002,-0.14417665,0.296741,0.26005063,-0.11916668,0.26535,0.25402288,-0.11212847,0.24929,0.24685315,-0.10983925,0.234689,0.29944783,-0.16892727,0.314486,0.28261532,-0.13744642,0.286711,0.27471736,-0.13140854,0.27395,0.26420671,-0.13647608,0.26269
0.26440488,-0.21918423,0.359221,0.25508179,-0.17636795,0.326375,0.23890743,-0.19879226,0.345138,0.22164325,-0.18604834,0.316679,0.20386462,-0.16232994,0.295039,0.2036154,-0.15398849,0.277098,0.22004654,-0.1174792,0.285551,0.18842716,-0.1267432,0.252807,0.17392673,-0.13089149,0.23649,0.16132275,-0.13619871,0.221656,0.24845466,-0.13181049,0.29321,0.23622214,-0.089550799,0.262164,0.22116734,-0.092152665,0.244054,0.20630884,-0.10037178,0.231118,0.27285539,-0.14677189,0.302502,0.26651722,-0.12019453,0.270284,0.24694073,-0.12576579,0.2538,0.22124549,-0.1281599,0.239529,0.30285086,-0.17209716,0.318844,0.27962732,-0.15134913,0.290872,0.26830619,-0.14877603,0.27802,0.25604974,-0.15496677,0.26668
0.2971709,-0.22206279,0.379272,0.28097672,-0.18466734,0.341193,0.28718958,-0.20657349,0.372542,0.24930599,-0.21776267,0.352593,0.21800821,-0.20796601,0.342759,0.19682641,-0.21157989,0.329639,0.23372731,-0.13396354,0.305985,0.22365742,-0.10179298,0.279904,0.21872731,-0.085487932,0.266864,0.20445382,-0.083988768,0.255009,0.25258084,-0.144239,0.302743,0.2331471,-0.10486146,0.26767,0.21156696,-0.096509394,0.24721,0.19126211,-0.10002449,0.232596,0.27094699,-0.15650731,0.303539,0.2457177,-0.11671122,0.275808,0.2328135,-0.096556854,0.26162,0.21355124,-0.092865519,0.248721,0.297535,-0.17782324,0.310745,0.27122112,-0.14824266,0.283251,0.25467056,-0.14131062,0.270618,0.2381083,-0.14414189,0.259472
0.31253081,-0.22900841,0.383758,0.28393371,-0.18894345,0.345295,0.29079413,-0.21090501,0.377337,0.25314151,-0.22244937,0.357921,0.22149531,-0.2126244,0.347891,0.19972781,-0.21556501,0.334735,0.23653604,-0.13841333,0.310209,0.22614995,-0.10632004,0.283854,0.22028385,-0.093344172,0.270676,0.20655498,-0.088722063,0.258697,0.25504146,-0.14860173,0.306459,0.23442398,-0.11227441,0.271102,0.21244566,-0.10429946,0.250477,0.19291643,-0.10457948,0.235745,0.2731108,-0.1607586,0.306871,0.24762987,-0.12101957,0.278962,0.23367229,-0.10402084,0.264683,0.21514531,-0.097304218,0.251702,0.29937309,-0.1818778,0.313689,0.27196225,-0.15342853,0.286288,0.25530911,-0.14861819,0.273698,0.2398534,-0.1486463,0.26259
0.31277746,-0.22872865,0.384144,0.28419917,-0.18887793,0.345787,0.29118916,-0.21075494,0.377889,0.25369169,-0.2224096,0.358667,0.22216932,-0.21273916,0.348834,0.20030576,-0.21551803,0.335782,0.23698886,-0.13861431,0.310984,0.22645482,-0.10657112,0.284512,0.22129028,-0.09033426,0.271276,0.2067085,-0.089036646,0.259243,0.2553278,-0.14873707,0.307057,0.23261149,-0.11241597,0.270679,0.20695709,-0.10733331,0.249459,0.18836536,-0.10934824,0.234301,0.27323752,-0.16081029,0.307314,0.24769303,-0.12116905,0.279367,0.23462946,-0.10107852,0.265069,0.21514228,-0.097540181,0.252071,0.29928054,-0.18177612,0.313931,0.27281554,-0.15243077,0.286632,0.25641984,-0.1459312,0.27409,0.23988116,-0.1488064,0.263023
0.25564383,-0.18119564,0.29337,0.24635957,-0.14236351,0.295816,0.23803821,-0.18010777,0.29821,0.21615193,-0.16752826,0.304919,0.21502169,-0.17158242,0.320203,0.20859687,-0.16177071,0.326239,0.2212218,-0.11852028,0.303645,0.20123983,-0.10969583,0.302192,0.21074139,-0.1286168,0.319704,0.22484338,-0.14921683,0.327273,0.23810891,-0.10712501,0.298286,0.21704398,-0.097807792,0.294695,0.2201977,-0.11922363,0.2926,0.2392595,-0.13763501,0.305406,0.25329067,-0.10056078,0.293653,0.23612665,-0.093407094,0.291604,0.23076983,-0.10297084,0.290555,0.23692124,-0.12269866,0.292802,0.27374995,-0.098240247,0.287798,0.25178672,-0.092379101,0.284444,0.25160078,-0.10695877,0.283292,0.25527792,-0.1199731,0.283489
0.28677079,-0.19113225,0.300524,0.2532027,-0.14876552,0.292255,0.26419449,-0.19241299,0.302091,0.24602676,-0.17179019,0.305648,0.22098439,-0.16726406,0.310038,0.20930852,-0.15139562,0.311198,0.20726109,-0.1252246,0.288434,0.19025901,-0.12646617,0.278324,0.21350125,-0.1454404,0.295148,0.23424107,-0.16234102,0.305859,0.22217294,-0.11012652,0.283906,0.2017354,-0.11153315,0.270643,0.19958984,-0.12195831,0.262906,0.2204741,-0.13990656,0.272902,0.23777594,-0.10062435,0.28093,0.21837364,-0.10374062,0.270047,0.21191896,-0.11303345,0.264478,0.2281858,-0.13546054,0.275223,0.26261742,-0.095080985,0.27879,0.23618633,-0.10102066,0.268038,0.22516139,-0.11046753,0.263097,0.22520537,-0.12420608,0.270481
0.28371857,-0.18834413,0.299066,0.25130464,-0.14812976,0.292646,0.26166657,-0.19039096,0.301073,0.24208249,-0.17188487,0.304688,0.21539918,-0.17058444,0.310068,0.20123207,-0.15666121,0.310655,0.20216929,-0.12574081,0.290679,0.19039953,-0.12936107,0.281945,0.2111868,-0.15341994,0.298994,0.23513314,-0.16709514,0.309251,0.21765197,-0.11015853,0.286165,0.20248927,-0.11312062,0.274508,0.2097117,-0.12971036,0.267708,0.22775538,-0.14081266,0.278259,0.23363696,-0.10028209,0.283033,0.2204946,-0.1055564,0.273576,0.2225159,-0.12243396,0.268738,0.24028688,-0.13986892,0.280038,0.26134572,-0.09494881,0.280406,0.23769859,-0.10220103,0.270846,0.22773319,-0.11219104,0.266453,0.22866812,-0.12649593,0.274265
0.29886819,-0.21772464,0.369309,0.25407156,-0.16165078,0.332693,0.26217679,-0.20399495,0.357804,0.25039102,-0.18830843,0.33632,0.23430874,-0.17276415,0.314863,0.22559208,-0.15665178,0.30085,0.18883564,-0.11974325,0.29248,0.1757841,-0.13181577,0.259463,0.18450569,-0.1438818,0.26635,0.19202743,-0.15377508,0.272611,0.21529259,-0.11342824,0.295721,0.19048671,-0.1056805,0.259114,0.20754834,-0.12922234,0.267765,0.22193479,-0.14484447,0.283722,0.24100255,-0.11239818,0.301719,0.21597287,-0.1026126,0.268139,0.2083883,-0.11177214,0.250958,0.21218654,-0.12197362,0.247755,0.27835567,-0.11895807,0.314806,0.25247279,-0.1299342,0.285952,0.24013002,-0.13476083,0.272696,0.23457093,-0.14441716,0.269744
0.29760747,-0.21676098,0.370241,0.2549576,-0.16249146,0.335865,0.25261944,-0.20633622,0.35929,0.24726113,-0.18789877,0.341154,0.23266183,-0.17341095,0.319217,0.22940804,-0.15956593,0.307678,0.19108748,-0.11769047,0.297923,0.17401638,-0.13075067,0.266116,0.18402505,-0.14412552,0.274625,0.19584231,-0.15724937,0.28236,0.21846386,-0.11465476,0.301154,0.18846663,-0.10400278,0.265987,0.20357713,-0.13082937,0.276694,0.22462606,-0.14852254,0.292776,0.24432087,-0.11458185,0.306941,0.21815952,-0.10339585,0.274627,0.20701806,-0.11233971,0.258094,0.21503496,-0.1246416,0.256536,0.28154482,-0.1222863,0.31941,0.25433962,-0.1334389,0.291504,0.23757988,-0.1390507,0.278683,0.23145141,-0.14886952,0.276934
0.29909236,-0.2182715,0.374278,0.25684474,-0.16540997,0.341548,0.25850494,-0.20713567,0.363795,0.24957002,-0.19165582,0.346888,0.23469099,-0.1758369,0.324952,0.2312277,-0.16191517,0.313515,0.18841606,-0.12428039,0.305352,0.17436933,-0.13627396,0.274534,0.18829314,-0.14983869,0.28406,0.19837688,-0.16184522,0.29272,0.21427868,-0.11823292,0.308499,0.18571971,-0.10727871,0.274466,0.20360517,-0.13411403,0.286462,0.22457974,-0.15184882,0.302538,0.23960576,-0.11732843,0.314067,0.20962285,-0.09956395,0.282774,0.20240195,-0.10664142,0.266764,0.20925993,-0.12100301,0.266296,0.27659135,-0.12396867,0.326008,0.25021085,-0.13459358,0.298886,0.23776864,-0.13946291,0.286424,0.23588638,-0.15174276,0.285475
0.30129556,-0.22063508,0.378632,0.2565781,-0.16852532,0.345389,0.26530155,-0.20949741,0.368981,0.25110549,-0.19719797,0.352454,0.23740195,-0.18163032,0.331263,0.23680925,-0.16775199,0.319227,0.19079607,-0.12838397,0.309884,0.17641999,-0.14064331,0.279328,0.18854778,-0.154829,0.288704,0.20052333,-0.16571128,0.297228,0.21581477,-0.12187864,0.311823,0.18555679,-0.10971214,0.277556,0.20295275,-0.13650342,0.289332,0.22125237,-0.1540259,0.305423,0.24044549,-0.12062747,0.316443,0.20969006,-0.10316131,0.285253,0.20021411,-0.11280716,0.269295,0.20916352,-0.12447721,0.268727,0.27668086,-0.12686996,0.327353,0.249855,-0.13750009,0.30027,0.23723949,-0.14234685,0.287827,0.23486213,-0.15329451,0.28679
0.28549599,-0.20980631,0.367029,0.24758723,-0.16538808,0.337865,0.25701788,-0.20350492,0.359005,0.24417109,-0.19517329,0.346394,0.23158061,-0.18218059,0.325518,0.22972719,-0.16945052,0.312769,0.18687803,-0.12828564,0.307276,0.17348152,-0.14169892,0.279602,0.18733018,-0.15659219,0.291128,0.20073733,-0.16877644,0.301605,0.21058529,-0.12173444,0.308418,0.18055086,-0.11022571,0.277191,0.19583086,-0.13728986,0.291677,0.21752579,-0.15627332,0.30752,0.23388118,-0.12018444,0.312011,0.20415679,-0.10471889,0.283711,0.19734422,-0.1123704,0.269232,0.20626238,-0.1273861,0.271156,0.26798776,-0.12558735,0.321041,0.24242644,-0.1369342,0.296204,0.23043467,-0.14213228,0.284793,0.22703501,-0.15340357,0.285586
0.29674105,-0.21863895,0.382992,0.25601594,-0.17215138,0.351987,0.26659174,-0.21208939,0.375596,0.25202053,-0.20262139,0.363219,0.23648838,-0.19011848,0.344133,0.23868856,-0.18066266,0.331268,0.19361502,-0.13110948,0.320899,0.17788111,-0.14552484,0.292756,0.19155107,-0.16021524,0.303435,0.20382053,-0.17269799,0.313143,0.21694107,-0.12476996,0.32068,0.18391628,-0.11309459,0.288288,0.19637939,-0.13954692,0.301663,0.21816639,-0.16118663,0.317579,0.24156447,-0.12425813,0.32332,0.20540438,-0.10275488,0.29434,0.19499953,-0.10908841,0.279513,0.20214596,-0.12514413,0.280565,0.27579963,-0.13006615,0.331532,0.24680117,-0.14074321,0.306118,0.23401926,-0.14583812,0.294441,0.22950688,-0.15680214,0.294577
0.29943769,-0.21940811,0.385216,0.25992344,-0.17362677,0.356241,0.27067351,-0.21384183,0.379386,0.2619183,-0.2044386,0.369494,0.24315422,-0.19371202,0.351478,0.24480027,-0.18420407,0.339744,0.19916956,-0.13470496,0.328555,0.18282514,-0.14967848,0.302387,0.19851513,-0.16493656,0.31398,0.21276546,-0.17885138,0.324519,0.22062541,-0.12723399,0.326984,0.18227949,-0.11696482,0.296305,0.20008994,-0.14384517,0.310809,0.21961099,-0.16523254,0.32646,0.24236618,-0.1249635,0.328327,0.20257669,-0.10506038,0.30121,0.19261331,-0.11125335,0.287336,0.20567241,-0.12811815,0.289609,0.27581367,-0.12964946,0.334678,0.24749735,-0.14151664,0.310707,0.23462006,-0.14703549,0.299693,0.23244997,-0.1592183,0.300722
0.30269287,-0.22100755,0.388695,0.2621565,-0.17432413,0.359839,0.27387512,-0.21570074,0.382729,0.2664792,-0.20690675,0.37566,0.25008102,-0.19490693,0.359877,0.24939928,-0.17800139,0.349502,0.20086006,-0.13973628,0.332064,0.18571967,-0.15233636,0.305861,0.20339966,-0.16842212,0.31752,0.21650825,-0.18071745,0.328119,0.22137729,-0.13010784,0.330702,0.1851845,-0.11879186,0.300076,0.20297512,-0.14551316,0.314669,0.22498373,-0.16694665,0.330328,0.24398115,-0.1262796,0.332206,0.20515092,-0.10638925,0.305082,0.19667136,-0.11274241,0.291205,0.20890033,-0.1290257,0.29353,0.27579402,-0.12792025,0.338727,0.24908848,-0.14069306,0.314755,0.23777799,-0.14777447,0.303741,0.2354924,-0.16030535,0.30481
0.29270899,-0.21253858,0.374944,0.25551405,-0.16942494,0.350258,0.26591546,-0.20841765,0.370302,0.2618702,-0.20231052,0.368218,0.24678729,-0.19153897,0.354938,0.24850717,-0.18022327,0.347091,0.19723582,-0.13863453,0.327081,0.18552529,-0.1532952,0.303806,0.2037042,-0.16885495,0.317092,0.22019586,-0.18233721,0.329171,0.2169371,-0.12840767,0.325332,0.18335883,-0.11893197,0.297966,0.2028448,-0.14611766,0.314622,0.22454446,-0.16682888,0.329749,0.2372866,-0.12343387,0.326139,0.20147106,-0.10456448,0.302002,0.1926401,-0.11053115,0.289653,0.2068935,-0.12706645,0.294078,0.26738026,-0.12327901,0.331152,0.24481253,-0.13776195,0.309569,0.2344847,-0.14514787,0.299652,0.23350447,-0.1583892,0.302279
0.29309983,-0.21189197,0.374865,0.25731918,-0.17046172,0.353081,0.26724215,-0.20875425,0.371321,0.26508773,-0.20473925,0.373003,0.25144586,-0.19678264,0.363278,0.25358702,-0.18302545,0.357527,0.19894342,-0.14284825,0.333327,0.19000509,-0.15774459,0.312278,0.20836199,-0.17345449,0.326479,0.22534368,-0.18763988,0.339389,0.21691465,-0.13116524,0.331085,0.18604102,-0.12512869,0.306103,0.20726821,-0.15122982,0.323912,0.22861152,-0.17160217,0.338539,0.23654905,-0.12434794,0.331222,0.20162438,-0.10625662,0.309328,0.19539052,-0.11265388,0.298126,0.21252378,-0.13087969,0.303875,0.26697219,-0.12246404,0.334969,0.24348877,-0.13666602,0.315193,0.23395749,-0.14353565,0.306107,0.23690916,-0.15976555,0.309721
0.30657383,-0.22072681,0.392079,0.2643428,-0.17482259,0.363062,0.27780143,-0.21630033,0.385307,0.26816826,-0.20680582,0.377582,0.25038604,-0.19280696,0.360622,0.24933182,-0.1788176,0.349916,0.19862477,-0.14304937,0.334158,0.1864646,-0.15505512,0.307349,0.20344344,-0.16947624,0.318969,0.21889589,-0.18212337,0.329533,0.21609753,-0.13112678,0.333764,0.18381237,-0.12413505,0.302862,0.20349843,-0.14830362,0.317431,0.22602149,-0.16910736,0.333181,0.23705941,-0.12456647,0.336079,0.20111482,-0.10717027,0.308462,0.19678834,-0.11373165,0.294332,0.20852151,-0.12885457,0.296503,0.27060281,-0.12333362,0.34358,0.24616723,-0.13731397,0.319241,0.23503412,-0.14333081,0.308058,0.23562214,-0.1584474,0.30902
0.30820271,-0.22075422,0.393581,0.26481839,-0.17491802,0.363973,0.2792148,-0.2167944,0.38657,0.26756118,-0.20612945,0.37689,0.24945584,-0.19158965,0.358684,0.24797054,-0.17716738,0.34705,0.1982522,-0.14303958,0.334352,0.18595822,-0.15480074,0.307108,0.20302997,-0.16921468,0.318461,0.21846558,-0.18166036,0.328782,0.21615239,-0.13100108,0.334078,0.18359601,-0.12424103,0.302718,0.20296927,-0.14833898,0.31695,0.22558305,-0.1690337,0.33276,0.23722033,-0.1244442,0.336545,0.20116188,-0.10778699,0.308492,0.19637793,-0.1141767,0.29414,0.20810611,-0.12881396,0.295981,0.27101216,-0.12324657,0.344324,0.24632573,-0.13711602,0.319641,0.23508027,-0.14306931,0.3083,0.23512213,-0.15781083,0.309019
0.31145483,-0.22177707,0.397073,0.26628204,-0.17592819,0.366502,0.28241122,-0.21834651,0.390192,0.26643596,-0.20656659,0.377119,0.24847414,-0.19286397,0.357797,0.24795585,-0.17965405,0.346567,0.19711675,-0.14412019,0.336371,0.18531213,-0.1553648,0.308764,0.2034751,-0.16999722,0.319649,0.21879017,-0.1821623,0.329544,0.21647349,-0.13174993,0.335635,0.18300328,-0.12552083,0.30364,0.20159208,-0.14966855,0.317264,0.2245645,-0.16956818,0.333114,0.23738464,-0.12498934,0.33781,0.20624611,-0.12496755,0.309314,0.20804273,-0.13239521,0.294734,0.22237811,-0.14103605,0.296077,0.27111624,-0.12361258,0.345402,0.24619902,-0.13748757,0.320358,0.23479548,-0.14371235,0.308851,0.23387881,-0.15740771,0.309197
0.31242517,-0.22084772,0.397667,0.26629561,-0.17597193,0.366935,0.2834718,-0.21795046,0.390899,0.26649662,-0.20667957,0.377383,0.2486249,-0.19300071,0.358007,0.24813091,-0.17973812,0.346764,0.19701748,-0.14443386,0.336833,0.18522141,-0.15577139,0.309227,0.20338581,-0.17027298,0.320024,0.21825947,-0.18163478,0.32984,0.2162353,-0.13193901,0.335905,0.18274361,-0.12585578,0.303824,0.20129912,-0.15001933,0.317332,0.22435039,-0.16985911,0.333177,0.23703621,-0.12508245,0.337936,0.20631212,-0.12500755,0.309413,0.20872969,-0.13226375,0.29482,0.22258068,-0.13960159,0.296085,0.27065656,-0.12359494,0.345386,0.24575888,-0.13750796,0.320316,0.23431335,-0.14402835,0.308798,0.23331324,-0.15722149,0.309085
0.31351676,-0.22018889,0.397909,0.26622603,-0.17567146,0.367143,0.28466427,-0.21783133,0.391279,0.26662681,-0.20683333,0.37771,0.24892883,-0.19325245,0.358439,0.24854251,-0.18000201,0.347301,0.19697932,-0.14466419,0.33719,0.18521722,-0.15611364,0.30966,0.20337244,-0.17038254,0.320432,0.21830244,-0.18143687,0.330225,0.21607151,-0.13206241,0.336078,0.18260343,-0.12610224,0.304002,0.20113716,-0.15032543,0.317474,0.2242321,-0.17013188,0.333306,0.23676227,-0.12512271,0.337961,0.20636413,-0.12503907,0.309491,0.20901175,-0.13225442,0.294925,0.22271763,-0.1391728,0.296181,0.27024551,-0.12353546,0.345242,0.24540558,-0.13748807,0.32021,0.2339514,-0.14421279,0.308708,0.23288205,-0.15707598,0.308988
0.32155281,-0.21998321,0.404302,0.27610894,-0.1704932,0.371385,0.29529497,-0.21850182,0.398011,0.30942541,-0.25038123,0.418148,0.28876338,-0.24369589,0.410935,0.28041792,-0.25664398,0.416739,0.20468569,-0.14905254,0.340352,0.18788335,-0.15746803,0.312113,0.20247396,-0.17560591,0.321633,0.21830825,-0.19430195,0.330288,0.21932599,-0.13338843,0.338148,0.18604093,-0.12624885,0.304738,0.20375396,-0.14934591,0.316593,0.22542189,-0.16908062,0.332399,0.23781705,-0.12541276,0.339327,0.20708826,-0.12490699,0.309962,0.20879247,-0.13146837,0.294938,0.22213709,-0.1377819,0.29494,0.26951792,-0.11645538,0.346136,0.2509467,-0.13073356,0.320387,0.24238244,-0.13679694,0.308557,0.24191198,-0.1472976,0.307905
0.3230332,-0.21870384,0.404677,0.27287712,-0.17376793,0.372249,0.29669622,-0.21817174,0.398646,0.3076955,-0.24925937,0.416287,0.30139595,-0.25436791,0.429173,0.29716805,-0.27185499,0.441794,0.20571301,-0.15270201,0.341889,0.19647865,-0.16383277,0.314036,0.21220803,-0.18370081,0.323817,0.22893638,-0.20039952,0.332709,0.2195192,-0.13415379,0.339506,0.18532742,-0.12822189,0.306471,0.20300299,-0.15191656,0.318653,0.2264189,-0.17122128,0.334427,0.23852101,-0.12578062,0.340494,0.20798739,-0.12557325,0.311506,0.20949405,-0.13201276,0.296675,0.22352217,-0.1384768,0.296987,0.26942954,-0.11711602,0.346996,0.25101037,-0.13168285,0.32154,0.24251827,-0.13788575,0.309843,0.24227538,-0.14850001,0.309418
0.32557216,-0.218539,0.406573,0.27459859,-0.17504758,0.373833,0.30086786,-0.21775015,0.401055,0.3044874,-0.24644037,0.411517,0.30254131,-0.25497359,0.430194,0.29395984,-0.26842918,0.436247,0.20690306,-0.15407009,0.343901,0.19820754,-0.16548376,0.316279,0.21426313,-0.18510733,0.325775,0.23090489,-0.20071676,0.334408,0.21986554,-0.1349426,0.340775,0.18950041,-0.13257335,0.307673,0.20587933,-0.15285833,0.319475,0.22728024,-0.1721665,0.335153,0.23891884,-0.12608623,0.341181,0.20787104,-0.12577015,0.312326,0.20555972,-0.13091847,0.297564,0.22315896,-0.13856081,0.297675,0.269167,-0.11748158,0.347048,0.25085989,-0.13213056,0.32169,0.24241974,-0.13837025,0.310039,0.24212177,-0.14887714,0.309463
0.32706903,-0.21707675,0.407034,0.27548711,-0.17410078,0.374329,0.30360607,-0.21641086,0.401825,0.30500119,-0.24674634,0.411997,0.30287675,-0.25507638,0.430367,0.29416939,-0.26837618,0.436171,0.20744025,-0.15471255,0.344811,0.19903494,-0.16624426,0.317426,0.21524362,-0.18583116,0.326876,0.23190077,-0.20111983,0.335468,0.22033308,-0.13545254,0.341306,0.18978344,-0.13315454,0.308308,0.20650416,-0.1541073,0.320044,0.22802422,-0.17279547,0.335663,0.23900281,-0.12620704,0.341396,0.20766946,-0.12583894,0.312733,0.20509196,-0.13095067,0.298068,0.2229123,-0.13863047,0.29819,0.2688909,-0.11760081,0.346887,0.25071538,-0.13231765,0.321676,0.24233618,-0.13859269,0.310093,0.24207367,-0.14908298,0.309522
0.32855238,-0.21561668,0.407322,0.27604731,-0.17407844,0.374671,0.30462734,-0.21622785,0.402262,0.30529176,-0.24691559,0.412261,0.30308441,-0.25514352,0.43048,0.29431615,-0.26836384,0.436157,0.20777639,-0.15510874,0.34538,0.19952819,-0.16669114,0.318126,0.21583267,-0.18627818,0.327576,0.23251631,-0.20142323,0.336168,0.22059218,-0.1359386,0.341703,0.19000976,-0.1335434,0.308781,0.20696105,-0.15466418,0.320512,0.22909127,-0.17324579,0.336103,0.23888789,-0.12621467,0.341646,0.20755636,-0.12591343,0.313095,0.20497172,-0.13103985,0.298487,0.22276987,-0.1387102,0.298637,0.26885368,-0.11772841,0.346956,0.25075606,-0.13249707,0.321831,0.24241235,-0.13879835,0.310287,0.2421853,-0.14929298,0.309737
0.33011554,-0.21437454,0.407727,0.27731975,-0.17364174,0.37513,0.30711236,-0.21528211,0.402905,0.30557583,-0.24710147,0.412559,0.30315921,-0.25513472,0.430465,0.29423596,-0.26819335,0.435884,0.20825173,-0.15556075,0.346177,0.20018308,-0.16725921,0.319118,0.21654745,-0.18685813,0.328544,0.23324893,-0.20191967,0.337113,0.22101635,-0.13662159,0.342216,0.19034431,-0.13393214,0.309395,0.20789405,-0.15566205,0.321088,0.23003509,-0.17378728,0.33663,0.23889245,-0.12640981,0.341921,0.20757151,-0.1260339,0.313532,0.20508392,-0.13121153,0.299008,0.22280206,-0.13886194,0.299179,0.2687816,-0.11779277,0.346941,0.2507899,-0.13262028,0.321943,0.24249487,-0.1389537,0.310457,0.24229146,-0.14945263,0.309921
0.32855217,-0.21189863,0.404881,0.27325316,-0.17361879,0.37249,0.30214903,-0.21585357,0.40057,0.29830459,-0.24893476,0.411558,0.30226516,-0.25515885,0.43028,0.29084101,-0.2653445,0.436444,0.20617289,-0.15496516,0.344327,0.18925961,-0.16196624,0.31773,0.20516442,-0.18070977,0.327148,0.22247805,-0.19802104,0.33571,0.21880648,-0.13624348,0.339784,0.18680568,-0.14022399,0.30724,0.20637364,-0.16365112,0.318909,0.23131346,-0.17447345,0.334344,0.23605727,-0.12575891,0.338991,0.19614521,-0.1252334,0.310999,0.20179292,-0.13024736,0.296677,0.21739111,-0.1371603,0.296943,0.26593085,-0.11914225,0.343391,0.24273198,-0.13680657,0.318701,0.23185905,-0.14420174,0.307358,0.22962261,-0.1552849,0.306888
0.32974151,-0.21110222,0.405229,0.27388101,-0.1735169,0.372817,0.30349735,-0.21548365,0.401017,0.29836041,-0.24898133,0.411635,0.30152529,-0.25511876,0.430043,0.28963514,-0.26404115,0.435941,0.20583467,-0.15515017,0.344765,0.19039219,-0.16323948,0.318234,0.20519331,-0.18166143,0.327609,0.22295393,-0.19844723,0.336131,0.2188753,-0.13685087,0.340091,0.18700328,-0.14037232,0.307565,0.20654642,-0.16378813,0.319176,0.23148795,-0.17544066,0.334586,0.2358416,-0.12601993,0.339193,0.19630351,-0.12533447,0.31125,0.20150289,-0.13055906,0.296954,0.21706703,-0.13736869,0.297197,0.26548108,-0.11885896,0.343472,0.24266216,-0.13669753,0.318821,0.23229947,-0.14403265,0.307495,0.23051768,-0.15518689,0.307009
0.33087624,-0.21027243,0.405511,0.27447477,-0.17339379,0.373098,0.30479904,-0.21508224,0.401404,0.29841042,-0.24902307,0.411704,0.30093529,-0.2550753,0.429838,0.2889116,-0.26327983,0.435506,0.20562961,-0.15532691,0.345178,0.19151584,-0.1645042,0.318727,0.20534996,-0.18226411,0.328067,0.22333598,-0.19878859,0.336558,0.21892618,-0.13744667,0.34037,0.18719237,-0.14051426,0.307876,0.20671726,-0.16392361,0.31944,0.23165793,-0.17619586,0.334824,0.23560239,-0.12626827,0.339361,0.19644983,-0.1254279,0.311482,0.20134017,-0.13081095,0.297218,0.21688722,-0.13755013,0.297449,0.264998,-0.11856075,0.34351,0.24256859,-0.13657537,0.318909,0.23274316,-0.14371806,0.307606,0.2313853,-0.15512155,0.307111
0.3319976,-0.20943606,0.405778,0.27506374,-0.17326813,0.373373,0.30608638,-0.21467259,0.401774,0.2984655,-0.24906904,0.41178,0.30045558,-0.25503403,0.429663,0.28839646,-0.26274938,0.435122,0.20552115,-0.15550384,0.345587,0.19263472,-0.16576395,0.319216,0.20556032,-0.18272965,0.328528,0.22368407,-0.19909922,0.336993,0.21897912,-0.13804329,0.340652,0.18738572,-0.1406594,0.308194,0.20689781,-0.16406678,0.319719,0.23183778,-0.17681974,0.335078,0.2353696,-0.12651987,0.339538,0.19660246,-0.12552534,0.311724,0.20126994,-0.1310339,0.297493,0.21680991,-0.13772276,0.297717,0.26452574,-0.11826737,0.343562,0.24248781,-0.13646068,0.319013,0.23319896,-0.14341096,0.307733,0.23227607,-0.15506449,0.307232
0.33141278,-0.20985356,0.405662,0.27442994,-0.17356269,0.373242,0.30542735,-0.21494566,0.401625,0.29841984,-0.2490309,0.411717,0.29999081,-0.25511649,0.429668,0.28826399,-0.262588,0.435184,0.20513109,-0.15541626,0.345405,0.19250558,-0.16565282,0.319002,0.20511479,-0.18344763,0.328315,0.22378222,-0.19918976,0.336782,0.21863646,-0.13803486,0.340507,0.1872854,-0.14058409,0.308029,0.20679298,-0.16398364,0.319557,0.23173453,-0.17713021,0.334924,0.23507297,-0.12658005,0.339425,0.19651416,-0.12546897,0.311584,0.20096707,-0.13104571,0.29734,0.21648234,-0.13768702,0.297558,0.26429785,-0.1184204,0.34349,0.24241636,-0.13642047,0.318919,0.23312091,-0.14336296,0.30763,0.23219518,-0.15501048,0.307125
0.3278142,-0.20850376,0.402182,0.27075041,-0.17378898,0.372397,0.29982229,-0.21193148,0.395368,0.26451237,-0.19944493,0.374659,0.24276921,-0.18747854,0.357766,0.2277663,-0.17114253,0.342594,0.19674797,-0.14745445,0.342902,0.18838999,-0.15342648,0.315703,0.2075072,-0.16941047,0.326969,0.23405894,-0.18434425,0.342203,0.21321055,-0.13137674,0.342323,0.20050412,-0.14059004,0.31088,0.22092137,-0.16527606,0.324993,0.2372469,-0.18396811,0.340797,0.23212781,-0.12106276,0.344556,0.20022147,-0.11697486,0.316508,0.20530255,-0.12220331,0.302157,0.22133341,-0.12851965,0.303927,0.26439756,-0.11457793,0.352088,0.24547879,-0.1281408,0.3274,0.23679234,-0.1340823,0.316058,0.23972374,-0.14668208,0.316721
0.32906926,-0.20905726,0.403815,0.27229654,-0.17445453,0.375212,0.29981627,-0.21202717,0.395352,0.26611417,-0.19742595,0.372817,0.24139598,-0.18412467,0.354146,0.22465304,-0.16759051,0.339178,0.19698382,-0.15799717,0.344462,0.18915922,-0.15581986,0.316793,0.20910298,-0.17007611,0.328516,0.23665586,-0.18333145,0.344119,0.20991534,-0.13903744,0.346331,0.20160708,-0.14251404,0.315434,0.22486196,-0.16569756,0.330191,0.25120119,-0.17887582,0.345999,0.22632709,-0.12538342,0.35047,0.21136123,-0.12805642,0.322277,0.22096309,-0.12388798,0.307852,0.2340726,-0.12463602,0.309968,0.25659066,-0.11321642,0.360051,0.24179226,-0.12414124,0.335325,0.23573695,-0.12984805,0.323964,0.24249687,-0.14167627,0.324908
0.32344734,-0.18859518,0.379822,0.28348965,-0.16235538,0.368221,0.32084976,-0.19937876,0.383635,0.29245021,-0.2067936,0.387083,0.26509458,-0.21467974,0.388687,0.24452638,-0.21112879,0.381973,0.23515705,-0.16397722,0.3649,0.21687312,-0.17061728,0.348396,0.24580037,-0.17742557,0.363634,0.26625295,-0.17790303,0.37818,0.23545876,-0.14078827,0.356508,0.2091268,-0.14872381,0.341242,0.23051233,-0.16960958,0.360658,0.25745822,-0.1784878,0.372275,0.24003037,-0.12311211,0.350656,0.22439305,-0.13427651,0.338991,0.22902733,-0.1432291,0.333023,0.24911352,-0.15803393,0.342521,0.25372335,-0.10479636,0.345679,0.23476136,-0.12150963,0.334173,0.22592014,-0.12943561,0.328886,0.23549981,-0.14412543,0.335306
