sluyters/QuantumLeap/src/datasets/gesture/HandGestureDataset_SHREC2017_csv/Gesture1/finger_2/subject_19_essai_2_skeletons_world.csv
Wrist_x,Wrist_y,Wrist_z,Palm_x,Palm_y,Palm_z,thumb_base_x,thumb_base_y,thumb_base_z,thumb_first_joint_x,thumb_first_joint_y,thumb_first_joint_z,thumb_second_joint_x,thumb_second_joint_y,thumb_second_joint_z,thumb_tip_x,thumb_tip_y,thumb_tip_z,index_base_x,index_base_y,index_base_z,index_first_joint_x,index_first_joint_y,index_first_joint_z,index_second_joint_x,index_second_joint_y,index_second_joint_z,index_tip_x,index_tip_y,index_tip_z,middle_base_x,middle_base_y,middle_base_z,middle_first_joint_x,middle_first_joint_y,middle_first_joint_z,middle_second_joint_x,middle_second_joint_y,middle_second_joint_z,middle_tip_x,middle_tip_y,middle_tip_z,ring_base_x,ring_base_y,ring_base_z,ring_first_joint_x,ring_first_joint_y,ring_first_joint_z,ring_second_joint_x,ring_second_joint_y,ring_second_joint_z,ring_tip_x,ring_tip_y,ring_tip_z,pinky_base_x,pinky_base_y,pinky_base_z,pinky_first_joint_x,pinky_first_joint_y,pinky_first_joint_z,pinky_second_joint_x,pinky_second_joint_y,pinky_second_joint_z,pinky_tip_x,pinky_tip_y,pinky_tip_z,r
0.42763906,-0.38826641,0.520384,0.42540965,-0.35113439,0.519618,0.4125088,-0.3798037,0.526331,0.38401954,-0.36922123,0.524829,0.34669712,-0.34644889,0.502861,0.32744184,-0.32631932,0.493455,0.4045688,-0.31003065,0.526486,0.39046848,-0.26960078,0.521578,0.37832204,-0.25441358,0.519124,0.37086211,-0.24142073,0.516893,0.42209641,-0.30507503,0.518793,0.40651485,-0.26053753,0.512134,0.39646488,-0.23664374,0.508249,0.38827761,-0.22139026,0.505474,0.43694437,-0.30469862,0.512529,0.42384007,-0.25959323,0.506303,0.41534214,-0.2398777,0.503118,0.40613218,-0.22749134,0.500222,0.45484334,-0.31269569,0.505251,0.44760248,-0.27231088,0.498442,0.44362399,-0.25548946,0.495314,0.43716986,-0.2452581,0.492553
0.42553898,-0.38748432,0.518612,0.42432534,-0.3504635,0.519064,0.41032791,-0.37885066,0.524276,0.3807121,-0.37185093,0.523077,0.33840796,-0.34982664,0.499076,0.31586499,-0.32891125,0.486645,0.40415918,-0.30959114,0.526495,0.38767971,-0.26920946,0.522505,0.3783296,-0.25213989,0.52051,0.36920824,-0.23238866,0.518697,0.42242891,-0.30527938,0.519549,0.40814527,-0.26191637,0.513902,0.39891425,-0.23691031,0.510608,0.39147084,-0.22110321,0.508255,0.43779914,-0.30538523,0.513792,0.4256197,-0.26042957,0.507933,0.42286524,-0.24082262,0.508926,0.42338602,-0.22026956,0.509828,0.45615969,-0.31351891,0.506921,0.4514802,-0.27479761,0.500773,0.44972431,-0.25668112,0.497948,0.44700621,-0.24224326,0.495456
0.422522,-0.38368825,0.514084,0.41825033,-0.3344542,0.511623,0.40611614,-0.37429873,0.518188,0.37756542,-0.36915088,0.517696,0.33889194,-0.35281231,0.493037,0.31163417,-0.33509977,0.47783,0.3917982,-0.29456347,0.514923,0.37565939,-0.25549539,0.512074,0.36554447,-0.23801337,0.510649,0.35617584,-0.22179983,0.509354,0.41352176,-0.28723208,0.508982,0.39633595,-0.2447031,0.498894,0.39081638,-0.21502471,0.496305,0.38521177,-0.19769964,0.494455,0.42967604,-0.28859869,0.50431,0.42186194,-0.24296412,0.500809,0.41893332,-0.22081728,0.499678,0.41637754,-0.20074809,0.498776,0.45090856,-0.29252881,0.499191,0.45017415,-0.25049419,0.490067,0.44979602,-0.23138039,0.485875,0.44592962,-0.22245748,0.482176
0.42194565,-0.38273301,0.512492,0.41590074,-0.33231515,0.507755,0.40507358,-0.37325238,0.516162,0.3747606,-0.36556598,0.514561,0.33690658,-0.35054048,0.489637,0.31018286,-0.3331537,0.473394,0.38846307,-0.29044336,0.508826,0.37294206,-0.24991909,0.504761,0.3627313,-0.23170365,0.502729,0.35176519,-0.21650735,0.500881,0.40795478,-0.28539819,0.502691,0.39581014,-0.24324497,0.497606,0.39014563,-0.21444154,0.49464,0.38455271,-0.1964472,0.492521,0.42504324,-0.28517419,0.498063,0.41996361,-0.2417071,0.496167,0.41737024,-0.2195349,0.495197,0.41398873,-0.19997533,0.494314,0.44859576,-0.29531719,0.493374,0.44654411,-0.25299328,0.483818,0.44505415,-0.23408204,0.479427,0.44110201,-0.21947054,0.475553
0.41269794,-0.37402987,0.500568,0.40357338,-0.32109399,0.491881,0.39769778,-0.35975805,0.502048,0.35729447,-0.34942194,0.494816,0.31991963,-0.33580647,0.468632,0.29398296,-0.31855538,0.45167,0.37079444,-0.27416317,0.487293,0.35432487,-0.23742014,0.4864,0.34596803,-0.21876795,0.485954,0.34302766,-0.20658068,0.489262,0.39146457,-0.27089813,0.482642,0.38262366,-0.22743882,0.480415,0.37743777,-0.20191921,0.479115,0.37716326,-0.18880533,0.482637,0.40980771,-0.27241248,0.479593,0.40634318,-0.22764496,0.475436,0.40413372,-0.20489268,0.47331,0.40212278,-0.18413982,0.471376,0.43384519,-0.28204486,0.477421,0.43691434,-0.24207212,0.471817,0.43818058,-0.22391001,0.469243,0.43927724,-0.20797566,0.466971
0.40974254,-0.36551165,0.491803,0.39413612,-0.31112905,0.477798,0.38721404,-0.34983042,0.489593,0.35100765,-0.34003312,0.476523,0.31378158,-0.3279941,0.449431,0.28845559,-0.31211617,0.431046,0.35542498,-0.26000838,0.464659,0.33624051,-0.22425833,0.463879,0.32654078,-0.20617901,0.463489,0.31748919,-0.18971684,0.463134,0.37917695,-0.25832878,0.462942,0.36822538,-0.21308431,0.456953,0.36182973,-0.18664381,0.453459,0.35675645,-0.16818368,0.450963,0.40050908,-0.26131751,0.462786,0.39238032,-0.21459813,0.454584,0.3881073,-0.19105277,0.450388,0.3833537,-0.17248988,0.446573,0.42885767,-0.27298771,0.464894,0.42682996,-0.23014425,0.453228,0.4258149,-0.21080349,0.447868,0.42464316,-0.19608675,0.443139
0.39234105,-0.34371833,0.467164,0.38193862,-0.29357482,0.454897,0.37082977,-0.33110752,0.463997,0.33397768,-0.32662202,0.454286,0.29543944,-0.31494237,0.427253,0.26814729,-0.29942992,0.410165,0.3398597,-0.2439646,0.441877,0.32141981,-0.20626398,0.438493,0.31208659,-0.18715735,0.436801,0.30324139,-0.17027323,0.435263,0.36505967,-0.24202058,0.441941,0.35258567,-0.19683504,0.434521,0.34527673,-0.17026965,0.430192,0.34004189,-0.15119718,0.427101,0.38761353,-0.24474453,0.443097,0.37785578,-0.19763695,0.431523,0.37286399,-0.17353193,0.425602,0.36832493,-0.15161545,0.420218,0.4174988,-0.25605259,0.446474,0.41261054,-0.2117526,0.431604,0.40973418,-0.1996486,0.424772,0.40731591,-0.1886799,0.418743
0.38122048,-0.32659884,0.444186,0.36841043,-0.27728408,0.433168,0.35756336,-0.31591988,0.441929,0.32278449,-0.31231687,0.434014,0.28547982,-0.3016271,0.407098,0.25821085,-0.28640718,0.389508,0.32754347,-0.22981437,0.422214,0.30708491,-0.19135472,0.416505,0.2967677,-0.17193039,0.413651,0.28730223,-0.15575018,0.411056,0.35216215,-0.22707233,0.421532,0.33788701,-0.18162486,0.412729,0.32954495,-0.15537624,0.407594,0.32355738,-0.1366249,0.403926,0.37402846,-0.2290379,0.421964,0.36143975,-0.18234018,0.407669,0.35499995,-0.15831092,0.400356,0.34914503,-0.13637835,0.393707,0.40276415,-0.23918276,0.424281,0.40082701,-0.19712794,0.410315,0.4000628,-0.1832937,0.403898,0.39886241,-0.17489492,0.398236
0.37074794,-0.31162623,0.424145,0.35757048,-0.262504,0.412047,0.34736752,-0.30167689,0.422399,0.31346775,-0.29913239,0.414847,0.27524995,-0.28903168,0.388397,0.24760357,-0.27424798,0.370994,0.31562439,-0.21544075,0.400939,0.29295203,-0.17768521,0.394867,0.28152752,-0.15863616,0.391832,0.27099186,-0.14346899,0.389072,0.33936534,-0.21186619,0.39927,0.32382433,-0.16680169,0.389976,0.31470359,-0.14022254,0.384555,0.30816219,-0.12109728,0.380683,0.36069222,-0.21317123,0.398986,0.34654249,-0.16636933,0.383816,0.33930164,-0.14229477,0.376054,0.33271933,-0.12032049,0.368999,0.38914512,-0.22259645,0.400636,0.38550901,-0.18007983,0.385435,0.38378448,-0.16613986,0.37845,0.38167925,-0.1576925,0.372287
0.36310756,-0.30363832,0.415387,0.34471432,-0.25272291,0.399656,0.33846595,-0.29286353,0.411979,0.29987765,-0.28657863,0.400196,0.26339259,-0.27832169,0.373528,0.23654778,-0.26421897,0.355661,0.2964466,-0.2028942,0.383823,0.27619195,-0.16303658,0.376012,0.26596366,-0.14285484,0.372106,0.25660346,-0.12435279,0.368555,0.32106327,-0.19964275,0.383104,0.3088727,-0.15296358,0.372611,0.30174917,-0.12557512,0.366491,0.29664257,-0.10599078,0.362119,0.34346385,-0.2012956,0.383932,0.33324778,-0.15281248,0.368301,0.32810725,-0.12857589,0.360304,0.32365235,-0.10788739,0.353034,0.37373526,-0.2112867,0.387494,0.37387034,-0.1689644,0.371403,0.37471173,-0.15323956,0.36401,0.36979482,-0.15018741,0.357487
0.35756548,-0.29814803,0.408766,0.3378998,-0.24728393,0.393791,0.33447289,-0.28740172,0.405844,0.29598908,-0.28309221,0.395309,0.26009828,-0.274958,0.368707,0.2336325,-0.26107059,0.35099,0.29281945,-0.20065597,0.379171,0.27196095,-0.16098724,0.371387,0.261432,-0.14091416,0.367495,0.25179923,-0.12251962,0.363957,0.31714269,-0.19711478,0.378107,0.30292384,-0.14985274,0.365631,0.29419738,-0.12175987,0.358354,0.29036908,-0.10331626,0.355192,0.33919561,-0.19848332,0.37859,0.32814673,-0.14958084,0.361921,0.32378528,-0.12618565,0.353392,0.31804489,-0.10533755,0.345639,0.36885009,-0.20801356,0.381627,0.36923838,-0.16613736,0.366014,0.37028506,-0.15021744,0.358841,0.36862496,-0.14738256,0.352511
0.35045557,-0.29023738,0.399757,0.32581388,-0.2376133,0.379137,0.32481848,-0.27908831,0.395095,0.28249671,-0.27228926,0.380667,0.24902605,-0.26741179,0.354882,0.22399978,-0.25302471,0.336983,0.27785509,-0.18701733,0.358263,0.25413067,-0.14689019,0.347859,0.24217506,-0.12661969,0.342657,0.23124894,-0.10806344,0.337929,0.30276744,-0.18468917,0.357637,0.2872524,-0.13730815,0.343155,0.2781885,-0.10950614,0.334707,0.27171766,-0.089619276,0.328673,0.3255138,-0.18728127,0.359,0.3146562,-0.13823888,0.341501,0.30909669,-0.11351737,0.332548,0.30516721,-0.098466057,0.32441,0.35640347,-0.19864629,0.364013,0.35101501,-0.15435431,0.343551,0.34907388,-0.14474356,0.33415,0.34764016,-0.1360662,0.325854
0.34379549,-0.28535269,0.393095,0.31758085,-0.23194734,0.369678,0.31552959,-0.27186733,0.386253,0.2742598,-0.2676234,0.368016,0.2410554,-0.26277376,0.342144,0.21562975,-0.24785813,0.323655,0.26707231,-0.18051163,0.344022,0.24152519,-0.14021373,0.330631,0.2286487,-0.11983812,0.323936,0.21681282,-0.10173546,0.317849,0.2935033,-0.17972763,0.345262,0.27558194,-0.13234096,0.328896,0.26511617,-0.1045542,0.319349,0.25763127,-0.084613485,0.31253,0.31768321,-0.1836707,0.348415,0.30285468,-0.13420291,0.326253,0.29522883,-0.10917383,0.314915,0.28962315,-0.093453662,0.304607,0.34953206,-0.19552998,0.355999,0.34512487,-0.15294993,0.333935,0.34342999,-0.14257429,0.323797,0.33899624,-0.1323317,0.314852
0.33288277,-0.27703501,0.381866,0.30813216,-0.22672389,0.357533,0.30489324,-0.26475035,0.374929,0.26750191,-0.26544837,0.35709,0.23406583,-0.25850286,0.331752,0.20959709,-0.24670875,0.31296,0.25916806,-0.17579501,0.331091,0.23340198,-0.13483251,0.315453,0.22043021,-0.11413696,0.307634,0.20856496,-0.096012764,0.300526,0.28546879,-0.17518115,0.332161,0.26729984,-0.12765455,0.314295,0.25668918,-0.099768675,0.303873,0.24922321,-0.080162679,0.296428,0.30950096,-0.17925985,0.335258,0.29659624,-0.13108147,0.314596,0.28999212,-0.10643775,0.304024,0.28234375,-0.088327027,0.294413,0.34212451,-0.19254175,0.342928,0.33575181,-0.14888988,0.319961,0.33361733,-0.13958777,0.309409,0.32904623,-0.12905797,0.300098
0.32945956,-0.27401488,0.376009,0.30674583,-0.22491828,0.350126,0.30273626,-0.26232273,0.36947,0.27068704,-0.26541144,0.348679,0.23884341,-0.26465589,0.324067,0.21322808,-0.25385432,0.304967,0.25494101,-0.17364286,0.323059,0.22837226,-0.13579021,0.306527,0.21392002,-0.1155609,0.298262,0.20291111,-0.095915411,0.293155,0.28012266,-0.17191373,0.32314,0.2606874,-0.12616668,0.303924,0.24794079,-0.098676811,0.292714,0.24254776,-0.07909063,0.2888,0.30635284,-0.17605914,0.325563,0.28736271,-0.1274509,0.301353,0.27763463,-0.10269122,0.288966,0.2698201,-0.083421915,0.277705,0.33928254,-0.18754628,0.332696,0.32709617,-0.14158592,0.307623,0.32241397,-0.13586554,0.296104,0.31815024,-0.13232883,0.285939
0.31993036,-0.26875872,0.362829,0.30088862,-0.22142613,0.339017,0.29614156,-0.25883842,0.357389,0.25628497,-0.26285827,0.34362,0.22711714,-0.26512605,0.319079,0.2019976,-0.25704846,0.300221,0.25115534,-0.17061395,0.314839,0.22239546,-0.13205187,0.297165,0.20899555,-0.11329869,0.288328,0.19470659,-0.094792769,0.280493,0.27566723,-0.1690256,0.314189,0.2538244,-0.12336807,0.292779,0.24051647,-0.09618539,0.28029,0.23241724,-0.077099361,0.275093,0.29837172,-0.1722374,0.315821,0.27839719,-0.12605101,0.28821,0.26753988,-0.10174367,0.274083,0.25770256,-0.084120295,0.26124,0.3314371,-0.18758594,0.32168,0.32264091,-0.14263924,0.297543,0.31659889,-0.13675147,0.286453,0.30962262,-0.12974354,0.276668
0.31641928,-0.2676834,0.358272,0.29588928,-0.22262134,0.334584,0.29216215,-0.25766867,0.3527,0.24921883,-0.25429388,0.332934,0.22464808,-0.2513946,0.307597,0.20304704,-0.23967072,0.288374,0.24486189,-0.17195402,0.310331,0.21896463,-0.13074256,0.291142,0.20502652,-0.1109349,0.281547,0.1922557,-0.092696872,0.272825,0.27136499,-0.16889767,0.309885,0.25017879,-0.12254747,0.288509,0.23781441,-0.095430852,0.276039,0.22901749,-0.07686428,0.267132,0.29436774,-0.1728919,0.311675,0.27258162,-0.12551903,0.2819,0.2625236,-0.10402383,0.266666,0.25137143,-0.084095792,0.252817,0.32611868,-0.18623787,0.317698,0.31841549,-0.14295211,0.293476,0.31309344,-0.13723892,0.282346,0.30865959,-0.13218686,0.272526
0.31595313,-0.27036137,0.356034,0.29050602,-0.22099268,0.328853,0.28945111,-0.25761255,0.349769,0.24660624,-0.25318907,0.328882,0.22231325,-0.25246335,0.305087,0.20110232,-0.24142356,0.28619,0.23805695,-0.16899628,0.301186,0.2091434,-0.13097377,0.277854,0.19440329,-0.1108221,0.266188,0.18093692,-0.093169553,0.255582,0.26254276,-0.16801032,0.300513,0.24083617,-0.12378976,0.27654,0.2277788,-0.097519066,0.262556,0.22098515,-0.077205571,0.255683,0.28539591,-0.17191648,0.302434,0.26240208,-0.13058292,0.269629,0.25021596,-0.10956619,0.252846,0.23917881,-0.090329681,0.237588,0.31733526,-0.18528543,0.309189,0.305408,-0.14737015,0.281174,0.29797183,-0.14221926,0.268303,0.29160715,-0.13772221,0.256946
0.30832511,-0.27067902,0.349967,0.28074414,-0.22920997,0.322223,0.27973987,-0.26137483,0.341444,0.24043345,-0.25958941,0.317832,0.21398403,-0.25529052,0.29291,0.19298019,-0.2382484,0.273623,0.23068691,-0.17208593,0.2913,0.20524605,-0.12760398,0.271321,0.19277227,-0.11073308,0.261331,0.18541286,-0.10694328,0.252249,0.25750163,-0.17401204,0.293296,0.23215264,-0.12775157,0.265352,0.21801285,-0.10505448,0.249052,0.20791563,-0.088505476,0.237409,0.2820004,-0.18036823,0.297464,0.24760094,-0.12961013,0.264402,0.23356321,-0.12100159,0.247487,0.22247517,-0.12663373,0.232109,0.31527269,-0.1967279,0.30696,0.30443203,-0.15714396,0.278577,0.29785451,-0.15282486,0.265537,0.29225761,-0.14912126,0.25403
0.29325953,-0.28651515,0.340896,0.27503619,-0.24389619,0.319699,0.26451102,-0.27955011,0.332984,0.23521546,-0.26677625,0.310771,0.20598613,-0.24860849,0.283121,0.18596346,-0.23187896,0.264079,0.23007867,-0.18668225,0.294309,0.20317672,-0.1446523,0.267868,0.18999539,-0.12961907,0.254648,0.17791151,-0.11570125,0.242629,0.25789185,-0.19034768,0.297597,0.23238486,-0.14515763,0.269469,0.21779658,-0.122584,0.253061,0.20736582,-0.10615545,0.24134,0.28295068,-0.19806544,0.302234,0.2555952,-0.14567489,0.2742,0.2440414,-0.1387992,0.259857,0.23412498,-0.1452446,0.246818,0.31614392,-0.21596223,0.311199,0.29631046,-0.16629737,0.285898,0.28751909,-0.16761424,0.274273,0.27984168,-0.16897311,0.264016
0.30556095,-0.2985012,0.356579,0.28298949,-0.251518,0.331429,0.27855168,-0.28352455,0.349049,0.25205917,-0.27340198,0.326808,0.22430308,-0.25869895,0.301077,0.20840024,-0.24310647,0.283746,0.23508551,-0.20301739,0.303645,0.20935004,-0.1551941,0.27797,0.19641892,-0.13974783,0.265132,0.18671722,-0.14351154,0.253462,0.26176438,-0.20461948,0.305207,0.23240107,-0.15869645,0.273795,0.21528178,-0.13200638,0.255471,0.20561247,-0.10986533,0.242383,0.28590573,-0.21006968,0.308782,0.25871814,-0.15824172,0.277786,0.24602049,-0.14124257,0.261928,0.23487416,-0.1452662,0.247511,0.31802089,-0.22405645,0.31715,0.28639987,-0.18442685,0.288994,0.27569447,-0.18554843,0.276058,0.2671996,-0.19265457,0.264643
0.30330166,-0.30337468,0.35732,0.28217439,-0.25471623,0.332023,0.27788536,-0.28969791,0.351222,0.24965654,-0.27946717,0.330672,0.22031728,-0.26399826,0.305372,0.20556635,-0.24688629,0.287783,0.23598368,-0.20600253,0.305936,0.21105723,-0.15773444,0.280403,0.19793051,-0.14208047,0.267637,0.18733769,-0.14579527,0.256031,0.26118634,-0.20742393,0.305647,0.2320566,-0.16115063,0.274385,0.21507516,-0.13426933,0.256149,0.20295132,-0.11513083,0.243123,0.28300823,-0.21618769,0.307712,0.25716751,-0.16385124,0.276935,0.24377719,-0.14796105,0.261188,0.23310106,-0.14662667,0.246873,0.31341186,-0.23123608,0.314326,0.28227869,-0.1907308,0.286677,0.26994977,-0.19084289,0.273974,0.26049661,-0.19817977,0.262765
0.30701308,-0.30994724,0.362592,0.284809,-0.26390841,0.336189,0.27884791,-0.29392039,0.35313,0.24823018,-0.27914748,0.328561,0.21861816,-0.2547505,0.303049,0.20056601,-0.23865488,0.285423,0.23658845,-0.21412573,0.305058,0.21175707,-0.16815801,0.281326,0.19931911,-0.14385111,0.26946,0.18968918,-0.14508555,0.258672,0.26382857,-0.21419714,0.30866,0.23492005,-0.15973181,0.275924,0.22194528,-0.15686463,0.256828,0.21235869,-0.16507634,0.243188,0.28951013,-0.22164887,0.314028,0.2597002,-0.16820513,0.281488,0.2455094,-0.15094046,0.26484,0.23527982,-0.14948246,0.249705,0.32370543,-0.23852725,0.324715,0.28945089,-0.19190536,0.295099,0.27964218,-0.1869212,0.281492,0.2714337,-0.19320752,0.269485
0.31848565,-0.32282291,0.383067,0.29201142,-0.2641686,0.353895,0.28976609,-0.30114887,0.373339,0.26402743,-0.27088078,0.356804,0.23834229,-0.2356402,0.339566,0.22865405,-0.21196755,0.327319,0.25245758,-0.20200106,0.320416,0.21770294,-0.16751016,0.28827,0.20460673,-0.17563388,0.272197,0.19254445,-0.18298713,0.257585,0.27880843,-0.21236154,0.323478,0.25585404,-0.16377053,0.288463,0.23325381,-0.17027761,0.268037,0.21638732,-0.17684504,0.253447,0.30222315,-0.2256078,0.328655,0.27081701,-0.17641471,0.294174,0.25500618,-0.15808259,0.276533,0.24116043,-0.15963542,0.260495,0.33261764,-0.24989657,0.339575,0.30738182,-0.19999418,0.31035,0.29523749,-0.1838787,0.296922,0.28305998,-0.18411311,0.285074
0.31596337,-0.32451207,0.391784,0.29626007,-0.26936536,0.361971,0.28547318,-0.29937719,0.382818,0.26668663,-0.2747999,0.366378,0.23999301,-0.23959907,0.34879,0.23178848,-0.21621626,0.335569,0.25656722,-0.20674214,0.328986,0.2193102,-0.17046192,0.296996,0.20439006,-0.17903153,0.281001,0.19572871,-0.18785619,0.26646,0.2821402,-0.21658838,0.330887,0.25458135,-0.16674039,0.29548,0.23097406,-0.17268663,0.274826,0.21811839,-0.18028735,0.260073,0.30493772,-0.22947175,0.335167,0.27022465,-0.178155,0.300665,0.25260184,-0.16006899,0.283013,0.23955056,-0.16269616,0.266966,0.33471132,-0.25344827,0.345134,0.30947239,-0.20331838,0.3162,0.2930795,-0.1865733,0.302906,0.2846068,-0.18730488,0.291176
0.31379518,-0.3268944,0.399942,0.29822877,-0.27405269,0.369984,0.28924588,-0.30485752,0.390474,0.26803699,-0.2788338,0.373759,0.24309428,-0.24418965,0.355442,0.23296113,-0.22009735,0.343042,0.25773565,-0.2106962,0.336261,0.22302305,-0.17455456,0.303858,0.20819366,-0.18314525,0.287656,0.19624741,-0.19064183,0.272928,0.28362696,-0.22082501,0.338748,0.25920405,-0.17102534,0.303149,0.23585033,-0.17706531,0.282382,0.21926767,-0.18372998,0.267549,0.30681567,-0.23401226,0.343522,0.27522572,-0.18264746,0.308663,0.25765085,-0.16429924,0.290828,0.24002353,-0.16592846,0.274614,0.33723931,-0.25849812,0.354098,0.30963399,-0.20777465,0.325651,0.2973682,-0.19150821,0.312581,0.28740804,-0.19220506,0.301048
0.31790189,-0.33103311,0.406638,0.30073485,-0.27753683,0.376663,0.29327564,-0.30904958,0.39728,0.2708309,-0.28283723,0.380807,0.24593772,-0.24882491,0.362848,0.23565176,-0.22494687,0.350479,0.26006991,-0.21484326,0.343066,0.22490359,-0.1805349,0.310727,0.20890673,-0.19128404,0.294557,0.1990308,-0.19677877,0.279857,0.28580097,-0.224726,0.345409,0.26111785,-0.1753483,0.309813,0.23788276,-0.18157526,0.289049,0.22159146,-0.18821203,0.274217,0.30885629,-0.23766228,0.350067,0.27708658,-0.18681047,0.315254,0.25938398,-0.16875515,0.297442,0.24359451,-0.17052576,0.28125,0.33913284,-0.26175202,0.360508,0.31272994,-0.21114985,0.330682,0.29960325,-0.19467355,0.316978,0.28879656,-0.19485825,0.304887
0.31483774,-0.33525559,0.415223,0.30120366,-0.28015341,0.391289,0.28120526,-0.30835458,0.407034,0.2798258,-0.28748643,0.389799,0.27449959,-0.25958675,0.37613,0.28106903,-0.24591032,0.366571,0.27497159,-0.2130694,0.363558,0.24281826,-0.19683276,0.335421,0.2301419,-0.20243708,0.321352,0.21994278,-0.21381229,0.308562,0.29990616,-0.22629304,0.366333,0.26898188,-0.21846028,0.335831,0.24209877,-0.22775325,0.318038,0.22739596,-0.23169917,0.308022,0.32116785,-0.24214794,0.370796,0.31321473,-0.21033252,0.340674,0.28652782,-0.2172824,0.325263,0.27868717,-0.23176874,0.330325,0.34726339,-0.27008158,0.380009,0.33326869,-0.220164,0.357618,0.32480132,-0.20728483,0.347331,0.31442276,-0.21100162,0.338254
0.31853052,-0.33490902,0.41428,0.31014393,-0.27362069,0.392057,0.29480357,-0.31215293,0.405499,0.28563517,-0.27808631,0.391772,0.27662349,-0.25052856,0.378711,0.28014349,-0.24135907,0.363911,0.27655909,-0.21109798,0.364825,0.24877236,-0.20316873,0.337333,0.23253066,-0.20455044,0.323587,0.22078404,-0.21644644,0.311091,0.30447228,-0.21912913,0.368886,0.2764356,-0.21276154,0.33976,0.25377479,-0.2230892,0.32277,0.25144702,-0.24116917,0.328019,0.32817248,-0.23293765,0.374252,0.31759741,-0.20207497,0.345049,0.29327638,-0.21165231,0.330108,0.28507689,-0.23303314,0.335781,0.35798605,-0.25852221,0.384245,0.32859523,-0.22223886,0.357421,0.31735842,-0.23098367,0.345096,0.30860478,-0.23860522,0.334221
0.32021344,-0.33606143,0.417699,0.31220594,-0.27465786,0.395559,0.29551049,-0.31230449,0.409701,0.288557,-0.2794448,0.396578,0.27991057,-0.25163813,0.384389,0.28664236,-0.24144248,0.372615,0.28111883,-0.2096317,0.369375,0.25220076,-0.20463392,0.342439,0.23617145,-0.20671196,0.328972,0.22476977,-0.22008582,0.316728,0.30748287,-0.2203668,0.372475,0.2778482,-0.21525789,0.343525,0.25435877,-0.22572187,0.326637,0.24980565,-0.24553046,0.332049,0.33027455,-0.23416433,0.377043,0.31969898,-0.20373299,0.348295,0.29493302,-0.21320764,0.333586,0.28779054,-0.23408768,0.339525,0.35879295,-0.25967552,0.386083,0.32967333,-0.2233436,0.359586,0.31805605,-0.23213952,0.347412,0.30915208,-0.23993599,0.33667
0.32888736,-0.33748936,0.427584,0.33244475,-0.27719864,0.407143,0.33630711,-0.30795818,0.436082,0.32909475,-0.29257114,0.436518,0.32238786,-0.28294222,0.437118,0.32100571,-0.27982923,0.431594,0.33243516,-0.22363947,0.402983,0.28644861,-0.22500477,0.391256,0.26387732,-0.22993126,0.385486,0.25146448,-0.24336112,0.380343,0.32985618,-0.22874311,0.38583,0.27430486,-0.21621284,0.36429,0.24898945,-0.22723186,0.351725,0.25180928,-0.24152535,0.353601,0.32778639,-0.23488378,0.373572,0.31137227,-0.19941509,0.351026,0.27956007,-0.19981682,0.339491,0.27206229,-0.21307458,0.341185,0.32625372,-0.25497397,0.362515,0.28118138,-0.23272672,0.347042,0.26056755,-0.22253981,0.339933,0.24243207,-0.21357064,0.33366
0.35284407,-0.33425519,0.447105,0.35260387,-0.27578045,0.42819,0.34974494,-0.31747608,0.453331,0.33745705,-0.29583382,0.453141,0.32511806,-0.27183497,0.454191,0.32026962,-0.24906247,0.450944,0.3431851,-0.22156486,0.422277,0.30047053,-0.21926972,0.405463,0.27856513,-0.21824529,0.397056,0.27794998,-0.2396006,0.402905,0.34876188,-0.22192948,0.408467,0.29659126,-0.21670103,0.386567,0.27265797,-0.23002257,0.373792,0.27054216,-0.25359828,0.378485,0.35401899,-0.22699612,0.398824,0.30586949,-0.22036268,0.381937,0.28027286,-0.21808388,0.373298,0.27181387,-0.23817765,0.379926,0.36141079,-0.24194869,0.390592,0.31123844,-0.23497153,0.373772,0.28839452,-0.2317452,0.366044,0.27409903,-0.23932897,0.359225
0.35463653,-0.3315413,0.448126,0.35850198,-0.27747876,0.437035,0.35384354,-0.31806134,0.457871,0.34543369,-0.29830115,0.464002,0.33366345,-0.28104034,0.466629,0.33061453,-0.2594538,0.466359,0.35787381,-0.22984959,0.441248,0.32018403,-0.23301261,0.434349,0.30033942,-0.23480495,0.4309,0.30164306,-0.25853494,0.440163,0.36032835,-0.22890557,0.425471,0.31205308,-0.22822626,0.41149,0.29422627,-0.2458103,0.403334,0.29597479,-0.26657965,0.410643,0.36239264,-0.2324552,0.413495,0.31745041,-0.23403627,0.40474,0.29359616,-0.23499557,0.400261,0.28820088,-0.25732588,0.409869,0.36482728,-0.24464755,0.401224,0.31837492,-0.2373242,0.39137,0.29721845,-0.23396566,0.386842,0.28450497,-0.23811299,0.383881
0.37188107,-0.34276522,0.467841,0.36376622,-0.28273305,0.445534,0.36007211,-0.32264417,0.466997,0.33494261,-0.29820663,0.458501,0.31398122,-0.26977352,0.453509,0.30317124,-0.24752872,0.447674,0.3282695,-0.22716157,0.428245,0.29147065,-0.21060922,0.406473,0.28120439,-0.22406324,0.395587,0.29297542,-0.24149322,0.402046,0.34700415,-0.23037663,0.422276,0.30791397,-0.2310818,0.394817,0.32219169,-0.26533286,0.413585,0.34160566,-0.27632734,0.430104,0.36576724,-0.23671034,0.419394,0.32851716,-0.23671866,0.394812,0.3389878,-0.2670795,0.411231,0.35815515,-0.27940718,0.428139,0.38677768,-0.2546833,0.419687,0.34644947,-0.25528158,0.396363,0.32274326,-0.25653732,0.385647,0.31894721,-0.26246677,0.389865
0.38298151,-0.3408792,0.478296,0.37273615,-0.28784276,0.459073,0.36745963,-0.32406642,0.478219,0.35235436,-0.29578918,0.474772,0.3345786,-0.26692265,0.471172,0.32686296,-0.24491868,0.466916,0.34203704,-0.22981907,0.444994,0.31126576,-0.24078958,0.4256,0.32637798,-0.26626794,0.44185,0.34618332,-0.27285678,0.457915,0.36080246,-0.23250491,0.439031,0.32511934,-0.24232286,0.414327,0.34273031,-0.2759555,0.434404,0.36285711,-0.28520015,0.451358,0.37751116,-0.23930721,0.435873,0.34552862,-0.25094315,0.413902,0.36355242,-0.28016199,0.43145,0.38583285,-0.2921969,0.449669,0.39943114,-0.25578506,0.435331,0.35737778,-0.26058756,0.414222,0.36590139,-0.28038832,0.427591,0.38425631,-0.28907504,0.441674
0.3990227,-0.35088971,0.498059,0.3916957,-0.30060208,0.481291,0.38077441,-0.33307519,0.498339,0.36719816,-0.308636,0.495458,0.35026591,-0.27975212,0.490763,0.34351733,-0.25705932,0.486179,0.36711555,-0.24614999,0.469446,0.33725788,-0.25760943,0.451782,0.35091496,-0.2838024,0.468802,0.36967022,-0.29063972,0.484276,0.38592803,-0.25079835,0.463808,0.35148683,-0.26125419,0.441115,0.36765044,-0.2955086,0.462166,0.38552735,-0.30378651,0.477202,0.4020936,-0.25903095,0.460694,0.37097408,-0.2709797,0.43998,0.38803989,-0.30069307,0.458332,0.40801924,-0.3126931,0.475016,0.42228531,-0.27679053,0.459798,0.3819482,-0.28155247,0.440363,0.3902613,-0.30184956,0.454438,0.40684,-0.30961051,0.466857
0.41766216,-0.36699991,0.52459,0.40944484,-0.31615788,0.504874,0.40022028,-0.34992122,0.524182,0.3844949,-0.32389744,0.518789,0.3669253,-0.29421007,0.513146,0.35974772,-0.2710502,0.507874,0.38257638,-0.25958833,0.490017,0.35067609,-0.26930994,0.469709,0.36359019,-0.29500493,0.485843,0.38167175,-0.30153187,0.500511,0.40134724,-0.26424485,0.484316,0.3644422,-0.2726585,0.458625,0.37961459,-0.30620338,0.478557,0.39678677,-0.31414239,0.492794,0.41769042,-0.27264852,0.481419,0.38217505,-0.28119221,0.455591,0.39820982,-0.31013144,0.472857,0.41725468,-0.32164769,0.488553,0.43853086,-0.29094956,0.481266,0.3962301,-0.2941276,0.459684,0.40380725,-0.31397927,0.472961,0.41974672,-0.32141061,0.484677
0.4312905,-0.37797134,0.54292,0.42365205,-0.32610498,0.523512,0.41544783,-0.3617197,0.544117,0.40087361,-0.33463166,0.540591,0.38456952,-0.30530841,0.536391,0.37823207,-0.28225558,0.531418,0.3992617,-0.27029767,0.510903,0.3654681,-0.27975413,0.491585,0.37840199,-0.30536888,0.507296,0.39739152,-0.3120973,0.521579,0.41584049,-0.27437643,0.503275,0.37633659,-0.28207013,0.477925,0.3912974,-0.31536297,0.497283,0.40930242,-0.32348363,0.511111,0.43031181,-0.28227885,0.498765,0.39006839,-0.28855216,0.470759,0.40579629,-0.31715801,0.48739,0.42553452,-0.32878126,0.50251,0.44884227,-0.29992843,0.49666,0.4053679,-0.30267239,0.476166,0.41313298,-0.32235544,0.489109,0.42973391,-0.33001047,0.50053
0.44273654,-0.38560711,0.55558,0.44142212,-0.33519162,0.540042,0.42883588,-0.36897677,0.558182,0.42079119,-0.34520863,0.559323,0.40577276,-0.31655793,0.556633,0.40001199,-0.29412603,0.552813,0.42066167,-0.2819002,0.532019,0.38571049,-0.28862059,0.509216,0.39874854,-0.3149037,0.525509,0.41738184,-0.32241234,0.54032,0.43720744,-0.28534775,0.523841,0.40094761,-0.2933812,0.500503,0.41647916,-0.32790188,0.520944,0.43440935,-0.33697209,0.535544,0.45124529,-0.29254117,0.518524,0.41512135,-0.2996901,0.4934,0.43144119,-0.32937498,0.511019,0.45119865,-0.34210445,0.527037,0.46855127,-0.30896461,0.514831,0.42913714,-0.31313119,0.497453,0.43727416,-0.33383426,0.511278,0.45399105,-0.34234381,0.523478
0.45008536,-0.38751699,0.565106,0.45342486,-0.33653336,0.555035,0.44046853,-0.37168907,0.570921,0.42966952,-0.35082424,0.573875,0.41547304,-0.32292144,0.573394,0.4130833,-0.30292155,0.573065,0.44597543,-0.28627557,0.555038,0.41381608,-0.29239928,0.546056,0.41863151,-0.31939624,0.563169,0.43631689,-0.33354298,0.578725,0.45837534,-0.29016063,0.544535,0.42121053,-0.29471216,0.529577,0.43290134,-0.32790689,0.550645,0.45284361,-0.33809286,0.565693,0.46822358,-0.29744326,0.536807,0.4304677,-0.30000287,0.515932,0.44685043,-0.33147003,0.533875,0.46782506,-0.35074123,0.550188,0.47912832,-0.31346191,0.52937,0.44270302,-0.31599424,0.517307,0.45507159,-0.34079529,0.531585,0.47337783,-0.35437689,0.544184
0.45987935,-0.39165977,0.577045,0.45968124,-0.34121401,0.563075,0.44963533,-0.37700207,0.582314,0.43326247,-0.35760941,0.582443,0.41635667,-0.32945162,0.580093,0.41474133,-0.30716333,0.578312,0.44914253,-0.28875579,0.559554,0.41342704,-0.29388175,0.547784,0.41754093,-0.32020371,0.563829,0.43465248,-0.334345,0.578415,0.46066324,-0.29241998,0.54851,0.41909296,-0.29553814,0.530066,0.43050636,-0.32760924,0.549767,0.45040819,-0.33699543,0.56384,0.47015897,-0.29972567,0.540691,0.42756581,-0.30062805,0.516116,0.44335355,-0.33112009,0.532861,0.46417438,-0.3494291,0.548084,0.48135004,-0.31618736,0.533792,0.4411933,-0.31741561,0.519014,0.45307309,-0.34144823,0.532304,0.47258126,-0.35283726,0.54403
0.48973733,-0.40813707,0.60404,0.48533335,-0.35738117,0.583441,0.48951572,-0.39715339,0.61047,0.46519696,-0.37743948,0.609755,0.44428592,-0.35215852,0.607896,0.4359704,-0.33018562,0.603937,0.46423466,-0.30430112,0.576561,0.42392635,-0.30163497,0.5619,0.42456887,-0.32647597,0.57362,0.43930884,-0.34046276,0.584274,0.47120229,-0.30351522,0.561964,0.42154621,-0.30601062,0.53895,0.43342164,-0.33548994,0.553153,0.45284588,-0.34311427,0.563298,0.47832763,-0.30680651,0.551825,0.42416078,-0.30856556,0.520732,0.43639357,-0.3357149,0.532599,0.4570562,-0.34899332,0.543387,0.489649,-0.3215459,0.543288,0.44206461,-0.32424522,0.525817,0.44896744,-0.34583553,0.535315,0.46790516,-0.35511588,0.543694
0.49752505,-0.41643691,0.615564,0.48971097,-0.36434758,0.589692,0.49802662,-0.40243806,0.620577,0.47111983,-0.38206571,0.616751,0.44928735,-0.35600615,0.613317,0.43909337,-0.3327364,0.606592,0.47321691,-0.30955379,0.57719,0.42173195,-0.31278834,0.559235,0.40931585,-0.32454558,0.56824,0.40619628,-0.34298551,0.576425,0.47423897,-0.31473421,0.562716,0.41284357,-0.3107298,0.535334,0.4216729,-0.33485577,0.54609,0.4432602,-0.33937856,0.553772,0.4764954,-0.32372332,0.553159,0.42064674,-0.32653857,0.531299,0.43045231,-0.35083621,0.540911,0.44958438,-0.36544473,0.54965,0.48167277,-0.34298417,0.546179,0.42634624,-0.33777794,0.525276,0.43143104,-0.35564923,0.532337,0.44684286,-0.36634964,0.538568
0.50820682,-0.41958165,0.61542,0.50557997,-0.37147309,0.596769,0.49932784,-0.40366462,0.619768,0.47080701,-0.38731314,0.614466,0.43912382,-0.36554722,0.604788,0.42063155,-0.34536925,0.595436,0.48649073,-0.31698487,0.588682,0.44688276,-0.31970016,0.573453,0.45637503,-0.34524369,0.58799,0.4758089,-0.35755191,0.601205,0.49693168,-0.31935323,0.577323,0.44907316,-0.32294315,0.554723,0.46201186,-0.35399171,0.572512,0.48134673,-0.36480522,0.585218,0.50647879,-0.3259211,0.569672,0.4608614,-0.33185973,0.551358,0.46883081,-0.35753345,0.567007,0.48125748,-0.37730095,0.581234,0.51940105,-0.34215724,0.563743,0.47148367,-0.342163,0.545682,0.47555075,-0.36354602,0.557595,0.48964935,-0.37753623,0.568107
0.51195139,-0.4227675,0.619929,0.50821854,-0.37332086,0.601478,0.50160966,-0.40623009,0.623183,0.46526993,-0.38759058,0.615525,0.43519489,-0.36826617,0.608896,0.42105919,-0.34930609,0.601427,0.48888101,-0.31791037,0.592159,0.44994918,-0.32165742,0.576041,0.45978803,-0.3472091,0.591295,0.47853313,-0.36016169,0.605162,0.50121197,-0.32116804,0.582241,0.45489795,-0.3242775,0.559342,0.46782583,-0.35581038,0.578068,0.48589656,-0.36847405,0.591443,0.51219989,-0.32847814,0.575758,0.47030244,-0.33163657,0.556715,0.47550129,-0.35972175,0.573153,0.48685335,-0.38068336,0.588096,0.5269446,-0.34459364,0.571172,0.48264951,-0.34154915,0.552493,0.48348899,-0.36609773,0.565022,0.49621726,-0.38152662,0.576077
0.50589875,-0.41799607,0.612852,0.51111704,-0.37396802,0.605333,0.50454177,-0.40826005,0.625523,0.48391032,-0.40398278,0.633283,0.45506004,-0.39190439,0.631287,0.43733974,-0.37698507,0.626784,0.52146883,-0.33199345,0.615832,0.48685774,-0.33231465,0.615124,0.48770177,-0.35602459,0.627765,0.50537051,-0.38033855,0.639257,0.51910974,-0.32734738,0.597493,0.47717033,-0.30765767,0.588087,0.46822834,-0.30646334,0.603359,0.45919131,-0.32227647,0.611555,0.51666666,-0.32755854,0.583083,0.47717681,-0.32215297,0.579482,0.48761541,-0.35250837,0.593038,0.4999931,-0.38091951,0.605362,0.51284433,-0.33524891,0.567354,0.47201737,-0.33213256,0.562008,0.48276234,-0.3559811,0.572525,0.49648206,-0.3766758,0.581805
0.50684836,-0.4187744,0.614029,0.51297669,-0.37485632,0.607684,0.50727643,-0.41015713,0.627184,0.48606867,-0.40621344,0.63584,0.45881923,-0.39512856,0.636011,0.44152531,-0.38120702,0.632302,0.52283788,-0.33422721,0.619647,0.48412834,-0.33185655,0.613769,0.48542126,-0.3554036,0.626065,0.50342213,-0.37915753,0.637243,0.52044304,-0.32862662,0.601068,0.47952286,-0.30888898,0.592901,0.47050999,-0.30720389,0.608161,0.46115463,-0.32265508,0.615905,0.51796479,-0.32801358,0.586354,0.47840318,-0.3157459,0.584007,0.48733812,-0.34538961,0.597554,0.49766907,-0.37377221,0.609869,0.51409674,-0.33466062,0.570073,0.47360694,-0.32465047,0.565819,0.48244334,-0.34814469,0.576353,0.49447523,-0.36925842,0.585647
0.5068246,-0.41992187,0.617405,0.51540611,-0.37547514,0.611426,0.50885775,-0.41163027,0.629647,0.47940567,-0.40885056,0.636758,0.44952856,-0.40016479,0.635955,0.42967899,-0.38680177,0.631272,0.52231845,-0.33525463,0.622506,0.48615061,-0.33011869,0.622165,0.47835221,-0.33518361,0.636012,0.4700424,-0.33963841,0.6486,0.5217217,-0.32929799,0.605193,0.48142255,-0.30847387,0.59674,0.47409455,-0.30689708,0.613553,0.46590485,-0.32415763,0.621889,0.52075332,-0.32836569,0.591488,0.48546055,-0.30802992,0.588469,0.49240465,-0.33647446,0.603343,0.49960797,-0.36425796,0.616865,0.51870613,-0.334627,0.576334,0.47923576,-0.32771129,0.57146,0.48978895,-0.35180399,0.583035,0.50278965,-0.37358094,0.593248
0.50726329,-0.42019259,0.618223,0.51577429,-0.37561961,0.612612,0.50928374,-0.41209519,0.630564,0.48021378,-0.4094442,0.637868,0.44989539,-0.40036854,0.63645,0.42952593,-0.38738974,0.631137,0.52321316,-0.33586221,0.624083,0.48757464,-0.33111061,0.624056,0.47978571,-0.33619867,0.637954,0.47148338,-0.34067465,0.650589,0.52281553,-0.32983515,0.606762,0.48608465,-0.3031281,0.598665,0.48117886,-0.29788739,0.615422,0.47183969,-0.31088007,0.623938,0.5219535,-0.32881377,0.593016,0.48690788,-0.30900397,0.590339,0.49388694,-0.33751046,0.60527,0.50112285,-0.36535259,0.618843,0.5199326,-0.33491317,0.577755,0.48090554,-0.32860267,0.573177,0.49178334,-0.35268992,0.584803,0.50487779,-0.37449168,0.595061
0.5104033,-0.42252066,0.619968,0.51417048,-0.38539594,0.620889,0.50821284,-0.41337628,0.629461,0.47650727,-0.41367604,0.633267,0.44692413,-0.40416258,0.629631,0.42838494,-0.38775659,0.627941,0.51160722,-0.34887163,0.633522,0.48059099,-0.33636763,0.634708,0.47688785,-0.33875216,0.652605,0.47218413,-0.34036965,0.668875,0.51913639,-0.34260039,0.621849,0.49298991,-0.30994936,0.617992,0.47675139,-0.29836394,0.620182,0.47700456,-0.31563297,0.634552,0.52521886,-0.34118566,0.612157,0.49823489,-0.30831177,0.611765,0.4808621,-0.29886643,0.611565,0.46440331,-0.29098817,0.611383,0.53204219,-0.34654592,0.60059,0.51878796,-0.30964197,0.598024,0.50515246,-0.30003884,0.596846,0.4929174,-0.29142027,0.595806
0.52804501,-0.44151034,0.635315,0.51545836,-0.40159903,0.625113,0.51358825,-0.44316355,0.638312,0.48021687,-0.42642595,0.631217,0.44159818,-0.4030507,0.613154,0.42320976,-0.38562914,0.60703,0.48175891,-0.35872452,0.621469,0.44929993,-0.32152129,0.610011,0.44908682,-0.31844631,0.628184,0.44786191,-0.31469149,0.644704,0.49866992,-0.35208364,0.614476,0.46846253,-0.30676521,0.598415,0.45115809,-0.28322273,0.589046,0.4476031,-0.27814827,0.599241,0.51432425,-0.35086348,0.609649,0.49903991,-0.30974895,0.606685,0.48724514,-0.30507838,0.605169,0.4760155,-0.30064513,0.603791,0.53596428,-0.35732253,0.60565,0.51112844,-0.32849488,0.591833,0.49881644,-0.31743973,0.585485,0.48747596,-0.30906231,0.579883
0.5203104,-0.43494985,0.628551,0.5135538,-0.40214008,0.625341,0.5049448,-0.43948051,0.632279,0.46803728,-0.42307758,0.627384,0.43104813,-0.40066831,0.612887,0.41336084,-0.38040049,0.605401,0.48537106,-0.3620565,0.627704,0.45866939,-0.32545377,0.621328,0.44658295,-0.31331145,0.621615,0.43522834,-0.30190615,0.621876,0.50424045,-0.35653498,0.621994,0.48076696,-0.31394868,0.61241,0.46607012,-0.29147479,0.60682,0.45434308,-0.27931193,0.602827,0.52084635,-0.35593379,0.617586,0.49984882,-0.31228731,0.609915,0.48723268,-0.30510145,0.60599,0.47536957,-0.29835192,0.602422,0.54231783,-0.36254059,0.612926,0.51981211,-0.32392726,0.604175,0.51170808,-0.32007105,0.600155,0.51135549,-0.32967135,0.596608
0.51965998,-0.43612877,0.627964,0.51277077,-0.40220553,0.625238,0.5035339,-0.43952762,0.632103,0.46838044,-0.42338778,0.627844,0.43112128,-0.4007363,0.612991,0.41298906,-0.38124266,0.605663,0.48555739,-0.36241077,0.628473,0.46005795,-0.32552072,0.622744,0.44606216,-0.3118385,0.619879,0.43307471,-0.29912922,0.617275,0.50439037,-0.35681381,0.622397,0.48197649,-0.31444698,0.613376,0.46771451,-0.29194908,0.608114,0.4568592,-0.27985165,0.604355,0.52083755,-0.35613407,0.617644,0.49981007,-0.31294496,0.61062,0.48784071,-0.30549252,0.607026,0.47657029,-0.29847569,0.60376,0.54190909,-0.36259252,0.612496,0.51991708,-0.32399268,0.604297,0.51202696,-0.32027051,0.600529,0.51186718,-0.33000124,0.597205
0.51836846,-0.44463488,0.627268,0.50524734,-0.40826285,0.624629,0.50059133,-0.4402605,0.63035,0.46112988,-0.4255847,0.624735,0.42912766,-0.4011356,0.612029,0.41187261,-0.38443357,0.607501,0.47404809,-0.36889147,0.626578,0.45840252,-0.3296794,0.624154,0.44803946,-0.31337258,0.622942,0.43839939,-0.29935141,0.62184,0.49477462,-0.36271052,0.621862,0.47457567,-0.31751179,0.612655,0.46274053,-0.29229338,0.607284,0.45527728,-0.27892041,0.603448,0.51286602,-0.36149701,0.618219,0.4936902,-0.31622408,0.609511,0.48296568,-0.29644592,0.605056,0.47310528,-0.28154964,0.601006,0.53611667,-0.36720485,0.614359,0.52200801,-0.32492578,0.605579,0.5172895,-0.31138653,0.601544,0.51129443,-0.29875068,0.597984
0.51754858,-0.44546257,0.627053,0.50728944,-0.4042348,0.62395,0.49880995,-0.44053315,0.629604,0.46297067,-0.42210932,0.623214,0.42746191,-0.3996819,0.609721,0.41130409,-0.38195721,0.605332,0.47195893,-0.36687722,0.624889,0.45666335,-0.32873838,0.623299,0.44727711,-0.31259253,0.622504,0.43815329,-0.29869894,0.621782,0.49337994,-0.3610483,0.620694,0.47475769,-0.31464974,0.61092,0.46108006,-0.29075664,0.605218,0.45336765,-0.27731391,0.601146,0.51202296,-0.36014996,0.617521,0.49348468,-0.31461878,0.607971,0.48361211,-0.29483688,0.603085,0.4748532,-0.2806404,0.598643,0.53591249,-0.3662494,0.614293,0.52198774,-0.32474632,0.605054,0.5172202,-0.31135427,0.600808,0.51172819,-0.29951584,0.597062
0.51668933,-0.44605118,0.627173,0.50351185,-0.40607892,0.624087,0.49736348,-0.44061704,0.629457,0.45743819,-0.42301753,0.622786,0.42292244,-0.40134599,0.610241,0.40732386,-0.38372657,0.605818,0.47128626,-0.36554457,0.624698,0.45249305,-0.32608685,0.622142,0.44291041,-0.30862553,0.620864,0.43509318,-0.29468762,0.619702,0.49312554,-0.36017986,0.620843,0.47435689,-0.3141852,0.610968,0.46199719,-0.29011161,0.605207,0.45227976,-0.27364492,0.601092,0.51207048,-0.35967618,0.61795,0.49403965,-0.3142472,0.608083,0.48617107,-0.29384848,0.603035,0.47605452,-0.27899828,0.598445,0.53623051,-0.36625967,0.615049,0.52269101,-0.32421713,0.60582,0.51910938,-0.31267558,0.60158,0.5151645,-0.30342897,0.597838
0.51593083,-0.4463948,0.627125,0.5029992,-0.40558123,0.623976,0.49620327,-0.44056585,0.629193,0.45624198,-0.42219329,0.622182,0.42153003,-0.4005423,0.609356,0.40626644,-0.38376828,0.605821,0.47069355,-0.36467891,0.624263,0.4518409,-0.3255267,0.62175,0.44217833,-0.3081388,0.620493,0.43416411,-0.29377277,0.61935,0.49279204,-0.35959453,0.620658,0.47385354,-0.31373209,0.610659,0.4616385,-0.28943559,0.604826,0.45221648,-0.27240037,0.600659,0.51193621,-0.35932801,0.617974,0.49416406,-0.31396203,0.607949,0.48611643,-0.29363802,0.602819,0.47650757,-0.27808603,0.598157,0.5362996,-0.36620328,0.615324,0.52361746,-0.32404394,0.606048,0.51987981,-0.3132034,0.601787,0.51583343,-0.30427846,0.598026
0.51051557,-0.4439247,0.619816,0.50018432,-0.4039733,0.617337,0.49350686,-0.43859766,0.62525,0.4616376,-0.42590905,0.622762,0.42814638,-0.40696157,0.609989,0.41210341,-0.38978915,0.609516,0.4707086,-0.36697126,0.62234,0.45732357,-0.32952454,0.622164,0.44802557,-0.31183447,0.622075,0.43881784,-0.29863316,0.621995,0.49086958,-0.36224017,0.614719,0.47204345,-0.31593991,0.606288,0.46034488,-0.28813339,0.601369,0.45086108,-0.27365099,0.597856,0.50722691,-0.35996905,0.60867,0.48895556,-0.31076922,0.600519,0.48142664,-0.29071604,0.596349,0.47233865,-0.27574853,0.592559,0.52832584,-0.36422195,0.601941,0.51799436,-0.32176556,0.597013,0.51418112,-0.30865977,0.594748,0.50947458,-0.29632958,0.59275
0.51100369,-0.44457323,0.619939,0.50068764,-0.40458566,0.617164,0.49383068,-0.43921645,0.625253,0.46213438,-0.42631956,0.62255,0.4282306,-0.40704162,0.610109,0.41267149,-0.39080104,0.609673,0.47080115,-0.36753233,0.6218,0.45732132,-0.32983514,0.621899,0.44826582,-0.31190358,0.621949,0.43916006,-0.29852064,0.621994,0.49048309,-0.36195496,0.614235,0.4718052,-0.31578046,0.605982,0.46018168,-0.28822083,0.601168,0.45074434,-0.27366644,0.597729,0.50688357,-0.35972539,0.608258,0.48952107,-0.3112062,0.600532,0.48192723,-0.29096502,0.596578,0.47287187,-0.27612334,0.592985,0.52808272,-0.36405435,0.601664,0.51846916,-0.32208083,0.596677,0.5143274,-0.30804589,0.594386,0.50986351,-0.29562643,0.592365
0.51231562,-0.44577923,0.621416,0.50278152,-0.4034033,0.619932,0.49443522,-0.43994606,0.625965,0.46160479,-0.42547016,0.622495,0.42676362,-0.4056505,0.610351,0.40897279,-0.38881416,0.608506,0.47188894,-0.36679904,0.624557,0.45969654,-0.32846218,0.623604,0.45075181,-0.31203413,0.623128,0.44026119,-0.2983892,0.622695,0.4909545,-0.35833798,0.618366,0.47405063,-0.31423208,0.609669,0.46298408,-0.28925068,0.604596,0.45330547,-0.27491406,0.600972,0.50805575,-0.3565321,0.613403,0.49262199,-0.31074211,0.604015,0.48963221,-0.28472047,0.599212,0.47659355,-0.27523742,0.594845,0.52951884,-0.35982258,0.607794,0.52126927,-0.32303766,0.603408,0.52162408,-0.30167515,0.601393,0.51768269,-0.29557126,0.599615
