sluyters/QuantumLeap/src/datasets/gesture/HandGestureDataset_SHREC2017_csv/Gesture1/finger_2/subject_22_essai_3_skeletons_world.csv
Wrist_x,Wrist_y,Wrist_z,Palm_x,Palm_y,Palm_z,thumb_base_x,thumb_base_y,thumb_base_z,thumb_first_joint_x,thumb_first_joint_y,thumb_first_joint_z,thumb_second_joint_x,thumb_second_joint_y,thumb_second_joint_z,thumb_tip_x,thumb_tip_y,thumb_tip_z,index_base_x,index_base_y,index_base_z,index_first_joint_x,index_first_joint_y,index_first_joint_z,index_second_joint_x,index_second_joint_y,index_second_joint_z,index_tip_x,index_tip_y,index_tip_z,middle_base_x,middle_base_y,middle_base_z,middle_first_joint_x,middle_first_joint_y,middle_first_joint_z,middle_second_joint_x,middle_second_joint_y,middle_second_joint_z,middle_tip_x,middle_tip_y,middle_tip_z,ring_base_x,ring_base_y,ring_base_z,ring_first_joint_x,ring_first_joint_y,ring_first_joint_z,ring_second_joint_x,ring_second_joint_y,ring_second_joint_z,ring_tip_x,ring_tip_y,ring_tip_z,pinky_base_x,pinky_base_y,pinky_base_z,pinky_first_joint_x,pinky_first_joint_y,pinky_first_joint_z,pinky_second_joint_x,pinky_second_joint_y,pinky_second_joint_z,pinky_tip_x,pinky_tip_y,pinky_tip_z,r
0.316063763,-0.286869786,0.451299,0.324299327,-0.243908799,0.4477,0.303582652,-0.276528519,0.456121,0.282634281,-0.254224985,0.45367,0.261080621,-0.23056832,0.453494,0.250706791,-0.2101523,0.450957,0.314443977,-0.206011386,0.451451,0.299796482,-0.170428971,0.445651,0.292132403,-0.152297872,0.442751,0.285034208,-0.135424492,0.440115,0.331439535,-0.20564151,0.444269,0.323448206,-0.164712852,0.434763,0.317585431,-0.141042543,0.429218,0.313356052,-0.123619837,0.425257,0.344917028,-0.208917815,0.438686,0.337842748,-0.16699108,0.429643,0.332119737,-0.147464693,0.425016,0.326842216,-0.129075162,0.42081,0.360027829,-0.219410499,0.432719,0.360489382,-0.181537816,0.424113,0.353578986,-0.172984146,0.420158,0.35823417,-0.170331093,0.429747
0.316570412,-0.287437023,0.451088,0.324327784,-0.244282623,0.447487,0.304080488,-0.277286829,0.456114,0.282635527,-0.254226105,0.453672,0.260754769,-0.230280551,0.452928,0.250781287,-0.210214746,0.451091,0.314181106,-0.206378011,0.451497,0.299600575,-0.170534042,0.445739,0.291880227,-0.152425436,0.44286,0.284729128,-0.135572778,0.440243,0.331060939,-0.205776398,0.444055,0.323004987,-0.164673367,0.434447,0.317060597,-0.140969289,0.428842,0.312772989,-0.123527741,0.424839,0.344455616,-0.208880865,0.438258,0.337258092,-0.1667792,0.42919,0.331378046,-0.147338455,0.424551,0.325951882,-0.129026707,0.420334,0.359503514,-0.219193102,0.43204,0.359668786,-0.181350001,0.423413,0.352921942,-0.172498846,0.419449,0.357698792,-0.169541757,0.42899
0.317078595,-0.287793292,0.4506,0.324125572,-0.244339528,0.44683,0.304218141,-0.277573863,0.455388,0.281549833,-0.254040563,0.452637,0.258692414,-0.230294932,0.451302,0.248582108,-0.210766107,0.450052,0.312197503,-0.207052361,0.450425,0.298584697,-0.169865871,0.444362,0.290835738,-0.151730383,0.441331,0.283637943,-0.134908376,0.438575,0.330231617,-0.205503945,0.443236,0.322186802,-0.164194716,0.433436,0.316172556,-0.140520752,0.42772,0.311834929,-0.123103119,0.423637,0.343916039,-0.208649123,0.437662,0.336681093,-0.166305816,0.428419,0.330647654,-0.147077332,0.423689,0.325077925,-0.128954968,0.41939,0.359410571,-0.219067426,0.431735,0.35928171,-0.18111876,0.42293,0.352627837,-0.172279046,0.418885,0.357555825,-0.169359838,0.428417
0.317703896,-0.288256034,0.450281,0.324088641,-0.244520942,0.446401,0.304592656,-0.27807677,0.455018,0.281127099,-0.254056594,0.452313,0.257643874,-0.230286943,0.450459,0.247438452,-0.211004649,0.449453,0.311597925,-0.206752426,0.44986,0.298015932,-0.169452265,0.44365,0.290281643,-0.151291612,0.440546,0.283074528,-0.134495396,0.437723,0.329615125,-0.205364237,0.442703,0.32162883,-0.163848735,0.432775,0.315569922,-0.14019912,0.426984,0.311200183,-0.122798305,0.422847,0.34345419,-0.20846462,0.437165,0.33623914,-0.165899698,0.42782,0.330082796,-0.146889722,0.423039,0.3243956,-0.12895888,0.418693,0.359208565,-0.218875286,0.431299,0.358843666,-0.180861785,0.422387,0.35230943,-0.172047311,0.418292,0.357374751,-0.169159781,0.427798
0.317552577,-0.288275341,0.448976,0.323351954,-0.244364033,0.445038,0.30406233,-0.277962385,0.453402,0.280139533,-0.254165022,0.451563,0.252742781,-0.230558577,0.44662,0.241664933,-0.211871274,0.445823,0.309404912,-0.206408125,0.448064,0.296566394,-0.168659072,0.441733,0.28884653,-0.150496446,0.438567,0.281657078,-0.133706054,0.435689,0.327493198,-0.205056588,0.441285,0.320542891,-0.163296085,0.431403,0.314440273,-0.139816688,0.425639,0.310037115,-0.122527508,0.421522,0.342555149,-0.208181067,0.436063,0.335472534,-0.165458919,0.426742,0.329224484,-0.14681239,0.421973,0.323446367,-0.129199593,0.417638,0.358796664,-0.218791012,0.430576,0.358177831,-0.180726088,0.421598,0.351852386,-0.1718299,0.417472,0.357181936,-0.168894585,0.427018
0.318189067,-0.289009198,0.448789,0.32335235,-0.244763635,0.44469,0.304449028,-0.278685175,0.453156,0.279492953,-0.254247964,0.451082,0.251844347,-0.230687101,0.445928,0.240477307,-0.211932961,0.444877,0.309018571,-0.206186903,0.447536,0.295964578,-0.168347891,0.441078,0.288242342,-0.150134361,0.437849,0.281053882,-0.133303649,0.434914,0.327164717,-0.204926196,0.440783,0.320017289,-0.163028909,0.430785,0.313797606,-0.139650656,0.424953,0.30930884,-0.122428432,0.420788,0.342157267,-0.208202243,0.435599,0.335101036,-0.165213254,0.426167,0.328704859,-0.146885406,0.421341,0.322784547,-0.129554571,0.416954,0.358659704,-0.218874359,0.430183,0.357732023,-0.180701327,0.421068,0.351587436,-0.1717063,0.41688,0.357115478,-0.168689127,0.426389
0.319074182,-0.2900675,0.448633,0.322973655,-0.2450819,0.44372,0.304799456,-0.279572974,0.452642,0.277335946,-0.256863635,0.450202,0.248441626,-0.232138159,0.442835,0.236245656,-0.213519536,0.441432,0.307227101,-0.205469084,0.445577,0.293508544,-0.166902521,0.438362,0.285994442,-0.14905868,0.434755,0.278667521,-0.132168192,0.431475,0.325813561,-0.204465009,0.439037,0.317855178,-0.161467442,0.428316,0.31105783,-0.138264957,0.422061,0.306822747,-0.121667214,0.417594,0.340827933,-0.207396757,0.434102,0.333118806,-0.164388783,0.423654,0.326761106,-0.148109734,0.418309,0.320427268,-0.139061729,0.413449,0.358023751,-0.218796807,0.429113,0.356158815,-0.180340904,0.419259,0.351845365,-0.17120341,0.414731,0.355995465,-0.16979831,0.424049
0.318461079,-0.287751673,0.445013,0.321395849,-0.242144534,0.43927,0.303806803,-0.277468755,0.448776,0.276438723,-0.255240445,0.447078,0.244711663,-0.232791928,0.436404,0.230661638,-0.215433599,0.434973,0.303959797,-0.201561338,0.44029,0.288850812,-0.163996201,0.432428,0.275973405,-0.141597565,0.428497,0.270170284,-0.131051115,0.424924,0.323215227,-0.195998485,0.433821,0.312826663,-0.15263971,0.421733,0.306748262,-0.126836249,0.414682,0.300610194,-0.117952628,0.409645,0.339312386,-0.197812239,0.429022,0.329405617,-0.154525393,0.417229,0.324297241,-0.132030611,0.411195,0.315030814,-0.126336933,0.40571,0.35900288,-0.207278439,0.424333,0.357764457,-0.168718517,0.413611,0.347930162,-0.166742642,0.408685,0.351816018,-0.167232794,0.41777
0.315221524,-0.285490084,0.439582,0.315789391,-0.242883901,0.433483,0.300153667,-0.275094118,0.442794,0.26444518,-0.261140611,0.440625,0.228247461,-0.235406381,0.425229,0.211689137,-0.21633952,0.420101,0.293044338,-0.204934629,0.433558,0.279317233,-0.165059859,0.424781,0.271445242,-0.145937015,0.420393,0.264455384,-0.128541455,0.416404,0.312511653,-0.204734933,0.427681,0.30713051,-0.159107247,0.415461,0.300895968,-0.135311985,0.408333,0.296057145,-0.116308432,0.403241,0.328618567,-0.208673534,0.423401,0.326432124,-0.163609214,0.410309,0.321847518,-0.144383558,0.403611,0.316878217,-0.12791206,0.397522,0.347768222,-0.220738269,0.419379,0.352603804,-0.183026261,0.408114,0.350279882,-0.171281984,0.402938,0.356058778,-0.165191737,0.411995
0.315706528,-0.286129972,0.439309,0.309703159,-0.241325834,0.427079,0.298099926,-0.273802046,0.439247,0.258851486,-0.258224076,0.434674,0.216298907,-0.237561728,0.415859,0.196074668,-0.219395029,0.408531,0.281209543,-0.193524299,0.418965,0.268622596,-0.153543744,0.410989,0.261454665,-0.134243127,0.407001,0.255140781,-0.120775457,0.403376,0.302967027,-0.194800129,0.41543,0.296996402,-0.149793568,0.403007,0.293015529,-0.123977345,0.39576,0.288755486,-0.1094351,0.39181,0.321401889,-0.200197522,0.413639,0.319982551,-0.155355595,0.400838,0.31866383,-0.133199209,0.394288,0.312469961,-0.121415334,0.388335,0.343509441,-0.2160549,0.413546,0.347445709,-0.176700401,0.398117,0.347668631,-0.162115326,0.391027,0.353852525,-0.159363626,0.398936
0.31121946,-0.282438349,0.433029,0.300115905,-0.233118089,0.416252,0.29253835,-0.269313183,0.431458,0.246948756,-0.254861031,0.423956,0.203918095,-0.234945768,0.403131,0.179841078,-0.216617909,0.391508,0.268641916,-0.182645896,0.403217,0.25718801,-0.143160732,0.39637,0.25053672,-0.124126906,0.392947,0.245422686,-0.109717441,0.390068,0.290850368,-0.183710544,0.400245,0.285910856,-0.138567543,0.386297,0.282257479,-0.113224654,0.378161,0.279314541,-0.0954860804,0.37235,0.310050646,-0.189114729,0.399331,0.310018917,-0.145195443,0.387166,0.30938495,-0.123722628,0.380941,0.306832608,-0.108914413,0.375283,0.334463283,-0.203733061,0.401014,0.337718093,-0.166388417,0.382963,0.336852742,-0.153881729,0.374669,0.349287492,-0.148159141,0.381597
0.309289143,-0.281284078,0.430539,0.297210693,-0.230625334,0.412993,0.290224163,-0.267985092,0.428682,0.244222521,-0.252678693,0.42056,0.20138866,-0.232913762,0.399282,0.177188035,-0.214266199,0.387025,0.265837975,-0.180950157,0.399077,0.252602579,-0.141069599,0.390729,0.245236236,-0.12174872,0.386556,0.238467655,-0.103910782,0.382762,0.288146859,-0.182430793,0.396232,0.283331963,-0.137260156,0.382677,0.279707738,-0.112074282,0.374769,0.276890499,-0.0942630331,0.369121,0.307410377,-0.188182623,0.395492,0.306246007,-0.143846519,0.381845,0.305170686,-0.122093426,0.374863,0.304223214,-0.102123805,0.368516,0.331861167,-0.203207495,0.397503,0.334562737,-0.166404445,0.378945,0.334082406,-0.153191389,0.370418,0.346896049,-0.146882195,0.377128
0.296993369,-0.271147611,0.414173,0.283145756,-0.221148627,0.395139,0.272251319,-0.257738343,0.4099,0.226623785,-0.242581167,0.399869,0.183586098,-0.224250199,0.378124,0.158682552,-0.206650311,0.365011,0.248800954,-0.169419624,0.377165,0.235506445,-0.129966538,0.369525,0.22820175,-0.110697622,0.365704,0.221478706,-0.0928757713,0.362231,0.273001937,-0.172585062,0.376934,0.267740387,-0.127922677,0.365162,0.264469011,-0.102062534,0.358294,0.26614711,-0.087501697,0.356744,0.293966489,-0.179764346,0.378477,0.291517387,-0.134823185,0.36312,0.290031599,-0.112761392,0.355264,0.2887364,-0.0924805791,0.348121,0.320570047,-0.196582447,0.38341,0.322461847,-0.16094402,0.364798,0.323317046,-0.144724533,0.356247,0.323029727,-0.134003618,0.348702
0.283074831,-0.262649609,0.399242,0.269670772,-0.209897457,0.37887,0.261299437,-0.248859408,0.395629,0.216885464,-0.234529183,0.385037,0.173605348,-0.217987339,0.3617,0.147782294,-0.200283002,0.347246,0.233865591,-0.159767865,0.360844,0.220805449,-0.119470638,0.351436,0.213531947,-0.0999400912,0.346732,0.206843463,-0.0818699879,0.342455,0.257315247,-0.161246373,0.359374,0.252456174,-0.11627571,0.346088,0.249193867,-0.0907377303,0.338337,0.246846553,-0.0722946807,0.332801,0.277863852,-0.167029365,0.360018,0.275429728,-0.122653036,0.34276,0.273931806,-0.100945417,0.333931,0.272648698,-0.0809486966,0.325904,0.30441163,-0.182156129,0.364112,0.306808835,-0.148467126,0.344496,0.307595838,-0.134204853,0.335484,0.308418299,-0.121469332,0.327532
0.270732723,-0.252605238,0.383363,0.25683229,-0.200184623,0.361848,0.249517291,-0.23913874,0.379828,0.204894084,-0.226809646,0.369031,0.161323249,-0.21140694,0.345239,0.134759954,-0.194978132,0.329083,0.220095329,-0.150262491,0.343166,0.204336534,-0.109539784,0.331164,0.195720276,-0.0900403584,0.325163,0.187629033,-0.0723038609,0.319708,0.243226069,-0.15135623,0.341258,0.237718296,-0.106311236,0.327,0.234006161,-0.0809005196,0.318682,0.231390207,-0.0624071999,0.312741,0.263595861,-0.156829254,0.341645,0.259907081,-0.112389328,0.323454,0.257883336,-0.0902206638,0.314148,0.255477231,-0.0723047365,0.305687,0.290122286,-0.171596914,0.345625,0.292527757,-0.139583941,0.325226,0.29332468,-0.126048908,0.315853,0.293620133,-0.115355772,0.307584
0.257233073,-0.240713644,0.363225,0.242613136,-0.190691649,0.341305,0.23551005,-0.228850165,0.359773,0.191189266,-0.218792811,0.34818,0.14760203,-0.203657995,0.323684,0.120782946,-0.187054677,0.306789,0.205070592,-0.141004415,0.322462,0.188596152,-0.101102251,0.311056,0.179823957,-0.0815645164,0.305353,0.171755521,-0.0634918573,0.300168,0.227925023,-0.141516999,0.320328,0.220765102,-0.0964223629,0.305161,0.215928128,-0.0713684334,0.296314,0.212096527,-0.0541915944,0.289994,0.248173978,-0.146526709,0.320565,0.24237471,-0.102784392,0.301288,0.239232463,-0.0810978327,0.291425,0.236456261,-0.0610732518,0.282458,0.274802379,-0.160797476,0.324436,0.275310458,-0.130954727,0.303355,0.275216228,-0.118352749,0.293669,0.275340816,-0.10703283,0.285123
0.243805127,-0.231960135,0.34765,0.228051895,-0.181209989,0.325125,0.220778583,-0.220043248,0.343832,0.173254581,-0.208233537,0.328924,0.131602632,-0.194841616,0.303005,0.104909146,-0.17633642,0.284769,0.188743514,-0.130577598,0.30542,0.172404758,-0.0902586276,0.291485,0.163796797,-0.0704163849,0.284517,0.155891077,-0.0520603397,0.278183,0.211749639,-0.132301127,0.30357,0.204504949,-0.0872148978,0.285702,0.199278818,-0.0634138393,0.275279,0.195459089,-0.0463089591,0.267834,0.231924026,-0.138246182,0.304097,0.226735695,-0.0954580701,0.282095,0.223611676,-0.0754041673,0.270838,0.220921046,-0.0567653387,0.260605,0.258091936,-0.15347746,0.308405,0.25900137,-0.128165671,0.287195,0.259793205,-0.116239168,0.277449,0.260514965,-0.105994686,0.26885
0.236674177,-0.229001641,0.340577,0.220608084,-0.177397274,0.31878,0.215319,-0.216134733,0.337459,0.170084941,-0.205846881,0.323549,0.128461164,-0.192544111,0.297585,0.10183618,-0.174539011,0.279145,0.185305253,-0.128152522,0.300443,0.168645413,-0.0881798076,0.287039,0.159937927,-0.0683475937,0.280337,0.151941166,-0.0500156516,0.274245,0.207770595,-0.129486416,0.297922,0.198626527,-0.083822951,0.27847,0.192548061,-0.0592187333,0.267123,0.188645528,-0.0430115751,0.259018,0.227400027,-0.135051485,0.29783,0.220098365,-0.0918736964,0.274469,0.215847594,-0.0714400569,0.262518,0.212733509,-0.0536699236,0.251652,0.252783963,-0.149699953,0.301293,0.252940346,-0.124984475,0.280178,0.253543517,-0.113320877,0.270477,0.253949075,-0.103061534,0.261917
0.227210977,-0.222559034,0.328465,0.207973039,-0.173231146,0.303554,0.203225809,-0.209421211,0.324326,0.156631466,-0.199823572,0.304595,0.116530946,-0.187098827,0.278496,0.0907594643,-0.16990904,0.25874,0.17028124,-0.121712481,0.281868,0.151977469,-0.0820171846,0.267463,0.141965854,-0.062996658,0.26026,0.13270508,-0.045251261,0.253713,0.192735433,-0.123226366,0.279716,0.181731146,-0.0773605495,0.258064,0.172486609,-0.0574436584,0.245434,0.165869045,-0.042544594,0.236413,0.212797232,-0.129131373,0.280211,0.202597711,-0.0863975277,0.253016,0.19554093,-0.0693396994,0.239103,0.189265064,-0.0534103467,0.226454,0.239482745,-0.144655804,0.284874,0.234307255,-0.119290192,0.260826,0.232249036,-0.107356232,0.249777,0.230641757,-0.0966425437,0.240027
0.218772536,-0.219499629,0.319818,0.19910796,-0.168088266,0.291925,0.195575453,-0.206660793,0.314351,0.14896056,-0.195589255,0.29257,0.110721544,-0.182958387,0.267026,0.0861833791,-0.163477678,0.247615,0.156781078,-0.117214142,0.266587,0.136541692,-0.0783619782,0.248286,0.125389173,-0.0608100554,0.239136,0.115028007,-0.0443214873,0.230817,0.179604221,-0.118302533,0.265233,0.163845004,-0.0724319274,0.239532,0.151065646,-0.0579699972,0.22454,0.141822311,-0.0471878584,0.213831,0.200423551,-0.123968759,0.266656,0.183880035,-0.0840964182,0.234873,0.173383069,-0.0697029811,0.218611,0.163909432,-0.0563551894,0.203828,0.228839832,-0.139495397,0.272898,0.215636809,-0.120880041,0.24566,0.20980511,-0.112213539,0.233146,0.20481837,-0.104488132,0.222103
0.205459504,-0.217806751,0.305783,0.186392248,-0.165162518,0.278955,0.181549261,-0.202035491,0.298676,0.134262067,-0.194088426,0.274803,0.097216129,-0.179404369,0.24762,0.0729584614,-0.15839877,0.227477,0.143052373,-0.114557569,0.252241,0.123254597,-0.0745661977,0.231948,0.112024562,-0.0605076011,0.221801,0.101496356,-0.0471366052,0.212577,0.167579997,-0.117275851,0.253281,0.151950016,-0.0720303565,0.225698,0.140012855,-0.0582846259,0.209608,0.131404877,-0.0482925452,0.198115,0.189623129,-0.124281824,0.256579,0.175844367,-0.0808135744,0.225782,0.165878276,-0.0673354668,0.210026,0.154800991,-0.061781466,0.195702,0.219068742,-0.14140208,0.264848,0.20873025,-0.124859603,0.238162,0.204183855,-0.117343938,0.225901,0.20037612,-0.110686195,0.215082
0.199311138,-0.21773638,0.300638,0.174907057,-0.16657541,0.270091,0.166030307,-0.206183915,0.288777,0.122519149,-0.192164521,0.258808,0.0882680897,-0.176582844,0.230071,0.0662727821,-0.156489578,0.209747,0.127179416,-0.113104141,0.234896,0.107516456,-0.0749741053,0.216739,0.0972938277,-0.0633493853,0.20766,0.0875621638,-0.0521308527,0.199407,0.154568185,-0.117532249,0.240859,0.139799198,-0.071185236,0.215832,0.129953352,-0.0613642281,0.201234,0.122477336,-0.0638337326,0.190806,0.179591661,-0.126120464,0.248547,0.157583559,-0.0959300717,0.213882,0.146367656,-0.0802997691,0.196146,0.135921613,-0.0719467249,0.180022,0.213457787,-0.145573673,0.262583,0.20137845,-0.119877695,0.231666,0.190484964,-0.11454791,0.217461,0.179775347,-0.116598998,0.204927
0.186952827,-0.225441314,0.293542,0.166724855,-0.17658737,0.264214,0.156553833,-0.210779246,0.280732,0.117572564,-0.194493668,0.249812,0.0870605494,-0.176369839,0.220263,0.0655373516,-0.152459219,0.201078,0.122965738,-0.117450364,0.228621,0.10279956,-0.0835590097,0.207392,0.0927252104,-0.0702719894,0.196777,0.0832754717,-0.0576470896,0.187128,0.151029795,-0.123083397,0.236149,0.132593641,-0.0784724084,0.209389,0.122345777,-0.0699011573,0.193779,0.115307014,-0.0713367843,0.18263,0.176528371,-0.132732441,0.245015,0.154977044,-0.103850879,0.210651,0.144003743,-0.0889064222,0.19307,0.134151158,-0.0809455131,0.177087,0.210775865,-0.153616748,0.260233,0.19800809,-0.127503487,0.229576,0.18905965,-0.123984944,0.215491,0.178348171,-0.126017353,0.203062
0.18717043,-0.234447018,0.285762,0.172040294,-0.177031131,0.258548,0.16700235,-0.221736875,0.274656,0.123885956,-0.197361815,0.245854,0.08633919,-0.174456969,0.217186,0.0649846366,-0.152019437,0.199221,0.122412077,-0.122571161,0.226509,0.102612549,-0.0850775638,0.20674,0.0928284872,-0.0727000673,0.196855,0.0838973069,-0.0664668729,0.18787,0.148976064,-0.122356063,0.232505,0.130577346,-0.0780960263,0.20676,0.120269539,-0.0705729321,0.191742,0.113212406,-0.0720174737,0.181015,0.173660051,-0.129574526,0.239918,0.15327701,-0.103083723,0.207818,0.142925293,-0.0892816237,0.191394,0.133526298,-0.0824331783,0.176464,0.207770849,-0.142651028,0.253083,0.183413242,-0.131552861,0.224019,0.171196658,-0.125409251,0.210665,0.16265756,-0.128965828,0.198882
0.197126055,-0.235645999,0.282916,0.171765306,-0.175428049,0.256551,0.168141193,-0.22077645,0.273193,0.126403667,-0.198839373,0.246111,0.0878566,-0.176266422,0.218363,0.0664466565,-0.15500097,0.199938,0.122424138,-0.123014663,0.226826,0.10197893,-0.0858472298,0.206187,0.091640702,-0.0758169504,0.195867,0.0823071223,-0.0674519083,0.186486,0.14823039,-0.121929549,0.231321,0.119527872,-0.0790620988,0.200366,0.107920309,-0.0790558098,0.182309,0.102825456,-0.0874286292,0.169411,0.172160336,-0.127590681,0.237421,0.140391011,-0.0962086794,0.206224,0.128843892,-0.0916792109,0.190262,0.125064133,-0.0993515187,0.175752,0.206953757,-0.141357018,0.248905,0.179388182,-0.128633051,0.220727,0.16662146,-0.122866901,0.20778,0.160927791,-0.127252188,0.196356
0.198480881,-0.237520972,0.282521,0.172153672,-0.177292097,0.256564,0.170009856,-0.223652534,0.27397,0.133335002,-0.207392086,0.248361,0.0932289055,-0.182429581,0.221094,0.0698011764,-0.1594789,0.203149,0.122217778,-0.13012877,0.228594,0.098001804,-0.101368406,0.200566,0.0857418474,-0.0867774161,0.186552,0.0744760829,-0.0733459191,0.173812,0.147727326,-0.125523115,0.231725,0.118840754,-0.0849017028,0.201227,0.105266393,-0.0865410291,0.183437,0.0987753094,-0.0949274566,0.170729,0.171272926,-0.128088385,0.236664,0.139220529,-0.0970453767,0.206302,0.126554089,-0.0980722267,0.190768,0.120260572,-0.106576569,0.176646,0.204868215,-0.141184023,0.246719,0.173534184,-0.135397069,0.219158,0.159198081,-0.131927186,0.206495,0.156722144,-0.137398498,0.195321
0.207630183,-0.243785867,0.290593,0.178789968,-0.18517558,0.262183,0.178821099,-0.231120671,0.282647,0.151083389,-0.216791853,0.257562,0.114177273,-0.198668605,0.230613,0.0915936379,-0.179616735,0.212275,0.124656601,-0.139737224,0.233362,0.0966564197,-0.107749649,0.203901,0.083332271,-0.101698055,0.18917,0.0742851593,-0.105348313,0.175779,0.148022216,-0.132150014,0.234996,0.113778634,-0.0916722061,0.202701,0.0999998619,-0.0933865113,0.183863,0.0948844221,-0.100676506,0.170407,0.170893454,-0.133415989,0.238927,0.133211082,-0.117237829,0.207292,0.120980177,-0.117911737,0.191106,0.120926269,-0.124538555,0.176392,0.205576701,-0.142393804,0.248198,0.172330145,-0.137227528,0.21951,0.155515045,-0.13682962,0.206329,0.154659945,-0.139329944,0.194698
0.20994883,-0.245952155,0.291268,0.184445829,-0.20119411,0.269185,0.185842441,-0.237731252,0.283956,0.16944049,-0.221516856,0.268094,0.132055219,-0.19558627,0.250549,0.11223396,-0.179505509,0.24827,0.129527872,-0.159043242,0.245341,0.104124868,-0.157767588,0.220543,0.0909488401,-0.15791832,0.208314,0.0847709899,-0.163267986,0.197197,0.154047753,-0.153924921,0.248052,0.122589231,-0.110766587,0.220808,0.111165074,-0.114919837,0.204916,0.108182729,-0.124604574,0.193564,0.177991431,-0.153944262,0.252294,0.139185216,-0.130454202,0.225158,0.134264664,-0.138180428,0.211275,0.136979722,-0.143211734,0.198775,0.212749318,-0.162056544,0.260894,0.1717397,-0.124433937,0.237167,0.165040682,-0.126754737,0.226265,0.166476908,-0.133289659,0.216646
0.214737308,-0.251053264,0.297074,0.187311165,-0.204059781,0.274681,0.18972713,-0.242722277,0.289816,0.170622618,-0.225114576,0.276325,0.13377554,-0.200530927,0.259987,0.113081175,-0.180852682,0.25163,0.132570841,-0.161791743,0.250702,0.107102021,-0.161439554,0.225763,0.0939231267,-0.162054843,0.213461,0.0877176401,-0.167757607,0.202278,0.157219659,-0.156977646,0.253252,0.125956612,-0.114229223,0.225765,0.114110604,-0.118437302,0.209731,0.110626395,-0.128191983,0.198278,0.181223712,-0.157261439,0.257388,0.145498148,-0.141642089,0.230069,0.142216744,-0.151322393,0.216091,0.14581686,-0.157522254,0.20467,0.215932058,-0.165687912,0.265915,0.175198202,-0.128055841,0.242005,0.168369331,-0.130844644,0.231018,0.16959469,-0.13744733,0.221325
0.2184122,-0.255162601,0.301786,0.190474242,-0.207109188,0.28039,0.194643239,-0.247286501,0.295007,0.173520557,-0.22833723,0.280824,0.137305169,-0.204098202,0.265485,0.117151931,-0.184795494,0.259604,0.137461005,-0.16536084,0.257676,0.112381741,-0.166414078,0.233608,0.0993963004,-0.167779781,0.221749,0.0932286859,-0.17422295,0.210968,0.162135019,-0.16109446,0.259915,0.134164496,-0.115218767,0.233306,0.120834092,-0.115597019,0.217783,0.115383457,-0.126583197,0.206696,0.185941399,-0.161789662,0.263705,0.150279684,-0.144617082,0.237314,0.146629877,-0.154704674,0.223812,0.150501019,-0.162286565,0.212813,0.219948782,-0.170576045,0.271661,0.180243857,-0.132964064,0.247839,0.173140148,-0.136063021,0.236894,0.174135731,-0.141862648,0.227236
0.208542348,-0.248005172,0.294825,0.180709966,-0.196654911,0.278336,0.182871864,-0.239174693,0.290455,0.154151552,-0.211506671,0.280259,0.133243721,-0.186016974,0.267687,0.127748359,-0.16492978,0.257645,0.138944755,-0.149682183,0.261914,0.112509157,-0.147817714,0.242264,0.102625696,-0.154063859,0.232439,0.101382723,-0.165433477,0.223507,0.162801175,-0.148287496,0.262556,0.13789772,-0.109946441,0.240381,0.125608208,-0.120869546,0.227445,0.120461594,-0.131108835,0.218205,0.18493696,-0.151667838,0.264585,0.160857549,-0.148752758,0.2429,0.14947374,-0.164114053,0.231806,0.156628553,-0.180188803,0.240408,0.217903045,-0.164823629,0.26967,0.180388969,-0.130835332,0.249299,0.175118203,-0.13631499,0.239939,0.177145202,-0.14430762,0.231681
0.215405769,-0.255851106,0.305415,0.187068583,-0.198556889,0.286279,0.183459833,-0.239914563,0.300595,0.154592298,-0.212004417,0.289391,0.132784379,-0.194264185,0.269452,0.134812368,-0.183851091,0.250642,0.142980955,-0.150725932,0.26754,0.119055136,-0.139711014,0.246048,0.107865015,-0.148442493,0.235303,0.101630994,-0.163197939,0.225534,0.166898912,-0.149031909,0.267966,0.139846583,-0.110315654,0.243527,0.127200103,-0.121710889,0.22927,0.120816107,-0.132426513,0.219087,0.189259475,-0.152259557,0.270059,0.164164407,-0.150019318,0.246273,0.152276265,-0.164555659,0.234104,0.158551074,-0.17981684,0.241583,0.221234558,-0.16409965,0.275652,0.183552323,-0.129541029,0.253484,0.177815104,-0.137886586,0.243299,0.179156714,-0.145614876,0.234569
0.223181079,-0.260331398,0.31181,0.196384598,-0.199822209,0.295313,0.189943157,-0.243035859,0.30844,0.174993412,-0.218084596,0.300627,0.150922677,-0.193417744,0.287959,0.150191769,-0.177428088,0.272407,0.158870675,-0.151954702,0.280154,0.133478304,-0.145807872,0.261176,0.120908682,-0.154284585,0.251687,0.110275973,-0.169020396,0.243061,0.181841579,-0.151076024,0.279526,0.151177862,-0.11570672,0.257536,0.142759275,-0.130387809,0.244709,0.133119544,-0.141783313,0.235546,0.200104549,-0.155215851,0.28051,0.177171504,-0.159045526,0.259377,0.164489145,-0.173940229,0.248564,0.17064517,-0.19036978,0.257322,0.229624234,-0.167342971,0.284369,0.193722267,-0.141532491,0.264406,0.192710926,-0.150503288,0.255233,0.1920385,-0.156409534,0.24714
0.225031586,-0.261106167,0.314731,0.204120754,-0.202261157,0.301201,0.195999995,-0.247931913,0.309573,0.177701432,-0.217985666,0.300454,0.152480136,-0.191811655,0.285307,0.151181975,-0.174717108,0.268911,0.163016087,-0.15613202,0.285733,0.138644337,-0.149960959,0.267343,0.126817053,-0.158581954,0.258149,0.118369228,-0.1709183,0.250142,0.188191753,-0.15615383,0.288254,0.162231587,-0.121985283,0.268445,0.151592544,-0.136832403,0.25689,0.145843245,-0.149491155,0.249383,0.211876294,-0.160179066,0.29156,0.187354398,-0.16531681,0.271587,0.175638991,-0.181362846,0.261368,0.182997811,-0.199108916,0.270856,0.243155659,-0.172680668,0.297661,0.208423841,-0.146644315,0.278856,0.206314102,-0.156151971,0.270216,0.208081615,-0.16490405,0.262797
0.234338031,-0.268517052,0.331052,0.213395916,-0.207923343,0.312994,0.207773168,-0.248605852,0.327221,0.192141494,-0.2255337,0.319639,0.169044124,-0.201225467,0.305733,0.164504122,-0.184688766,0.289513,0.171802082,-0.160767219,0.296221,0.147893992,-0.146621025,0.276021,0.134721803,-0.15499318,0.265921,0.125263882,-0.170848712,0.256739,0.19503183,-0.159759369,0.295714,0.166665426,-0.122149464,0.272346,0.154717896,-0.135522593,0.258716,0.147088752,-0.146140899,0.248979,0.216563724,-0.16348761,0.296939,0.190731452,-0.164593902,0.274454,0.177627985,-0.179121105,0.26295,0.183605422,-0.195877456,0.271022,0.246025935,-0.176405961,0.301337,0.210670255,-0.147350478,0.280229,0.205383816,-0.15593961,0.270531,0.20709579,-0.163503009,0.26311
0.238747424,-0.267378119,0.341627,0.222089026,-0.212182531,0.324175,0.216736632,-0.253317033,0.339161,0.199724339,-0.230207337,0.330029,0.180483299,-0.202987977,0.318114,0.174791037,-0.18850075,0.302902,0.188260042,-0.162545677,0.309532,0.163216488,-0.149577105,0.290633,0.149035464,-0.157659118,0.281183,0.135985561,-0.173075828,0.272592,0.209975441,-0.16371999,0.307474,0.184715259,-0.124274621,0.284895,0.169527306,-0.136669182,0.271724,0.156867486,-0.149053102,0.262316,0.227363687,-0.169415654,0.307368,0.200447484,-0.168937096,0.286093,0.185433285,-0.183544355,0.275209,0.190675738,-0.200904013,0.283681,0.25452462,-0.183682501,0.310102,0.224019878,-0.152283443,0.289956,0.213758718,-0.160877314,0.2807,0.214525438,-0.170240458,0.274235
0.245104602,-0.268865452,0.346634,0.229807324,-0.211892686,0.328001,0.224042428,-0.251780295,0.344097,0.212028525,-0.233236179,0.334693,0.183782967,-0.210007207,0.314983,0.169494385,-0.189073633,0.302083,0.190562268,-0.164824677,0.312489,0.168329564,-0.132457218,0.29203,0.155686245,-0.141645339,0.2818,0.16018658,-0.162110493,0.288954,0.212033161,-0.164367965,0.31017,0.18521943,-0.124828002,0.286618,0.16991041,-0.137324678,0.272878,0.158156807,-0.148885204,0.263065,0.232000916,-0.168542466,0.309958,0.20303003,-0.17621911,0.28783,0.190633413,-0.190309195,0.276508,0.198592385,-0.204379845,0.284476,0.260645073,-0.178032659,0.312761,0.2239962,-0.151061749,0.291879,0.21602943,-0.159265319,0.282285,0.215367781,-0.168926919,0.27382
0.252503229,-0.269183597,0.351739,0.240662957,-0.214109135,0.334752,0.23552952,-0.254613944,0.351934,0.220429419,-0.238426415,0.344771,0.195137713,-0.21351983,0.327696,0.178640983,-0.194419062,0.315983,0.20570846,-0.169696903,0.323789,0.186403507,-0.132001883,0.304718,0.171918192,-0.13835777,0.295182,0.174365629,-0.159348346,0.302663,0.224335409,-0.167295951,0.318496,0.198110113,-0.128235576,0.296978,0.181743222,-0.140860663,0.284426,0.168624556,-0.153382281,0.275461,0.239321578,-0.169615789,0.315685,0.211318472,-0.18217773,0.296384,0.199096076,-0.19663083,0.28651,0.207275121,-0.211198189,0.295242,0.26455149,-0.180115509,0.315166,0.228455402,-0.152745871,0.296585,0.221054606,-0.161591851,0.288048,0.221769564,-0.171642132,0.281582
0.263295526,-0.27296694,0.362493,0.252388306,-0.219080876,0.346323,0.248975546,-0.258558272,0.361756,0.232378136,-0.239281697,0.355179,0.205070917,-0.21562626,0.337337,0.188236043,-0.195409804,0.324931,0.215443432,-0.173037885,0.334716,0.196604297,-0.135472672,0.316068,0.182473525,-0.141929477,0.306744,0.183338847,-0.164396346,0.314686,0.235235453,-0.171238129,0.330848,0.209510099,-0.132203477,0.309734,0.193505265,-0.145037124,0.297417,0.18108904,-0.157088399,0.28862,0.253819923,-0.17416031,0.329136,0.223687156,-0.186619953,0.309798,0.211413132,-0.20136362,0.299904,0.219469561,-0.217753977,0.308997,0.279561588,-0.185777677,0.329773,0.243259832,-0.156142361,0.311207,0.235601901,-0.164754083,0.302676,0.234334503,-0.176266799,0.295149
0.270062205,-0.273061153,0.366865,0.259512834,-0.22072172,0.353137,0.254104183,-0.261341881,0.36809,0.238779716,-0.24243591,0.363833,0.215415795,-0.215935679,0.34917,0.199962516,-0.196761301,0.336859,0.229791055,-0.175536914,0.345629,0.214967012,-0.137952822,0.329226,0.20005588,-0.143707453,0.321025,0.197981878,-0.167932386,0.329719,0.247946548,-0.17473045,0.339999,0.225298693,-0.13723788,0.321413,0.208325433,-0.150750943,0.310571,0.194527682,-0.162627928,0.302827,0.264516672,-0.178437184,0.336613,0.232482378,-0.191244663,0.320217,0.220024155,-0.207107028,0.311828,0.229808363,-0.222508237,0.32191,0.28532789,-0.18976368,0.334886,0.251276507,-0.161336215,0.318771,0.244100643,-0.170864785,0.311367,0.245038481,-0.182006733,0.305843
0.286156029,-0.279566197,0.381633,0.271971276,-0.227228266,0.366044,0.267618628,-0.266418258,0.382444,0.252981318,-0.246311541,0.377994,0.228762373,-0.222076424,0.363469,0.214083813,-0.200740211,0.352386,0.24237504,-0.18037139,0.356785,0.221463043,-0.151020129,0.340418,0.206253159,-0.159560931,0.332234,0.207559882,-0.181078278,0.340674,0.260207656,-0.180006526,0.351127,0.230556347,-0.142033582,0.330911,0.213694441,-0.153797336,0.319119,0.221343905,-0.174715427,0.326924,0.27663425,-0.184189494,0.347888,0.243443353,-0.194028911,0.329941,0.228911911,-0.208528748,0.320759,0.236676218,-0.224923324,0.330076,0.297858783,-0.197459779,0.346636,0.264220865,-0.168021459,0.329197,0.255611858,-0.17712609,0.321185,0.253699021,-0.187697251,0.314115
0.296143931,-0.28393775,0.392564,0.28098496,-0.230043298,0.374631,0.277177407,-0.270162102,0.392368,0.262280249,-0.249768689,0.386991,0.235131345,-0.226303878,0.371386,0.22354311,-0.205119594,0.362382,0.246330947,-0.182866168,0.36255,0.223358344,-0.152795207,0.344005,0.207874164,-0.160999357,0.334732,0.209145402,-0.181967513,0.342244,0.264670646,-0.182244351,0.35747,0.232645134,-0.143693224,0.335086,0.215450507,-0.155022942,0.322029,0.222971228,-0.1752716,0.328961,0.281846901,-0.186326754,0.354922,0.247380656,-0.195483788,0.334729,0.23259239,-0.209427871,0.324399,0.241144997,-0.223809773,0.332721,0.305626239,-0.199660628,0.354865,0.268641394,-0.169782043,0.335533,0.259686813,-0.178530821,0.326651,0.258732048,-0.188445504,0.319341
0.300060748,-0.285593046,0.39672,0.28549576,-0.232653234,0.380186,0.28133084,-0.272042161,0.396786,0.265430024,-0.252025907,0.391428,0.239818774,-0.228148313,0.376291,0.22652857,-0.207064188,0.365575,0.251480693,-0.18564315,0.369359,0.228712746,-0.156480018,0.352108,0.213837908,-0.165242585,0.343483,0.215903942,-0.186656432,0.351626,0.269827498,-0.18464795,0.364364,0.237857212,-0.147067187,0.343174,0.2214157,-0.158989022,0.330813,0.229518982,-0.179942026,0.338317,0.287004833,-0.188329658,0.361757,0.25358537,-0.198583437,0.342681,0.239630306,-0.213095408,0.332921,0.24897155,-0.22783303,0.341857,0.31074285,-0.201012187,0.361403,0.273961683,-0.172202607,0.343022,0.265567647,-0.181279681,0.334577,0.264874137,-0.19235298,0.327125
