sluyters/QuantumLeap/backend/src/datasets/dynamic/HandGestureDataset_SHREC2017_csv/Gesture12/finger_2/subject_11_essai_3_skeletons_world.csv
Wrist_x,Wrist_y,Wrist_z,Palm_x,Palm_y,Palm_z,thumb_base_x,thumb_base_y,thumb_base_z,thumb_first_joint_x,thumb_first_joint_y,thumb_first_joint_z,thumb_second_joint_x,thumb_second_joint_y,thumb_second_joint_z,thumb_tip_x,thumb_tip_y,thumb_tip_z,index_base_x,index_base_y,index_base_z,index_first_joint_x,index_first_joint_y,index_first_joint_z,index_second_joint_x,index_second_joint_y,index_second_joint_z,index_tip_x,index_tip_y,index_tip_z,middle_base_x,middle_base_y,middle_base_z,middle_first_joint_x,middle_first_joint_y,middle_first_joint_z,middle_second_joint_x,middle_second_joint_y,middle_second_joint_z,middle_tip_x,middle_tip_y,middle_tip_z,ring_base_x,ring_base_y,ring_base_z,ring_first_joint_x,ring_first_joint_y,ring_first_joint_z,ring_second_joint_x,ring_second_joint_y,ring_second_joint_z,ring_tip_x,ring_tip_y,ring_tip_z,pinky_base_x,pinky_base_y,pinky_base_z,pinky_first_joint_x,pinky_first_joint_y,pinky_first_joint_z,pinky_second_joint_x,pinky_second_joint_y,pinky_second_joint_z,pinky_tip_x,pinky_tip_y,pinky_tip_z,
0.46792001,-0.27368205,0.58785,0.46854431,-0.22583884,0.5873,0.44519297,-0.25848716,0.58335,0.4236837,-0.22367131,0.578816,0.39310144,-0.19134108,0.558758,0.38909487,-0.17715099,0.561395,0.4368674,-0.18029209,0.581065,0.43029922,-0.13951237,0.580703,0.43035868,-0.11796495,0.580521,0.43087537,-0.10197375,0.580356,0.46427247,-0.18340487,0.586775,0.45422108,-0.13210544,0.577805,0.44950832,-0.10186512,0.572572,0.44613664,-0.080006324,0.568834,0.48724338,-0.18893098,0.591537,0.48034508,-0.13866398,0.588273,0.48034029,-0.11131087,0.586602,0.48184205,-0.086422286,0.585084,0.51531257,-0.20117195,0.597168,0.51008512,-0.15547695,0.589331,0.50768448,-0.13444375,0.58573,0.51000301,-0.12186825,0.582553
0.46920477,-0.25861309,0.582302,0.46760467,-0.21203571,0.58412,0.44730639,-0.24564354,0.580024,0.42283698,-0.21183768,0.577245,0.39023527,-0.18248271,0.558957,0.38418305,-0.16464074,0.561365,0.43911259,-0.16845224,0.582387,0.4274863,-0.12984366,0.580919,0.42570032,-0.1084753,0.580185,0.42774207,-0.093921529,0.579518,0.46491313,-0.17053928,0.585851,0.45593308,-0.12000261,0.579715,0.45067368,-0.090270879,0.576136,0.4469812,-0.068862201,0.573579,0.48626219,-0.1751244,0.588508,0.48084592,-0.12499168,0.587609,0.48021059,-0.097684617,0.58715,0.48028694,-0.072179869,0.586732,0.51194706,-0.186046,0.59125,0.50623945,-0.14136082,0.584914,0.50361545,-0.12034324,0.582004,0.50129764,-0.10153009,0.579435
0.46871091,-0.24618138,0.578247,0.46487622,-0.20645464,0.580584,0.44634802,-0.23406377,0.575911,0.42135203,-0.20418383,0.573879,0.38860873,-0.17469501,0.555077,0.38216694,-0.16088471,0.558698,0.43319104,-0.16053369,0.579128,0.42564379,-0.12747684,0.579584,0.42575901,-0.10693299,0.579812,0.42668954,-0.088386754,0.580019,0.45903737,-0.16117175,0.58281,0.45192246,-0.11170953,0.577805,0.44861918,-0.082207178,0.574885,0.44705874,-0.064667399,0.572799,0.48060676,-0.16452282,0.58559,0.47335654,-0.11499932,0.583636,0.47333998,-0.087458117,0.582637,0.47570284,-0.067091211,0.581728,0.50691717,-0.17388121,0.588378,0.50161213,-0.12904676,0.583235,0.49916567,-0.10799989,0.580872,0.49700203,-0.089184513,0.578787
0.46752292,-0.24458983,0.58,0.46457027,-0.20087783,0.582246,0.44527881,-0.23191415,0.577077,0.42021664,-0.20079006,0.575827,0.38762151,-0.17315959,0.555024,0.38008498,-0.15573322,0.557026,0.43671962,-0.15273591,0.579966,0.43110048,-0.11240976,0.582101,0.43125627,-0.090169626,0.583168,0.43137806,-0.069225484,0.584139,0.46308191,-0.15531083,0.584386,0.45616997,-0.10600737,0.580476,0.45221854,-0.07719473,0.578194,0.45113442,-0.058229132,0.576565,0.48352875,-0.16281725,0.587784,0.48100286,-0.11206974,0.589597,0.48227062,-0.086993255,0.590525,0.48573407,-0.061681978,0.591368,0.50971667,-0.17360764,0.591306,0.50496041,-0.12972462,0.585279,0.50503349,-0.1095017,0.582509,0.50452564,-0.091088828,0.581013
0.46652165,-0.23900402,0.583295,0.45880906,-0.19072396,0.584588,0.44282205,-0.22444068,0.583113,0.41397752,-0.1904778,0.57794,0.3814494,-0.15895596,0.554694,0.37270339,-0.13824026,0.549531,0.43338227,-0.14713917,0.585229,0.42633985,-0.10293779,0.579,0.42297123,-0.080759433,0.575885,0.42154018,-0.063944555,0.573054,0.45757053,-0.1475373,0.585819,0.45109536,-0.10031381,0.579038,0.44855533,-0.074800175,0.575083,0.44649082,-0.053820701,0.572257,0.47759071,-0.15077395,0.586167,0.47123075,-0.10424944,0.580039,0.46846589,-0.083222583,0.576903,0.46957969,-0.058983313,0.574053,0.50169703,-0.16024569,0.586327,0.50010143,-0.11644566,0.58077,0.5003829,-0.098723338,0.578217,0.4976275,-0.086169727,0.575965
0.46388155,-0.23652219,0.582293,0.45854639,-0.19012003,0.584581,0.44131459,-0.22235998,0.582857,0.4137354,-0.19016149,0.578573,0.38257395,-0.15939136,0.557877,0.37472328,-0.13905826,0.554448,0.43444183,-0.14671188,0.58687,0.42914522,-0.10262486,0.582852,0.42667765,-0.080445729,0.580843,0.42564357,-0.062612064,0.57925,0.45817469,-0.14702076,0.586761,0.45264642,-0.099777105,0.580988,0.45049105,-0.073868033,0.577985,0.44885256,-0.05304139,0.57584,0.47767411,-0.15016881,0.586424,0.47241235,-0.10370145,0.581444,0.47000329,-0.079230643,0.578896,0.47079724,-0.058337525,0.576579,0.50093135,-0.15949462,0.585604,0.50143375,-0.11609214,0.582294,0.50269664,-0.097816645,0.580773,0.50391635,-0.081583719,0.579431
0.45798258,-0.23260091,0.581802,0.45606487,-0.18892789,0.583118,0.43603238,-0.21723909,0.581662,0.41030355,-0.18702152,0.577497,0.37845322,-0.15604565,0.556418,0.37010404,-0.13539091,0.552003,0.43199095,-0.14478913,0.583829,0.42479081,-0.10068931,0.577612,0.42163791,-0.078857968,0.574504,0.41960823,-0.060695854,0.571678,0.456076,-0.14586963,0.584371,0.44959075,-0.098930832,0.577607,0.44589969,-0.071364504,0.573662,0.44443503,-0.052114735,0.570843,0.47590701,-0.14965816,0.584676,0.46990048,-0.10285005,0.57855,0.46712949,-0.078322978,0.575416,0.46579187,-0.057713101,0.572567,0.49960474,-0.15976573,0.584782,0.49852044,-0.11591071,0.579476,0.499096,-0.097230148,0.577038,0.49817976,-0.082638773,0.574886
0.45016432,-0.22896945,0.578069,0.45063602,-0.18974005,0.581053,0.43041148,-0.21598514,0.577368,0.40305981,-0.18384575,0.572158,0.37483119,-0.15382119,0.551921,0.36916922,-0.13418403,0.551228,0.43167878,-0.14706696,0.582166,0.42466419,-0.10402949,0.577175,0.42121666,-0.079892541,0.574679,0.41824744,-0.059279234,0.57241,0.46018003,-0.15417859,0.583896,0.45204919,-0.1007049,0.578662,0.45011583,-0.07034881,0.575609,0.44707712,-0.05160396,0.573428,0.48001921,-0.16084747,0.584998,0.47097887,-0.10638995,0.580037,0.46868209,-0.080875318,0.577499,0.46725148,-0.057871652,0.575191,0.50050622,-0.17000003,0.585717,0.49543735,-0.13127622,0.579553,0.4929376,-0.11575432,0.576722,0.49069695,-0.12212504,0.574223
0.45285829,-0.23253937,0.580012,0.45217461,-0.19467421,0.582046,0.43321386,-0.21934944,0.579198,0.40360897,-0.19004047,0.571481,0.37757493,-0.1582087,0.55254,0.36912497,-0.13610839,0.550582,0.43592879,-0.15177324,0.582366,0.42480302,-0.10810391,0.57628,0.41825865,-0.084022181,0.573236,0.41596697,-0.060168346,0.57047,0.46039808,-0.15451404,0.583982,0.45464544,-0.10279801,0.577687,0.45240832,-0.070208028,0.574015,0.44840474,-0.054091549,0.571392,0.4802573,-0.16084009,0.585094,0.49416437,-0.12185085,0.580094,0.49395307,-0.10610246,0.577536,0.49389273,-0.090763434,0.57521,0.5023868,-0.1715176,0.586002,0.49413691,-0.13008787,0.579065,0.49175122,-0.11539636,0.575878,0.49033578,-0.12271033,0.573066
0.45364246,-0.23305781,0.58101,0.45405748,-0.19139746,0.582181,0.43402782,-0.2199176,0.580414,0.40426737,-0.19199963,0.573736,0.37373485,-0.1599371,0.55072,0.36924421,-0.13977659,0.550824,0.43111832,-0.14748053,0.582199,0.42303006,-0.10473158,0.575634,0.41897056,-0.080704539,0.572352,0.41577354,-0.064643063,0.569368,0.45551372,-0.15032128,0.583295,0.44605439,-0.1041824,0.576103,0.44169987,-0.076713646,0.571907,0.44244821,-0.058677783,0.568911,0.47525707,-0.15701676,0.584072,0.46855468,-0.11102841,0.577631,0.46688877,-0.088562342,0.574335,0.46586809,-0.061851688,0.571339,0.49748173,-0.16712978,0.584754,0.49757714,-0.1277273,0.578047,0.49437811,-0.10957368,0.574965,0.494932,-0.090551631,0.572246
0.45907354,-0.23643609,0.579836,0.46025086,-0.19864648,0.58109,0.43983522,-0.22536764,0.579217,0.41355225,-0.20300474,0.5751,0.37915342,-0.17335428,0.553022,0.3693202,-0.15618262,0.553661,0.42993089,-0.15720001,0.581136,0.42076314,-0.11433144,0.574877,0.41679746,-0.092222534,0.571747,0.4155485,-0.069055409,0.568902,0.45677006,-0.15443816,0.582285,0.4478115,-0.11484223,0.575483,0.44550293,-0.090171365,0.571514,0.44232148,-0.070845693,0.56868,0.47580772,-0.15784085,0.583096,0.46990113,-0.11766981,0.576955,0.46777192,-0.096757958,0.573813,0.46584259,-0.077462576,0.570957,0.49867008,-0.16610174,0.583802,0.49728461,-0.12778102,0.578098,0.49389439,-0.1104038,0.575477,0.4938212,-0.093939301,0.573164
0.45907212,-0.23646229,0.57879,0.46273095,-0.20402589,0.580819,0.44404049,-0.23010011,0.577771,0.41072228,-0.20964878,0.571455,0.37680189,-0.18050211,0.550788,0.36816197,-0.16400165,0.553141,0.43052813,-0.16629449,0.580869,0.42370986,-0.12197675,0.575562,0.42041003,-0.099734591,0.572908,0.41746883,-0.079090643,0.570495,0.45737305,-0.16318726,0.582752,0.44668521,-0.11899089,0.576827,0.44418339,-0.092005891,0.573371,0.44175625,-0.073554769,0.570902,0.47814854,-0.16563415,0.584083,0.47334872,-0.11976323,0.580619,0.47222087,-0.09787379,0.578847,0.47142993,-0.078653125,0.577236,0.50212096,-0.1725295,0.585247,0.49680641,-0.13719538,0.580171,0.49662006,-0.12548569,0.577838,0.49654558,-0.11460263,0.57578
0.46411382,-0.25135183,0.577816,0.45827651,-0.21736708,0.578315,0.44033648,-0.24022133,0.57482,0.40777972,-0.22063387,0.567137,0.37376178,-0.19207841,0.547095,0.36469729,-0.17549628,0.548939,0.42540058,-0.17696801,0.574751,0.41937262,-0.13204539,0.568412,0.41639988,-0.10933086,0.565242,0.41413749,-0.093633189,0.56236,0.45203158,-0.17659407,0.578789,0.44442987,-0.12677573,0.571433,0.44130496,-0.1003304,0.567141,0.43908088,-0.080552974,0.564076,0.47462805,-0.17914509,0.582061,0.46948596,-0.13196882,0.575782,0.46685492,-0.10826465,0.572569,0.46581936,-0.08839102,0.569649,0.50270999,-0.18769599,0.585765,0.49458587,-0.14520866,0.578824,0.49422913,-0.1342577,0.575635,0.49144231,-0.12356739,0.572821
0.45716694,-0.28329552,0.571926,0.45863282,-0.24478329,0.574935,0.43456355,-0.26922187,0.56852,0.40967927,-0.239555,0.564015,0.38138278,-0.20964536,0.549219,0.37690817,-0.19319447,0.553726,0.43246781,-0.20231955,0.572542,0.4223662,-0.15897641,0.567612,0.41887812,-0.13772471,0.565147,0.41591084,-0.11821522,0.562906,0.4599757,-0.2058606,0.5778,0.45545785,-0.15685631,0.572468,0.45300767,-0.12738901,0.569358,0.45125757,-0.10576677,0.567136,0.48272765,-0.21150018,0.581807,0.47649384,-0.16394534,0.57709,0.4737565,-0.13933333,0.574677,0.47221519,-0.11670366,0.572483,0.50988459,-0.22348055,0.585891,0.50911695,-0.1828336,0.586487,0.51019089,-0.16260054,0.586761,0.51162104,-0.14447242,0.587003
0.459942,-0.28660074,0.574019,0.46028765,-0.24724221,0.575882,0.43663023,-0.27220285,0.569822,0.41108388,-0.24249004,0.564705,0.38400158,-0.21726007,0.552488,0.37774645,-0.19651969,0.554432,0.4324925,-0.20394114,0.57168,0.42329962,-0.16195109,0.565501,0.41786179,-0.13855709,0.562412,0.41471738,-0.11975082,0.559604,0.46055452,-0.20754809,0.577657,0.45447376,-0.15845999,0.570838,0.45100781,-0.12890029,0.56686,0.44852699,-0.10726331,0.564019,0.48392936,-0.21331508,0.582378,0.47662632,-0.16566331,0.576549,0.47355257,-0.14092175,0.573567,0.47201475,-0.11906457,0.570856,0.51208768,-0.22559308,0.587507,0.50712087,-0.18211679,0.583195,0.50566266,-0.1614939,0.581214,0.5069084,-0.14804734,0.579466
0.46905059,-0.3180565,0.581391,0.46783844,-0.27604076,0.581057,0.44626591,-0.30335745,0.577646,0.42096455,-0.27398328,0.572767,0.39045312,-0.24177147,0.553864,0.38480422,-0.2233943,0.554516,0.43944818,-0.23007295,0.575954,0.42498337,-0.18548425,0.567606,0.41865019,-0.16350475,0.563432,0.41350829,-0.14392899,0.559638,0.46662841,-0.23352056,0.58074,0.45819824,-0.17795847,0.572071,0.4549336,-0.1468975,0.567014,0.45262465,-0.12385403,0.563402,0.48933344,-0.23940139,0.584717,0.4778532,-0.18523181,0.576716,0.47324727,-0.1573967,0.572623,0.47046498,-0.13277614,0.568901,0.51685003,-0.25223186,0.589397,0.5099823,-0.20296662,0.58439,0.5077213,-0.18010545,0.58209,0.50772773,-0.16132821,0.58006
0.46201383,-0.34109396,0.589877,0.46306347,-0.29683454,0.58639,0.44102144,-0.3245719,0.586498,0.41558992,-0.29257465,0.577027,0.38446331,-0.25821312,0.554095,0.37866381,-0.23965019,0.553955,0.43835616,-0.2466173,0.57962,0.42425842,-0.20033742,0.568184,0.41819986,-0.17886558,0.562466,0.41309999,-0.16024824,0.557268,0.46434307,-0.25155403,0.583069,0.45721609,-0.19234541,0.57106,0.45379152,-0.15874144,0.564054,0.45139578,-0.13403262,0.559051,0.48595065,-0.25886857,0.586284,0.47584996,-0.20191721,0.578743,0.47248124,-0.17334367,0.574885,0.47043492,-0.1486564,0.571378,0.51195949,-0.27380052,0.590672,0.50987572,-0.22097781,0.585666,0.50948245,-0.19664339,0.583367,0.51084172,-0.17732507,0.581338
0.46333703,-0.34691916,0.589231,0.46581673,-0.30881492,0.58603,0.44261437,-0.33059067,0.586438,0.41941612,-0.30473978,0.577858,0.387989,-0.26977809,0.554935,0.38217293,-0.25112966,0.554645,0.44118041,-0.25806433,0.580217,0.42680703,-0.21239312,0.56885,0.41969311,-0.18974066,0.563167,0.41342229,-0.1647448,0.558001,0.466751,-0.26228054,0.58298,0.45729011,-0.21001167,0.570804,0.45180585,-0.17894799,0.563701,0.44789115,-0.15634623,0.558627,0.48810715,-0.26891086,0.585601,0.47997709,-0.21325857,0.579281,0.47670488,-0.18542129,0.576048,0.47371624,-0.1594878,0.573109,0.51401866,-0.28295286,0.589244,0.51288609,-0.23885419,0.588296,0.51346182,-0.21790168,0.587861,0.51432452,-0.19980767,0.587476
0.47808282,-0.35739255,0.592915,0.47678706,-0.31510086,0.588442,0.46384966,-0.34831008,0.589159,0.43671746,-0.32404009,0.586016,0.40040236,-0.29229717,0.563294,0.39147611,-0.27481028,0.562137,0.43966398,-0.27121875,0.580514,0.42672511,-0.2242068,0.568943,0.4211721,-0.20152361,0.563157,0.41611385,-0.18072118,0.557898,0.46576907,-0.27045594,0.584183,0.45298039,-0.22493536,0.571109,0.44611802,-0.19877183,0.563483,0.4412062,-0.17979119,0.558036,0.48904948,-0.27155083,0.587686,0.47836262,-0.22175359,0.577943,0.47341682,-0.19542043,0.572958,0.47145709,-0.17385584,0.568426,0.51686625,-0.28370291,0.592593,0.51200774,-0.24375434,0.587199,0.51026938,-0.22588843,0.584721,0.50946526,-0.21047026,0.582534
0.46383624,-0.38667829,0.592272,0.46532295,-0.34179441,0.588551,0.44283656,-0.36944749,0.58865,0.42174021,-0.33841523,0.582001,0.39131707,-0.30203399,0.558885,0.38690934,-0.28336353,0.558166,0.44086049,-0.29037031,0.581307,0.42747572,-0.24489073,0.569454,0.42078511,-0.22215916,0.563528,0.41476535,-0.20204749,0.55814,0.46708014,-0.29575385,0.585007,0.45819738,-0.24162342,0.572263,0.45303811,-0.20919126,0.564828,0.44936488,-0.18560648,0.559518,0.48897528,-0.30353294,0.588455,0.47916287,-0.24712855,0.576889,0.4745248,-0.21934248,0.570972,0.47031074,-0.19379571,0.565592,0.51540251,-0.31921235,0.593156,0.51716484,-0.26958223,0.591447,0.51930979,-0.24716144,0.590661,0.52127309,-0.2268315,0.589968
0.46385391,-0.39300635,0.593549,0.46540988,-0.35357397,0.589883,0.44337886,-0.37580434,0.590406,0.42113757,-0.34954851,0.582834,0.39083081,-0.31307452,0.560346,0.38660887,-0.29472318,0.56025,0.44259425,-0.30199338,0.5833,0.42859863,-0.25687724,0.571356,0.42158685,-0.23471499,0.565384,0.41518962,-0.2145642,0.559955,0.46823591,-0.30756625,0.586391,0.45951727,-0.25248884,0.573658,0.45437425,-0.2210466,0.56623,0.45071572,-0.1980819,0.560925,0.48959001,-0.31550722,0.589332,0.47902641,-0.2589216,0.577651,0.47383558,-0.23127244,0.571675,0.46927332,-0.20741484,0.566242,0.51525749,-0.3314007,0.593434,0.51580099,-0.28124479,0.590622,0.51694024,-0.25982565,0.58933,0.51802424,-0.24057995,0.58819
0.46851934,-0.39623171,0.593809,0.47333934,-0.35699563,0.589727,0.44885923,-0.38433743,0.590567,0.42747317,-0.36012852,0.584342,0.39325531,-0.32685018,0.561852,0.38466492,-0.30959063,0.561446,0.44326899,-0.30738719,0.582732,0.42755973,-0.25814529,0.570583,0.42135647,-0.24267156,0.564509,0.4160889,-0.22668084,0.558986,0.46859516,-0.30864071,0.585839,0.45685325,-0.26471923,0.572573,0.44951642,-0.23793702,0.564835,0.44426723,-0.21863295,0.559308,0.49032314,-0.31538915,0.588837,0.47980734,-0.26799536,0.576925,0.47421714,-0.24423929,0.570831,0.46935823,-0.22291551,0.56529,0.51682653,-0.32985563,0.593084,0.5164093,-0.28926889,0.59051,0.51679476,-0.27184026,0.589328,0.51715197,-0.25625749,0.588285
0.47515738,-0.41127419,0.593814,0.46777443,-0.37439261,0.589375,0.44930205,-0.40478768,0.589297,0.42526685,-0.37584405,0.583972,0.39380092,-0.34071592,0.562507,0.38779767,-0.32318714,0.563049,0.43554852,-0.32391639,0.580477,0.42523256,-0.27680905,0.568723,0.42065368,-0.25527323,0.562846,0.41681999,-0.23713326,0.557503,0.46275456,-0.32712797,0.585147,0.45328974,-0.28100515,0.571914,0.44795606,-0.25426171,0.564195,0.44415566,-0.23489837,0.558682,0.48587342,-0.33317016,0.589471,0.47919169,-0.27946931,0.578793,0.4778124,-0.2567637,0.573329,0.47665375,-0.23551562,0.568362,0.51458567,-0.34683338,0.595325,0.51492642,-0.30312108,0.590537,0.5161862,-0.28386522,0.588338,0.51732421,-0.2667205,0.586397
0.47397187,-0.42632867,0.594704,0.46892042,-0.38599682,0.588686,0.44992731,-0.41051228,0.589189,0.42910148,-0.38863136,0.585156,0.39783061,-0.35426263,0.565816,0.39188062,-0.33747901,0.567666,0.43600809,-0.33471578,0.577417,0.42285098,-0.28700812,0.566724,0.41944126,-0.26939645,0.561378,0.41635991,-0.25291237,0.556518,0.46371163,-0.33833275,0.582955,0.4518892,-0.28903665,0.568182,0.44594416,-0.26178975,0.559564,0.44170522,-0.24215384,0.553409,0.48721843,-0.34479251,0.588164,0.4763608,-0.29026858,0.57486,0.47251648,-0.26450957,0.568054,0.46904722,-0.24077683,0.561867,0.51631221,-0.35902954,0.595341,0.51332398,-0.31427626,0.588921,0.51498897,-0.29651042,0.585972,0.51653309,-0.28054426,0.583369
0.47396895,-0.43176725,0.595597,0.46956769,-0.3907312,0.590047,0.4503401,-0.42077588,0.590171,0.42045701,-0.39356096,0.581775,0.39091304,-0.35931831,0.559466,0.38336897,-0.34172632,0.55962,0.43842227,-0.34163711,0.579213,0.42483144,-0.29291022,0.5664,0.42137682,-0.2749136,0.559994,0.41643443,-0.25497804,0.55417,0.46596978,-0.346569,0.584762,0.45069001,-0.28229557,0.570685,0.44898962,-0.26097546,0.562474,0.44706364,-0.2438998,0.556609,0.48917275,-0.35414243,0.58993,0.47537966,-0.28980899,0.577264,0.47566801,-0.26843856,0.570783,0.47799554,-0.25313342,0.564892,0.51763002,-0.36976845,0.596972,0.51210227,-0.31384996,0.589173,0.51448753,-0.29651057,0.58559,0.51675737,-0.280749,0.582429
0.47620571,-0.44329156,0.598957,0.47407136,-0.40492973,0.592761,0.45349484,-0.42712136,0.594265,0.42632858,-0.40527896,0.583482,0.39405376,-0.37215659,0.560991,0.38540401,-0.35505755,0.560975,0.44580942,-0.35186629,0.582443,0.42886753,-0.30725643,0.567605,0.42049036,-0.28533794,0.560187,0.41313876,-0.26668197,0.553442,0.47280662,-0.35741056,0.58686,0.46097586,-0.30643612,0.571368,0.45422791,-0.27729138,0.562331,0.44941073,-0.25634857,0.555876,0.49558156,-0.36555593,0.591166,0.48196525,-0.31471589,0.576742,0.4754832,-0.29013316,0.569362,0.47022691,-0.27008431,0.562653,0.52344239,-0.38200496,0.597327,0.51589894,-0.33365314,0.589687,0.51452818,-0.31571308,0.586177,0.51335745,-0.29952059,0.58308
0.47372774,-0.45090111,0.599196,0.47124028,-0.40740244,0.59289,0.45058,-0.43308798,0.593486,0.42526564,-0.40695104,0.585088,0.39491234,-0.37235009,0.561955,0.38700498,-0.3542986,0.561216,0.43918448,-0.35546225,0.581169,0.42541052,-0.31251405,0.566081,0.41849842,-0.29068263,0.558537,0.41216698,-0.26889952,0.551678,0.46697217,-0.361923,0.586884,0.4562657,-0.31214588,0.570917,0.4503104,-0.28397775,0.561604,0.44607044,-0.26363197,0.554951,0.49044548,-0.37088159,0.592269,0.48151045,-0.3177088,0.577742,0.47576881,-0.29274401,0.57031,0.47098283,-0.27144633,0.563554,0.51921441,-0.38841038,0.599705,0.51380538,-0.34012971,0.587882,0.5128661,-0.32214585,0.58245,0.51209678,-0.30604604,0.577657
0.47522434,-0.45938832,0.602248,0.47254118,-0.41493524,0.596145,0.45251148,-0.44123021,0.596836,0.42728869,-0.41526018,0.586017,0.39777257,-0.38036691,0.564155,0.38904274,-0.3578895,0.563493,0.44607797,-0.36355649,0.584953,0.43247622,-0.31998747,0.570023,0.42605727,-0.30011275,0.562558,0.42055818,-0.28390729,0.555772,0.47366372,-0.37018929,0.590333,0.46299796,-0.31899459,0.574561,0.457342,-0.29184057,0.56536,0.45124653,-0.26881247,0.558788,0.4969116,-0.37930111,0.595421,0.48532699,-0.32966509,0.58084,0.47974149,-0.30526937,0.57338,0.47507718,-0.28434288,0.566598,0.52528699,-0.39702304,0.602474,0.51619949,-0.35068784,0.588772,0.51284213,-0.33188272,0.582476,0.51005401,-0.31585116,0.576921
0.47527473,-0.46088683,0.602371,0.47320751,-0.41599135,0.596284,0.45262974,-0.44269072,0.596994,0.42734775,-0.41531758,0.586098,0.39770065,-0.38029814,0.564053,0.38969443,-0.35934876,0.564099,0.44622591,-0.36367707,0.585147,0.43264237,-0.32011041,0.570242,0.42623298,-0.30023651,0.56279,0.42074206,-0.28403142,0.556015,0.47378648,-0.37028524,0.590486,0.46313817,-0.31909119,0.574735,0.45749328,-0.2919371,0.565547,0.4520995,-0.27002184,0.558984,0.49701007,-0.37937628,0.595539,0.48543227,-0.32973661,0.580966,0.47985026,-0.30533859,0.57351,0.4751887,-0.28440962,0.566731,0.52535151,-0.39707181,0.602548,0.51625121,-0.35072298,0.588831,0.5128888,-0.33191292,0.582529,0.51009556,-0.31587689,0.576968
0.47658614,-0.45907316,0.602799,0.4742153,-0.41391975,0.596194,0.45314031,-0.44316028,0.59702,0.42665437,-0.41468061,0.584966,0.39606147,-0.37975256,0.56193,0.38823065,-0.36219774,0.561713,0.44393265,-0.36108516,0.584183,0.42988219,-0.31770263,0.569032,0.42408617,-0.29926355,0.561456,0.4185346,-0.28324822,0.554569,0.47178292,-0.36750223,0.589903,0.46061883,-0.31709486,0.573732,0.45456152,-0.28952533,0.564298,0.45025355,-0.2695642,0.55756,0.49536051,-0.3764655,0.595326,0.48363945,-0.32654705,0.58046,0.4779952,-0.30192567,0.572854,0.47329915,-0.28069834,0.565939,0.52305809,-0.39085573,0.602862,0.51428641,-0.34294517,0.58909,0.51226896,-0.33087889,0.582762,0.50949823,-0.3152499,0.577178
0.47751114,-0.45967139,0.602478,0.47565372,-0.41635255,0.595777,0.45470478,-0.4440854,0.597407,0.42700612,-0.41490486,0.584845,0.39603635,-0.38064887,0.562249,0.38798258,-0.36344187,0.562321,0.44602497,-0.36270344,0.584623,0.43140541,-0.31927855,0.569684,0.42383602,-0.29778814,0.562214,0.41783328,-0.28038068,0.555423,0.47318017,-0.36828361,0.589396,0.46046384,-0.31645891,0.573394,0.45406144,-0.28958886,0.56406,0.44950281,-0.27009355,0.557392,0.49621746,-0.37656607,0.594049,0.48363103,-0.31885627,0.579339,0.47755583,-0.29385048,0.571813,0.47232463,-0.27190999,0.564971,0.52557392,-0.3908945,0.600708,0.51560196,-0.33738746,0.58938,0.51348489,-0.32198906,0.584176,0.51123148,-0.30996755,0.579583
0.47724438,-0.45880188,0.601261,0.47475145,-0.41336392,0.595064,0.45482372,-0.44349081,0.596671,0.42755819,-0.41520889,0.585104,0.39567813,-0.38116415,0.562277,0.38711719,-0.36399397,0.562042,0.44532209,-0.36173414,0.584877,0.42872488,-0.31641522,0.570635,0.42073554,-0.29413011,0.563514,0.41522894,-0.27644853,0.557041,0.47214323,-0.36683195,0.589161,0.45879482,-0.3151027,0.573778,0.44988967,-0.28587474,0.564804,0.4446258,-0.26581947,0.558394,0.49523611,-0.37179993,0.593357,0.48158786,-0.31565748,0.579199,0.47178381,-0.29008037,0.571956,0.46503341,-0.26678229,0.565371,0.52343291,-0.38772925,0.599392,0.50746997,-0.33305219,0.588209,0.50273818,-0.31788065,0.583071,0.49855207,-0.30405851,0.578537
0.47695322,-0.45805112,0.600409,0.47435412,-0.41258293,0.594523,0.45531339,-0.44202894,0.597053,0.42784702,-0.41552466,0.585904,0.3949233,-0.38121796,0.56224,0.38570593,-0.36369641,0.560992,0.44432355,-0.36056272,0.586155,0.42711691,-0.314312,0.57224,0.41878508,-0.29525895,0.565282,0.41118802,-0.27801706,0.558957,0.47004305,-0.36405555,0.588916,0.45582813,-0.31317915,0.573775,0.44529747,-0.28525227,0.564943,0.43874246,-0.26546463,0.558634,0.4926972,-0.36962974,0.591825,0.47701845,-0.3148669,0.578054,0.46830076,-0.29071271,0.571008,0.46294565,-0.2672145,0.564603,0.51984138,-0.38365149,0.596307,0.50454932,-0.33032921,0.585992,0.50043851,-0.31691598,0.581253,0.4968879,-0.30511693,0.577071
0.47777102,-0.45845946,0.60105,0.47423927,-0.41215041,0.594345,0.45634616,-0.44282587,0.598123,0.42789324,-0.41563291,0.586261,0.39443343,-0.38137439,0.562294,0.38488491,-0.36374903,0.56053,0.44402994,-0.36028224,0.585981,0.42580583,-0.31313715,0.571306,0.41719218,-0.29444812,0.563968,0.40932169,-0.27740409,0.557298,0.46914675,-0.36313013,0.58796,0.45367531,-0.31186471,0.571982,0.44292529,-0.28387754,0.562662,0.43605397,-0.26399897,0.556005,0.49123843,-0.36845183,0.590312,0.47418539,-0.3151117,0.575822,0.46653764,-0.29143638,0.568409,0.45954153,-0.26936759,0.561669,0.51796546,-0.38204685,0.594303,0.50303962,-0.32902695,0.584591,0.49926338,-0.31635643,0.580129,0.49603817,-0.30537265,0.576192
0.47211443,-0.45413787,0.594004,0.46334611,-0.40485193,0.588587,0.45068691,-0.4387968,0.591072,0.41836537,-0.4069098,0.5827,0.38256869,-0.37616468,0.565136,0.37261847,-0.35969426,0.565733,0.42760013,-0.35510372,0.581089,0.41191827,-0.30863476,0.568448,0.40534384,-0.29205657,0.562128,0.4047429,-0.27697167,0.556382,0.45312308,-0.35564987,0.583427,0.43585513,-0.30402243,0.569272,0.42617286,-0.2751424,0.561014,0.41931821,-0.25463597,0.555116,0.47510652,-0.35965824,0.585937,0.46091753,-0.30585044,0.573236,0.45396218,-0.27904959,0.566738,0.44770671,-0.25466643,0.560831,0.50305891,-0.3711587,0.589867,0.4925963,-0.31965829,0.5825,0.49031235,-0.30174594,0.579115,0.48831531,-0.28542881,0.576128
0.46200755,-0.44307698,0.589228,0.45008936,-0.38719779,0.585433,0.43829553,-0.42617097,0.585442,0.40387606,-0.39254522,0.577172,0.37092446,-0.36310464,0.560253,0.36094287,-0.34713736,0.560659,0.41675757,-0.34018733,0.577925,0.39988425,-0.29392512,0.566633,0.39313423,-0.27362542,0.560987,0.38694079,-0.25480983,0.555855,0.44312767,-0.3415767,0.581819,0.42748506,-0.2903815,0.569532,0.41985802,-0.26251391,0.562364,0.41438439,-0.24233102,0.557244,0.46552247,-0.34615771,0.585435,0.44994861,-0.2928543,0.574063,0.44481759,-0.26967175,0.568245,0.44013439,-0.24793492,0.562956,0.49337848,-0.35803595,0.590346,0.47921657,-0.30553681,0.57997,0.47810461,-0.29084093,0.575202,0.47767584,-0.27889923,0.570996
0.4416533,-0.42160122,0.593085,0.43398914,-0.37364276,0.583852,0.41876146,-0.40687014,0.588887,0.387685,-0.37933611,0.577751,0.3532015,-0.34806609,0.556263,0.34146205,-0.32926913,0.548995,0.40076962,-0.32272114,0.572115,0.37908924,-0.27386422,0.554864,0.37014274,-0.25804085,0.546239,0.36191802,-0.24330756,0.538399,0.42663404,-0.32505891,0.575058,0.40928301,-0.27513636,0.556461,0.39928126,-0.24644108,0.545613,0.39211909,-0.22573937,0.537864,0.44885982,-0.33070563,0.578477,0.43712471,-0.28342303,0.567747,0.43112011,-0.25922694,0.562257,0.42585175,-0.23761921,0.557266,0.47691833,-0.34440702,0.584181,0.46253096,-0.29849138,0.568879,0.4559226,-0.2774401,0.561848,0.45009279,-0.2588902,0.555644
0.43043226,-0.41842245,0.583611,0.4220439,-0.37581501,0.578678,0.40930353,-0.40490559,0.58166,0.37754405,-0.38010349,0.575651,0.34558284,-0.34695594,0.554677,0.33921846,-0.32909776,0.550417,0.39337772,-0.32696293,0.572788,0.37303512,-0.28009721,0.560019,0.36292519,-0.25687348,0.553635,0.35545675,-0.24753687,0.547831,0.41806994,-0.3286756,0.57398,0.4028517,-0.27693102,0.56022,0.39388582,-0.24938992,0.552194,0.38743851,-0.22940499,0.54646,0.43897866,-0.33360784,0.575494,0.422767,-0.27810343,0.56372,0.41457356,-0.25109531,0.557697,0.40708113,-0.22625819,0.552221,0.46487258,-0.34615171,0.578178,0.45389346,-0.2907771,0.571667,0.44976371,-0.27020545,0.568675,0.44658703,-0.25551703,0.566035
0.43394488,-0.41953337,0.586997,0.42529353,-0.37138208,0.577784,0.41156922,-0.40563101,0.583907,0.38284638,-0.37965882,0.576818,0.34889831,-0.34785138,0.555354,0.3384226,-0.32996347,0.551006,0.38953569,-0.32225606,0.567503,0.37029989,-0.27723722,0.557697,0.3606871,-0.25685844,0.552794,0.34956246,-0.24016661,0.548337,0.41429799,-0.32323745,0.56901,0.3938482,-0.27067625,0.550593,0.37879963,-0.24230423,0.539851,0.36969659,-0.22503716,0.532177,0.43580153,-0.32440383,0.571244,0.4124417,-0.26887368,0.554575,0.40084489,-0.24347983,0.546046,0.39029691,-0.22066017,0.538293,0.46373625,-0.33588432,0.575568,0.44575429,-0.27908646,0.566172,0.43889534,-0.26014271,0.561854,0.43270349,-0.24274785,0.558044
0.41348194,-0.4087358,0.57493,0.40020706,-0.35561771,0.568104,0.38428214,-0.38760006,0.571073,0.35583161,-0.36161135,0.56397,0.3234013,-0.33098561,0.544216,0.31405148,-0.31510039,0.54558,0.36742326,-0.30636618,0.558446,0.34644835,-0.26109947,0.543804,0.33602367,-0.23991824,0.536483,0.32645288,-0.22037574,0.529827,0.39346732,-0.30829593,0.561604,0.37610496,-0.25620742,0.546079,0.36600645,-0.22601963,0.537023,0.36310392,-0.20699965,0.536908,0.41577184,-0.31347042,0.56494,0.39565164,-0.25726854,0.550504,0.38559939,-0.22984764,0.543117,0.37683142,-0.20690871,0.536403,0.44374677,-0.32638016,0.570095,0.43025248,-0.26778244,0.558794,0.42580449,-0.24927105,0.553601,0.42380404,-0.23556943,0.54902
0.40948276,-0.396786,0.574656,0.39510669,-0.34634791,0.568192,0.38650367,-0.3859178,0.572423,0.35714133,-0.36223608,0.567772,0.32037679,-0.33123935,0.548179,0.31239634,-0.31655427,0.548924,0.35444087,-0.30492048,0.560893,0.33570414,-0.25963226,0.547082,0.32629093,-0.23681994,0.540176,0.31770626,-0.21597833,0.533898,0.37816387,-0.3003506,0.562035,0.35715234,-0.24913614,0.54674,0.34454704,-0.22454318,0.537818,0.33553916,-0.20866747,0.531445,0.39926449,-0.29998353,0.563672,0.38301981,-0.2377618,0.550102,0.37392359,-0.21957413,0.543159,0.36538315,-0.20207204,0.536848,0.4273214,-0.30598922,0.566787,0.41642283,-0.24955059,0.557582,0.41086706,-0.22810107,0.553353,0.40681455,-0.22450117,0.549622
0.39546259,-0.38427108,0.565609,0.37485783,-0.33684019,0.559916,0.36206469,-0.37110913,0.563003,0.33388814,-0.34667291,0.55997,0.30165192,-0.31632966,0.541323,0.2915511,-0.29860093,0.538664,0.33960323,-0.29121724,0.552654,0.32023995,-0.24421401,0.539502,0.31036293,-0.22541999,0.532925,0.30121914,-0.20789719,0.526947,0.36449259,-0.29008148,0.554493,0.34493626,-0.23968387,0.540168,0.33342801,-0.21219765,0.531812,0.32511814,-0.19221794,0.525844,0.38603114,-0.29262155,0.556621,0.36695046,-0.23160866,0.54367,0.35778006,-0.20992902,0.537045,0.34934926,-0.19032307,0.531021,0.41356967,-0.30222101,0.56016,0.40211189,-0.24446673,0.549916,0.39709733,-0.22230444,0.545209,0.3971875,-0.21988579,0.541056
0.38040863,-0.37736662,0.563266,0.36679855,-0.32927148,0.558068,0.35815923,-0.36707641,0.561958,0.32508826,-0.34137456,0.55798,0.29108423,-0.31280491,0.538581,0.27861993,-0.29542252,0.534961,0.33211119,-0.285525,0.552835,0.3105618,-0.23913441,0.539935,0.29982851,-0.21642842,0.533485,0.29005308,-0.19573519,0.527622,0.35625612,-0.28327774,0.553117,0.33554392,-0.2322616,0.539059,0.3236415,-0.2032745,0.530859,0.31511716,-0.18248451,0.525002,0.37692765,-0.28486622,0.55391,0.35356706,-0.22478078,0.541279,0.34543894,-0.20543077,0.534817,0.3383967,-0.18880177,0.528942,0.40308279,-0.29316929,0.555807,0.38335292,-0.23756685,0.54474,0.37523311,-0.21385474,0.539655,0.36795102,-0.19237652,0.535168
0.3751129,-0.36816931,0.563283,0.35976358,-0.31667179,0.556483,0.35269162,-0.35828656,0.562009,0.31637324,-0.33064776,0.555396,0.28213646,-0.30592731,0.539133,0.26772418,-0.28977339,0.536614,0.32338729,-0.273139,0.550207,0.29871394,-0.22844603,0.535641,0.28586716,-0.2107513,0.528358,0.27393052,-0.19432822,0.521737,0.34651921,-0.26979085,0.550007,0.32118986,-0.21935031,0.534122,0.30561737,-0.19294841,0.524856,0.29435201,-0.17376911,0.518237,0.36683112,-0.27051575,0.550574,0.34357531,-0.22064171,0.536348,0.33127514,-0.1965684,0.52907,0.31998446,-0.17438439,0.522453,0.3933793,-0.27798932,0.552512,0.37244845,-0.23022284,0.539924,0.36284787,-0.20833321,0.53414,0.35414996,-0.19184712,0.529037
0.37408097,-0.36632248,0.563363,0.35929605,-0.31671868,0.556612,0.35137024,-0.35620731,0.561697,0.31585382,-0.33060189,0.555387,0.28140417,-0.30529711,0.537451,0.26677013,-0.28879555,0.534128,0.32267014,-0.27297707,0.549858,0.29788832,-0.2289102,0.535369,0.28508942,-0.21176463,0.528124,0.27318242,-0.19583443,0.521538,0.34609377,-0.26989161,0.550183,0.32081743,-0.21950459,0.534363,0.30526657,-0.19312925,0.525135,0.29401576,-0.17396754,0.518543,0.36667555,-0.2708266,0.551178,0.34363263,-0.22069754,0.537003,0.33141343,-0.19641213,0.52975,0.32021692,-0.17408583,0.523157,0.39356868,-0.27854575,0.553602,0.37259472,-0.23071614,0.540968,0.36297567,-0.20879972,0.535164,0.354253,-0.19229402,0.530042
0.36200435,-0.35656032,0.556778,0.33991279,-0.30720001,0.551072,0.32820497,-0.342193,0.555851,0.29609424,-0.3180292,0.549363,0.2634605,-0.29160298,0.533397,0.24999536,-0.27390074,0.529577,0.30752898,-0.26299342,0.545991,0.28058347,-0.22105673,0.532609,0.26690687,-0.19985919,0.525918,0.25436051,-0.18038358,0.519835,0.33023762,-0.2605946,0.545638,0.30648824,-0.21110051,0.530988,0.29155088,-0.18403605,0.522442,0.28019062,-0.16789038,0.516338,0.34998377,-0.26205647,0.545963,0.32828495,-0.21224101,0.532851,0.31663555,-0.18744291,0.526142,0.30544222,-0.16586684,0.520044,0.37542208,-0.27036951,0.547412,0.35962696,-0.22317567,0.539012,0.35241708,-0.2016965,0.535152,0.34466241,-0.18581065,0.531746
0.35886747,-0.35495867,0.556158,0.34001734,-0.30643092,0.55072,0.32842271,-0.34133487,0.555212,0.29632385,-0.31756263,0.549003,0.26358161,-0.29135511,0.533093,0.24995138,-0.27369429,0.529185,0.30739233,-0.26256773,0.545796,0.28030061,-0.22087455,0.532674,0.26654217,-0.19978673,0.526114,0.25391502,-0.18040319,0.52015,0.33013288,-0.26003531,0.545541,0.3062032,-0.21076591,0.53118,0.29116886,-0.18380964,0.522803,0.27976266,-0.16772946,0.51682,0.34991868,-0.26136594,0.545917,0.32801913,-0.21175385,0.533061,0.31643544,-0.18682251,0.526483,0.30537073,-0.16485949,0.520503,0.3754249,-0.26948644,0.547376,0.35926296,-0.22237416,0.538963,0.35188646,-0.20093284,0.535097,0.34401406,-0.18507241,0.531687
0.34300718,-0.34859719,0.552298,0.32599675,-0.30131674,0.547068,0.32302002,-0.33873399,0.55307,0.28319933,-0.3127792,0.548225,0.25285362,-0.28920283,0.537211,0.24218938,-0.27437866,0.539234,0.2972675,-0.25723995,0.544524,0.26869708,-0.21560696,0.531952,0.25362627,-0.19557721,0.525667,0.23973608,-0.17709047,0.519952,0.31794528,-0.25453402,0.542088,0.29359597,-0.20560025,0.527949,0.27818041,-0.17805782,0.519701,0.26704737,-0.15811113,0.513809,0.33588494,-0.25571707,0.540646,0.31057743,-0.20721629,0.528481,0.29700608,-0.18294325,0.522257,0.28367584,-0.16176855,0.516599,0.35894571,-0.26369573,0.539955,0.34387767,-0.2120454,0.532137,0.33160392,-0.19458477,0.528545,0.32034412,-0.17848547,0.525376
0.34063058,-0.34551926,0.551152,0.32442476,-0.29694173,0.54538,0.32099214,-0.33618898,0.552518,0.28240795,-0.31129359,0.547555,0.24944442,-0.28766368,0.532791,0.22975795,-0.26982012,0.524013,0.2918491,-0.25153737,0.543241,0.26030694,-0.2110409,0.530281,0.24418569,-0.19085588,0.523801,0.22940381,-0.17233421,0.51791,0.31191564,-0.24703534,0.539883,0.28392312,-0.19939751,0.525121,0.2667852,-0.1721436,0.51651,0.2539298,-0.15316021,0.510359,0.32957487,-0.24672174,0.53774,0.30285066,-0.19851585,0.524998,0.28729659,-0.17589418,0.518479,0.27681816,-0.15932463,0.512553,0.35276502,-0.25285832,0.536338,0.3320622,-0.19888135,0.525147,0.31846565,-0.18031157,0.520006,0.30607283,-0.16329086,0.515469
0.33044895,-0.34269355,0.55209,0.31173891,-0.29662966,0.545527,0.3103704,-0.33208604,0.552122,0.26827403,-0.30703748,0.544352,0.23869954,-0.28477022,0.535101,0.22495475,-0.26692504,0.531648,0.28079538,-0.25121338,0.540833,0.25614324,-0.20960665,0.5281,0.2409921,-0.18903824,0.521734,0.22708862,-0.17014564,0.515947,0.30174076,-0.2487812,0.538565,0.28139484,-0.19854448,0.523936,0.26467454,-0.17212469,0.515403,0.25207629,-0.15384101,0.509307,0.31988908,-0.25015626,0.537194,0.29561349,-0.20021253,0.523016,0.28409177,-0.17517233,0.515762,0.26952921,-0.15594109,0.509168,0.34316588,-0.25829894,0.536499,0.32725501,-0.21148465,0.525487,0.31721691,-0.19232154,0.520427,0.31142905,-0.17521802,0.515963
0.33608443,-0.34201095,0.549958,0.32070516,-0.29011688,0.543662,0.3136096,-0.33111914,0.550002,0.2803074,-0.30698633,0.544957,0.249229,-0.28711463,0.534193,0.23213691,-0.26984407,0.531474,0.27944888,-0.24995242,0.539156,0.25148003,-0.2078499,0.52606,0.23875707,-0.1877876,0.519513,0.22500677,-0.16889523,0.51356,0.29940186,-0.24192109,0.536952,0.27285243,-0.19303974,0.52213,0.25565863,-0.16681499,0.513483,0.24830467,-0.15193326,0.507307,0.31769227,-0.23883112,0.535609,0.29042582,-0.18935845,0.520868,0.27650771,-0.16412142,0.513326,0.26472124,-0.15120208,0.50647,0.34233669,-0.24117147,0.534901,0.31802139,-0.19555554,0.521739,0.30661777,-0.17490697,0.515692,0.29654825,-0.15667028,0.510356
0.32767732,-0.33787525,0.549011,0.30811324,-0.29237295,0.542576,0.29709787,-0.32696503,0.548166,0.26071752,-0.29963118,0.539135,0.23060477,-0.27709579,0.529242,0.22025439,-0.2626999,0.527758,0.27580498,-0.24679133,0.536945,0.24745332,-0.20482045,0.523848,0.23053346,-0.18174602,0.517299,0.22095039,-0.16552857,0.511346,0.29727751,-0.24191157,0.535813,0.27183654,-0.19253646,0.52098,0.25509197,-0.16650935,0.512328,0.24651847,-0.15100756,0.506148,0.31618807,-0.24112273,0.535366,0.289148,-0.19536567,0.521223,0.27555809,-0.17119686,0.513987,0.26433032,-0.15096092,0.507409,0.33924087,-0.25129025,0.535752,0.31618896,-0.20429774,0.52133,0.30552899,-0.18307589,0.514703,0.29797156,-0.16063342,0.508856
0.32566381,-0.33740733,0.548827,0.30738658,-0.2914111,0.542442,0.29624978,-0.32610288,0.547851,0.2595574,-0.29829791,0.536736,0.23034813,-0.27678741,0.528653,0.21887068,-0.2615097,0.526899,0.27495804,-0.24608537,0.536611,0.2465122,-0.20411044,0.523551,0.23040957,-0.18164835,0.517021,0.21991422,-0.16462446,0.511085,0.29667327,-0.24199258,0.53562,0.27165779,-0.19248193,0.520903,0.25508983,-0.16652941,0.512318,0.24580096,-0.15066954,0.506186,0.31568223,-0.24188397,0.535278,0.28896937,-0.19524498,0.520901,0.27532113,-0.17104964,0.513545,0.26360369,-0.15053696,0.506858,0.33925226,-0.25129869,0.53577,0.31615924,-0.20427854,0.521281,0.30548209,-0.18304779,0.514624,0.29745391,-0.16156519,0.50875
0.3267478,-0.33745438,0.550038,0.31139582,-0.28878594,0.543194,0.30511542,-0.32703927,0.548604,0.26863801,-0.29902625,0.536835,0.23803441,-0.28139645,0.531228,0.22247713,-0.26332932,0.528104,0.27606445,-0.24664338,0.536478,0.24728778,-0.2045373,0.522652,0.23590184,-0.18628919,0.515739,0.22200895,-0.16778826,0.509454,0.29739423,-0.24181759,0.535887,0.27107571,-0.19343651,0.520627,0.25415064,-0.167259,0.511725,0.24295185,-0.15061302,0.505366,0.31664654,-0.24161091,0.535905,0.28963426,-0.19299848,0.520848,0.27515141,-0.17036538,0.513145,0.2638278,-0.15125923,0.506142,0.34370961,-0.24347451,0.536886,0.31717399,-0.20104577,0.521908,0.30577563,-0.17995693,0.515027,0.29787485,-0.16259141,0.512611
0.32676983,-0.33721652,0.55027,0.31147479,-0.28983205,0.543177,0.30464073,-0.32648727,0.548159,0.26670809,-0.29830869,0.535506,0.23676458,-0.27987773,0.529424,0.22213302,-0.26310991,0.52753,0.27576835,-0.24603608,0.53545,0.24858641,-0.20540214,0.521133,0.23343904,-0.18524422,0.513974,0.22033897,-0.16661232,0.507467,0.29768248,-0.2416351,0.535603,0.27092592,-0.19384722,0.519944,0.25389508,-0.16796845,0.51081,0.24375019,-0.15048809,0.504286,0.31730725,-0.24167647,0.53625,0.29102609,-0.19406381,0.520717,0.2800199,-0.17169327,0.51277,0.26405547,-0.15076648,0.505546,0.34455267,-0.24510736,0.538018,0.31789935,-0.20285069,0.522599,0.30648438,-0.18172274,0.515515,0.29793955,-0.16204545,0.51031
0.33031957,-0.33614415,0.545846,0.3178352,-0.28787109,0.539711,0.30958034,-0.32560233,0.54342,0.27317922,-0.29839748,0.530523,0.24391335,-0.27611908,0.522627,0.23068075,-0.26342915,0.524895,0.28166783,-0.24888486,0.532292,0.2547354,-0.20554128,0.518629,0.23986842,-0.18509779,0.511798,0.22817036,-0.16982704,0.505588,0.30626316,-0.24395096,0.53316,0.2761161,-0.19598407,0.518386,0.25754399,-0.16836763,0.509768,0.24384065,-0.15015685,0.503612,0.32602073,-0.24405427,0.534326,0.29524317,-0.19324207,0.519596,0.28107303,-0.17085857,0.51206,0.26801062,-0.1513507,0.505209,0.35197458,-0.25037688,0.536577,0.33903031,-0.20853504,0.528104,0.32822002,-0.19358658,0.524211,0.31833231,-0.17983328,0.520776
0.32695484,-0.33517562,0.547065,0.31873429,-0.2878087,0.538542,0.3081165,-0.32400656,0.543504,0.27303435,-0.29643455,0.528853,0.24309818,-0.27482005,0.520359,0.22988255,-0.26156801,0.522246,0.28060627,-0.24120119,0.528002,0.25316573,-0.19555135,0.511875,0.23805005,-0.17792774,0.503812,0.22591869,-0.16708064,0.496482,0.30351123,-0.24026074,0.529442,0.27907094,-0.18688241,0.512074,0.2631932,-0.16654214,0.501943,0.25178856,-0.15300299,0.494707,0.32469836,-0.24149041,0.531253,0.29638618,-0.18987228,0.513889,0.28164039,-0.16704235,0.505005,0.27068412,-0.14795876,0.496929,0.35160704,-0.24850716,0.534608,0.33113029,-0.19915152,0.522321,0.32169208,-0.18324175,0.516676,0.31226898,-0.17110381,0.511694
0.32809956,-0.32969805,0.539386,0.31894398,-0.28903225,0.534685,0.30541555,-0.32024489,0.537445,0.27306695,-0.29684342,0.525374,0.24501386,-0.27529911,0.518715,0.23219435,-0.25599313,0.508936,0.28683475,-0.24747438,0.528899,0.26404756,-0.20231054,0.516641,0.25242604,-0.17999088,0.510511,0.24179666,-0.15954868,0.504939,0.31090983,-0.2449296,0.529666,0.28865689,-0.1947828,0.516423,0.27740782,-0.16670726,0.51179,0.26933316,-0.1465339,0.50848,0.33161398,-0.24604027,0.530642,0.31614367,-0.19904265,0.526332,0.30823271,-0.17501151,0.524127,0.30104307,-0.15317336,0.522122,0.35801663,-0.25352447,0.532465,0.34000467,-0.20657776,0.519672,0.33173983,-0.18505301,0.513795,0.32445272,-0.16608499,0.508609
0.34067148,-0.33660281,0.545312,0.34223922,-0.29449083,0.536584,0.32287606,-0.32802174,0.54188,0.3016457,-0.30483961,0.535953,0.27055702,-0.28027316,0.523179,0.25809595,-0.26365071,0.522313,0.3035492,-0.24855929,0.526054,0.27891553,-0.2077029,0.519946,0.26615414,-0.18744706,0.516892,0.25026734,-0.16579627,0.514116,0.32806984,-0.24689962,0.527265,0.30449776,-0.19471,0.509721,0.29042668,-0.16951912,0.499486,0.28019572,-0.15104285,0.492176,0.34929256,-0.24882402,0.528903,0.32200722,-0.19837406,0.512128,0.30801255,-0.17455903,0.503546,0.29516917,-0.15262093,0.495744,0.3765107,-0.25741859,0.532081,0.35951004,-0.21591744,0.529678,0.35170714,-0.19686948,0.528575,0.34482563,-0.18007255,0.527601
0.35190647,-0.33954524,0.546593,0.34536051,-0.29390931,0.537228,0.33541883,-0.32790683,0.544082,0.30432147,-0.30380231,0.537234,0.27525711,-0.27675067,0.522999,0.26015666,-0.2569358,0.514572,0.31099206,-0.24590786,0.527365,0.290549,-0.19901678,0.514223,0.27908346,-0.17763959,0.507653,0.26892009,-0.1642131,0.501679,0.33482761,-0.24435038,0.527229,0.31488388,-0.19339327,0.51383,0.30363582,-0.16396872,0.506612,0.29562002,-0.14296982,0.501483,0.35536384,-0.24642273,0.527806,0.3388176,-0.19859653,0.521596,0.33006422,-0.1742223,0.518418,0.32207603,-0.15195606,0.51553,0.3815925,-0.25529571,0.529808,0.3662471,-0.20880271,0.519436,0.35943596,-0.18760755,0.515001,0.35344774,-0.16891986,0.511118
0.37120894,-0.33855442,0.546904,0.3690356,-0.29287576,0.537057,0.35820812,-0.32649627,0.543394,0.32843375,-0.30167256,0.536631,0.29686406,-0.2746549,0.519316,0.28226211,-0.2541056,0.507784,0.33099138,-0.24509464,0.525621,0.31087177,-0.19878728,0.51363,0.29992996,-0.1776333,0.507635,0.29054494,-0.16437872,0.502185,0.35547048,-0.24403244,0.526543,0.33174484,-0.19254074,0.507885,0.31790661,-0.162511,0.497001,0.30802323,-0.14106476,0.489227,0.37663166,-0.24652591,0.528027,0.359996,-0.19870314,0.521876,0.35131643,-0.17432715,0.51873,0.34339409,-0.15205598,0.515869,0.40374291,-0.25595538,0.531177,0.38719173,-0.20873196,0.51926,0.38034231,-0.18752522,0.514775,0.37432001,-0.16882964,0.510845
0.38823832,-0.33526058,0.547014,0.38120071,-0.28536764,0.535328,0.36640074,-0.32388128,0.545671,0.33989976,-0.29670526,0.536466,0.30622846,-0.27254415,0.519399,0.28555234,-0.25371817,0.506882,0.34502646,-0.23724937,0.525216,0.3221341,-0.19064405,0.510862,0.30798648,-0.17401625,0.503685,0.29581726,-0.16558358,0.49716,0.36681779,-0.23576307,0.522851,0.34105512,-0.18515388,0.502935,0.32598963,-0.15550106,0.491317,0.31521076,-0.13425641,0.483019,0.38583755,-0.23795885,0.521764,0.36679268,-0.19094618,0.515652,0.35569093,-0.16770701,0.512525,0.34226041,-0.14833311,0.509682,0.41053731,-0.24714054,0.522108,0.38413658,-0.20018818,0.502996,0.37232254,-0.17881377,0.494613,0.3619563,-0.15998432,0.487292
0.3856934,-0.34569598,0.548426,0.38445448,-0.30790044,0.545599,0.36355855,-0.33322013,0.546187,0.34352074,-0.30978405,0.540014,0.3125967,-0.2779811,0.526087,0.30846901,-0.26540746,0.530901,0.35532456,-0.26033878,0.540805,0.33825062,-0.21476057,0.529956,0.32968868,-0.19186907,0.524532,0.32185561,-0.18318489,0.5196,0.3800478,-0.26137328,0.54258,0.36897712,-0.21286055,0.535381,0.36072147,-0.18744066,0.531182,0.35468394,-0.16865987,0.528183,0.40096608,-0.26543371,0.544247,0.40027915,-0.22377843,0.551397,0.40037249,-0.20276032,0.555659,0.40045834,-0.18365308,0.559535,0.42686205,-0.27651073,0.546633,0.42691827,-0.23463045,0.547108,0.42675602,-0.21504687,0.547326,0.42661232,-0.19774846,0.547518
0.44581398,-0.36071589,0.583235,0.4288577,-0.31168773,0.568898,0.41639435,-0.34496578,0.572131,0.3829795,-0.31624329,0.551815,0.35011703,-0.28856236,0.529503,0.33389406,-0.26882091,0.521374,0.38120107,-0.25848475,0.544898,0.36582478,-0.21722223,0.543163,0.35812241,-0.19654969,0.542296,0.35485684,-0.1845695,0.541507,0.41087838,-0.26017369,0.553591,0.39447644,-0.2110501,0.529556,0.38502717,-0.18230229,0.515536,0.37828655,-0.16154986,0.505521,0.43691534,-0.26506809,0.561796,0.41753649,-0.20961578,0.539723,0.41273284,-0.19484154,0.52843,0.40875313,-0.20290895,0.518164,0.4708627,-0.27776834,0.573591,0.44984002,-0.22572742,0.552913,0.44444283,-0.20869067,0.543413,0.44108054,-0.199511,0.53503
0.4467621,-0.35456622,0.582969,0.43585897,-0.29418401,0.564123,0.42160859,-0.3283149,0.573494,0.39225933,-0.30313132,0.553783,0.35701364,-0.27352748,0.536559,0.34141212,-0.25239189,0.524525,0.39624345,-0.23605816,0.538854,0.36874266,-0.22397356,0.511664,0.35483204,-0.21792756,0.498069,0.35983591,-0.23821304,0.504939,0.42273126,-0.2401142,0.544001,0.39599443,-0.19629909,0.515685,0.38033611,-0.17033272,0.499167,0.36689491,-0.15367771,0.487369,0.44610107,-0.24714897,0.549621,0.41774375,-0.19596853,0.520933,0.40325132,-0.16990012,0.506256,0.3896019,-0.15680793,0.492912,0.47681682,-0.26292006,0.558967,0.44006105,-0.239867,0.53076,0.43330272,-0.25317953,0.517801,0.44306516,-0.27256568,0.523212
0.45353641,-0.33925583,0.560804,0.44236371,-0.29222539,0.550996,0.42639233,-0.32281124,0.548264,0.39093506,-0.29039183,0.530577,0.36286061,-0.26604825,0.520884,0.35067053,-0.25152397,0.522143,0.40122807,-0.23856749,0.528516,0.37087287,-0.19075237,0.505662,0.35578618,-0.16710686,0.494235,0.35497898,-0.15557951,0.483847,0.4304722,-0.24248754,0.540524,0.41769852,-0.19102443,0.521145,0.41026182,-0.1607614,0.50984,0.40737324,-0.14035485,0.501765,0.45538549,-0.24912122,0.551124,0.43936292,-0.19726603,0.537288,0.43460349,-0.17132434,0.530208,0.44001545,-0.15663329,0.523773,0.48672645,-0.26356288,0.565139,0.47294004,-0.21555894,0.551601,0.47531111,-0.19676332,0.54538,0.4948478,-0.20048326,0.554352
0.50427861,-0.35107008,0.580926,0.48469817,-0.30532062,0.572004,0.47582447,-0.3361398,0.566994,0.43939414,-0.30366323,0.547177,0.40588501,-0.28023421,0.533636,0.39040417,-0.26539563,0.532162,0.43619316,-0.2547183,0.548459,0.41302309,-0.20623024,0.52557,0.40205547,-0.18221022,0.514126,0.39839927,-0.1629594,0.503722,0.46405308,-0.25736622,0.562477,0.4470311,-0.20548601,0.544164,0.44362588,-0.17728855,0.533481,0.44580676,-0.1600104,0.52585,0.4883825,-0.26281729,0.574667,0.50700844,-0.23994707,0.556856,0.5058531,-0.25905259,0.547743,0.5027469,-0.27806903,0.556863,0.52013913,-0.27556812,0.590452,0.51444861,-0.23026896,0.581292,0.52596228,-0.22226101,0.577083,0.54881297,-0.22366486,0.586369
0.51338532,-0.35243644,0.583486,0.50130997,-0.30836274,0.577294,0.4865118,-0.33867658,0.571689,0.45821452,-0.30427493,0.551737,0.42309513,-0.27856282,0.535377,0.4101799,-0.26967004,0.540341,0.45495034,-0.26016125,0.558345,0.44208642,-0.21142439,0.543214,0.43954198,-0.18816801,0.535648,0.44136259,-0.16926043,0.52877,0.4813985,-0.26230117,0.570683,0.4650963,-0.21116933,0.555096,0.46678449,-0.1855588,0.546003,0.47255265,-0.17096164,0.539508,0.50443946,-0.26721562,0.581289,0.49493753,-0.21654616,0.564301,0.49009614,-0.19046218,0.55561,0.48791793,-0.16740712,0.550202,0.5344626,-0.27905489,0.594804,0.53101086,-0.24581418,0.576097,0.53997409,-0.2537952,0.567502,0.56235667,-0.26766551,0.575009
0.53235607,-0.367093,0.594187,0.52535672,-0.32883775,0.587259,0.50430558,-0.34972854,0.579959,0.47658857,-0.31735876,0.558345,0.44915409,-0.29114438,0.548058,0.43914124,-0.27986979,0.5535,0.4860952,-0.27261441,0.564795,0.47809939,-0.22434236,0.551105,0.48058737,-0.20298752,0.54426,0.4865824,-0.18677502,0.538038,0.51522126,-0.28017775,0.579861,0.51949377,-0.23425726,0.563753,0.52226776,-0.20689305,0.554357,0.52438743,-0.18706221,0.547645,0.53991174,-0.28972126,0.592766,0.53275723,-0.23804936,0.576381,0.5304416,-0.21210044,0.567998,0.53263345,-0.19000073,0.564784,0.57077103,-0.30747881,0.609125,0.55687425,-0.25943109,0.58949,0.55868814,-0.24248746,0.580468,0.57392783,-0.23281264,0.586282
0.5317769,-0.36587706,0.592662,0.52503263,-0.31984,0.586902,0.50634425,-0.34948556,0.580991,0.47798033,-0.31072898,0.558031,0.44674079,-0.28815673,0.545915,0.43756104,-0.27771837,0.552661,0.48895801,-0.26590454,0.568421,0.47463367,-0.21684184,0.551956,0.4766685,-0.19696571,0.543723,0.48238863,-0.18293961,0.536239,0.51622364,-0.27198162,0.580753,0.51510372,-0.22299624,0.565622,0.5160498,-0.19474666,0.556795,0.5177766,-0.17484899,0.550491,0.53919535,-0.28024461,0.591322,0.53289429,-0.22916552,0.574328,0.53126227,-0.20362038,0.565633,0.53334535,-0.18587605,0.563495,0.56770719,-0.29631449,0.604732,0.56962316,-0.26551648,0.586425,0.5752741,-0.27664463,0.578014,0.59537,-0.29379909,0.585658
0.54646337,-0.36727639,0.596256,0.54635763,-0.32067197,0.589066,0.53052543,-0.34834326,0.582107,0.50362137,-0.31012109,0.558818,0.47020614,-0.28284373,0.542731,0.4587102,-0.27036868,0.54604,0.50778864,-0.2650399,0.56651,0.49474769,-0.21618893,0.550018,0.49956835,-0.19804093,0.541772,0.50619279,-0.18375664,0.534276,0.53577272,-0.27202589,0.581388,0.53719901,-0.22382256,0.564981,0.53848473,-0.1954371,0.555409,0.54044717,-0.17546802,0.548573,0.55951015,-0.28109391,0.594158,0.56428422,-0.23414876,0.576608,0.57056684,-0.21290131,0.567628,0.57967732,-0.19735892,0.559465,0.58922726,-0.29825629,0.610393,0.59956877,-0.29810986,0.590526,0.58414303,-0.31212991,0.581398,0.58202636,-0.32979639,0.587241
0.58341848,-0.3618629,0.598717,0.56635498,-0.31577027,0.590285,0.55540819,-0.34430119,0.582601,0.52361938,-0.3063166,0.557437,0.49019681,-0.2826248,0.543149,0.47615751,-0.2707935,0.544826,0.52008779,-0.26180063,0.564418,0.50749483,-0.21430534,0.549502,0.50739971,-0.19224467,0.542043,0.50740402,-0.17193617,0.535263,0.54832509,-0.2674326,0.581282,0.55392991,-0.22093221,0.563927,0.55742693,-0.19340764,0.553803,0.56003691,-0.1735516,0.546572,0.57281271,-0.2753636,0.595776,0.56910323,-0.22691238,0.573955,0.56730687,-0.2018958,0.56279,0.56574063,-0.1790077,0.552641,0.60443715,-0.29114448,0.614241,0.6222996,-0.26980662,0.593253,0.60897292,-0.28138575,0.58361,0.59790449,-0.29352841,0.587726
0.59089834,-0.36098721,0.610582,0.57764776,-0.30894711,0.59833,0.56363377,-0.34446465,0.592666,0.53509555,-0.30743597,0.56381,0.50402105,-0.28401222,0.54451,0.49132998,-0.27205095,0.545362,0.54052065,-0.25859203,0.567489,0.51999577,-0.20971648,0.550717,0.51969134,-0.18744246,0.542331,0.51949717,-0.16698536,0.534707,0.56771861,-0.26090649,0.585249,0.55241656,-0.2067274,0.564236,0.56600915,-0.19377641,0.551978,0.57648135,-0.19533793,0.543223,0.59078727,-0.26613992,0.600761,0.57891547,-0.2145192,0.574295,0.57622879,-0.18923688,0.564075,0.57386444,-0.16603255,0.554784,0.61957748,-0.27874416,0.620975,0.63171346,-0.28455181,0.596718,0.61281191,-0.29598379,0.585573,0.60879984,-0.31138856,0.587573
0.58825077,-0.35882701,0.605889,0.58719665,-0.31365069,0.597197,0.56245399,-0.34068756,0.58685,0.54805487,-0.30049584,0.557852,0.51114047,-0.28110945,0.543415,0.4970107,-0.27170208,0.547532,0.55815087,-0.25551382,0.567559,0.53838143,-0.20781636,0.553339,0.53996782,-0.18537588,0.546229,0.55177461,-0.17305997,0.539766,0.58198287,-0.26437623,0.587918,0.59462303,-0.21863057,0.571553,0.6132132,-0.22059152,0.562007,0.61138089,-0.23625066,0.555189,0.60194468,-0.27504899,0.605306,0.59579145,-0.22391309,0.582411,0.59263513,-0.19776955,0.570697,0.59829807,-0.1765338,0.568155,0.62643194,-0.29422613,0.627258,0.64501277,-0.29774513,0.606799,0.63152598,-0.3110532,0.597398,0.6256505,-0.32702318,0.598087
0.6017435,-0.36452867,0.618245,0.60002224,-0.31382171,0.605082,0.58345376,-0.3443058,0.597362,0.56074656,-0.30800831,0.567298,0.52189293,-0.29232153,0.552766,0.50856951,-0.28885111,0.559237,0.57023386,-0.25933968,0.569945,0.57709167,-0.21469288,0.561793,0.58105293,-0.1924097,0.557717,0.58468149,-0.17208383,0.554012,0.59357106,-0.26449645,0.591028,0.5804355,-0.21455939,0.579185,0.57481568,-0.1850077,0.572277,0.58889675,-0.17383402,0.567342,0.61321671,-0.27214081,0.609342,0.60964604,-0.22259546,0.582635,0.61111531,-0.19844798,0.57212,0.61253226,-0.17636481,0.562561,0.63748528,-0.28775648,0.633025,0.65215267,-0.29363965,0.609386,0.64237892,-0.30523173,0.598525,0.63716106,-0.31926992,0.596076
0.60398437,-0.36406862,0.619634,0.60063315,-0.31341811,0.605718,0.58522561,-0.34397667,0.598569,0.55945288,-0.30826196,0.568171,0.52129932,-0.2919012,0.553907,0.50847977,-0.28775455,0.560603,0.56996862,-0.25865528,0.569813,0.57818141,-0.21443385,0.560891,0.58281486,-0.19239097,0.55643,0.58705613,-0.1722865,0.552374,0.59336617,-0.26372041,0.590861,0.57957983,-0.21358066,0.578403,0.57357663,-0.18394675,0.571135,0.5873581,-0.17271547,0.565944,0.61311892,-0.27131194,0.609202,0.60882922,-0.22156804,0.581839,0.60977173,-0.1972935,0.570854,0.61069607,-0.17511962,0.560869,0.63762209,-0.28690819,0.633021,0.65160867,-0.29260151,0.608799,0.64148737,-0.30408638,0.59767,0.63583753,-0.31793617,0.594862
0.62872898,-0.37221611,0.63546,0.6165639,-0.32801495,0.613979,0.60516311,-0.3560208,0.615847,0.58692755,-0.32701881,0.586128,0.54568062,-0.30103323,0.561777,0.52680966,-0.28933606,0.559213,0.56105962,-0.27322601,0.574373,0.52071908,-0.22915916,0.551038,0.52739704,-0.22496258,0.539371,0.53374425,-0.2211579,0.528765,0.59137218,-0.27483972,0.591044,0.58003961,-0.22310525,0.572999,0.5734518,-0.1927808,0.562473,0.57624104,-0.17128127,0.554954,0.61815163,-0.27976532,0.606339,0.61523911,-0.22967235,0.580556,0.61860274,-0.20581099,0.571924,0.62179059,-0.1839049,0.564076,0.65355347,-0.29260221,0.62759,0.64908493,-0.2969211,0.59575,0.62442516,-0.30701405,0.58112,0.61539622,-0.32130774,0.579732
0.61091772,-0.36394302,0.61778,0.60723405,-0.32119145,0.604501,0.59143192,-0.34923924,0.60368,0.5685262,-0.31554219,0.583129,0.53588957,-0.28363065,0.5633,0.52454255,-0.26596046,0.561713,0.56711975,-0.26379079,0.577594,0.56927731,-0.21801941,0.568615,0.57102651,-0.19525222,0.564126,0.57354754,-0.17472666,0.560045,0.59713694,-0.26874445,0.590323,0.57565569,-0.21346601,0.574361,0.5732494,-0.18800992,0.56505,0.57976437,-0.1734167,0.5584,0.62259641,-0.27630114,0.601771,0.61655724,-0.2273932,0.581512,0.61186679,-0.1979846,0.571147,0.61247737,-0.1755369,0.561724,0.65438215,-0.2919899,0.617284,0.66440032,-0.24850661,0.606778,0.66900579,-0.22852349,0.601951,0.67669341,-0.21307493,0.597692
0.6085078,-0.36465276,0.615834,0.60657691,-0.32032654,0.603724,0.58970975,-0.34848902,0.60225,0.56644478,-0.31457412,0.581977,0.53469506,-0.28278205,0.562469,0.52459618,-0.26456422,0.560573,0.56870072,-0.26386322,0.578298,0.5703128,-0.21812797,0.570148,0.57364509,-0.19588613,0.566074,0.57718024,-0.17564778,0.562369,0.59828237,-0.26906636,0.590795,0.59764427,-0.21896925,0.575098,0.59676165,-0.18843228,0.565941,0.59827694,-0.16799409,0.5594,0.62323368,-0.27679598,0.601967,0.61671181,-0.22679098,0.581685,0.61270866,-0.19848079,0.571308,0.61272954,-0.17578741,0.561874,0.65413899,-0.29261424,0.616987,0.66190273,-0.24883167,0.604301,0.66550909,-0.22864718,0.598473,0.67062439,-0.21195478,0.59333
0.60259423,-0.3616069,0.611434,0.60125506,-0.31644988,0.601656,0.58038903,-0.34580337,0.598469,0.56191806,-0.30905511,0.575932,0.5270324,-0.27771236,0.561189,0.52279106,-0.2620071,0.559408,0.56424432,-0.25966056,0.578678,0.56862456,-0.21606323,0.57072,0.57362956,-0.1950705,0.566741,0.57772861,-0.17504109,0.563123,0.59588666,-0.26690769,0.591216,0.59517222,-0.21809237,0.573855,0.59462353,-0.18811502,0.565172,0.59644764,-0.16779831,0.55897,0.62026809,-0.27762668,0.602251,0.61837755,-0.22777248,0.583368,0.61717025,-0.20183007,0.573707,0.61718477,-0.1784463,0.564925,0.65143201,-0.29794429,0.61678,0.65405742,-0.25182266,0.602374,0.65525088,-0.23066255,0.595756,0.66093892,-0.21159322,0.589916
0.59813273,-0.35994461,0.608423,0.59564083,-0.31416655,0.600402,0.57736727,-0.34398384,0.595759,0.55920959,-0.30454865,0.571338,0.52661565,-0.27697459,0.560508,0.52148012,-0.26004209,0.557946,0.56459199,-0.25855977,0.579066,0.55524394,-0.20997069,0.568424,0.55828577,-0.18891133,0.563103,0.56428689,-0.17243134,0.558266,0.59624738,-0.26721206,0.591839,0.59141263,-0.21622104,0.5748,0.59345203,-0.18782577,0.564861,0.59595855,-0.16897567,0.557762,0.62081243,-0.27814868,0.602937,0.60921272,-0.22461973,0.581817,0.60426277,-0.2003469,0.571011,0.60232688,-0.17768264,0.561188,0.65138357,-0.29878761,0.617295,0.65174364,-0.25203798,0.601483,0.65189474,-0.23058823,0.594217,0.65202213,-0.21167902,0.587807
0.59420781,-0.35665265,0.604143,0.59330151,-0.31458681,0.598088,0.57093817,-0.34042245,0.59324,0.53929566,-0.29776386,0.577586,0.51851279,-0.26565923,0.564899,0.51204829,-0.24351771,0.559021,0.56540778,-0.25578068,0.580335,0.5541058,-0.20824042,0.568856,0.55804051,-0.18839973,0.563116,0.56385598,-0.17212792,0.557899,0.59434307,-0.26569377,0.591624,0.59097321,-0.21422602,0.576572,0.59670863,-0.18842329,0.567791,0.60123684,-0.17096392,0.561519,0.61805733,-0.27742211,0.601357,0.61012812,-0.22405273,0.5835,0.60605405,-0.19963064,0.574363,0.6053651,-0.17503607,0.570183,0.64698233,-0.29734828,0.613811,0.64439139,-0.25105087,0.597393,0.64352154,-0.22953931,0.589849,0.64297567,-0.21063957,0.583193
0.58771239,-0.3543145,0.599294,0.58528233,-0.31107569,0.594316,0.56533425,-0.33699252,0.589482,0.53210954,-0.29881989,0.577038,0.51055328,-0.26695594,0.564304,0.50732373,-0.24394384,0.558126,0.55474759,-0.25371747,0.578682,0.54395531,-0.20601877,0.56664,0.54804126,-0.18737293,0.560618,0.55293524,-0.17137497,0.555145,0.58351298,-0.26411167,0.589002,0.57921279,-0.2142823,0.574645,0.58357718,-0.18337841,0.56627,0.58399019,-0.16710522,0.560287,0.60875402,-0.27520756,0.597859,0.59777502,-0.2230989,0.581886,0.59669138,-0.19757211,0.573714,0.59759465,-0.17409003,0.566285,0.63659661,-0.2941666,0.609117,0.63229191,-0.24648088,0.59353,0.63059301,-0.22470514,0.586368,0.62957871,-0.20569154,0.580049
0.57260486,-0.35154722,0.599561,0.56891657,-0.30293383,0.594398,0.54118073,-0.32591307,0.590972,0.52193398,-0.29075035,0.573644,0.49666717,-0.25960797,0.560709,0.48911853,-0.23831814,0.556,0.5449386,-0.24609203,0.580129,0.54060252,-0.19869294,0.565964,0.54304321,-0.18112193,0.558882,0.54791454,-0.16762376,0.552444,0.57424471,-0.25637119,0.588887,0.57105797,-0.20488367,0.574435,0.57495523,-0.18509033,0.566005,0.58081912,-0.16974977,0.559984,0.59817528,-0.26808504,0.596471,0.59755315,-0.21728668,0.581958,0.59721218,-0.19136975,0.574533,0.59682341,-0.17039155,0.567782,0.62625278,-0.28832647,0.606239,0.62567428,-0.24099214,0.59255,0.62536806,-0.21936748,0.586261,0.62767449,-0.20312744,0.580711
0.5616375,-0.3537068,0.60029,0.56092057,-0.31514353,0.595406,0.53955297,-0.33372329,0.592931,0.51443483,-0.30545815,0.57879,0.48874403,-0.27249578,0.561762,0.48084808,-0.25091296,0.556209,0.53477464,-0.25991795,0.582845,0.530598,-0.21396126,0.574485,0.53405406,-0.19432731,0.570305,0.53740543,-0.1759606,0.566505,0.56307851,-0.26801815,0.590192,0.55950665,-0.2170507,0.576014,0.5574462,-0.18721858,0.567744,0.56067636,-0.17211407,0.561837,0.58632344,-0.27793859,0.596595,0.58554103,-0.22731854,0.58308,0.58624556,-0.20196592,0.576166,0.58693028,-0.1787853,0.56988,0.61391715,-0.29602925,0.604914,0.61632688,-0.25004115,0.592762,0.61744241,-0.2288867,0.587178,0.6184328,-0.21020805,0.582252
0.56143224,-0.35806911,0.601958,0.56012863,-0.31777167,0.597012,0.53596032,-0.34348764,0.59504,0.51616252,-0.30878943,0.584059,0.48948903,-0.27671634,0.57094,0.48311174,-0.25331852,0.561921,0.52880437,-0.26499855,0.584947,0.51718503,-0.2171549,0.570236,0.51550177,-0.19972197,0.562881,0.5143691,-0.18416817,0.556194,0.55761639,-0.27258891,0.591732,0.54926322,-0.22058091,0.577523,0.55026631,-0.19963253,0.569234,0.55126764,-0.18410323,0.563314,0.58160584,-0.28209178,0.597677,0.57482383,-0.23030914,0.582978,0.57411132,-0.20651821,0.575458,0.57359647,-0.1844752,0.568621,0.61256999,-0.29802337,0.60546,0.60140477,-0.25068025,0.589943,0.59712567,-0.22830474,0.582814,0.59717855,-0.21457156,0.576524
0.55411988,-0.36166163,0.600043,0.55367755,-0.31839124,0.596616,0.53410251,-0.34439577,0.596896,0.50263716,-0.31010495,0.584952,0.47756099,-0.27784977,0.567639,0.46780697,-0.25512602,0.558857,0.52665463,-0.26572103,0.590274,0.51061485,-0.21871432,0.578224,0.50711978,-0.20141126,0.572199,0.50400459,-0.1851641,0.566721,0.55217361,-0.27151055,0.592957,0.54566377,-0.22036129,0.580781,0.54527123,-0.19712677,0.573678,0.54517991,-0.17991099,0.568604,0.57316624,-0.27943715,0.595416,0.56581294,-0.22930466,0.582886,0.56264301,-0.20395171,0.576475,0.56014037,-0.18100002,0.570647,0.598173,-0.2950067,0.598829,0.58668278,-0.24699165,0.585184,0.58356322,-0.22752518,0.578915,0.58313189,-0.21800421,0.573383
0.55543075,-0.36369584,0.603923,0.54941885,-0.31761419,0.59784,0.53345016,-0.34526821,0.59902,0.49421856,-0.30790514,0.583165,0.47150088,-0.27859786,0.571861,0.46127455,-0.25855129,0.568585,0.52205663,-0.26449373,0.58742,0.50581905,-0.22186498,0.572159,0.49944501,-0.20173063,0.564528,0.4947862,-0.18259411,0.557591,0.54869877,-0.27067143,0.591344,0.53850516,-0.2209873,0.576194,0.53430619,-0.19313457,0.567356,0.5346734,-0.17526214,0.561044,0.57095389,-0.27899661,0.595019,0.55952932,-0.22779604,0.578999,0.55260037,-0.20539671,0.570803,0.5488845,-0.1851851,0.563352,0.59807271,-0.29524926,0.600255,0.58514105,-0.24570013,0.583713,0.58105902,-0.22596437,0.576113,0.57901013,-0.21644142,0.569406
0.54324216,-0.36418122,0.603247,0.53448488,-0.322231,0.598814,0.51732384,-0.34562041,0.598307,0.48141477,-0.3117546,0.582711,0.45931616,-0.28177846,0.567978,0.44941035,-0.2601658,0.562309,0.51061013,-0.2692972,0.589545,0.50102022,-0.22478855,0.576147,0.49656205,-0.20411289,0.569448,0.4956287,-0.18490857,0.563359,0.53766383,-0.27645237,0.594081,0.53172096,-0.22781549,0.58061,0.5286897,-0.20170285,0.572752,0.52661948,-0.18252527,0.567139,0.56011254,-0.28555346,0.598138,0.5524016,-0.2349226,0.584103,0.54847668,-0.20885271,0.576922,0.54492143,-0.18504995,0.570394,0.58706822,-0.30269061,0.603598,0.57556741,-0.25355181,0.589061,0.57279525,-0.23738072,0.582381,0.57044665,-0.22277146,0.576488
0.53051926,-0.36324107,0.596187,0.52905439,-0.32331664,0.594779,0.50543674,-0.34919541,0.594448,0.47715598,-0.31771155,0.583201,0.45453473,-0.28688063,0.572187,0.44855631,-0.26282455,0.564938,0.50450275,-0.27884624,0.591627,0.49266828,-0.23313348,0.582053,0.48797132,-0.21311509,0.577266,0.48395625,-0.19543695,0.572914,0.52939839,-0.2829919,0.593276,0.5226183,-0.23339882,0.58341,0.51950895,-0.20713409,0.577654,0.51733574,-0.18781889,0.573543,0.55000023,-0.28939783,0.594736,0.54315042,-0.24025581,0.584663,0.53966525,-0.21475887,0.579509,0.53658199,-0.19146256,0.574824,0.57476666,-0.30288858,0.596675,0.56685055,-0.25512326,0.585955,0.56412555,-0.23477467,0.581029,0.56174679,-0.21659543,0.576683
0.52950468,-0.37287376,0.606039,0.52057222,-0.33098762,0.600073,0.50773991,-0.35535896,0.601803,0.47754087,-0.33217913,0.594843,0.45024862,-0.30374288,0.580091,0.43810721,-0.28220618,0.570898,0.4934929,-0.27959135,0.590557,0.48052508,-0.23325745,0.581153,0.47670643,-0.21533503,0.576451,0.47323778,-0.19848354,0.572177,0.519567,-0.28388063,0.593703,0.50865025,-0.2327755,0.578772,0.50229168,-0.20278203,0.570063,0.49775301,-0.1812702,0.563841,0.54118799,-0.2906835,0.59673,0.52882459,-0.23914116,0.581607,0.52421152,-0.21572923,0.57387,0.52086922,-0.19644049,0.566836,0.56718219,-0.3050575,0.601175,0.55616954,-0.25690617,0.586256,0.5520524,-0.23607582,0.579401,0.54844109,-0.21753994,0.573353
0.52653675,-0.37835041,0.611349,0.51324593,-0.33288132,0.603572,0.49894903,-0.36181805,0.606605,0.47260474,-0.33253554,0.598243,0.44553037,-0.30120526,0.580841,0.4369928,-0.28087524,0.571813,0.4843766,-0.28014906,0.592122,0.47052821,-0.23321988,0.581534,0.46602353,-0.21492827,0.576241,0.4619202,-0.19777169,0.571428,0.51051097,-0.28445075,0.595269,0.49785593,-0.23229596,0.578435,0.49096694,-0.20205623,0.569186,0.48604746,-0.18041373,0.562579,0.53230686,-0.29134444,0.598429,0.51821191,-0.23875869,0.581448,0.51197293,-0.21339452,0.572759,0.50673893,-0.19099179,0.564861,0.55877574,-0.30599607,0.603289,0.54603756,-0.25675907,0.58657,0.54106258,-0.23549442,0.578888,0.53668592,-0.21662579,0.57211
0.52195195,-0.37757176,0.608728,0.51191044,-0.33339765,0.603276,0.49645345,-0.36244597,0.605767,0.47011845,-0.33257119,0.597939,0.4421454,-0.3019344,0.584586,0.43274851,-0.28146451,0.58106,0.48426331,-0.28278196,0.595695,0.46962838,-0.23519242,0.582961,0.46378089,-0.21535572,0.576594,0.45844733,-0.19689425,0.570806,0.50938583,-0.28584736,0.597454,0.49491093,-0.23437321,0.584012,0.48890223,-0.20669445,0.576171,0.48876292,-0.18478043,0.57057,0.5303382,-0.29164623,0.599302,0.51916871,-0.24003585,0.585165,0.51419008,-0.21498091,0.577932,0.50989017,-0.19234696,0.571356,0.55581806,-0.30486083,0.602271,0.54485418,-0.25651337,0.588164,0.53710912,-0.23374879,0.581682,0.53643817,-0.21627047,0.575963
0.51766261,-0.37915053,0.611285,0.5120638,-0.33383509,0.60541,0.49632423,-0.36356646,0.608219,0.46223961,-0.33018553,0.598368,0.43544887,-0.30062821,0.586238,0.42896006,-0.28044996,0.580931,0.48163391,-0.28277714,0.597395,0.46638857,-0.2353849,0.583665,0.45982561,-0.2158995,0.576799,0.45383309,-0.19776847,0.570558,0.50674566,-0.28568067,0.599138,0.49447156,-0.23443156,0.5845,0.48769356,-0.20577939,0.575961,0.48296756,-0.18541454,0.569862,0.52786488,-0.2913657,0.601003,0.51578385,-0.23985278,0.586358,0.51001401,-0.21446657,0.578864,0.5048264,-0.19125895,0.572052,0.55390621,-0.30453615,0.604052,0.54013155,-0.25514088,0.588723,0.53278612,-0.23714844,0.58168,0.52920313,-0.22511381,0.575465
0.50924527,-0.37907627,0.607596,0.49880601,-0.33877443,0.602469,0.48830204,-0.36390178,0.605396,0.45069475,-0.33349512,0.592938,0.42687452,-0.30291911,0.581586,0.42157116,-0.28090294,0.579549,0.47136448,-0.28930678,0.596058,0.4568485,-0.24203427,0.583327,0.45053428,-0.22360505,0.576961,0.44475616,-0.2063895,0.571175,0.49569358,-0.29185388,0.596994,0.48295287,-0.24130984,0.583273,0.47594056,-0.213788,0.575269,0.47097023,-0.1940352,0.569551,0.51612757,-0.29713962,0.598142,0.50353336,-0.24643547,0.584438,0.49769636,-0.2226133,0.577426,0.49261219,-0.20166112,0.571052,0.54133117,-0.30965742,0.60023,0.53030358,-0.26111716,0.586481,0.52558803,-0.24014022,0.580164,0.52489533,-0.22311931,0.574589
0.50575005,-0.37918816,0.606492,0.49554761,-0.3373394,0.601366,0.47991525,-0.36497333,0.603997,0.442909,-0.33391945,0.591178,0.41605116,-0.30593904,0.579836,0.40432685,-0.28567293,0.57536,0.46825063,-0.28725145,0.594594,0.44834027,-0.23866413,0.581702,0.44252121,-0.22376316,0.575255,0.44029734,-0.20774115,0.569395,0.49280601,-0.29020099,0.595893,0.48116499,-0.24068707,0.582115,0.47459472,-0.21253496,0.574077,0.46997979,-0.19241628,0.568336,0.51337211,-0.29584041,0.597339,0.49556914,-0.2447737,0.583448,0.48921741,-0.22260706,0.576341,0.48343418,-0.2019194,0.56988,0.53862029,-0.30880593,0.599782,0.52718986,-0.26128787,0.585736,0.51940923,-0.2403096,0.579282,0.51762746,-0.22118038,0.573588
0.495268,-0.37874514,0.601628,0.49114369,-0.336235,0.598316,0.47143532,-0.36559023,0.599621,0.43929614,-0.33233804,0.587705,0.41434562,-0.30388903,0.577007,0.40405835,-0.28343395,0.572839,0.46066357,-0.28954933,0.593457,0.4444652,-0.24442165,0.582238,0.43690914,-0.22390646,0.576629,0.42996909,-0.20486291,0.57153,0.48756227,-0.29018726,0.59478,0.47298979,-0.24274743,0.582925,0.46604783,-0.21511895,0.576009,0.46106886,-0.19498918,0.57107,0.5080329,-0.29557245,0.596113,0.49517332,-0.24608292,0.584191,0.48952197,-0.22268944,0.578092,0.48439966,-0.20107487,0.572547,0.53298718,-0.30808491,0.598166,0.52207801,-0.26181065,0.585812,0.51396606,-0.24011731,0.580136,0.51264448,-0.22140228,0.575128
0.50123966,-0.37973867,0.605173,0.48980844,-0.33733151,0.600743,0.47387811,-0.36826642,0.603699,0.44229918,-0.33613105,0.592249,0.41508278,-0.312933,0.583396,0.4046381,-0.29071154,0.579439,0.46003897,-0.29013845,0.595725,0.44301854,-0.24513246,0.583886,0.43157878,-0.22266313,0.577966,0.42727623,-0.20467231,0.572584,0.48382603,-0.29120265,0.596012,0.46491311,-0.24160521,0.583138,0.4552447,-0.21324653,0.575629,0.4484849,-0.19422544,0.570265,0.50388132,-0.29525763,0.596574,0.4871453,-0.24432847,0.583788,0.47985785,-0.21969533,0.577246,0.47320544,-0.1969704,0.571299,0.52667986,-0.30387869,0.597866,0.51669542,-0.2609241,0.584997,0.51115605,-0.23985147,0.579084,0.50626644,-0.22112461,0.573867
0.4915143,-0.38169192,0.603264,0.48270427,-0.33667724,0.599476,0.47015503,-0.3672027,0.601401,0.43093646,-0.33547399,0.589579,0.40549904,-0.30695059,0.578773,0.39970365,-0.29123013,0.579118,0.44875066,-0.29032082,0.594448,0.43750028,-0.24439497,0.583041,0.42994672,-0.22213019,0.577338,0.42579011,-0.20515899,0.572154,0.47308791,-0.29092237,0.595431,0.4632597,-0.24236612,0.583123,0.45527857,-0.21464224,0.575943,0.44964423,-0.19527112,0.570814,0.49366751,-0.29454399,0.596519,0.48527109,-0.24423677,0.584289,0.47915172,-0.21949414,0.578031,0.47357562,-0.19668601,0.572342,0.51932525,-0.30492884,0.598348,0.50776843,-0.25716057,0.585807,0.50683093,-0.24096434,0.580045,0.50271312,-0.22532945,0.574961
0.48939705,-0.38119578,0.602506,0.47806577,-0.33659569,0.599062,0.46803012,-0.3668616,0.600719,0.4295357,-0.33480498,0.589048,0.40388654,-0.30616803,0.577864,0.39695555,-0.28941594,0.577365,0.4486146,-0.28980149,0.594376,0.43499394,-0.24333829,0.58328,0.42966267,-0.22284683,0.577732,0.42539755,-0.20565608,0.572688,0.47296856,-0.29069043,0.595385,0.46261692,-0.24240772,0.583438,0.4551614,-0.21486627,0.57647,0.44991234,-0.1955299,0.571492,0.49350074,-0.29453351,0.596468,0.48445531,-0.24452122,0.584584,0.47858497,-0.21951297,0.578504,0.47323787,-0.19651245,0.572976,0.51898849,-0.30515292,0.598243,0.50750449,-0.25792281,0.585761,0.50323633,-0.24134717,0.580026,0.50158325,-0.22607917,0.574966
0.48700347,-0.38008629,0.600751,0.47674847,-0.33581006,0.597657,0.46604269,-0.36630638,0.599554,0.42865141,-0.33466152,0.58867,0.40308593,-0.30632793,0.578077,0.3926378,-0.28645171,0.574752,0.44809357,-0.29008246,0.593948,0.43455581,-0.2439843,0.583356,0.42744495,-0.22546229,0.57806,0.42282103,-0.20688893,0.573245,0.47190638,-0.29041333,0.594354,0.46031118,-0.24264821,0.582882,0.4541657,-0.21472919,0.57619,0.44903673,-0.19514745,0.57141,0.49198925,-0.29375841,0.594916,0.48076329,-0.24395577,0.583503,0.47388734,-0.21858942,0.577664,0.47094811,-0.19651405,0.572355,0.51693407,-0.30371517,0.59602,0.50524954,-0.25772328,0.583834,0.50090458,-0.23943493,0.578235,0.49603956,-0.22359283,0.573295
