sluyters/QuantumLeap/backend/src/datasets/dynamic/HandGestureDataset_SHREC2017_csv/Gesture12/finger_2/subject_9_essai_1_skeletons_world.csv
Wrist_x,Wrist_y,Wrist_z,Palm_x,Palm_y,Palm_z,thumb_base_x,thumb_base_y,thumb_base_z,thumb_first_joint_x,thumb_first_joint_y,thumb_first_joint_z,thumb_second_joint_x,thumb_second_joint_y,thumb_second_joint_z,thumb_tip_x,thumb_tip_y,thumb_tip_z,index_base_x,index_base_y,index_base_z,index_first_joint_x,index_first_joint_y,index_first_joint_z,index_second_joint_x,index_second_joint_y,index_second_joint_z,index_tip_x,index_tip_y,index_tip_z,middle_base_x,middle_base_y,middle_base_z,middle_first_joint_x,middle_first_joint_y,middle_first_joint_z,middle_second_joint_x,middle_second_joint_y,middle_second_joint_z,middle_tip_x,middle_tip_y,middle_tip_z,ring_base_x,ring_base_y,ring_base_z,ring_first_joint_x,ring_first_joint_y,ring_first_joint_z,ring_second_joint_x,ring_second_joint_y,ring_second_joint_z,ring_tip_x,ring_tip_y,ring_tip_z,pinky_base_x,pinky_base_y,pinky_base_z,pinky_first_joint_x,pinky_first_joint_y,pinky_first_joint_z,pinky_second_joint_x,pinky_second_joint_y,pinky_second_joint_z,pinky_tip_x,pinky_tip_y,pinky_tip_z,
0.61259556,-0.35402631,0.593809,0.61570747,-0.31281506,0.595352,0.59404617,-0.33931493,0.596753,0.56960028,-0.30595431,0.597978,0.55040329,-0.27758523,0.599824,0.54459537,-0.25579579,0.601412,0.597353,-0.25413682,0.600235,0.58988097,-0.20762354,0.594142,0.58614913,-0.18451263,0.591095,0.58424697,-0.16745707,0.588325,0.61922218,-0.2583089,0.596822,0.61566575,-0.20537625,0.593279,0.61332371,-0.17146524,0.591212,0.6119238,-0.1488943,0.589736,0.63791247,-0.26208459,0.593844,0.6297455,-0.2081724,0.588308,0.62279648,-0.17860182,0.585475,0.62394682,-0.15611165,0.5829,0.66001227,-0.27254064,0.590099,0.6671782,-0.23494727,0.596214,0.67050624,-0.21761903,0.599024,0.6734423,-0.20232378,0.601503
0.61393936,-0.35443413,0.595722,0.61661136,-0.31272919,0.59643,0.59536506,-0.33949301,0.598435,0.56997656,-0.30605613,0.598979,0.54967924,-0.27747064,0.599898,0.54268304,-0.25507982,0.600248,0.59756,-0.25422488,0.600443,0.59016393,-0.20772314,0.594427,0.58647042,-0.18461377,0.591419,0.58457026,-0.16662054,0.588685,0.61986759,-0.25754955,0.597103,0.61627283,-0.20473922,0.593986,0.61431547,-0.17174251,0.592168,0.61309942,-0.14918035,0.590869,0.63865123,-0.26156131,0.594277,0.62864451,-0.20737509,0.587945,0.6219774,-0.17836693,0.584705,0.62175936,-0.15573265,0.58176,0.66092679,-0.27240086,0.590864,0.66760385,-0.23450227,0.596543,0.67069593,-0.21705667,0.599153,0.67342427,-0.20166197,0.601456
0.6056516,-0.36446957,0.59465,0.6012468,-0.32191175,0.594642,0.59303865,-0.34548107,0.600142,0.56508778,-0.31382224,0.604956,0.54973623,-0.28001165,0.603736,0.54343155,-0.25648266,0.60206,0.59560828,-0.2630397,0.601791,0.58870442,-0.21705377,0.594833,0.58525242,-0.19371736,0.591354,0.58206541,-0.17231766,0.588191,0.61264249,-0.26713109,0.594635,0.60971459,-0.21268979,0.587336,0.60679225,-0.18100955,0.583078,0.60472141,-0.1565668,0.580037,0.62706461,-0.27206583,0.588744,0.62661684,-0.22142299,0.58984,0.62564433,-0.19502023,0.590401,0.6247459,-0.17079346,0.59091,0.6435923,-0.28422862,0.581906,0.65291438,-0.24897033,0.590744,0.65719769,-0.23285475,0.594804,0.66097825,-0.21867808,0.598387
0.60719141,-0.36364601,0.594,0.60883244,-0.32619205,0.595363,0.59136799,-0.3488921,0.598662,0.56575331,-0.31804333,0.60008,0.5453015,-0.2885443,0.600283,0.53792137,-0.26505397,0.59926,0.5954321,-0.26720998,0.602361,0.58899188,-0.22118337,0.5962,0.58576914,-0.19790925,0.593119,0.58395948,-0.17471849,0.590318,0.61559657,-0.26886708,0.596661,0.61042155,-0.2145148,0.589862,0.6068478,-0.18285719,0.585897,0.60552872,-0.15874049,0.583064,0.63179474,-0.27325287,0.591821,0.6293729,-0.22193498,0.591775,0.62777009,-0.19554756,0.591751,0.62665196,-0.17129413,0.59173,0.65298495,-0.28301923,0.585946,0.65687871,-0.24901439,0.593685,0.6610463,-0.23326308,0.598367,0.66486291,-0.21943689,0.602623
0.60883845,-0.3707601,0.596851,0.61324725,-0.32955241,0.596471,0.59040466,-0.35414732,0.598948,0.56842122,-0.32554402,0.602095,0.54675213,-0.29570408,0.600624,0.53791875,-0.26846059,0.598777,0.59425652,-0.27409297,0.598944,0.58718838,-0.22799199,0.590849,0.58369684,-0.20465891,0.586802,0.58051918,-0.18327367,0.583122,0.61768391,-0.27631903,0.596109,0.60974807,-0.22146986,0.587637,0.60125183,-0.19000438,0.582695,0.59739757,-0.16922463,0.579165,0.63693603,-0.28123395,0.593815,0.63484777,-0.22976362,0.595707,0.63424516,-0.20454837,0.596676,0.63325231,-0.17553329,0.597556,0.66000892,-0.2933021,0.591224,0.65899389,-0.25104919,0.595208,0.66164928,-0.23480464,0.598776,0.66468831,-0.22077846,0.60255
0.60890261,-0.3714631,0.596797,0.61331775,-0.33230097,0.596471,0.58994052,-0.35729736,0.599552,0.56792947,-0.32658548,0.601846,0.54571224,-0.29666423,0.600041,0.53653045,-0.27269171,0.597296,0.59463068,-0.27501441,0.59984,0.58761336,-0.22885467,0.591798,0.58413595,-0.20547973,0.587778,0.5809737,-0.18404953,0.584123,0.61727089,-0.27669026,0.596161,0.60908471,-0.22180461,0.587808,0.60184851,-0.19059752,0.582934,0.5980905,-0.16885666,0.579454,0.6358523,-0.28115971,0.593167,0.62804105,-0.22747273,0.587222,0.62564235,-0.20022178,0.58418,0.62322528,-0.17585159,0.581414,0.65810906,-0.29271308,0.589754,0.66070625,-0.25516397,0.595745,0.66184175,-0.23700697,0.598498,0.66382183,-0.22113595,0.601414
0.60881763,-0.37914485,0.595671,0.61009823,-0.34288571,0.593326,0.59055503,-0.36285784,0.598128,0.56385763,-0.33740919,0.597507,0.54301917,-0.30744183,0.596679,0.53737354,-0.28600314,0.599086,0.5884042,-0.28604528,0.594935,0.58318435,-0.23733858,0.584623,0.57912993,-0.21372491,0.579466,0.57539373,-0.19240182,0.574779,0.61091157,-0.28749778,0.591093,0.60220471,-0.23316029,0.580363,0.59715977,-0.20109018,0.574103,0.59357328,-0.17784452,0.569632,0.6296451,-0.29192122,0.588182,0.62128596,-0.23654198,0.578658,0.61608153,-0.20825696,0.573785,0.61143512,-0.18259033,0.569355,0.65253077,-0.30368566,0.585244,0.65400051,-0.26517144,0.587406,0.6550864,-0.2467984,0.5884,0.65722257,-0.23406313,0.589276
0.60814963,-0.3940031,0.595048,0.60801007,-0.35512415,0.590704,0.59173473,-0.37915405,0.599501,0.57019129,-0.34968124,0.599066,0.54884774,-0.31831897,0.597263,0.54648537,-0.29917934,0.602968,0.58903623,-0.2970808,0.593554,0.57921543,-0.24885052,0.581229,0.57430585,-0.22472953,0.575067,0.56956065,-0.20320898,0.569464,0.60831681,-0.29704895,0.586567,0.59786368,-0.2419331,0.57339,0.5914881,-0.21026125,0.565703,0.58680243,-0.18778864,0.560212,0.62451043,-0.30036267,0.581281,0.60852146,-0.24545181,0.57162,0.60030319,-0.21766229,0.566678,0.59279332,-0.192467,0.562184,0.64470408,-0.31102247,0.575962,0.64586836,-0.27119086,0.576963,0.64642407,-0.25252023,0.577422,0.64697224,-0.2418592,0.577828
0.60109305,-0.40388117,0.587132,0.60457023,-0.36994977,0.584897,0.5835941,-0.39651566,0.589248,0.56179446,-0.36162993,0.590684,0.54440955,-0.33235429,0.592809,0.54068639,-0.31127684,0.596235,0.58699363,-0.31012543,0.586136,0.59281589,-0.26853357,0.590073,0.59572581,-0.24777778,0.592042,0.59864475,-0.22852855,0.593832,0.60980866,-0.31310738,0.582769,0.60255325,-0.25711453,0.572723,0.59863131,-0.22470283,0.566863,0.59583577,-0.20146974,0.562677,0.62841626,-0.3187743,0.580237,0.62325029,-0.26450533,0.574912,0.62069811,-0.23673762,0.572271,0.61842164,-0.21148026,0.56991,0.65048044,-0.33192707,0.577718,0.64821735,-0.2901873,0.576742,0.64843482,-0.27123774,0.576294,0.64904739,-0.2546348,0.575898
0.60047728,-0.41688998,0.582095,0.60595271,-0.38138742,0.581182,0.58398485,-0.402176,0.586109,0.56344058,-0.37548486,0.586477,0.54312851,-0.34603056,0.586836,0.54007759,-0.32722392,0.592837,0.58655725,-0.3247021,0.585791,0.59127078,-0.28170201,0.586161,0.59385897,-0.25995606,0.586346,0.59647241,-0.24102981,0.586515,0.60773741,-0.32473488,0.580313,0.60761429,-0.27122822,0.576386,0.60754047,-0.24003872,0.574095,0.60758501,-0.21780612,0.572551,0.62509586,-0.32791979,0.575901,0.6227755,-0.27432368,0.572212,0.62158862,-0.24687243,0.570324,0.6205706,-0.22192067,0.568663,0.64597628,-0.3380409,0.570951,0.64181394,-0.29605892,0.569649,0.63990165,-0.27676856,0.569051,0.63821392,-0.2597467,0.568523
0.59941172,-0.41919133,0.580871,0.60442718,-0.38162275,0.579564,0.58433695,-0.40487553,0.586019,0.56108043,-0.37518084,0.585426,0.54128232,-0.34635705,0.586449,0.53727588,-0.32683017,0.591193,0.58911932,-0.32501044,0.585381,0.59015114,-0.28015996,0.582783,0.59073962,-0.25778387,0.581483,0.59132624,-0.23844662,0.580302,0.6085157,-0.32526308,0.578319,0.60645858,-0.27735227,0.57135,0.60473388,-0.24907515,0.568381,0.6035013,-0.22888453,0.56626,0.62693934,-0.33122897,0.572644,0.62294198,-0.28816155,0.569716,0.62182981,-0.26662746,0.56907,0.62081693,-0.24705477,0.568481,0.6451445,-0.34275486,0.566304,0.63802629,-0.29981299,0.564256,0.63478435,-0.28032311,0.563316,0.63428953,-0.27043586,0.562486
0.59660618,-0.42763249,0.578225,0.59895888,-0.39584695,0.57743,0.58134392,-0.41255757,0.582892,0.55675348,-0.3850442,0.581407,0.53637196,-0.35187209,0.577749,0.53341254,-0.33106237,0.581562,0.58884981,-0.33785833,0.582968,0.58767944,-0.29199845,0.578685,0.58707596,-0.27043033,0.576544,0.5865552,-0.25045052,0.574597,0.60862699,-0.34059284,0.576673,0.60604452,-0.29132054,0.569943,0.60550709,-0.26310792,0.566932,0.60512379,-0.24294761,0.564781,0.62438913,-0.34597521,0.571574,0.62062961,-0.30251871,0.567667,0.61875194,-0.280376,0.565667,0.61708818,-0.26027296,0.56385,0.642492,-0.35868174,0.565806,0.63631732,-0.31436635,0.561263,0.63381293,-0.29446695,0.559176,0.63179879,-0.27715823,0.557334
0.59550194,-0.44557451,0.58088,0.59939809,-0.40725545,0.576875,0.57899767,-0.42827501,0.583498,0.55445526,-0.39723342,0.580107,0.53221653,-0.3649671,0.574721,0.52637739,-0.34256284,0.575961,0.58322242,-0.34711857,0.577567,0.57610371,-0.29784757,0.566146,0.57283038,-0.27669252,0.560436,0.56990677,-0.2570868,0.555245,0.6048464,-0.35030296,0.573062,0.59970834,-0.30005527,0.564658,0.5971366,-0.27166485,0.559755,0.59560175,-0.25221143,0.556253,0.62258576,-0.35626841,0.569784,0.61637465,-0.31124438,0.561956,0.61331305,-0.28842845,0.557951,0.61053098,-0.2676667,0.55431,0.64379879,-0.37002345,0.566731,0.63050589,-0.32341758,0.557869,0.6260486,-0.30515802,0.553798,0.62211693,-0.28878988,0.550205
0.58755917,-0.45060144,0.568435,0.59600974,-0.41766552,0.569414,0.57773068,-0.44610134,0.575132,0.55865581,-0.41392365,0.580177,0.53667571,-0.38214413,0.57716,0.53081862,-0.35954198,0.57816,0.58377456,-0.36322748,0.578803,0.58437754,-0.31673543,0.570322,0.58469752,-0.2934089,0.566082,0.58499871,-0.27215435,0.562227,0.60142092,-0.36226339,0.570347,0.59888838,-0.31301731,0.562673,0.59738678,-0.28429275,0.558197,0.5963165,-0.26375798,0.555,0.61572255,-0.3645685,0.563279,0.61247755,-0.32000031,0.557203,0.61036224,-0.29793634,0.554095,0.60841836,-0.2777909,0.551269,0.6326894,-0.37364792,0.55489,0.63659476,-0.33521167,0.559508,0.63791563,-0.31734361,0.56163,0.63907342,-0.30143115,0.563503
0.59203417,-0.46743211,0.570847,0.59517453,-0.42955793,0.569568,0.57722507,-0.45194035,0.576096,0.55387637,-0.42183219,0.577504,0.53461936,-0.39135923,0.577261,0.52752374,-0.3674951,0.575395,0.58367454,-0.37180022,0.575535,0.58001047,-0.32569563,0.566342,0.5782072,-0.30243576,0.561745,0.57629561,-0.28165981,0.557566,0.60241106,-0.37330096,0.568349,0.59768092,-0.32461089,0.558785,0.59486126,-0.2961755,0.553206,0.59286747,-0.2757026,0.549221,0.61765045,-0.37776989,0.562569,0.61149759,-0.33232099,0.554947,0.60823633,-0.30961637,0.551048,0.60486985,-0.29136004,0.547503,0.63573211,-0.38966369,0.5561,0.63843601,-0.3496833,0.559677,0.63968094,-0.33138138,0.561321,0.64077798,-0.31520905,0.562771
0.59116089,-0.48156711,0.573363,0.59436079,-0.44396722,0.570326,0.57474572,-0.46372145,0.576241,0.55325044,-0.43334269,0.576356,0.53588088,-0.40172523,0.575232,0.53168056,-0.37866532,0.576134,0.58009029,-0.38347002,0.572013,0.57731279,-0.33738,0.561087,0.57597224,-0.31410998,0.555624,0.57472402,-0.29330125,0.550658,0.6015087,-0.38724184,0.567434,0.59593688,-0.33794494,0.556098,0.59273068,-0.30920228,0.549485,0.59046019,-0.28854348,0.544761,0.61903184,-0.39368045,0.563991,0.61053726,-0.34708401,0.554518,0.60641582,-0.32423164,0.549671,0.60275783,-0.30378525,0.545265,0.63986062,-0.40802958,0.560565,0.63548142,-0.36414053,0.557425,0.63392059,-0.34429619,0.556377,0.63273808,-0.32690466,0.555623
0.58984201,-0.4935237,0.574604,0.59367041,-0.4535865,0.570875,0.57455239,-0.47614908,0.578145,0.54871384,-0.44242061,0.575439,0.5287717,-0.41121201,0.573071,0.52219285,-0.38746328,0.572181,0.58143472,-0.39293606,0.572955,0.57836286,-0.34569269,0.56158,0.57684503,-0.32198377,0.555892,0.5751213,-0.29706179,0.550722,0.6016022,-0.39658188,0.567323,0.59568211,-0.34729776,0.555593,0.59227306,-0.31849658,0.548751,0.58985579,-0.29780699,0.543863,0.61800973,-0.40293121,0.563087,0.61267745,-0.3581976,0.556404,0.61020331,-0.3361788,0.552985,0.60805656,-0.31641207,0.549876,0.63743164,-0.4172138,0.558871,0.62783772,-0.37234251,0.551204,0.6235666,-0.35205251,0.547681,0.61979773,-0.33408918,0.544573
0.58944491,-0.49840658,0.574606,0.59357058,-0.46357474,0.570779,0.57398577,-0.48582885,0.578522,0.5484888,-0.45227714,0.575203,0.52758602,-0.42051281,0.571079,0.52033454,-0.39626187,0.569081,0.58176758,-0.40317557,0.573283,0.57860076,-0.35587634,0.561811,0.57703493,-0.33214513,0.556075,0.57559336,-0.31092252,0.55086,0.60140284,-0.40646606,0.567135,0.59549127,-0.35725371,0.555415,0.59208634,-0.32850164,0.548578,0.58967358,-0.3078486,0.543695,0.61734901,-0.41252327,0.562485,0.61257174,-0.36813706,0.556308,0.61038318,-0.34631731,0.553148,0.60849778,-0.32673511,0.550275,0.63621807,-0.42646552,0.557807,0.62468966,-0.38214509,0.548694,0.61953062,-0.36213011,0.544508,0.61497576,-0.34437093,0.540814
0.59265518,-0.5129491,0.572174,0.59752768,-0.4733816,0.568178,0.57553623,-0.49561968,0.57503,0.5521894,-0.46613167,0.571773,0.5294265,-0.43567666,0.56893,0.52345894,-0.41458399,0.571827,0.57504006,-0.41275052,0.569185,0.57237269,-0.36503518,0.556886,0.5703167,-0.34384005,0.550736,0.56851988,-0.32428523,0.545146,0.59675081,-0.41388043,0.564372,0.58912901,-0.36980054,0.551728,0.58470552,-0.34394831,0.544352,0.58155742,-0.32541666,0.539084,0.61509387,-0.41828589,0.560839,0.61493018,-0.37217546,0.554575,0.61502383,-0.3500761,0.55137,0.61371821,-0.34398431,0.548457,0.63694481,-0.42836553,0.557489,0.62862142,-0.39079782,0.550454,0.62442836,-0.37315651,0.547222,0.62172211,-0.36427164,0.54437
0.60246223,-0.52551514,0.571633,0.60230421,-0.48575541,0.567583,0.58739384,-0.51666462,0.574969,0.5633527,-0.48318482,0.576366,0.54189297,-0.45388296,0.575625,0.53475111,-0.43159717,0.576772,0.5775693,-0.42713414,0.569177,0.57188511,-0.37945614,0.556399,0.56885229,-0.35718718,0.550011,0.56613345,-0.33674423,0.544203,0.59873384,-0.42663101,0.563725,0.58934487,-0.37484592,0.550486,0.5835906,-0.35647335,0.542763,0.57954926,-0.34298773,0.537246,0.61668416,-0.4296185,0.559672,0.61062048,-0.38289096,0.550095,0.60762742,-0.35976676,0.545194,0.60500221,-0.3388919,0.54074,0.63935988,-0.44002378,0.555729,0.62754691,-0.39792674,0.548914,0.62213872,-0.37877201,0.545782,0.6196995,-0.37288807,0.543019
0.60247714,-0.53045278,0.573297,0.59945062,-0.48828939,0.567219,0.58559614,-0.5193786,0.576714,0.56152182,-0.48487958,0.576781,0.53993494,-0.45482105,0.574845,0.53246025,-0.43155311,0.575006,0.57627854,-0.42790636,0.567543,0.57119793,-0.3843642,0.553043,0.56819722,-0.36249624,0.545794,0.56320991,-0.3379857,0.539203,0.59671963,-0.43145015,0.56143,0.58767203,-0.38678703,0.546291,0.58240178,-0.36069289,0.537459,0.57582175,-0.34057307,0.531151,0.61376719,-0.43619583,0.557052,0.6081413,-0.38474094,0.546026,0.60476213,-0.36458925,0.540385,0.60176122,-0.34587526,0.535257,0.63528963,-0.44888233,0.553112,0.62835526,-0.4084167,0.549324,0.6251867,-0.39007111,0.547584,0.62320934,-0.38338244,0.546048
0.60219551,-0.53327779,0.575466,0.59611998,-0.4908282,0.567686,0.58440578,-0.51643882,0.578398,0.55604638,-0.48441161,0.574744,0.53483409,-0.45412085,0.572558,0.53025636,-0.43094076,0.574154,0.57610705,-0.42710138,0.566222,0.56925742,-0.38357829,0.550177,0.56530261,-0.36171872,0.542154,0.56176273,-0.34163752,0.53486,0.59681769,-0.43096058,0.560276,0.58545674,-0.38628909,0.543434,0.57883799,-0.36019267,0.53361,0.57411323,-0.34153336,0.526592,0.61382242,-0.43681001,0.556217,0.6026278,-0.38864338,0.541765,0.59785237,-0.36270205,0.53497,0.59315074,-0.34244532,0.528793,0.63536523,-0.45098331,0.552969,0.62759094,-0.4101849,0.548495,0.6240366,-0.39167861,0.54644,0.62156463,-0.38520123,0.544626
0.60194269,-0.53489569,0.576685,0.59619034,-0.49102492,0.568184,0.58438208,-0.51758442,0.579444,0.55544333,-0.48422252,0.574558,0.53406552,-0.45380853,0.572352,0.5292664,-0.43072469,0.573848,0.57647161,-0.42703324,0.566005,0.5687426,-0.38340537,0.549349,0.5644206,-0.36151271,0.54102,0.56054655,-0.34140836,0.533449,0.5970593,-0.43094848,0.560088,0.58483136,-0.3861972,0.542587,0.57770507,-0.36005924,0.532378,0.57261831,-0.34137344,0.525086,0.61405281,-0.43716548,0.556131,0.60197263,-0.38822085,0.541176,0.59663019,-0.36272781,0.534132,0.59150593,-0.34200599,0.527728,0.63563599,-0.45185809,0.553135,0.6273881,-0.41080846,0.548264,0.62361596,-0.39219129,0.546026,0.62090226,-0.38573666,0.544052
0.60434197,-0.54282794,0.579865,0.59969063,-0.505256,0.570849,0.58354461,-0.52469519,0.581071,0.55755018,-0.49638835,0.577506,0.53360401,-0.4655781,0.569677,0.52401203,-0.44092852,0.565256,0.5774184,-0.44202591,0.5663,0.57276814,-0.39230993,0.548819,0.57054635,-0.37077816,0.540078,0.56860315,-0.35134022,0.532132,0.59949353,-0.44485653,0.562263,0.58903208,-0.39780633,0.543806,0.58306573,-0.37164843,0.533039,0.57880484,-0.35296046,0.525348,0.61823225,-0.45074186,0.559911,0.61207247,-0.40287591,0.547731,0.60891332,-0.37843063,0.5415,0.60646035,-0.35742612,0.535835,0.64182746,-0.46484322,0.558875,0.6376889,-0.42357135,0.555995,0.63579253,-0.40483635,0.554672,0.63703331,-0.39812622,0.553505
0.60366984,-0.54401402,0.579487,0.59961919,-0.50519582,0.570781,0.58337498,-0.52639239,0.580755,0.55748646,-0.49633162,0.57744,0.53362181,-0.46559363,0.569696,0.52388132,-0.44081854,0.565115,0.57764272,-0.44219764,0.56652,0.57328265,-0.39266234,0.549312,0.57121295,-0.37121136,0.540709,0.5694099,-0.35183871,0.532887,0.5997345,-0.44503534,0.562489,0.58958666,-0.39818087,0.544318,0.58380846,-0.37212184,0.533718,0.57968515,-0.35349728,0.526147,0.61844867,-0.45089965,0.560107,0.61262339,-0.40323853,0.548224,0.60963862,-0.37888139,0.542145,0.60734656,-0.35794842,0.536618,0.64194689,-0.46492973,0.558979,0.6383243,-0.4239934,0.556549,0.63666368,-0.40539105,0.555432,0.63811746,-0.39880379,0.554447
0.59807142,-0.55361418,0.578124,0.59407083,-0.51522461,0.569693,0.58177985,-0.53669374,0.580724,0.55401675,-0.50264326,0.57695,0.5328092,-0.47195669,0.569964,0.52482786,-0.44346249,0.56589,0.58040292,-0.45133251,0.567354,0.57275006,-0.40154924,0.550763,0.56873908,-0.37824332,0.542468,0.56940846,-0.35449703,0.534926,0.60018408,-0.45593626,0.561662,0.58962405,-0.39969363,0.544497,0.5840844,-0.37225794,0.534484,0.57823364,-0.34938971,0.527331,0.61671691,-0.46309563,0.557884,0.61049372,-0.4031501,0.546257,0.60753638,-0.37737288,0.540308,0.60452617,-0.36713906,0.5349,0.63709439,-0.47849227,0.555083,0.63387909,-0.43051155,0.552298,0.63312474,-0.41138703,0.551019,0.63279417,-0.3954444,0.54989
0.59766609,-0.55071344,0.57744,0.59300352,-0.5126856,0.56938,0.58096971,-0.5367788,0.580931,0.55670162,-0.50426845,0.579497,0.53388409,-0.47305553,0.571255,0.52631432,-0.44567525,0.567835,0.5789062,-0.45065845,0.568453,0.57322552,-0.40114109,0.552145,0.56997528,-0.37854345,0.543991,0.57017878,-0.35612437,0.536578,0.59525958,-0.45216189,0.561703,0.58888909,-0.39962719,0.544485,0.5834649,-0.3713437,0.534442,0.57628655,-0.34501286,0.527267,0.61126866,-0.45787821,0.557014,0.6050852,-0.40804153,0.544728,0.60190583,-0.38293661,0.538442,0.60250219,-0.35953079,0.533395,0.63135263,-0.47129364,0.553086,0.62549729,-0.42820434,0.547704,0.62317801,-0.40865509,0.545556,0.62386081,-0.39027555,0.544268
0.59577465,-0.54941535,0.578656,0.58952337,-0.50940477,0.569586,0.5793846,-0.53646052,0.581544,0.54697871,-0.49899337,0.575166,0.52335145,-0.46659889,0.566546,0.52329438,-0.44358982,0.566655,0.57666452,-0.4446562,0.56719,0.57041428,-0.39721178,0.553915,0.56796721,-0.37419741,0.547278,0.56575813,-0.3532089,0.541244,0.59417995,-0.45080007,0.560948,0.58488064,-0.39770107,0.543548,0.57933773,-0.3644516,0.533398,0.5749323,-0.34412794,0.526161,0.61034599,-0.45753924,0.556786,0.60470221,-0.40769747,0.545476,0.60180929,-0.38264759,0.539689,0.60242025,-0.35992192,0.534429,0.63055002,-0.47228245,0.553659,0.62060025,-0.42645273,0.544572,0.61615555,-0.40695542,0.540397,0.61132244,-0.39413329,0.536713
0.59546728,-0.54740791,0.577064,0.59310729,-0.50439657,0.568509,0.57917338,-0.52973229,0.579662,0.55349281,-0.49734399,0.576558,0.52404895,-0.46592414,0.566936,0.52133079,-0.44233349,0.566683,0.56933232,-0.43974623,0.566084,0.56696569,-0.39351879,0.551294,0.56627354,-0.36720152,0.543899,0.56304463,-0.34608744,0.537503,0.58987779,-0.4411082,0.560361,0.5851357,-0.38745779,0.543914,0.57911311,-0.36044434,0.534321,0.57242539,-0.33736934,0.527468,0.60751167,-0.44556993,0.556571,0.59641359,-0.39732359,0.544068,0.59083212,-0.37356984,0.537672,0.58582663,-0.3525383,0.531856,0.63023976,-0.45777892,0.553779,0.62160663,-0.40988517,0.544622,0.61330789,-0.39180552,0.540415,0.61093844,-0.3922864,0.536703
0.59260306,-0.54784526,0.576541,0.57802417,-0.50204088,0.567163,0.57091048,-0.53272567,0.578162,0.54124774,-0.49381458,0.574825,0.51735375,-0.45989585,0.564259,0.51301253,-0.43880879,0.561589,0.55660355,-0.43589,0.562907,0.55286218,-0.38923021,0.548499,0.55102204,-0.36580114,0.541296,0.54936652,-0.34444016,0.534747,0.577857,-0.43932227,0.558231,0.5729476,-0.38720214,0.542439,0.57009286,-0.35676738,0.533227,0.57039528,-0.33518048,0.526647,0.59607283,-0.44554813,0.555391,0.58286614,-0.39644231,0.542245,0.57621608,-0.37345355,0.535519,0.57023446,-0.35390955,0.529404,0.61937036,-0.45996556,0.553858,0.61241769,-0.41315609,0.546111,0.61254491,-0.39296933,0.542551,0.61050606,-0.38929604,0.53941
0.59161661,-0.54711689,0.576145,0.58059449,-0.49978324,0.568253,0.57358106,-0.52644013,0.57942,0.53918272,-0.49065685,0.573929,0.51532222,-0.45996011,0.572133,0.50649779,-0.43670086,0.571464,0.56001056,-0.43133207,0.56716,0.55232233,-0.38375018,0.549964,0.54849338,-0.35989843,0.541365,0.5463457,-0.34205379,0.533548,0.57980068,-0.4323071,0.560737,0.5722734,-0.37720637,0.545165,0.56729314,-0.35114562,0.536081,0.56380635,-0.33222744,0.529593,0.59673664,-0.43641604,0.556297,0.58679515,-0.38269688,0.540698,0.58168318,-0.35536841,0.532717,0.57617392,-0.34434283,0.525462,0.61856796,-0.44821284,0.552628,0.60946321,-0.40249198,0.545728,0.6058257,-0.38485984,0.542558,0.60294623,-0.37222234,0.539761
0.57776114,-0.54322927,0.572899,0.5689986,-0.49476091,0.56599,0.56074016,-0.5251984,0.576346,0.5293481,-0.48791334,0.573996,0.5059673,-0.45670657,0.568888,0.50287895,-0.43531891,0.570282,0.54889178,-0.43044696,0.565788,0.54427952,-0.38260069,0.550773,0.54192513,-0.35889812,0.543266,0.54361382,-0.33977836,0.536441,0.56862835,-0.43174132,0.559409,0.56213855,-0.37991693,0.545166,0.55835832,-0.34965442,0.536857,0.55566109,-0.32802352,0.530922,0.58534752,-0.43601349,0.554902,0.57612716,-0.3829184,0.540405,0.57139479,-0.35598427,0.532988,0.56621844,-0.34490843,0.526245,0.6065758,-0.44781041,0.550968,0.59670814,-0.40370932,0.541264,0.59250833,-0.38365418,0.537108,0.59325576,-0.36746306,0.534256
0.56680307,-0.53663055,0.572229,0.56110198,-0.48576587,0.565624,0.54867583,-0.51745904,0.574282,0.52014551,-0.47796831,0.573826,0.49665689,-0.44583216,0.570134,0.4881244,-0.42152205,0.568362,0.53828591,-0.41582377,0.561394,0.53903679,-0.37104911,0.552937,0.5394485,-0.34850163,0.548708,0.53974552,-0.3281341,0.544863,0.55875943,-0.41846492,0.556079,0.55000386,-0.36793097,0.540919,0.54472699,-0.33911612,0.532075,0.54098876,-0.31835207,0.525759,0.57586773,-0.42365902,0.552134,0.56870614,-0.3704842,0.54036,0.56458493,-0.34684616,0.534336,0.56087401,-0.32504722,0.52886,0.59699837,-0.43622701,0.54825,0.58538829,-0.39039909,0.537221,0.58005195,-0.36946701,0.532153,0.57535315,-0.35391886,0.527682
0.55601281,-0.52424176,0.565511,0.55338755,-0.47531755,0.561043,0.5385346,-0.50588004,0.568671,0.51032604,-0.47176094,0.568143,0.48153764,-0.43991978,0.561253,0.47029479,-0.41623662,0.558828,0.52936594,-0.40865348,0.560294,0.52917992,-0.36459755,0.554478,0.52911387,-0.34236756,0.55157,0.52893542,-0.32223534,0.548927,0.54957053,-0.40945851,0.554586,0.53942354,-0.35948549,0.542067,0.53325659,-0.33089396,0.534764,0.5288614,-0.3102696,0.529548,0.56656692,-0.41307905,0.550179,0.55815525,-0.36085072,0.540764,0.55309665,-0.33734948,0.535947,0.54849668,-0.31566164,0.531568,0.5877609,-0.42363225,0.545455,0.57458827,-0.37848416,0.536163,0.56854851,-0.35788752,0.531894,0.56306442,-0.34239311,0.528127
0.5472255,-0.51735209,0.565095,0.54013431,-0.46910479,0.561176,0.53063579,-0.49975798,0.569126,0.50484829,-0.4631443,0.573603,0.48421955,-0.43105605,0.571521,0.47800835,-0.40720321,0.571231,0.52252268,-0.40339965,0.562021,0.52607773,-0.3587187,0.558985,0.52566808,-0.34032734,0.557467,0.5253249,-0.32310765,0.556087,0.54183002,-0.40525653,0.555513,0.53489363,-0.35302027,0.543607,0.53029574,-0.32416936,0.536662,0.52900597,-0.30743859,0.531701,0.55772031,-0.40964749,0.550413,0.55254561,-0.35724955,0.540702,0.55097639,-0.33560833,0.535734,0.54698383,-0.3142859,0.531217,0.57686934,-0.42089255,0.544779,0.56567734,-0.37698842,0.534873,0.56053405,-0.35679434,0.530321,0.55844937,-0.34255944,0.526305
0.54102057,-0.51491523,0.570682,0.53877264,-0.46912209,0.563692,0.52232018,-0.49544252,0.571972,0.49903541,-0.46187801,0.574921,0.47481206,-0.4289926,0.569123,0.46557857,-0.40408336,0.565525,0.50955455,-0.40011744,0.558164,0.51270212,-0.35408094,0.551769,0.51307512,-0.33438493,0.548572,0.51449751,-0.316565,0.545666,0.5309838,-0.40271865,0.55359,0.52405711,-0.35020942,0.539612,0.51985984,-0.32027736,0.531458,0.52097058,-0.30054967,0.527676,0.54890188,-0.40776607,0.550279,0.5413027,-0.35485861,0.537519,0.5372335,-0.3292159,0.53099,0.53653288,-0.30763333,0.525055,0.57101838,-0.41987771,0.547213,0.56310789,-0.3738137,0.538898,0.5594673,-0.35298565,0.535078,0.55875158,-0.34459649,0.531707
0.54045294,-0.51330483,0.570974,0.53426989,-0.46565675,0.56327,0.52151954,-0.49438081,0.572315,0.49836064,-0.46135873,0.574848,0.47315729,-0.42839283,0.568467,0.46364384,-0.40371233,0.564986,0.50715097,-0.39856569,0.557081,0.5006788,-0.35176195,0.549339,0.49815467,-0.32867985,0.545468,0.49586214,-0.30765524,0.541949,0.52825785,-0.40054898,0.552137,0.52125473,-0.34800884,0.537855,0.51698518,-0.3181633,0.529523,0.51394753,-0.29677086,0.523572,0.54598046,-0.40511164,0.548568,0.53602862,-0.35224505,0.538732,0.5315043,-0.32628523,0.533699,0.52739224,-0.30266177,0.529124,0.56803255,-0.41669062,0.545286,0.55773218,-0.3713035,0.538998,0.55351508,-0.35136461,0.536167,0.54976572,-0.33435414,0.53367
0.53497873,-0.50907688,0.572434,0.52140789,-0.45731767,0.563192,0.5075983,-0.48476686,0.574539,0.48311635,-0.45042758,0.574113,0.46058365,-0.41951733,0.571932,0.45340049,-0.39589957,0.571606,0.49645132,-0.38862248,0.556359,0.49376505,-0.3422571,0.550917,0.4913063,-0.32058099,0.548197,0.48906258,-0.30065858,0.545723,0.51582633,-0.39075105,0.549836,0.51053769,-0.34020516,0.542703,0.50735647,-0.31090458,0.538542,0.50508364,-0.2899659,0.535569,0.53205176,-0.39547906,0.545067,0.52597943,-0.34427471,0.537467,0.5224111,-0.31926371,0.533578,0.51904755,-0.29670882,0.530043,0.55220723,-0.40735268,0.540541,0.54375447,-0.36415372,0.536198,0.53962648,-0.34524482,0.534203,0.53569973,-0.33026368,0.532442
0.52072715,-0.49825341,0.571325,0.51403619,-0.44814578,0.561796,0.50318242,-0.47958793,0.573357,0.47197095,-0.4405123,0.570909,0.44829618,-0.4109149,0.568978,0.43853905,-0.38694503,0.566926,0.49008115,-0.37941224,0.554587,0.48702209,-0.33400752,0.551022,0.4850014,-0.31183501,0.54924,0.48316248,-0.29158679,0.54762,0.50946641,-0.38177468,0.548027,0.50390277,-0.33004442,0.539295,0.49986774,-0.30173894,0.534201,0.49958858,-0.28481048,0.531516,0.52559415,-0.38666899,0.543246,0.51656839,-0.33525555,0.535363,0.51136857,-0.31088595,0.53133,0.50653798,-0.28885144,0.527663,0.54546017,-0.39868288,0.538744,0.53509131,-0.3561297,0.53345,0.53027335,-0.33689517,0.531017,0.52601882,-0.31989298,0.528871
0.5154709,-0.49257222,0.567798,0.50960696,-0.44253147,0.563215,0.49628089,-0.47213265,0.571608,0.47421619,-0.44155924,0.575752,0.45010161,-0.40875308,0.574796,0.44107245,-0.38711804,0.571682,0.48755389,-0.37744057,0.563124,0.4805739,-0.33000811,0.552008,0.47630283,-0.30752488,0.546451,0.47484138,-0.28804701,0.541398,0.50706841,-0.37805135,0.556591,0.49732082,-0.32669091,0.545575,0.49163265,-0.29670839,0.539148,0.48757044,-0.27528117,0.534558,0.52331164,-0.38144063,0.551514,0.5172015,-0.33021609,0.543708,0.51333439,-0.30554902,0.539715,0.5098172,-0.28290373,0.536084,0.54326729,-0.39152419,0.545996,0.5359194,-0.34883331,0.54181,0.53349823,-0.32990045,0.540847,0.53138205,-0.31320341,0.540018
0.50903236,-0.48737702,0.567747,0.50590186,-0.44101532,0.563194,0.49310934,-0.47048036,0.572013,0.46169535,-0.43386532,0.573732,0.43754168,-0.4036925,0.570985,0.42731277,-0.37963063,0.568287,0.48388369,-0.37408085,0.56368,0.47919465,-0.32697655,0.557109,0.47485857,-0.3060992,0.553824,0.47088988,-0.28679068,0.550837,0.50495692,-0.37676999,0.556616,0.49643026,-0.32563092,0.547034,0.49145517,-0.29582076,0.541444,0.48785898,-0.27457786,0.537451,0.52065533,-0.38031249,0.5511,0.51035736,-0.32867634,0.543419,0.50600349,-0.30319675,0.53949,0.50584208,-0.28140296,0.535918,0.53974305,-0.3905317,0.545047,0.52270144,-0.34694559,0.536621,0.51606041,-0.32707939,0.532749,0.51020264,-0.30955968,0.529333
0.50093494,-0.48074973,0.564198,0.49941095,-0.43658479,0.563147,0.48620955,-0.46543691,0.570331,0.46202063,-0.43413072,0.576747,0.43980281,-0.40511783,0.576725,0.43491384,-0.38401655,0.583056,0.47934021,-0.37232346,0.569397,0.47615263,-0.3253029,0.560223,0.47522258,-0.3046545,0.555636,0.47165568,-0.28423479,0.551467,0.49757444,-0.37138395,0.561628,0.49097935,-0.32052564,0.551718,0.48713651,-0.29078692,0.545938,0.48693271,-0.27206471,0.541809,0.51260935,-0.37339241,0.555307,0.50648963,-0.32276761,0.546698,0.50347762,-0.29694504,0.542422,0.5007399,-0.27346524,0.538535,0.53079944,-0.38159821,0.547816,0.5231213,-0.33879173,0.543152,0.52045796,-0.3197369,0.541902,0.5181085,-0.30291952,0.5408
0.49388563,-0.47722744,0.565556,0.4874987,-0.4278787,0.563263,0.47494399,-0.45786499,0.570123,0.44842435,-0.42137423,0.574078,0.42870065,-0.39178153,0.575074,0.42340628,-0.36974711,0.577122,0.472185,-0.36357342,0.566391,0.4729164,-0.31849282,0.56248,0.47327088,-0.29606714,0.560524,0.47118326,-0.27881737,0.558747,0.49165758,-0.36525137,0.55995,0.48463466,-0.31393305,0.549921,0.47992118,-0.28494388,0.544071,0.47963483,-0.2663202,0.539893,0.50753438,-0.36942885,0.5548,0.50267714,-0.31910904,0.548919,0.49941802,-0.29461402,0.54591,0.49591792,-0.2735098,0.543175,0.52910911,-0.38130811,0.548888,0.52182971,-0.33847215,0.544402,0.51837588,-0.31919841,0.542341,0.51532713,-0.30217086,0.540523
0.49025842,-0.47346112,0.568402,0.48632519,-0.42609658,0.564867,0.4691576,-0.45279904,0.572313,0.4442298,-0.41982793,0.577047,0.42102169,-0.39193813,0.576892,0.41038647,-0.36855066,0.574763,0.46305385,-0.35972127,0.565956,0.45612218,-0.31074276,0.555021,0.45144353,-0.28830022,0.549554,0.44642226,-0.26969824,0.544584,0.4832352,-0.36053067,0.559758,0.47577117,-0.30836598,0.549824,0.47075486,-0.27921879,0.54403,0.46717135,-0.25826265,0.539891,0.49982483,-0.36398912,0.554888,0.4886208,-0.31182461,0.544201,0.48250298,-0.28634638,0.538734,0.47667393,-0.26399833,0.533763,0.51983502,-0.37392848,0.549481,0.51238157,-0.33255144,0.546699,0.50895596,-0.3135372,0.54542,0.50593369,-0.29675886,0.544292
0.48459034,-0.46971737,0.570543,0.48217634,-0.42344322,0.566415,0.46816211,-0.45271495,0.574496,0.44342281,-0.41972301,0.579307,0.4209446,-0.39160233,0.579562,0.4100208,-0.36793704,0.57671,0.46191426,-0.3593461,0.566957,0.45685027,-0.31125143,0.55805,0.45276579,-0.28926611,0.553597,0.44846584,-0.27043236,0.549549,0.48176709,-0.36032523,0.56045,0.47797782,-0.3103175,0.554948,0.47298968,-0.28063733,0.551738,0.47318954,-0.26143563,0.549445,0.49806843,-0.3639409,0.555365,0.48711962,-0.31224888,0.545163,0.48124755,-0.28658093,0.539943,0.47577067,-0.26363338,0.535198,0.51770877,-0.37410608,0.549777,0.51217859,-0.33360913,0.548882,0.50963647,-0.31499727,0.54847,0.50739358,-0.29857284,0.548107
0.48373403,-0.4700769,0.572769,0.47822567,-0.42331252,0.568444,0.46700215,-0.45291974,0.576427,0.44040992,-0.41863878,0.581589,0.41800995,-0.39001553,0.581072,0.40769079,-0.36697765,0.575843,0.45824475,-0.35876346,0.568433,0.45615183,-0.31216335,0.562557,0.45338471,-0.29064119,0.559619,0.45066536,-0.27118386,0.556948,0.47828988,-0.36019265,0.562194,0.47576683,-0.31084359,0.558443,0.47065327,-0.28212459,0.556255,0.47231477,-0.26220606,0.554692,0.49473714,-0.36418117,0.557341,0.48459601,-0.31297021,0.551076,0.47996116,-0.28882407,0.54787,0.47853637,-0.26927927,0.544956,0.51451908,-0.37480347,0.552059,0.50622195,-0.3336467,0.551361,0.50368121,-0.31519145,0.55104,0.50550047,-0.29983456,0.551727
0.48275898,-0.47012558,0.573207,0.47833277,-0.42449925,0.569553,0.46599564,-0.45310004,0.576941,0.44138931,-0.42058626,0.583441,0.41830383,-0.3912153,0.581902,0.40807008,-0.36771117,0.5772,0.45620381,-0.36030062,0.570311,0.45373551,-0.31369316,0.564282,0.45071361,-0.29221577,0.561268,0.44988507,-0.27264291,0.558528,0.47639526,-0.361462,0.564272,0.47237439,-0.31192219,0.559988,0.46943272,-0.28354871,0.557489,0.46722731,-0.26326213,0.555704,0.49301034,-0.36522578,0.559541,0.48532147,-0.31389822,0.552043,0.48017116,-0.28978385,0.548207,0.47435791,-0.27305384,0.54472,0.51306295,-0.37557284,0.554317,0.50492576,-0.33412008,0.551551,0.50115936,-0.31515659,0.55028,0.49776012,-0.29854518,0.549158
0.4820843,-0.47013355,0.573469,0.47826274,-0.42498368,0.569961,0.46535549,-0.45324968,0.577321,0.44158103,-0.4212776,0.583974,0.41830673,-0.39168129,0.582117,0.4081748,-0.36804085,0.577841,0.45654986,-0.36102721,0.57101,0.45376878,-0.31431704,0.564809,0.45050412,-0.2928914,0.561709,0.44914906,-0.27316387,0.55889,0.47666858,-0.36203924,0.564893,0.47214029,-0.31238536,0.560384,0.4689021,-0.28394915,0.557754,0.46644936,-0.263653,0.555875,0.4932374,-0.36568316,0.560089,0.4853546,-0.31407264,0.552128,0.48001041,-0.28996485,0.548056,0.47394399,-0.27353028,0.544353,0.51325614,-0.37589253,0.554756,0.50429936,-0.33415003,0.551403,0.50016893,-0.31505061,0.549862,0.49642533,-0.29837363,0.548503
0.48075786,-0.47004118,0.576318,0.47560375,-0.42411603,0.572843,0.46259423,-0.45330506,0.580951,0.43403249,-0.41769169,0.585637,0.41204041,-0.38957957,0.585849,0.40629289,-0.36775605,0.587798,0.45383114,-0.35864627,0.574855,0.45102128,-0.31240828,0.56958,0.44711816,-0.29121259,0.566943,0.44305196,-0.27243775,0.564545,0.47304105,-0.35967905,0.567822,0.47135454,-0.31240046,0.562274,0.46764686,-0.28356434,0.559038,0.46635335,-0.26298863,0.556726,0.48877839,-0.36333056,0.562262,0.4824696,-0.31169146,0.551519,0.47639484,-0.28898217,0.546022,0.46885955,-0.27439739,0.541025,0.507642,-0.37352566,0.556013,0.49696953,-0.3314899,0.551694,0.49207525,-0.3122283,0.54971,0.49213986,-0.29749805,0.547959
0.47986146,-0.47014543,0.576846,0.47418073,-0.42416564,0.572916,0.46155761,-0.45312338,0.58115,0.43532916,-0.41977897,0.587241,0.41138948,-0.38971231,0.584567,0.4074391,-0.36901381,0.583332,0.45219615,-0.35899655,0.574075,0.4478852,-0.31261854,0.568152,0.44338364,-0.29141109,0.565191,0.43900781,-0.27222613,0.562498,0.47141706,-0.35991849,0.567237,0.46835234,-0.3102875,0.562661,0.46771756,-0.28361969,0.559991,0.46681334,-0.26327888,0.558085,0.48726637,-0.3635132,0.561866,0.47474106,-0.31148771,0.551855,0.46675279,-0.28806339,0.546733,0.45834301,-0.27025243,0.542076,0.50645366,-0.37372573,0.555907,0.49455774,-0.33125834,0.55045,0.48910226,-0.31180213,0.547943,0.4840339,-0.29505088,0.545731
0.47875426,-0.46979744,0.576719,0.47344712,-0.42417011,0.572925,0.46075043,-0.45292746,0.581207,0.4355616,-0.42028282,0.587506,0.41162094,-0.39018103,0.584777,0.40715867,-0.36902192,0.583915,0.45214466,-0.35950318,0.57444,0.44711946,-0.31288502,0.568032,0.4423104,-0.29159116,0.564827,0.43773737,-0.27220292,0.561914,0.47120907,-0.36025162,0.567442,0.46838612,-0.31073614,0.563044,0.46768968,-0.2836103,0.560479,0.46683194,-0.26330995,0.558647,0.48693366,-0.36370136,0.561931,0.47495355,-0.31162713,0.552102,0.46704391,-0.28824305,0.547074,0.45870321,-0.27046482,0.542502,0.5059775,-0.37373353,0.555784,0.49368243,-0.33113342,0.549956,0.48804335,-0.31161687,0.547278,0.48280475,-0.29482803,0.544915
0.47790086,-0.46963655,0.576593,0.4712924,-0.42439567,0.573409,0.46045376,-0.45345473,0.581753,0.43534077,-0.42282322,0.588362,0.40957303,-0.39721294,0.587676,0.40541344,-0.37206042,0.588929,0.44707497,-0.36371474,0.576344,0.45018766,-0.31809036,0.574726,0.45030123,-0.29644092,0.573917,0.44961006,-0.27951566,0.575804,0.46963846,-0.3619049,0.568809,0.46017354,-0.31286903,0.563705,0.45540119,-0.28488654,0.560727,0.45197431,-0.26469523,0.5586,0.48504851,-0.36458052,0.562817,0.48008587,-0.31639157,0.560504,0.47209168,-0.29240215,0.55932,0.46690356,-0.27269508,0.558244,0.50378593,-0.37363845,0.556008,0.48721179,-0.33155346,0.552278,0.48114679,-0.31270006,0.550564,0.48219486,-0.2970371,0.549051
0.47746137,-0.46974636,0.576785,0.47109517,-0.42480947,0.573628,0.46009583,-0.45373959,0.582017,0.43503336,-0.42362388,0.588573,0.40986435,-0.39749547,0.588094,0.40495645,-0.37330078,0.589573,0.44733173,-0.36392362,0.576675,0.45083426,-0.31926143,0.576084,0.45100439,-0.29795184,0.575789,0.4502199,-0.27989479,0.576585,0.46887792,-0.36225754,0.569066,0.46035558,-0.3129928,0.563928,0.45556606,-0.28498968,0.56093,0.45212724,-0.26478478,0.558789,0.48428091,-0.36471344,0.563012,0.47960097,-0.31677004,0.561155,0.47283866,-0.29286481,0.560205,0.4678219,-0.27323144,0.559342,0.5030588,-0.37350324,0.556124,0.48772875,-0.33190526,0.552864,0.48184767,-0.31315556,0.551366,0.48145363,-0.29734127,0.550045
0.47572455,-0.46969087,0.577345,0.47097331,-0.42501183,0.573895,0.45988044,-0.45399365,0.582557,0.43458313,-0.42271137,0.588218,0.41192786,-0.39468169,0.588112,0.40529947,-0.37282633,0.589943,0.45104622,-0.36209033,0.576622,0.45245095,-0.31899087,0.57676,0.45116853,-0.29852243,0.576829,0.4500974,-0.27998168,0.577282,0.46959338,-0.36187468,0.568909,0.46557226,-0.31326834,0.565538,0.45894719,-0.28605662,0.563571,0.4562432,-0.26605417,0.562167,0.48490587,-0.36451338,0.562788,0.48035664,-0.31749943,0.562168,0.4770228,-0.29472769,0.561851,0.47156212,-0.27410524,0.561959,0.50350691,-0.37352362,0.55586,0.4910172,-0.33261766,0.552562,0.48566761,-0.31382383,0.551073,0.48082615,-0.29740966,0.549759
0.4744461,-0.46973242,0.577867,0.47066394,-0.42505426,0.573966,0.45825369,-0.45366667,0.582618,0.43434865,-0.42261581,0.588367,0.41086311,-0.39134113,0.585696,0.40385676,-0.37096245,0.587744,0.45028558,-0.36147144,0.575686,0.44669207,-0.31466923,0.569057,0.44365443,-0.29220982,0.565743,0.44210889,-0.27371181,0.562729,0.4691198,-0.36161311,0.568328,0.46498609,-0.31185466,0.563467,0.46344013,-0.28337153,0.560631,0.46097996,-0.26365774,0.558605,0.48468753,-0.36456114,0.562528,0.47755626,-0.31492045,0.556668,0.47373914,-0.29127021,0.55367,0.46765021,-0.26785115,0.550945,0.50362742,-0.37397851,0.556046,0.49007226,-0.33264538,0.551552,0.48171628,-0.31381779,0.549488,0.47883864,-0.2970103,0.547666
0.47590665,-0.47070829,0.579631,0.47634356,-0.42631518,0.574448,0.45872354,-0.4538306,0.583213,0.44522648,-0.42631408,0.590128,0.41912583,-0.39389217,0.584371,0.40833162,-0.37007796,0.580411,0.45678469,-0.36362028,0.57348,0.45220515,-0.31612827,0.564986,0.44835586,-0.29404387,0.560739,0.44485134,-0.2737428,0.556878,0.47652688,-0.3642965,0.566959,0.46714654,-0.31062343,0.554248,0.4662203,-0.2841031,0.546833,0.46326058,-0.2640239,0.541537,0.49292241,-0.36769633,0.56193,0.4752227,-0.3173744,0.554499,0.46919427,-0.29163773,0.550697,0.460531,-0.26965774,0.547241,0.51301581,-0.37767787,0.556549,0.49567903,-0.33671394,0.548769,0.48902468,-0.31737389,0.545195,0.48044773,-0.29611815,0.542041
0.47772999,-0.47190202,0.582012,0.4773865,-0.42714242,0.576219,0.4602602,-0.4548733,0.585298,0.44569828,-0.42678535,0.591239,0.4203852,-0.39512486,0.586605,0.40671669,-0.36953342,0.582439,0.45611182,-0.36458825,0.574281,0.45052364,-0.31666341,0.56405,0.44666549,-0.29386861,0.558934,0.44316038,-0.27300423,0.554284,0.47589321,-0.36543995,0.567847,0.46828562,-0.31169868,0.554051,0.46551266,-0.28367188,0.546003,0.46216388,-0.26339886,0.540255,0.49237799,-0.36896014,0.562929,0.47739324,-0.31835094,0.557265,0.47240581,-0.29289119,0.554367,0.46593705,-0.27084559,0.552803,0.51266948,-0.37902623,0.557764,0.49588948,-0.33685691,0.549002,0.48882735,-0.31724583,0.544975,0.48050071,-0.29698739,0.541423
0.48280911,-0.47491117,0.586074,0.49008003,-0.43006975,0.576841,0.47227768,-0.45710202,0.589156,0.45418482,-0.42867323,0.591182,0.4262026,-0.39599125,0.584415,0.4083124,-0.3705289,0.578046,0.4612196,-0.36341763,0.571182,0.44920033,-0.31590577,0.561093,0.44540966,-0.29300063,0.556049,0.44174025,-0.27232685,0.551464,0.47963873,-0.36335944,0.563499,0.46857099,-0.3114038,0.552001,0.46435719,-0.2826395,0.545294,0.46093168,-0.26255712,0.540503,0.49529182,-0.36629143,0.557774,0.48825579,-0.31656259,0.552486,0.48424417,-0.29147672,0.549781,0.48034008,-0.26879259,0.547321,0.51520612,-0.37600788,0.552095,0.51103432,-0.33605028,0.5529,0.50912622,-0.31776159,0.55327,0.50744656,-0.30166065,0.553596
0.47991534,-0.47187162,0.581906,0.48207746,-0.42691095,0.574022,0.46286728,-0.45460136,0.584586,0.45341032,-0.42712374,0.58911,0.42929848,-0.39086723,0.582168,0.42669216,-0.37022127,0.586473,0.45983926,-0.36174881,0.569247,0.46382726,-0.31744084,0.567,0.46498239,-0.29565557,0.565876,0.46604637,-0.27571679,0.564855,0.4789056,-0.36283919,0.562629,0.46959671,-0.31129423,0.552009,0.46576487,-0.2824403,0.545814,0.46271946,-0.26215378,0.541389,0.49504225,-0.36668599,0.557693,0.48370026,-0.31330299,0.545127,0.47960675,-0.28896219,0.538698,0.4740918,-0.26575937,0.532853,0.51535613,-0.37744863,0.552786,0.51154806,-0.33573827,0.550858,0.50957096,-0.31682531,0.549972,0.50768935,-0.30026343,0.549191
0.49344574,-0.47441253,0.585905,0.4925189,-0.42873406,0.576118,0.47446639,-0.45677653,0.587668,0.46016752,-0.4272697,0.588675,0.43169393,-0.39264852,0.583076,0.42826498,-0.37236221,0.587554,0.46029907,-0.36087863,0.568326,0.46138083,-0.3141012,0.561349,0.46022597,-0.291886,0.55786,0.45885181,-0.27554568,0.554689,0.47970534,-0.36163728,0.561975,0.48346819,-0.31139586,0.55884,0.48370132,-0.28315011,0.557011,0.48387108,-0.26291777,0.555704,0.49713604,-0.36447622,0.557382,0.49884129,-0.31459734,0.555008,0.49858179,-0.28994417,0.553793,0.49834506,-0.26757029,0.552689,0.52112294,-0.37265967,0.553142,0.51065228,-0.32705366,0.543037,0.50507114,-0.30794808,0.538394,0.50173764,-0.29356984,0.537079
0.49593885,-0.47429139,0.586144,0.50296625,-0.42521631,0.574825,0.47809617,-0.45413179,0.583445,0.45931629,-0.41652025,0.582495,0.43027403,-0.38413915,0.572442,0.42194323,-0.36358946,0.575977,0.47226682,-0.35298629,0.560166,0.46710683,-0.30500762,0.551518,0.46453173,-0.28303914,0.547193,0.46220585,-0.26280875,0.543262,0.49630431,-0.3569541,0.55847,0.49087992,-0.30559106,0.550876,0.48798108,-0.27685916,0.546447,0.48600484,-0.25671369,0.543283,0.51637078,-0.36324855,0.557804,0.51106215,-0.31430607,0.554194,0.50892537,-0.28968947,0.552972,0.50701716,-0.26733856,0.551898,0.54123114,-0.37712941,0.558507,0.5314122,-0.33355908,0.553134,0.52697569,-0.31385334,0.550665,0.5252373,-0.30557037,0.548487
0.51421452,-0.47750377,0.587936,0.52200925,-0.42942068,0.578905,0.49543395,-0.45616715,0.585438,0.46851544,-0.41577784,0.571912,0.43783335,-0.38426414,0.566045,0.43041273,-0.36608131,0.570772,0.48930901,-0.35576166,0.566798,0.48757159,-0.31376471,0.563285,0.486574,-0.29390406,0.561529,0.48562093,-0.27613185,0.559932,0.5135239,-0.35906923,0.565855,0.4969061,-0.30737033,0.54826,0.48721287,-0.27725899,0.537996,0.48028989,-0.25577341,0.530665,0.53408967,-0.3648527,0.565661,0.52105631,-0.34844231,0.548319,0.51564082,-0.34470022,0.539447,0.5108829,-0.34140221,0.531381,0.56030786,-0.37833145,0.56663,0.53476566,-0.33619126,0.550304,0.52302053,-0.3167976,0.542803,0.51305539,-0.29918969,0.536184
0.54793084,-0.47617759,0.582798,0.54514473,-0.43067054,0.579495,0.5234412,-0.45569388,0.579727,0.49060584,-0.41866446,0.568168,0.464415,-0.39408542,0.569672,0.45794531,-0.37926893,0.57767,0.51357782,-0.36211575,0.572493,0.49958012,-0.31903636,0.561264,0.49254022,-0.29711664,0.55565,0.48611436,-0.27695435,0.550546,0.54110848,-0.36615943,0.574721,0.5294022,-0.31639352,0.562731,0.52276233,-0.28741737,0.555737,0.51802811,-0.26654663,0.550741,0.56414775,-0.37236174,0.576766,0.54362565,-0.32056132,0.564398,0.53318565,-0.2943701,0.55807,0.52810421,-0.27802172,0.552318,0.5926629,-0.38587282,0.579674,0.57045013,-0.34302513,0.567156,0.56024362,-0.32333436,0.561405,0.55123665,-0.30595744,0.55633
0.55199976,-0.47728432,0.585443,0.54835958,-0.4301907,0.580298,0.52933156,-0.45753715,0.584203,0.49650343,-0.41786624,0.576137,0.47680056,-0.39555486,0.583027,0.46674704,-0.37287372,0.581875,0.52185643,-0.35954635,0.573619,0.51640982,-0.31493234,0.569738,0.51442648,-0.29538691,0.567797,0.51261812,-0.2771416,0.566033,0.54674543,-0.36281373,0.572864,0.53490816,-0.31577077,0.559324,0.52802111,-0.28770145,0.551426,0.51817967,-0.26572671,0.545784,0.56755002,-0.3684389,0.572573,0.55216969,-0.31931452,0.559302,0.54428552,-0.29390771,0.552512,0.53710845,-0.27063942,0.546339,0.59332904,-0.38137949,0.572909,0.57772199,-0.33771494,0.564569,0.57161681,-0.31918972,0.560738,0.56621002,-0.30270105,0.557357
0.55063814,-0.47222387,0.580014,0.5584321,-0.42672593,0.577813,0.53053298,-0.45447104,0.581153,0.50531211,-0.41621427,0.574775,0.487937,-0.39606099,0.584543,0.47732484,-0.37259884,0.582276,0.5354836,-0.36131096,0.576946,0.5281179,-0.31471825,0.568256,0.52443568,-0.29138711,0.563911,0.52108759,-0.27015573,0.55996,0.55880497,-0.36354251,0.574632,0.55356179,-0.31433711,0.569264,0.5505617,-0.28558584,0.566133,0.54841929,-0.26499645,0.563897,0.57786372,-0.36815158,0.57287,0.56526595,-0.31794056,0.563218,0.55888351,-0.29228836,0.558279,0.55308069,-0.26894219,0.55379,0.60075475,-0.37945516,0.571037,0.58354413,-0.33898191,0.561114,0.57907476,-0.32540233,0.556555,0.57513852,-0.313112,0.552532
0.55372584,-0.47160863,0.580381,0.55986024,-0.42610225,0.57772,0.53512518,-0.45182347,0.579991,0.5081773,-0.41603067,0.575147,0.4909237,-0.39134879,0.580514,0.47804961,-0.36951823,0.579117,0.53437414,-0.35990908,0.574566,0.52572775,-0.31320336,0.564539,0.5214061,-0.28978838,0.559526,0.51778093,-0.2693288,0.554969,0.5593649,-0.36292819,0.573876,0.54892715,-0.31128629,0.562967,0.54447805,-0.28181497,0.556603,0.5402186,-0.26040065,0.552058,0.57996385,-0.36822002,0.573479,0.56626597,-0.31738726,0.562776,0.5594861,-0.2916642,0.5573,0.55331921,-0.26821584,0.552322,0.60492686,-0.38043565,0.573355,0.58717401,-0.33793061,0.562412,0.58154855,-0.31599261,0.557384,0.5745711,-0.29826479,0.552947
0.54996508,-0.46665367,0.574333,0.55775845,-0.4223953,0.573154,0.53425757,-0.44866463,0.576814,0.5159008,-0.40872785,0.569442,0.49341717,-0.38330119,0.572351,0.48358082,-0.35694336,0.565796,0.54616153,-0.35637368,0.574921,0.56032724,-0.32191408,0.584843,0.56633301,-0.30450648,0.589804,0.57166118,-0.2885341,0.594314,0.56826203,-0.35961198,0.571451,0.56210043,-0.31015698,0.562691,0.5584929,-0.28120312,0.55758,0.55592491,-0.2603805,0.55393,0.5864785,-0.36505456,0.568673,0.57823526,-0.31754237,0.560663,0.57402088,-0.29282988,0.556565,0.57018926,-0.27006223,0.552839,0.60844524,-0.37748154,0.565477,0.5997996,-0.33526447,0.562222,0.59584492,-0.31600828,0.560726,0.59263903,-0.29958545,0.559406
0.59803508,-0.46995022,0.587515,0.59344465,-0.42408648,0.582785,0.57413967,-0.45013489,0.58584,0.54462036,-0.41716661,0.578954,0.51598758,-0.38823425,0.575872,0.50381046,-0.36475228,0.572769,0.56069949,-0.35598202,0.576007,0.55119622,-0.31593029,0.563856,0.54648682,-0.29532008,0.557781,0.54223069,-0.27621361,0.552257,0.58680714,-0.35878385,0.575951,0.57413925,-0.30626686,0.562688,0.56686386,-0.27640049,0.554951,0.5616683,-0.25503924,0.549425,0.60894189,-0.36403227,0.576209,0.60520211,-0.31542235,0.573293,0.60329461,-0.29090232,0.571802,0.60339897,-0.27788685,0.570446,0.63678413,-0.37655734,0.57715,0.61710794,-0.33121633,0.566309,0.60971196,-0.31144506,0.5628,0.60341945,-0.29438711,0.559704
0.60603135,-0.47253813,0.589383,0.60999739,-0.4265907,0.584433,0.58711825,-0.45474584,0.59205,0.56267676,-0.42143694,0.584703,0.53702657,-0.39383596,0.585002,0.52407219,-0.36989477,0.580619,0.58668636,-0.35961651,0.582609,0.57576042,-0.31785083,0.570823,0.5703099,-0.29651356,0.56493,0.56536284,-0.2768331,0.559573,0.60671778,-0.3607045,0.57728,0.59271179,-0.31487856,0.564914,0.58452444,-0.28747781,0.557701,0.57866782,-0.2675785,0.552549,0.62374067,-0.36457265,0.573215,0.60782425,-0.31430533,0.561947,0.59929461,-0.28961586,0.556182,0.59129683,-0.2677503,0.550941,0.64521825,-0.37551745,0.568968,0.63304315,-0.3336122,0.565552,0.62874672,-0.31515491,0.565118,0.62524854,-0.29903124,0.564995
0.60932489,-0.47270909,0.589164,0.62093223,-0.42846325,0.586818,0.5952143,-0.45257836,0.590373,0.57079503,-0.41287373,0.581071,0.54860862,-0.38328855,0.581808,0.54036668,-0.35876885,0.578871,0.60402308,-0.3612719,0.585888,0.60068782,-0.32223827,0.576515,0.59914376,-0.30206918,0.571828,0.59781785,-0.28332426,0.567567,0.62704405,-0.36598593,0.583428,0.62264976,-0.31890694,0.573201,0.62018871,-0.29081208,0.567235,0.61848081,-0.27043914,0.562974,0.6461832,-0.37272579,0.581555,0.63814764,-0.32171767,0.571821,0.63396927,-0.2963971,0.566841,0.63013297,-0.27378468,0.562313,0.66944836,-0.3869071,0.579608,0.66221314,-0.34442272,0.576827,0.66152193,-0.32645746,0.577826,0.66118394,-0.31075074,0.578944
0.62075405,-0.47358508,0.589732,0.63478319,-0.42783299,0.586657,0.60625703,-0.45231901,0.590998,0.5879373,-0.41742222,0.581717,0.56220568,-0.38782152,0.580779,0.55403612,-0.3654554,0.581289,0.61472179,-0.36028972,0.585058,0.60782179,-0.3172841,0.575114,0.60441064,-0.29537758,0.570142,0.60133345,-0.27521409,0.565622,0.63770273,-0.36429918,0.582213,0.63168058,-0.31901381,0.571284,0.62829237,-0.29178558,0.564908,0.62072342,-0.27054794,0.560354,0.65682435,-0.37048043,0.580071,0.63938241,-0.32161627,0.570268,0.63368076,-0.29692206,0.565253,0.62854011,-0.27479229,0.560693,0.68016363,-0.3839974,0.577895,0.67002369,-0.34353949,0.575982,0.66186189,-0.32491911,0.575102,0.65855558,-0.30837322,0.574327
0.62990091,-0.46701333,0.582297,0.64096525,-0.42494142,0.582692,0.61472266,-0.44921815,0.586964,0.59988806,-0.41829407,0.582932,0.58472236,-0.39591478,0.592899,0.58060792,-0.3758176,0.597771,0.62885269,-0.36250667,0.588658,0.6264383,-0.32148522,0.582729,0.62536915,-0.30039827,0.579833,0.62448441,-0.28086899,0.577244,0.64924457,-0.36495681,0.583264,0.64830442,-0.32200636,0.576643,0.6479668,-0.29586504,0.572806,0.64785918,-0.27667096,0.570104,0.66581851,-0.36967058,0.578803,0.65713605,-0.32447383,0.57394,0.65290344,-0.30157092,0.571452,0.64550034,-0.27984271,0.570998,0.68531831,-0.38098733,0.573365,0.67723052,-0.34099506,0.572904,0.67352908,-0.3226924,0.572693,0.67028672,-0.30658785,0.572521
0.6524911,-0.47280893,0.588198,0.65838596,-0.42841481,0.585486,0.62786651,-0.45107493,0.585526,0.61246827,-0.41802742,0.57084,0.57347788,-0.38407776,0.559054,0.56263998,-0.36210309,0.558379,0.62293107,-0.3611088,0.579558,0.61378411,-0.31482875,0.56917,0.61019873,-0.29246321,0.563976,0.60695833,-0.27195616,0.559255,0.6492433,-0.36406158,0.581567,0.64100872,-0.31816353,0.570186,0.63629233,-0.29064323,0.563548,0.63004158,-0.27080977,0.558806,0.67302166,-0.37112627,0.583393,0.65958712,-0.31913068,0.571788,0.65172815,-0.29322268,0.565851,0.64458229,-0.26963298,0.560454,0.70475741,-0.38219805,0.585959,0.69187289,-0.34421456,0.587379,0.68860041,-0.32696185,0.588031,0.68738541,-0.31338961,0.588607
0.66996496,-0.47034101,0.587418,0.67629685,-0.42556483,0.588796,0.65366141,-0.44983654,0.587266,0.62982855,-0.41744548,0.576505,0.59869809,-0.39401109,0.576811,0.58805571,-0.37346429,0.577835,0.6474204,-0.36336798,0.590007,0.6439719,-0.31925659,0.5838,0.64227162,-0.29690692,0.580696,0.64074049,-0.27641225,0.577874,0.67490747,-0.36550123,0.590787,0.66793759,-0.315579,0.584022,0.66387199,-0.28646471,0.580076,0.66096742,-0.26567176,0.577257,0.69786933,-0.36995293,0.591339,0.68759185,-0.32069107,0.584446,0.68232711,-0.29536096,0.580919,0.67831627,-0.27277662,0.577712,0.7261132,-0.38099085,0.591823,0.70225244,-0.33832328,0.584515,0.70328596,-0.3333833,0.581158,0.70712759,-0.34403701,0.578195
0.67967732,-0.47321641,0.59414,0.67789559,-0.42515168,0.590134,0.65414194,-0.44872803,0.58719,0.62907721,-0.41393618,0.566851,0.59298773,-0.3880663,0.561189,0.57567685,-0.36350645,0.554032,0.63775181,-0.35515097,0.577799,0.63234271,-0.30980093,0.565618,0.62969255,-0.28686662,0.559527,0.62731737,-0.26585831,0.55399,0.66860502,-0.3606387,0.584347,0.65926222,-0.30773939,0.571089,0.65535623,-0.27832681,0.565225,0.65257625,-0.25721084,0.561035,0.69642177,-0.36775564,0.58999,0.68016907,-0.31552935,0.575815,0.67598941,-0.28872794,0.568563,0.67102098,-0.26551558,0.56197,0.73150058,-0.38247946,0.597335,0.69860426,-0.33341163,0.58336,0.69937722,-0.3300551,0.57694,0.70072601,-0.3396146,0.571274
0.69626368,-0.46964702,0.595861,0.70024301,-0.42448188,0.591125,0.67672038,-0.44832208,0.58794,0.65052869,-0.41361154,0.566302,0.61576162,-0.38868606,0.5619,0.59624109,-0.36271099,0.552651,0.65786855,-0.35462022,0.576893,0.65195297,-0.30884596,0.563902,0.64904476,-0.2857458,0.557406,0.64643219,-0.26461528,0.551501,0.69070697,-0.35970077,0.584281,0.67948931,-0.30723231,0.570183,0.6762334,-0.27805065,0.564712,0.67392354,-0.2570791,0.560804,0.71843851,-0.36677731,0.590663,0.70402572,-0.31492479,0.575552,0.69665838,-0.28832769,0.567821,0.69143127,-0.26493645,0.560792,0.75317539,-0.38140978,0.598997,0.71936496,-0.33361262,0.583755,0.72130888,-0.32899128,0.576752,0.7230999,-0.33882576,0.570574
0.71352241,-0.47196677,0.597787,0.71128787,-0.4270106,0.592162,0.68272972,-0.44976722,0.588421,0.65953751,-0.41254488,0.564915,0.62560264,-0.38856142,0.561281,0.60688695,-0.3627874,0.552677,0.66939586,-0.3556729,0.575307,0.671977,-0.31259815,0.574242,0.67328283,-0.29088485,0.573709,0.67447981,-0.27104268,0.573225,0.70173348,-0.36149837,0.584033,0.69112829,-0.3108677,0.574096,0.68610907,-0.2816047,0.568299,0.68024856,-0.2596012,0.564158,0.72891197,-0.36920534,0.591572,0.71405046,-0.31781122,0.575418,0.70657267,-0.29145612,0.567154,0.70055963,-0.26776822,0.559641,0.76281266,-0.38460185,0.601421,0.74543664,-0.34063119,0.594624,0.74267455,-0.321435,0.591502,0.75070877,-0.31577104,0.588746
0.71541177,-0.47344626,0.596384,0.71848097,-0.433905,0.593071,0.69149458,-0.45379661,0.588079,0.66125892,-0.41567826,0.573986,0.63381199,-0.38322378,0.566039,0.62395568,-0.36494051,0.570045,0.68193292,-0.36364797,0.579819,0.69028406,-0.32549689,0.587763,0.69565098,-0.30623072,0.591735,0.7005331,-0.28862312,0.595346,0.71259841,-0.36985827,0.588284,0.70415774,-0.31886791,0.57777,0.69953189,-0.28913099,0.571637,0.6963591,-0.26786869,0.567256,0.7381153,-0.37780702,0.595458,0.72709744,-0.32665669,0.582033,0.72147338,-0.30038402,0.575164,0.71745134,-0.27681352,0.56892,0.76952904,-0.39330561,0.60456,0.7575279,-0.34916204,0.597222,0.75397721,-0.32937737,0.59385,0.75993846,-0.31771884,0.590875
0.71582781,-0.47398915,0.595489,0.71539952,-0.43146514,0.592627,0.69152515,-0.45438046,0.587452,0.66119195,-0.41629479,0.574717,0.63355956,-0.38314761,0.565655,0.62358161,-0.36428983,0.569084,0.68123306,-0.3639205,0.580151,0.68906102,-0.32558487,0.587776,0.69485628,-0.306201,0.591589,0.70055608,-0.28843848,0.595055,0.71181777,-0.36996481,0.588491,0.70307114,-0.31895717,0.577923,0.69826498,-0.28921415,0.571759,0.69496126,-0.2679488,0.567355,0.73724393,-0.37775883,0.595535,0.72661794,-0.32691866,0.582626,0.72119878,-0.30077534,0.576022,0.71736099,-0.27730214,0.570018,0.76848884,-0.3930265,0.604418,0.7570268,-0.34925183,0.597648,0.75305505,-0.32949157,0.594538,0.75715063,-0.31720051,0.591793
0.71118197,-0.47101242,0.590552,0.71872718,-0.43355613,0.592839,0.68776527,-0.45198182,0.586259,0.66636878,-0.41101258,0.578521,0.64403512,-0.37692077,0.573552,0.63813306,-0.35801761,0.578649,0.69948593,-0.36538045,0.590032,0.69796423,-0.32017558,0.586142,0.69873544,-0.29788198,0.584197,0.69944924,-0.27752971,0.582429,0.72840339,-0.37387523,0.596144,0.71725202,-0.32612696,0.592951,0.72781095,-0.30349513,0.591088,0.73571991,-0.28671267,0.589758,0.75188746,-0.38349762,0.601024,0.74232764,-0.33255967,0.593795,0.7438204,-0.30848275,0.590097,0.74526673,-0.28627252,0.586735,0.7796319,-0.4005857,0.60661,0.76809155,-0.35633657,0.599265,0.76362845,-0.33630542,0.595891,0.76387223,-0.31985664,0.592913
0.71075364,-0.47071883,0.590072,0.71633919,-0.43099852,0.591987,0.6872724,-0.45079275,0.585631,0.66295199,-0.40386124,0.575038,0.64030595,-0.3668405,0.565982,0.63494786,-0.35152126,0.573029,0.69712822,-0.36226481,0.588628,0.70000841,-0.31887861,0.58763,0.70470109,-0.29557217,0.587132,0.70683144,-0.27786181,0.586678,0.72643655,-0.37146254,0.594755,0.72560797,-0.31979014,0.58796,0.72785532,-0.29134117,0.583997,0.72949489,-0.27089296,0.581166,0.75027353,-0.38167609,0.59967,0.73977508,-0.33100235,0.592496,0.75006386,-0.31690705,0.588825,0.76169092,-0.30625036,0.585488,0.77847796,-0.39952058,0.605348,0.76808238,-0.35589885,0.599453,0.76464932,-0.33621069,0.596745,0.76629289,-0.32073566,0.594355
0.71410284,-0.47136363,0.592646,0.72003219,-0.42192769,0.593117,0.69250233,-0.45143563,0.587816,0.67141662,-0.40621683,0.584039,0.64543868,-0.36921698,0.570189,0.63639022,-0.34650595,0.570367,0.69617842,-0.35730678,0.587834,0.6974885,-0.31378889,0.586375,0.70405138,-0.29427032,0.585645,0.70772565,-0.27702769,0.584982,0.72651868,-0.36206903,0.593798,0.72704856,-0.31248587,0.58617,0.72740377,-0.28335621,0.581721,0.72693608,-0.2660828,0.578543,0.75067468,-0.3705189,0.598673,0.73704727,-0.32039897,0.58839,0.73007355,-0.2946558,0.583129,0.72373239,-0.27119139,0.578346,0.77927439,-0.3862873,0.604494,0.76776124,-0.34330314,0.59904,0.76362182,-0.3238372,0.596534,0.76735565,-0.31067691,0.594323
0.71537583,-0.47102695,0.593548,0.72068895,-0.42231255,0.593658,0.69339615,-0.45067331,0.588581,0.67229032,-0.40674543,0.584799,0.64668733,-0.36974478,0.571183,0.63767132,-0.34685669,0.571118,0.69641999,-0.35656776,0.587846,0.69614724,-0.31260715,0.585609,0.70304468,-0.29350492,0.584491,0.70738146,-0.276298,0.583474,0.72654192,-0.36208062,0.593817,0.72656235,-0.3122769,0.585778,0.7266135,-0.28304836,0.581089,0.7261733,-0.26450989,0.57774,0.75073362,-0.37054799,0.59872,0.73663389,-0.32021928,0.58806,0.72941875,-0.29439153,0.582606,0.72285893,-0.27086409,0.577648,0.77944069,-0.38636973,0.604623,0.76773945,-0.3432934,0.599023,0.76351429,-0.3237916,0.59645,0.76717102,-0.31060216,0.59418
0.7163543,-0.47082587,0.594109,0.72221187,-0.4233727,0.594404,0.69453133,-0.45042541,0.589373,0.67454151,-0.40799149,0.586147,0.65033926,-0.37120957,0.57346,0.63962715,-0.34752561,0.572052,0.69861793,-0.35726914,0.589054,0.69490559,-0.31157777,0.583728,0.70055361,-0.29224706,0.581066,0.70822409,-0.27493581,0.578645,0.72861199,-0.36327656,0.594829,0.72899723,-0.31351809,0.586944,0.72926149,-0.28431266,0.582344,0.72880867,-0.26501609,0.579058,0.75257686,-0.37174252,0.599559,0.7381166,-0.3212372,0.58917,0.73071668,-0.29537544,0.583854,0.72399009,-0.2718521,0.579022,0.78094776,-0.38754457,0.60523,0.76940787,-0.34443826,0.599653,0.76525805,-0.32492534,0.59709,0.76898305,-0.31172702,0.594829
0.71918648,-0.47076106,0.594757,0.7235498,-0.42326386,0.594781,0.69572501,-0.45004246,0.589992,0.67590183,-0.40827134,0.586554,0.65116247,-0.37142981,0.573561,0.64066263,-0.34787935,0.572393,0.69877258,-0.35699343,0.589123,0.69856445,-0.3105709,0.582888,0.70513404,-0.29158673,0.57977,0.70766663,-0.27354639,0.576936,0.72880998,-0.36287911,0.594815,0.72937524,-0.31302246,0.586724,0.7297681,-0.28379788,0.582003,0.7300672,-0.26285108,0.578632,0.75297836,-0.37111788,0.599495,0.73915796,-0.32047646,0.589285,0.73557498,-0.29505404,0.586081,0.73142061,-0.27222214,0.583167,0.7817193,-0.38667968,0.605141,0.77000815,-0.34361026,0.599813,0.76610826,-0.32415101,0.597365,0.7705406,-0.3119069,0.595204
0.72015396,-0.47036225,0.59516,0.72438424,-0.42321676,0.595033,0.69661931,-0.44969765,0.590436,0.67690601,-0.4085526,0.586961,0.6516807,-0.37157582,0.573643,0.64136159,-0.34811981,0.572628,0.69899664,-0.35687143,0.589271,0.69899591,-0.31035127,0.582779,0.70525786,-0.29100039,0.579533,0.70815248,-0.27303231,0.576582,0.72898073,-0.36266649,0.594849,0.72974469,-0.31278663,0.586707,0.73027026,-0.28356661,0.581957,0.73066319,-0.26262714,0.578565,0.75320364,-0.37073507,0.599444,0.73962322,-0.31995118,0.589227,0.73604017,-0.29417391,0.58576,0.73186159,-0.27120603,0.582608,0.78208005,-0.38610927,0.605008,0.77031799,-0.34309174,0.59987,0.76659239,-0.32367607,0.59751,0.77147346,-0.31201377,0.595427
0.72420714,-0.47023923,0.597104,0.72823753,-0.42314344,0.59634,0.70112649,-0.44694272,0.592596,0.68086411,-0.40938387,0.588553,0.65421768,-0.3721384,0.574298,0.64365638,-0.34870337,0.573611,0.70088905,-0.35631352,0.590193,0.70004086,-0.30976647,0.582803,0.70624755,-0.29065428,0.579109,0.71221488,-0.27291373,0.57575,0.72996929,-0.36230512,0.595236,0.73481476,-0.31272001,0.590863,0.73747856,-0.28414053,0.593608,0.74174556,-0.26550494,0.595569,0.75515312,-0.36827605,0.599433,0.74375479,-0.31750122,0.590307,0.73818972,-0.29163677,0.585726,0.7331324,-0.26812265,0.581563,0.78442486,-0.38265108,0.604601,0.77275624,-0.34036848,0.600984,0.76950727,-0.32127456,0.599321,0.77458578,-0.31245426,0.597855
0.72591516,-0.46898141,0.597916,0.7293298,-0.42288841,0.596787,0.70250184,-0.44690447,0.593271,0.68157526,-0.40927109,0.588804,0.65464513,-0.37211087,0.574417,0.64401767,-0.34872944,0.573652,0.70110098,-0.35597327,0.590108,0.70021606,-0.30921533,0.582441,0.70654068,-0.29032224,0.578607,0.71262005,-0.27276391,0.575122,0.73023861,-0.36182972,0.595156,0.73538572,-0.31263588,0.59199,0.73828609,-0.28445167,0.594258,0.74213165,-0.26564314,0.595879,0.75548844,-0.36772105,0.59938,0.74421193,-0.31703377,0.590423,0.73855891,-0.29115432,0.58584,0.73342016,-0.26763221,0.581674,0.78482852,-0.38204321,0.604629,0.77279471,-0.33947064,0.600365,0.76901243,-0.3202209,0.598406,0.77365382,-0.31135506,0.596677
0.73305893,-0.47161691,0.603095,0.73238511,-0.42476498,0.598932,0.70656934,-0.44923192,0.596243,0.68323128,-0.41019395,0.5893,0.65592829,-0.37361621,0.575533,0.64424271,-0.34950396,0.57383,0.69696987,-0.35472812,0.586554,0.69531818,-0.30661118,0.576857,0.70746595,-0.29542594,0.572008,0.71684521,-0.28556068,0.567601,0.72789552,-0.36073127,0.592917,0.72947397,-0.31177332,0.587194,0.73055566,-0.28275607,0.583856,0.73398857,-0.26532926,0.581472,0.75328084,-0.36895716,0.598417,0.74309502,-0.31829903,0.590058,0.73782969,-0.29273093,0.585781,0.73326402,-0.26952233,0.581892,0.78560665,-0.38416369,0.605612,0.77161657,-0.34162555,0.599962,0.76711037,-0.32206958,0.597366,0.77182801,-0.31051453,0.595075
0.73521868,-0.47108729,0.604365,0.73375785,-0.42563626,0.599801,0.7086122,-0.44904072,0.597469,0.68377496,-0.41092793,0.589516,0.6561734,-0.37431001,0.575741,0.64442844,-0.3501123,0.573978,0.69782167,-0.35520246,0.586965,0.69590038,-0.30712407,0.576868,0.70723343,-0.29532884,0.57182,0.71637666,-0.28537403,0.56723,0.72856605,-0.36111224,0.593207,0.7296676,-0.31194588,0.587289,0.73042154,-0.28293579,0.583837,0.73416272,-0.2654266,0.581371,0.75382626,-0.36920888,0.598634,0.74293445,-0.31839048,0.589809,0.73759206,-0.29278486,0.585294,0.73311653,-0.2695939,0.581189,0.78594617,-0.38438798,0.605792,0.77176689,-0.34162034,0.599838,0.76701784,-0.32199899,0.597102,0.77152161,-0.31030901,0.594688
0.73113708,-0.46833024,0.600721,0.73122603,-0.42422362,0.597542,0.70655698,-0.44768114,0.595418,0.68113257,-0.40962977,0.587058,0.6563823,-0.37484481,0.575919,0.64555339,-0.35113013,0.574966,0.69972251,-0.35565331,0.588005,0.70146749,-0.30976542,0.581143,0.71452196,-0.29837241,0.577713,0.72567694,-0.28907887,0.574594,0.72849954,-0.36111817,0.592948,0.72922848,-0.31182989,0.586887,0.7303752,-0.28309135,0.583866,0.73540786,-0.26500542,0.581708,0.75226167,-0.3684303,0.597219,0.74154112,-0.31791329,0.588612,0.73650512,-0.29246437,0.584208,0.73242937,-0.26943554,0.580205,0.78213961,-0.38256974,0.602797,0.77213463,-0.34172572,0.599931,0.76915804,-0.32287196,0.598614,0.77526611,-0.31174892,0.597453
0.73232599,-0.46841397,0.600833,0.73292026,-0.42514984,0.598627,0.70776507,-0.4479502,0.595558,0.6832144,-0.41104965,0.588647,0.65553258,-0.3746511,0.575109,0.64501496,-0.35125127,0.574189,0.70334889,-0.35726002,0.590106,0.70389222,-0.31055635,0.581641,0.70931051,-0.28970423,0.577408,0.71258765,-0.27142865,0.57356,0.73268772,-0.36269429,0.595439,0.73244451,-0.31351806,0.588291,0.73233702,-0.28439531,0.584122,0.73627466,-0.26530007,0.581144,0.75686518,-0.36995378,0.599966,0.7436274,-0.31886435,0.590109,0.73848305,-0.2925738,0.585065,0.73286151,-0.26969345,0.580481,0.78650046,-0.38388313,0.605725,0.77329189,-0.34141697,0.600119,0.76812511,-0.32213257,0.597544,0.77277383,-0.31046365,0.595271
0.73406794,-0.46885164,0.601399,0.73384422,-0.42564045,0.599142,0.70998691,-0.44886033,0.59655,0.68299452,-0.41104781,0.588298,0.6574528,-0.3759824,0.576742,0.64775951,-0.35316102,0.576334,0.70487609,-0.35802048,0.591078,0.70829842,-0.31254582,0.584989,0.7151844,-0.29213337,0.581944,0.72012837,-0.2740966,0.579176,0.73352764,-0.36309775,0.595881,0.73405593,-0.31413669,0.589491,0.73435326,-0.28515944,0.585763,0.7390078,-0.26632985,0.5831,0.7571071,-0.37006194,0.599976,0.74474561,-0.31938915,0.590869,0.73996932,-0.2933224,0.58621,0.73481353,-0.27049115,0.581974,0.7859573,-0.38369721,0.60522,0.77620364,-0.34274864,0.602311,0.7728791,-0.32381913,0.600975,0.7789895,-0.31267596,0.599796
0.73526952,-0.46934878,0.601885,0.73463056,-0.42596371,0.599378,0.71096279,-0.44936137,0.596935,0.68271365,-0.41304389,0.587883,0.65699036,-0.37899465,0.576915,0.64703108,-0.35630363,0.576325,0.70657549,-0.35984208,0.590941,0.71107598,-0.31509779,0.586652,0.71757502,-0.29422208,0.584507,0.72258243,-0.27525697,0.582558,0.73492314,-0.36468998,0.595755,0.73606121,-0.31558141,0.591577,0.73670563,-0.28708673,0.58914,0.74528321,-0.27806224,0.587399,0.75823673,-0.37146712,0.599875,0.74545875,-0.32053687,0.591152,0.74050542,-0.29502707,0.586689,0.73668992,-0.27196074,0.582632,0.78639986,-0.38541432,0.605183,0.77753978,-0.34415625,0.603086,0.77531049,-0.32598894,0.602122,0.78120558,-0.31351247,0.601272
0.73411547,-0.46909905,0.600984,0.73433617,-0.42736004,0.599245,0.71031852,-0.44950029,0.596519,0.68525884,-0.41520483,0.590667,0.65697684,-0.37948557,0.577521,0.64538804,-0.35511669,0.575386,0.70587284,-0.36118932,0.592163,0.69850635,-0.31788342,0.586838,0.70651811,-0.30263186,0.584176,0.71424422,-0.28821788,0.581755,0.73406475,-0.36551226,0.596733,0.72955277,-0.31340615,0.587045,0.72369727,-0.2867809,0.581395,0.73018805,-0.27697881,0.577358,0.75768365,-0.37233657,0.600602,0.74415846,-0.3207431,0.590331,0.73812876,-0.29488465,0.585076,0.73338114,-0.27157046,0.580299,0.78642676,-0.38597046,0.605505,0.76972454,-0.34715295,0.600039,0.76264298,-0.32782313,0.597528,0.75884084,-0.31148277,0.595312
0.73498523,-0.4702218,0.601842,0.73486612,-0.42847482,0.599958,0.7123036,-0.45142358,0.598436,0.68482157,-0.41927617,0.59431,0.65616873,-0.38323317,0.58096,0.64646181,-0.35716511,0.577309,0.7010454,-0.36414898,0.593993,0.6975149,-0.31825174,0.587329,0.70462025,-0.30268767,0.583997,0.71151193,-0.28805796,0.580967,0.72961915,-0.36841173,0.597236,0.72562044,-0.31730089,0.588878,0.72324802,-0.28777658,0.584002,0.73011879,-0.2774383,0.580519,0.75325815,-0.3747053,0.600024,0.74012064,-0.32399534,0.589023,0.73560237,-0.29952671,0.583394,0.72868097,-0.2741237,0.578277,0.78199995,-0.38809361,0.603641,0.76570244,-0.34577186,0.597385,0.75843161,-0.32645639,0.594511,0.75448891,-0.310273,0.591975
0.73800674,-0.47340253,0.60498,0.73284645,-0.43136989,0.601524,0.71382609,-0.45359573,0.600494,0.68790436,-0.41838951,0.594763,0.65672443,-0.38292789,0.582312,0.64738523,-0.35768934,0.579248,0.69849855,-0.3627969,0.592681,0.69516856,-0.31694919,0.586088,0.70099833,-0.30170427,0.582791,0.70919043,-0.287483,0.579794,0.72776236,-0.36757152,0.59653,0.72277516,-0.31672041,0.589299,0.72051018,-0.28745875,0.585082,0.73041943,-0.27754487,0.582069,0.75212854,-0.37435504,0.599917,0.7429865,-0.32153133,0.588574,0.7510389,-0.31139857,0.582771,0.75322501,-0.32153339,0.577495,0.78206499,-0.38849634,0.604467,0.76491013,-0.34564492,0.597262,0.75718047,-0.32608766,0.593951,0.75340332,-0.31009615,0.59103
0.73805017,-0.47450983,0.605685,0.733625,-0.43221085,0.603164,0.71462638,-0.45534713,0.602024,0.68735056,-0.42122251,0.597662,0.65474108,-0.38934681,0.589529,0.64656793,-0.36354632,0.587165,0.69935467,-0.36483808,0.59625,0.69061966,-0.31659421,0.586517,0.69282645,-0.30588542,0.58165,0.69830233,-0.29515507,0.577226,0.72808243,-0.36885895,0.599521,0.70875408,-0.31543691,0.588327,0.71573985,-0.30979212,0.581798,0.71598539,-0.32369866,0.577134,0.75195032,-0.374986,0.602373,0.73504061,-0.32111301,0.591612,0.74220635,-0.3166437,0.586106,0.74218394,-0.33236962,0.581101,0.78118188,-0.38824793,0.606152,0.76106934,-0.34484256,0.597826,0.7488828,-0.32449981,0.594,0.75020198,-0.31000001,0.590625
0.74521462,-0.4807418,0.613104,0.72325217,-0.43645451,0.607525,0.71125723,-0.45964358,0.605908,0.67548553,-0.42535716,0.596934,0.64140745,-0.39149621,0.586522,0.63331517,-0.36566255,0.573443,0.68028598,-0.36525416,0.593306,0.67382457,-0.3172338,0.580485,0.67660469,-0.30542494,0.574074,0.67955225,-0.29434846,0.568246,0.71244984,-0.37038666,0.599464,0.699391,-0.3160927,0.585399,0.70349293,-0.30403854,0.577194,0.70697112,-0.29512868,0.571334,0.73971493,-0.37755939,0.604887,0.72339755,-0.32345882,0.591324,0.72789938,-0.31595756,0.584384,0.7268475,-0.32957008,0.578076,0.77408463,-0.39243156,0.612177,0.75141563,-0.34814431,0.601694,0.74153497,-0.32814003,0.596878,0.73552989,-0.31185168,0.592628
0.73397936,-0.4953123,0.620153,0.71609631,-0.45243071,0.610229,0.69578706,-0.47859425,0.610076,0.67092642,-0.44097758,0.599137,0.63841113,-0.40119197,0.579426,0.62832786,-0.37342491,0.567115,0.66454493,-0.37688939,0.588181,0.66114444,-0.33302847,0.571132,0.66158791,-0.31498451,0.562608,0.66317255,-0.30168214,0.554858,0.69773447,-0.38242091,0.595889,0.67340995,-0.3290511,0.582995,0.67843546,-0.32476756,0.575473,0.68261378,-0.32170622,0.5701,0.72620162,-0.39007145,0.602866,0.71816852,-0.33507041,0.585802,0.72246874,-0.32779574,0.577071,0.71767523,-0.34088087,0.569135,0.76277921,-0.4058549,0.61261,0.74450472,-0.36008244,0.593416,0.73610643,-0.33906225,0.584597,0.73107711,-0.32296702,0.576815
0.7418747,-0.51974659,0.634324,0.72151058,-0.47533944,0.618081,0.70371475,-0.50273992,0.621229,0.67948213,-0.46856139,0.606094,0.64274244,-0.42932792,0.582226,0.62904548,-0.40214254,0.570081,0.66346129,-0.39869069,0.586048,0.65058551,-0.34848829,0.563925,0.64795914,-0.32936461,0.552863,0.64702214,-0.31531766,0.542807,0.69709728,-0.40349974,0.59461,0.68012526,-0.35690782,0.568493,0.67510791,-0.33828355,0.553257,0.6728214,-0.32753017,0.542375,0.72616826,-0.41063327,0.602697,0.70823924,-0.35118846,0.58047,0.71065069,-0.34344552,0.569098,0.70472607,-0.35547482,0.55876,0.76394104,-0.42593861,0.614623,0.73960924,-0.37809399,0.590842,0.72840621,-0.35624746,0.579915,0.72083088,-0.33942971,0.570274
0.71661878,-0.5326243,0.626373,0.70881222,-0.48078681,0.615442,0.68565182,-0.50452986,0.616907,0.67086141,-0.46453461,0.609873,0.64798949,-0.42286041,0.593893,0.63956365,-0.39506865,0.588136,0.66459524,-0.39924636,0.593106,0.65812039,-0.36477308,0.57343,0.65517722,-0.34718018,0.563591,0.65293562,-0.33357135,0.554647,0.69722438,-0.40866768,0.599647,0.68105051,-0.35347812,0.585056,0.68136326,-0.35210637,0.576544,0.68200004,-0.35127908,0.570464,0.72510676,-0.41969173,0.60573,0.71476384,-0.36440909,0.585268,0.7125269,-0.35975803,0.574799,0.70252881,-0.37315184,0.565281,0.76061436,-0.43991635,0.614529,0.73867631,-0.39295916,0.59421,0.72909019,-0.37212079,0.584874,0.72174497,-0.35537831,0.576637
0.72282192,-0.52829538,0.627239,0.71141998,-0.48321785,0.618287,0.69680803,-0.50799127,0.622665,0.66726362,-0.47559325,0.608207,0.63995151,-0.44230348,0.595037,0.6273015,-0.41723646,0.590412,0.66837027,-0.4111911,0.603783,0.66029004,-0.38278271,0.587278,0.65666401,-0.36818515,0.579145,0.6538003,-0.35663539,0.571751,0.69659289,-0.41448823,0.605351,0.68644253,-0.36646402,0.587417,0.68346482,-0.35398548,0.576956,0.68166983,-0.34485737,0.569483,0.72073052,-0.42028335,0.607217,0.70706197,-0.36666728,0.589307,0.70432696,-0.3671542,0.580144,0.69725287,-0.38264593,0.571813,0.75159678,-0.43374393,0.610661,0.7275347,-0.39217544,0.593502,0.71657421,-0.37312805,0.585618,0.70833268,-0.35858791,0.578661
0.71645384,-0.54095775,0.633468,0.69560243,-0.48773835,0.617611,0.68741107,-0.51415716,0.625984,0.64564877,-0.47082159,0.603808,0.6208162,-0.43445093,0.586677,0.61448541,-0.40925997,0.579929,0.64895443,-0.40424803,0.59266,0.62107603,-0.36230252,0.570023,0.61349544,-0.36049738,0.558704,0.60852361,-0.37190488,0.548415,0.67698854,-0.41088114,0.594698,0.65604283,-0.36190285,0.569602,0.64613383,-0.34844649,0.554963,0.63923941,-0.33872441,0.544506,0.70127931,-0.41977601,0.597395,0.67567507,-0.36426377,0.572551,0.66750208,-0.36266095,0.55984,0.65781205,-0.37531121,0.548285,0.73299801,-0.43776703,0.602763,0.71130087,-0.39834849,0.579742,0.70137046,-0.38009934,0.569165,0.69442088,-0.38075745,0.559832
0.72198833,-0.54442,0.637219,0.69462265,-0.49107795,0.619576,0.68374786,-0.52380086,0.630947,0.6464641,-0.48871232,0.610399,0.61243963,-0.45515604,0.59576,0.59542738,-0.43037505,0.591208,0.63220906,-0.41411255,0.594261,0.61194676,-0.36823411,0.570073,0.60198148,-0.36367945,0.557979,0.59191498,-0.36921998,0.546984,0.6583976,-0.41488944,0.594081,0.62450741,-0.36030354,0.567559,0.61169832,-0.35586705,0.552088,0.60413116,-0.36441415,0.541037,0.68173499,-0.41894699,0.595068,0.64557064,-0.36928974,0.569613,0.63688236,-0.37169072,0.55659,0.63090453,-0.38456807,0.544751,0.71356013,-0.43105763,0.598609,0.68401831,-0.39831361,0.574949,0.67043329,-0.38313306,0.564078,0.66306279,-0.38615059,0.554486
0.67950957,-0.55450559,0.629973,0.66509329,-0.49756822,0.613092,0.65073146,-0.52839404,0.622878,0.61753151,-0.48244619,0.601201,0.59230387,-0.44505794,0.581935,0.58299011,-0.41774855,0.570558,0.61719648,-0.4137039,0.587569,0.59298636,-0.36341464,0.564247,0.58510933,-0.36871969,0.552586,0.57802216,-0.37418955,0.541985,0.64392877,-0.41900335,0.5887,0.62944741,-0.38749886,0.562715,0.62138579,-0.36876279,0.547558,0.61192711,-0.37496175,0.536731,0.6671538,-0.42683292,0.590717,0.63877353,-0.37835652,0.565334,0.6242538,-0.35346605,0.552347,0.61732768,-0.35165267,0.540541,0.69771123,-0.44359943,0.5954,0.66900958,-0.41273973,0.571871,0.65581057,-0.39842773,0.56106,0.64957681,-0.3984783,0.551521
