sluyters/QuantumLeap/backend/src/datasets/dynamic/HandGestureDataset_SHREC2017_csv/Gesture12/finger_2/subject_22_essai_1_skeletons_world.csv
Wrist_x,Wrist_y,Wrist_z,Palm_x,Palm_y,Palm_z,thumb_base_x,thumb_base_y,thumb_base_z,thumb_first_joint_x,thumb_first_joint_y,thumb_first_joint_z,thumb_second_joint_x,thumb_second_joint_y,thumb_second_joint_z,thumb_tip_x,thumb_tip_y,thumb_tip_z,index_base_x,index_base_y,index_base_z,index_first_joint_x,index_first_joint_y,index_first_joint_z,index_second_joint_x,index_second_joint_y,index_second_joint_z,index_tip_x,index_tip_y,index_tip_z,middle_base_x,middle_base_y,middle_base_z,middle_first_joint_x,middle_first_joint_y,middle_first_joint_z,middle_second_joint_x,middle_second_joint_y,middle_second_joint_z,middle_tip_x,middle_tip_y,middle_tip_z,ring_base_x,ring_base_y,ring_base_z,ring_first_joint_x,ring_first_joint_y,ring_first_joint_z,ring_second_joint_x,ring_second_joint_y,ring_second_joint_z,ring_tip_x,ring_tip_y,ring_tip_z,pinky_base_x,pinky_base_y,pinky_base_z,pinky_first_joint_x,pinky_first_joint_y,pinky_first_joint_z,pinky_second_joint_x,pinky_second_joint_y,pinky_second_joint_z,pinky_tip_x,pinky_tip_y,pinky_tip_z,
0.371870229,-0.194625766,0.493088,0.375458941,-0.157552801,0.499397,0.355398525,-0.190010278,0.497168,0.333166535,-0.170937978,0.504243,0.314928212,-0.154287873,0.511471,0.307432616,-0.143148881,0.518223,0.357043132,-0.127908011,0.508996,0.351073588,-0.0931717291,0.508526,0.347077475,-0.0769780245,0.508291,0.343417481,-0.0599314026,0.508078,0.379422343,-0.125128473,0.505406,0.379764578,-0.0862908198,0.5039,0.379315597,-0.0625592998,0.503021,0.378997593,-0.0453853062,0.502394,0.397073073,-0.128341035,0.501771,0.395691894,-0.0929165902,0.500833,0.39543982,-0.0747676389,0.50094,0.395181416,-0.0580973478,0.501037,0.417361585,-0.136530044,0.496365,0.424985176,-0.105934311,0.495715,0.427240998,-0.0909110809,0.495416,0.429294352,-0.0772795021,0.495152
0.371474171,-0.194041252,0.492957,0.375306988,-0.157004414,0.499301,0.355039978,-0.189349424,0.497029,0.332805789,-0.17043971,0.504028,0.314634762,-0.154029833,0.511286,0.307303625,-0.142397869,0.517865,0.356984209,-0.127886902,0.508912,0.351050115,-0.0931654996,0.508492,0.347038353,-0.0765057669,0.508281,0.343340536,-0.0594767473,0.50809,0.379375047,-0.125112876,0.505343,0.379759303,-0.086289621,0.503893,0.379335203,-0.0625625159,0.503047,0.379034558,-0.0453897328,0.502443,0.397114373,-0.127920546,0.50172,0.395667528,-0.0926230099,0.500838,0.395050158,-0.0744681528,0.500552,0.394457331,-0.0578029591,0.500293,0.417348401,-0.136201462,0.496322,0.424955791,-0.105610727,0.495704,0.427240535,-0.0905683027,0.49542,0.42931832,-0.0769269351,0.495169
0.371570435,-0.193581178,0.492516,0.375338116,-0.156392349,0.498693,0.355172614,-0.188857949,0.496615,0.332055975,-0.168221456,0.502968,0.313775692,-0.151925677,0.509938,0.306760754,-0.137130809,0.514284,0.357046502,-0.127470321,0.508225,0.350797108,-0.0925985121,0.507686,0.34674725,-0.0744785004,0.507417,0.342932278,-0.0589109861,0.507172,0.379397478,-0.124678926,0.504575,0.379538335,-0.0859186393,0.503002,0.379056296,-0.0623312222,0.502085,0.377576415,-0.0465981194,0.501429,0.397035615,-0.127299919,0.500904,0.395610738,-0.0906875435,0.499864,0.394696471,-0.0723196814,0.499331,0.394302957,-0.0563186007,0.499261,0.417217913,-0.135677987,0.495481,0.424635761,-0.104824151,0.494694,0.426950852,-0.0896797969,0.494332,0.428804575,-0.0763177422,0.494013
0.371594521,-0.193253685,0.492169,0.375344083,-0.155978125,0.498268,0.355241036,-0.188519632,0.496311,0.332193323,-0.167755467,0.502625,0.313791627,-0.151129526,0.509468,0.306355602,-0.135882304,0.513276,0.357077357,-0.127217731,0.507803,0.350659144,-0.0922615334,0.507222,0.346651912,-0.0741168254,0.506931,0.342732291,-0.0585466276,0.506667,0.37938319,-0.124409258,0.504077,0.379372604,-0.0856882901,0.502423,0.378851445,-0.0621862509,0.501458,0.377470268,-0.0462780184,0.500769,0.396975108,-0.126883675,0.50035,0.39558712,-0.0900487955,0.499229,0.394678525,-0.0714760312,0.498655,0.394296779,-0.0553437448,0.498696,0.417095866,-0.135317814,0.494879,0.424409972,-0.10429648,0.494006,0.426755933,-0.089087538,0.493605,0.42847009,-0.0759125412,0.493251
0.370166709,-0.199771272,0.48964,0.374600459,-0.162034199,0.495497,0.354035015,-0.1929702,0.49358,0.334919248,-0.175139583,0.502491,0.316889208,-0.157101937,0.509878,0.307205355,-0.140344476,0.514498,0.35628794,-0.136464032,0.504071,0.348336078,-0.0988424867,0.503563,0.34523086,-0.0804504346,0.503309,0.341799483,-0.0632291445,0.503079,0.378468556,-0.133019113,0.500309,0.377427099,-0.0936316972,0.498873,0.376289318,-0.0698099197,0.498035,0.374277971,-0.05898145,0.497949,0.396435769,-0.1341804,0.49658,0.393127453,-0.094808408,0.495473,0.391066535,-0.0733599021,0.494907,0.390044497,-0.0562868802,0.494392,0.416726831,-0.14244091,0.491185,0.421382034,-0.109932453,0.490223,0.422876467,-0.0935723674,0.489781,0.425080216,-0.0760911196,0.489391
0.36808352,-0.215193528,0.490685,0.369141202,-0.181162069,0.494599,0.352128348,-0.209346154,0.494839,0.324670492,-0.187673421,0.500086,0.309226954,-0.167099627,0.507064,0.305144165,-0.15071196,0.512395,0.354368503,-0.147012414,0.502335,0.347095356,-0.111822118,0.501171,0.343201577,-0.09376047,0.500589,0.339636344,-0.0772193602,0.50006,0.377185442,-0.14976133,0.497815,0.376458119,-0.109844228,0.495057,0.375441774,-0.0858451565,0.493448,0.374151402,-0.0688287741,0.492299,0.393763759,-0.154626896,0.49367,0.390112428,-0.109936976,0.491464,0.389853277,-0.0819961878,0.490335,0.388039242,-0.0564177083,0.489309,0.41115538,-0.167295797,0.488158,0.415264681,-0.135151197,0.4856,0.416673078,-0.119931134,0.484424,0.417951502,-0.106285097,0.483387
0.36292395,-0.225715531,0.488577,0.372242516,-0.192421762,0.491528,0.351413737,-0.225593835,0.491443,0.330750837,-0.204281294,0.499066,0.313291238,-0.185613507,0.50609,0.306123271,-0.168447557,0.509565,0.352841617,-0.160870614,0.497002,0.344148441,-0.124174432,0.494151,0.339691696,-0.105618959,0.492726,0.335619199,-0.0886424193,0.49143,0.375592129,-0.159995275,0.493951,0.373109618,-0.119768063,0.490073,0.371228857,-0.0958220102,0.487811,0.369626647,-0.0785965015,0.486195,0.39390706,-0.163484698,0.491122,0.389654829,-0.124253954,0.487589,0.387368497,-0.103841722,0.485781,0.385283486,-0.0851189929,0.484138,0.414400689,-0.174815427,0.487309,0.416682288,-0.141368436,0.484103,0.417747386,-0.125898686,0.482631,0.417433676,-0.109012107,0.481331
0.368537112,-0.235645486,0.487502,0.372243989,-0.195708649,0.490606,0.351973833,-0.229219113,0.490638,0.332099696,-0.21115667,0.497614,0.315830357,-0.193403539,0.505937,0.3100855,-0.177579323,0.511118,0.353169394,-0.16884263,0.496526,0.345265064,-0.132280196,0.49371,0.341310889,-0.113986764,0.492302,0.336532865,-0.0929778841,0.491022,0.37556251,-0.166975646,0.493157,0.372230217,-0.126531726,0.489378,0.369617501,-0.102656564,0.487174,0.366979694,-0.0867524534,0.485599,0.393723615,-0.169645007,0.490049,0.388644001,-0.130468368,0.486642,0.385990699,-0.11033437,0.484899,0.384101662,-0.0884956919,0.483315,0.414260966,-0.180042816,0.485885,0.417771225,-0.14714138,0.482874,0.419375941,-0.132068928,0.481491,0.419285049,-0.11538286,0.48027
0.368201498,-0.264283758,0.491728,0.372699424,-0.22222425,0.49152,0.352011445,-0.256047244,0.494429,0.33326206,-0.231201151,0.500761,0.316705782,-0.208983626,0.50587,0.312570494,-0.19215694,0.510702,0.354267199,-0.187777606,0.494956,0.342914231,-0.151138715,0.490127,0.340231704,-0.13408818,0.49201,0.337745812,-0.118376281,0.493723,0.37635119,-0.188061643,0.491349,0.371630178,-0.146820661,0.484904,0.368178373,-0.123046907,0.481144,0.364975993,-0.107651483,0.478459,0.394123698,-0.192703427,0.4884,0.388611077,-0.151846041,0.482226,0.385644141,-0.130905355,0.479067,0.382917893,-0.11176465,0.476195,0.413996866,-0.205743265,0.485031,0.415950113,-0.171680652,0.479416,0.416850008,-0.156013727,0.476835,0.417647063,-0.142181785,0.474559
0.374049609,-0.289030046,0.494667,0.375085572,-0.245407208,0.492409,0.357227424,-0.281235357,0.497121,0.333278455,-0.255784584,0.500202,0.312789746,-0.233852282,0.503054,0.307626742,-0.218313254,0.508572,0.3538566,-0.210566031,0.494332,0.342833666,-0.172619391,0.487382,0.339608352,-0.154726807,0.487176,0.336644483,-0.138276027,0.486989,0.375905135,-0.209920798,0.490543,0.370145432,-0.168566167,0.481869,0.366496154,-0.14445717,0.476809,0.363891705,-0.12697988,0.473194,0.394004441,-0.213970864,0.487665,0.387467259,-0.172331405,0.479338,0.384036327,-0.151065354,0.475077,0.380629998,-0.132020896,0.471204,0.414878269,-0.22661859,0.484758,0.42128304,-0.193566941,0.483057,0.424229342,-0.178368513,0.482276,0.426829892,-0.164951103,0.481586
0.373572255,-0.315365,0.49309,0.376866394,-0.271777179,0.490468,0.357242285,-0.306327807,0.495347,0.336120089,-0.280154469,0.499966,0.315800165,-0.256119866,0.501175,0.312082704,-0.240093379,0.506859,0.357402402,-0.234968575,0.49192,0.345133718,-0.197294141,0.485129,0.339088014,-0.178461071,0.481874,0.333584012,-0.161302564,0.478915,0.37955462,-0.236018337,0.4883,0.372995445,-0.194344416,0.479846,0.36916967,-0.169875022,0.474915,0.36643711,-0.15232152,0.471393,0.397480255,-0.241515588,0.4856,0.390689578,-0.199943057,0.477334,0.387215332,-0.178604189,0.473105,0.384056504,-0.15916276,0.46926,0.417662781,-0.255896371,0.482967,0.422838729,-0.222403481,0.480644,0.425211805,-0.207039134,0.479577,0.427238137,-0.193481626,0.478635
0.377981918,-0.343215422,0.494023,0.377335284,-0.298839758,0.490801,0.36110141,-0.335156616,0.496224,0.340685964,-0.308454975,0.501005,0.320958295,-0.284009057,0.502285,0.315275494,-0.265776962,0.505246,0.354960415,-0.263099225,0.491821,0.345632166,-0.225258151,0.483398,0.34068123,-0.206479684,0.479186,0.336160491,-0.189235608,0.475357,0.376784099,-0.262329816,0.488126,0.371966868,-0.220434267,0.478296,0.3690711,-0.195954871,0.472562,0.367008164,-0.178390606,0.468466,0.394996544,-0.26639852,0.485427,0.39011055,-0.223817536,0.475838,0.387338769,-0.202368974,0.470931,0.384819743,-0.182870248,0.466471,0.416417242,-0.279325032,0.482903,0.421483335,-0.245612301,0.47732,0.422959805,-0.230870616,0.474755,0.423786444,-0.218637932,0.472491
0.376249768,-0.368567169,0.491175,0.379603717,-0.323981898,0.487779,0.360163368,-0.358894753,0.493488,0.339676297,-0.329449361,0.496179,0.320710285,-0.303418387,0.496573,0.318182055,-0.286671786,0.501957,0.360701815,-0.285983971,0.488829,0.349634705,-0.248673411,0.481195,0.344069603,-0.229827407,0.477378,0.338992026,-0.212579592,0.473909,0.382332342,-0.287246465,0.484941,0.376112434,-0.245316049,0.4758,0.372485369,-0.220788918,0.470467,0.36915769,-0.204887643,0.466658,0.399874993,-0.292914199,0.482097,0.398445247,-0.252419869,0.478047,0.397323529,-0.232277345,0.475974,0.39631059,-0.213766061,0.47409,0.419745447,-0.307563869,0.479428,0.420325775,-0.271717457,0.471263,0.419733542,-0.257845583,0.467511,0.419260195,-0.245398864,0.464201
0.381909428,-0.374929247,0.493485,0.383237579,-0.332794987,0.487924,0.365370284,-0.366145096,0.496007,0.344032481,-0.343299552,0.497374,0.322956695,-0.31968814,0.498658,0.316308084,-0.302060182,0.502108,0.359893908,-0.295856979,0.487965,0.347807988,-0.258200259,0.478101,0.341389166,-0.2403845,0.473169,0.335509227,-0.223950635,0.468685,0.381047732,-0.294391802,0.483254,0.374761257,-0.251992385,0.471287,0.370869987,-0.227676353,0.464306,0.367770965,-0.210993486,0.45932,0.398736349,-0.297929538,0.479957,0.398438666,-0.258128079,0.476129,0.398237853,-0.237732903,0.47417,0.396283984,-0.216469813,0.472389,0.418793474,-0.308212782,0.47715,0.420371833,-0.27665658,0.467354,0.419896848,-0.263270092,0.462853,0.419547231,-0.25125149,0.458882
0.383472137,-0.386719507,0.49312,0.381340808,-0.347443983,0.486351,0.365959536,-0.377184647,0.494508,0.341175677,-0.352999635,0.494828,0.321540749,-0.327399876,0.495387,0.315004692,-0.307794858,0.496746,0.359166624,-0.307182121,0.48416,0.347809835,-0.267388139,0.4734,0.34161766,-0.249201614,0.468021,0.335959457,-0.23247728,0.46313,0.381190136,-0.308431057,0.480612,0.374208741,-0.266351663,0.468011,0.370027324,-0.242035523,0.46066,0.367051076,-0.224540119,0.455409,0.399373843,-0.314217384,0.478394,0.395629374,-0.271550774,0.469124,0.393391079,-0.251155209,0.464381,0.391372923,-0.232425335,0.46007,0.420608869,-0.329255224,0.477046,0.421583037,-0.294570284,0.466511,0.422049544,-0.278581627,0.46167,0.422461439,-0.26450254,0.457399
0.380483724,-0.398613997,0.491724,0.379564947,-0.356922272,0.484318,0.362911036,-0.388171404,0.492635,0.338090812,-0.361990055,0.491268,0.317610541,-0.336234606,0.491115,0.30864208,-0.315202268,0.489413,0.356122957,-0.316203307,0.481126,0.344074108,-0.276146921,0.469716,0.337627847,-0.257967133,0.464011,0.331739646,-0.241259581,0.458824,0.378604964,-0.317432362,0.478039,0.371038587,-0.275169388,0.464847,0.36653688,-0.250799159,0.457152,0.363330528,-0.233275706,0.451655,0.39726355,-0.323257025,0.476266,0.39273657,-0.28022812,0.466399,0.390194315,-0.25980136,0.461351,0.387899254,-0.241057193,0.456762,0.419229102,-0.33843846,0.475549,0.419760145,-0.303531742,0.464629,0.420018655,-0.287452517,0.459611,0.420248534,-0.273304713,0.455184
0.38035657,-0.401251209,0.492342,0.37894334,-0.358293462,0.48505,0.36274701,-0.390834076,0.493243,0.339406846,-0.36387301,0.493642,0.318029874,-0.33719027,0.49182,0.309262481,-0.315994796,0.490085,0.355400526,-0.317588349,0.481867,0.343758638,-0.278225858,0.470406,0.33771847,-0.259419232,0.464676,0.332212221,-0.242195436,0.459467,0.377861178,-0.318844249,0.478801,0.371725151,-0.276735015,0.465478,0.3680359,-0.252466372,0.457706,0.365416252,-0.235013139,0.452155,0.396526312,-0.324645311,0.477028,0.391615842,-0.28181308,0.465529,0.388991977,-0.26068352,0.459646,0.386594871,-0.241475146,0.454298,0.418518399,-0.339725311,0.476279,0.420297212,-0.30485507,0.465611,0.421066397,-0.289144428,0.46071,0.421756335,-0.275275934,0.456385
0.378895406,-0.402319193,0.492812,0.376458791,-0.357621412,0.484896,0.36190456,-0.39261692,0.494661,0.329831718,-0.362156355,0.492193,0.308184851,-0.336675097,0.49159,0.299779915,-0.316402509,0.491487,0.34872579,-0.315663613,0.482536,0.341596755,-0.275756292,0.469991,0.335907225,-0.257896078,0.463718,0.330183363,-0.24132121,0.458016,0.370189047,-0.31588276,0.478058,0.363306093,-0.273215443,0.463527,0.359316298,-0.248131248,0.45505,0.358826523,-0.231060704,0.448995,0.38797734,-0.32082805,0.475182,0.385600052,-0.278284351,0.465847,0.384067446,-0.257880323,0.46107,0.386621883,-0.241785748,0.456728,0.408994129,-0.334922001,0.473259,0.410841508,-0.300192552,0.461787,0.410818,-0.287475495,0.456515,0.410885638,-0.27608052,0.451864
0.375556396,-0.400575668,0.489021,0.367651739,-0.356352879,0.481708,0.357392994,-0.393808212,0.490626,0.326299457,-0.367035689,0.487073,0.305008127,-0.343453946,0.488545,0.295126276,-0.323328949,0.487804,0.337439095,-0.320897016,0.479393,0.327602408,-0.281554187,0.471601,0.322232677,-0.26265648,0.467705,0.316879043,-0.246378629,0.464163,0.359294725,-0.31816327,0.475391,0.348790146,-0.273264998,0.461534,0.341957179,-0.249072832,0.453451,0.337052792,-0.231674006,0.447677,0.378131995,-0.320678178,0.472845,0.36890511,-0.276838838,0.459825,0.363962357,-0.255189891,0.453164,0.359323959,-0.235952929,0.447109,0.401546597,-0.331972204,0.471196,0.399628749,-0.293674547,0.460275,0.398287128,-0.278177266,0.455257,0.395172461,-0.272802396,0.450829
0.374597431,-0.401069433,0.489883,0.358664551,-0.351752881,0.481953,0.356949426,-0.395224584,0.492858,0.31988918,-0.362601478,0.490069,0.301276949,-0.341886013,0.495159,0.290205989,-0.321697871,0.493371,0.331293844,-0.315005263,0.481049,0.320154084,-0.273975772,0.471053,0.313630044,-0.256387955,0.466055,0.311238841,-0.243543891,0.461511,0.352008786,-0.310898674,0.475103,0.341327534,-0.267347895,0.46042,0.335049062,-0.242009245,0.451855,0.330563852,-0.223836361,0.445736,0.369641981,-0.312303918,0.47102,0.365012483,-0.270217734,0.463083,0.362640565,-0.248776649,0.459023,0.36270087,-0.237904792,0.455332,0.391376467,-0.322244856,0.467696,0.387189708,-0.290541253,0.455872,0.385185282,-0.276414998,0.45044,0.383050899,-0.265717642,0.445646
0.34033762,-0.394631942,0.484801,0.336273795,-0.348265749,0.476876,0.324840322,-0.38628336,0.488474,0.301616661,-0.356552543,0.489518,0.283607292,-0.332686808,0.492763,0.270536164,-0.310606389,0.486277,0.313780844,-0.309778691,0.476885,0.301384275,-0.272542682,0.47153,0.29517862,-0.253895642,0.468853,0.289532282,-0.236926223,0.466419,0.33275558,-0.308437312,0.470031,0.320324522,-0.264738358,0.45639,0.312943454,-0.23930826,0.448433,0.307666575,-0.22108534,0.44275,0.348821541,-0.312051796,0.465199,0.339159503,-0.269239334,0.453518,0.334215025,-0.247311549,0.447541,0.329720142,-0.227363142,0.442108,0.368267261,-0.324512106,0.461006,0.365173442,-0.28837337,0.451383,0.363751437,-0.271774564,0.446962,0.362496201,-0.257131271,0.443061
0.332574257,-0.390995776,0.481057,0.319544358,-0.342974414,0.472893,0.319037983,-0.385368615,0.487657,0.287117699,-0.357267959,0.488171,0.26600401,-0.336217958,0.491619,0.255690649,-0.31724109,0.491977,0.297377246,-0.30794271,0.476566,0.278124976,-0.27062348,0.468222,0.268526477,-0.25202664,0.46405,0.257606651,-0.23760768,0.460257,0.312822443,-0.302508836,0.465841,0.299605754,-0.257505306,0.450798,0.290502962,-0.232588694,0.442023,0.283984918,-0.214694026,0.435755,0.326265844,-0.302796435,0.457845,0.31778592,-0.261608201,0.451236,0.313442027,-0.240487129,0.447854,0.309335754,-0.221329836,0.44478,0.343257645,-0.311448678,0.450022,0.339362996,-0.273889875,0.43673,0.333600463,-0.262012739,0.430623,0.327975583,-0.252316651,0.425234
0.302883129,-0.385138752,0.47825,0.295034001,-0.339631743,0.471811,0.288543843,-0.380387374,0.484511,0.265262285,-0.354233674,0.488305,0.244307757,-0.332234449,0.491162,0.234334313,-0.312898886,0.491302,0.271724412,-0.306069142,0.476083,0.255959947,-0.267741237,0.467647,0.248175589,-0.248697729,0.463591,0.241102308,-0.231395345,0.459904,0.288269403,-0.300488219,0.466249,0.276351176,-0.255802475,0.452745,0.268540648,-0.230466003,0.444867,0.262954652,-0.212315092,0.439241,0.302615174,-0.300517109,0.458811,0.294019598,-0.257801545,0.448556,0.289623737,-0.235975065,0.44331,0.28310131,-0.218436797,0.438541,0.320597898,-0.308595604,0.451326,0.316419445,-0.273036205,0.439376,0.314417944,-0.256733776,0.433885,0.309118214,-0.24767789,0.42904
0.278198902,-0.380156037,0.473933,0.271515667,-0.333865003,0.466962,0.264655439,-0.374400034,0.480096,0.243498661,-0.348549357,0.485291,0.22517703,-0.327170193,0.490201,0.211934142,-0.307034554,0.486997,0.250067123,-0.298916777,0.470786,0.235684643,-0.261445358,0.464652,0.226343307,-0.244078587,0.461585,0.217776847,-0.22814168,0.458796,0.265764308,-0.29421387,0.460941,0.251900016,-0.250807617,0.447048,0.24319836,-0.225796419,0.438943,0.236961243,-0.207823382,0.433154,0.279391468,-0.295032081,0.453549,0.271844925,-0.254638675,0.449342,0.267982388,-0.233958987,0.44719,0.264469518,-0.215150826,0.445233,0.296477257,-0.304202523,0.446213,0.292556479,-0.266150207,0.434296,0.286927374,-0.252346316,0.428821,0.281927851,-0.239990816,0.42399
0.255264392,-0.373060141,0.471608,0.248655035,-0.326781357,0.464594,0.243269278,-0.367684931,0.478891,0.224403508,-0.342521554,0.485784,0.207962909,-0.321824392,0.492323,0.194900212,-0.301780262,0.489514,0.229259134,-0.29236704,0.46985,0.215484436,-0.255337921,0.464602,0.206056878,-0.238135731,0.461978,0.197407651,-0.222346392,0.459592,0.242969575,-0.287143893,0.458536,0.228182998,-0.243811902,0.444749,0.218831036,-0.218834932,0.436707,0.21212435,-0.200888646,0.430963,0.254961189,-0.287533899,0.449938,0.24771684,-0.24740818,0.446268,0.244004985,-0.226840052,0.44439,0.240627561,-0.208118823,0.442683,0.270142276,-0.296214426,0.441209,0.265860002,-0.258148603,0.429042,0.259255225,-0.244242741,0.423451,0.253377194,-0.231802295,0.418519
0.251608215,-0.371835333,0.467169,0.244606446,-0.327018237,0.461924,0.240070859,-0.367797543,0.475436,0.216135241,-0.348136854,0.482121,0.196604093,-0.329798165,0.488497,0.18399082,-0.311398344,0.488098,0.221774308,-0.29763247,0.469525,0.207339025,-0.262377469,0.466877,0.199346305,-0.245067927,0.465553,0.1920667,-0.22930195,0.464349,0.234758124,-0.29046652,0.457393,0.22102976,-0.246240724,0.445205,0.213041252,-0.220537305,0.438096,0.209838444,-0.202193905,0.433017,0.246307578,-0.289146322,0.447941,0.237337794,-0.248655697,0.443507,0.232751202,-0.227953226,0.441239,0.228369136,-0.209184046,0.439177,0.261237716,-0.295621049,0.437904,0.261203645,-0.261513894,0.435765,0.259345208,-0.246291021,0.434782,0.257698974,-0.232783074,0.433915
0.228946857,-0.367618869,0.468173,0.225217808,-0.321634555,0.461383,0.218084034,-0.361159006,0.475616,0.199982506,-0.337701714,0.484367,0.185581788,-0.318511191,0.493144,0.177905563,-0.30029105,0.495594,0.208961577,-0.285961651,0.466982,0.193683308,-0.251623544,0.464994,0.18602167,-0.234402245,0.464001,0.179042577,-0.218714946,0.463097,0.221999341,-0.282169591,0.455518,0.20624191,-0.239636144,0.444627,0.197012498,-0.214696183,0.438274,0.190402043,-0.19682035,0.433736,0.23316863,-0.283731211,0.446773,0.221804474,-0.24267118,0.440455,0.215996945,-0.221695298,0.437222,0.20860533,-0.20341603,0.434283,0.246900244,-0.29377003,0.437835,0.242179378,-0.256109884,0.428083,0.236374493,-0.240840358,0.423603,0.230301249,-0.228004481,0.41965
0.223910834,-0.368038177,0.468707,0.21478272,-0.32179489,0.461613,0.21309693,-0.36165638,0.476271,0.18932144,-0.337474426,0.484041,0.174945193,-0.318309677,0.492832,0.167335635,-0.300204403,0.495451,0.198558587,-0.286087185,0.467187,0.183204165,-0.251668999,0.465078,0.175506547,-0.234413358,0.464023,0.168497284,-0.218699833,0.463065,0.211477725,-0.282149768,0.455486,0.195562058,-0.2394723,0.444323,0.186245499,-0.214469374,0.437811,0.179575164,-0.196558519,0.433159,0.222546027,-0.283607373,0.446578,0.211187389,-0.242552724,0.44024,0.205383733,-0.221581717,0.436998,0.19793702,-0.203306894,0.43405,0.236165266,-0.293547271,0.437503,0.23148099,-0.255846047,0.427642,0.225591461,-0.240560631,0.423111,0.219418581,-0.227712718,0.419113
0.219314706,-0.362670818,0.466763,0.206269418,-0.310134751,0.461574,0.203890749,-0.355171159,0.474589,0.176562217,-0.329186966,0.481627,0.160755031,-0.312802997,0.490933,0.149997453,-0.295772513,0.493012,0.188225505,-0.276789603,0.468635,0.172464357,-0.24240792,0.466247,0.162533318,-0.226000304,0.465053,0.152505789,-0.211430807,0.463968,0.201350236,-0.271479015,0.457092,0.186048983,-0.228880685,0.447991,0.176568718,-0.204264281,0.442683,0.169789894,-0.186659939,0.438891,0.212785056,-0.271697018,0.448118,0.201587423,-0.231487722,0.443753,0.195892328,-0.211054764,0.44152,0.186072937,-0.194300444,0.43949,0.227146251,-0.279994911,0.438627,0.225264541,-0.24226049,0.429825,0.216588291,-0.229525828,0.42578,0.208796998,-0.21807252,0.422212
0.208640632,-0.350219146,0.464475,0.200673505,-0.303131771,0.460681,0.197870806,-0.346104935,0.473227,0.172841465,-0.323379007,0.481602,0.159330937,-0.308660266,0.493231,0.149606331,-0.294223108,0.49498,0.183308362,-0.271528131,0.469788,0.170014817,-0.236359591,0.467523,0.161930844,-0.219224437,0.466391,0.152714758,-0.208212818,0.465361,0.195781219,-0.265098229,0.457404,0.183564585,-0.222278528,0.449459,0.174291014,-0.198050572,0.444824,0.167643072,-0.180673062,0.441514,0.206645202,-0.264317044,0.447595,0.197370893,-0.224215326,0.443904,0.192657892,-0.203857706,0.442016,0.184315696,-0.191210768,0.4403,0.220290725,-0.271296895,0.436885,0.214128017,-0.235077872,0.430128,0.207985457,-0.219838722,0.427023,0.202525966,-0.206275185,0.424284
0.207191371,-0.346667743,0.464955,0.197764534,-0.295501255,0.463253,0.196149104,-0.343266313,0.473806,0.176224449,-0.31533783,0.484535,0.165657481,-0.299217947,0.496613,0.156800758,-0.281494668,0.499213,0.17909668,-0.266941273,0.473748,0.16702607,-0.2293063,0.468204,0.161004706,-0.210537052,0.465432,0.15182049,-0.194887565,0.462912,0.192547075,-0.25836861,0.461783,0.180568666,-0.215287033,0.45277,0.171536169,-0.19084098,0.447513,0.165048975,-0.173267387,0.443758,0.204219236,-0.255700159,0.452104,0.197792962,-0.214329577,0.446393,0.189141021,-0.194911261,0.443472,0.181150507,-0.176952169,0.440816,0.21885722,-0.260265813,0.441171,0.211608152,-0.224434106,0.432707,0.207261296,-0.208345204,0.428819,0.203411679,-0.194068639,0.425388
0.203905722,-0.339672401,0.463833,0.197247206,-0.292942046,0.462271,0.192870676,-0.336964248,0.472859,0.176515333,-0.312833759,0.484389,0.166668285,-0.296789961,0.496975,0.157216528,-0.278708014,0.49894,0.17936964,-0.264296442,0.473078,0.167651506,-0.226688841,0.467661,0.161804316,-0.207927935,0.464952,0.152717997,-0.192254412,0.46249,0.192455998,-0.255871853,0.460921,0.180860591,-0.212917624,0.452199,0.172009419,-0.188505389,0.44711,0.165649646,-0.170946051,0.443476,0.203786,-0.253319989,0.451071,0.197791339,-0.212025375,0.445518,0.189255583,-0.192590957,0.442677,0.18137093,-0.174612445,0.440095,0.217943495,-0.258012801,0.439912,0.210920449,-0.222260496,0.431569,0.206654836,-0.206190365,0.427736,0.202876187,-0.191925514,0.424353
0.204638765,-0.336726594,0.463864,0.203354441,-0.284806625,0.461161,0.193217114,-0.330340779,0.472748,0.183265992,-0.306016284,0.488701,0.169297945,-0.289552348,0.499643,0.16192257,-0.275236146,0.502727,0.187901881,-0.252749676,0.471096,0.17812681,-0.215675503,0.467327,0.173259873,-0.197225134,0.465443,0.157127639,-0.188119394,0.46373,0.200385165,-0.247383679,0.458825,0.188885595,-0.205234574,0.452193,0.182184971,-0.180680067,0.448325,0.177401679,-0.163155612,0.445561,0.211031582,-0.247418622,0.448998,0.208688538,-0.206340713,0.443862,0.199009111,-0.187801982,0.441234,0.190013264,-0.170545799,0.438845,0.22399968,-0.255224331,0.438071,0.219365276,-0.219069278,0.429677,0.215359539,-0.203082681,0.42582,0.211810534,-0.188876111,0.422417
0.209371098,-0.328620023,0.463857,0.214146505,-0.280013015,0.460788,0.201874419,-0.321567088,0.472471,0.189629851,-0.298830486,0.483636,0.175067658,-0.28043981,0.492734,0.170397274,-0.263904172,0.497736,0.196014802,-0.248700685,0.470153,0.185977062,-0.211534135,0.466011,0.181006514,-0.193154285,0.46394,0.167642149,-0.1832438,0.462058,0.209949608,-0.242274535,0.458138,0.202886508,-0.199475809,0.45132,0.193715801,-0.175862534,0.447342,0.187089027,-0.158768807,0.444502,0.221866663,-0.241453737,0.448558,0.21348751,-0.200556557,0.443303,0.205209859,-0.18081717,0.440614,0.19758889,-0.1626176,0.43817,0.236500633,-0.248270704,0.437983,0.230806692,-0.212256398,0.42923,0.225244585,-0.197225691,0.425208,0.220286341,-0.183769915,0.421659
0.228725739,-0.323065857,0.465215,0.233225273,-0.276562212,0.460047,0.225655862,-0.316289709,0.472731,0.204783869,-0.295540522,0.48179,0.195076451,-0.281500594,0.495634,0.184057031,-0.263771404,0.49696,0.214734162,-0.242853551,0.466717,0.205198329,-0.206739523,0.46415,0.200477673,-0.188878567,0.462867,0.187525629,-0.180164874,0.4617,0.229280066,-0.237899764,0.455583,0.216065784,-0.194949119,0.445946,0.208344929,-0.169838532,0.440324,0.202824092,-0.151875937,0.436308,0.241705083,-0.238396538,0.446944,0.22954639,-0.196726965,0.439185,0.218624302,-0.177902113,0.435215,0.208516065,-0.160443564,0.431606,0.256942467,-0.246959034,0.437838,0.251292685,-0.21017744,0.427968,0.245354409,-0.19526964,0.423434,0.240066048,-0.181927901,0.419433
0.263416529,-0.321636439,0.459656,0.256933543,-0.277270987,0.455818,0.25031368,-0.317978077,0.46715,0.22681121,-0.298879777,0.475223,0.215227054,-0.287097916,0.489357,0.203163237,-0.270439127,0.491032,0.236102381,-0.245940017,0.463261,0.224686653,-0.211069929,0.461752,0.219043476,-0.193841336,0.460998,0.206774645,-0.185446703,0.460312,0.251357335,-0.239183241,0.452502,0.236679659,-0.196855879,0.443906,0.228114487,-0.172152153,0.438892,0.222210834,-0.15465083,0.435734,0.2645304,-0.238122998,0.444036,0.250449043,-0.197441196,0.437295,0.23933192,-0.179015795,0.433846,0.229041249,-0.161925283,0.430711,0.280951101,-0.244738441,0.434894,0.274032348,-0.208256001,0.426154,0.266984384,-0.19484714,0.422139,0.26005845,-0.183759715,0.418596
0.267814117,-0.323001914,0.457853,0.274480751,-0.282090788,0.45548,0.255008157,-0.317719302,0.464666,0.247541815,-0.293158217,0.474812,0.224190871,-0.263775149,0.468661,0.215533987,-0.24172505,0.465918,0.259409374,-0.247641451,0.462918,0.257730432,-0.217070657,0.469167,0.256917151,-0.201954983,0.472292,0.248448664,-0.191985545,0.475132,0.275537288,-0.244651411,0.45343,0.268573692,-0.201884497,0.446297,0.266147247,-0.178159057,0.444855,0.264407016,-0.161099343,0.443826,0.288697013,-0.246623158,0.44586,0.291459468,-0.209806795,0.447791,0.289613429,-0.190706843,0.448779,0.285502407,-0.174078535,0.449677,0.303786107,-0.256665251,0.437494,0.297322232,-0.221764013,0.430843,0.293075679,-0.206530994,0.427788,0.2883675,-0.19389548,0.425091
0.314116022,-0.324901652,0.465006,0.311331379,-0.278259012,0.458989,0.296593714,-0.316204887,0.466841,0.277409813,-0.289556768,0.4723,0.261742843,-0.267501735,0.477253,0.250385954,-0.246787716,0.471691,0.2873816,-0.240095672,0.457754,0.279719204,-0.205283181,0.458122,0.275842984,-0.18767484,0.458307,0.272291629,-0.171548041,0.458474,0.308897792,-0.2389161,0.453792,0.302363397,-0.194421889,0.441088,0.293674935,-0.177254682,0.433677,0.287340755,-0.164497576,0.428384,0.327007716,-0.242577824,0.451146,0.319175557,-0.205978334,0.450541,0.312486647,-0.189810679,0.450231,0.30613638,-0.174445586,0.449949,0.348807028,-0.255023461,0.44915,0.354608108,-0.225495366,0.454251,0.357271502,-0.211967306,0.456595,0.359620241,-0.200050446,0.458663
0.32479597,-0.324868813,0.464959,0.332338997,-0.278154132,0.458816,0.317615249,-0.31589738,0.466387,0.29851266,-0.289538989,0.472271,0.282682713,-0.267508461,0.477265,0.271561307,-0.246814922,0.471743,0.307697401,-0.23968813,0.456977,0.30025308,-0.20496548,0.457413,0.296485308,-0.187398021,0.457631,0.293033187,-0.1713067,0.457829,0.329574121,-0.238768157,0.453511,0.322901573,-0.194306405,0.440826,0.314796291,-0.177152092,0.433426,0.308910955,-0.164403882,0.42814,0.348062085,-0.242653638,0.451287,0.339641805,-0.205947703,0.450474,0.333357004,-0.189738166,0.450059,0.327396905,-0.174341682,0.449681,0.370419924,-0.255393661,0.449802,0.375726901,-0.225544014,0.454349,0.378634196,-0.212159035,0.457008,0.381291269,-0.200400246,0.459465
0.352940029,-0.311327908,0.462959,0.358755661,-0.269212815,0.463425,0.335121657,-0.300469385,0.463423,0.316501518,-0.277956897,0.472085,0.292721872,-0.25096498,0.468062,0.280790314,-0.228038882,0.461416,0.339434318,-0.231171285,0.46431,0.32794317,-0.19541201,0.458677,0.32210411,-0.177113246,0.455861,0.316738457,-0.160221241,0.453301,0.363670229,-0.233677147,0.463827,0.364660324,-0.194309731,0.464007,0.365240593,-0.171254933,0.464113,0.36541032,-0.154553491,0.464188,0.383303653,-0.239967294,0.463382,0.378900096,-0.205576376,0.4648,0.376800417,-0.189010251,0.465525,0.374772911,-0.173200794,0.466185,0.405498041,-0.254806121,0.462781,0.408538585,-0.220246767,0.457587,0.409782586,-0.204797419,0.4552,0.409654111,-0.195965049,0.453094
0.382960238,-0.306568449,0.467988,0.388613153,-0.265017456,0.468803,0.365353651,-0.296251243,0.468821,0.346034882,-0.274239761,0.477932,0.320299418,-0.247700889,0.472112,0.307045385,-0.225126867,0.465556,0.369123427,-0.22664471,0.470378,0.358332553,-0.191135853,0.465235,0.352823135,-0.172822338,0.462664,0.347763046,-0.155836957,0.460352,0.393490101,-0.229176912,0.469507,0.395525703,-0.190460005,0.470844,0.397620603,-0.168762704,0.471623,0.399163834,-0.152555788,0.47218,0.412989498,-0.235514715,0.468707,0.414565837,-0.200195402,0.473064,0.418455689,-0.192472575,0.475293,0.422936343,-0.203235776,0.47785,0.434640565,-0.250302705,0.467632,0.440019081,-0.216949193,0.464621,0.443081189,-0.202226316,0.463238,0.445705707,-0.194368299,0.462017
0.392370814,-0.308316409,0.471709,0.409343296,-0.267726908,0.474486,0.375230754,-0.297305796,0.47273,0.369562456,-0.275901561,0.486638,0.344343664,-0.244581323,0.476562,0.336711776,-0.223393281,0.475444,0.394189739,-0.229540104,0.477488,0.387534053,-0.192662121,0.47377,0.384183126,-0.173997293,0.471911,0.381123058,-0.15689433,0.470221,0.418361703,-0.233908036,0.476885,0.419292886,-0.192679764,0.472687,0.419974354,-0.168621077,0.470238,0.420577251,-0.153580691,0.468489,0.437379678,-0.241535378,0.476103,0.438053017,-0.202310517,0.474199,0.438837601,-0.182152815,0.473225,0.440068138,-0.164620411,0.472339,0.45789123,-0.257541007,0.474699,0.465265194,-0.22646833,0.47237,0.469446547,-0.213003512,0.4713,0.473253914,-0.200828441,0.470355
0.420711233,-0.311132062,0.470594,0.430709612,-0.273034819,0.476742,0.402257647,-0.299760568,0.470456,0.385088029,-0.277583625,0.480757,0.362048239,-0.247132308,0.473426,0.356874156,-0.228980523,0.477058,0.412913105,-0.236082654,0.480263,0.409235276,-0.199571591,0.478542,0.408028384,-0.181384717,0.477682,0.407258968,-0.164861573,0.4769,0.439299233,-0.240551622,0.482051,0.443404815,-0.200776087,0.480863,0.44579023,-0.177645253,0.48017,0.449109069,-0.162547213,0.479675,0.460168096,-0.248102205,0.482894,0.469507567,-0.210605952,0.483546,0.474286913,-0.191419389,0.48388,0.478632465,-0.173975661,0.484184,0.482860056,-0.263710712,0.482773,0.491391348,-0.234446302,0.483077,0.49756188,-0.220910543,0.483217,0.503434326,-0.210056812,0.48334
0.433386673,-0.314705414,0.480283,0.44674236,-0.271751213,0.481869,0.414698606,-0.30237824,0.479764,0.399964351,-0.271293946,0.484883,0.38059609,-0.24448773,0.484538,0.374768664,-0.222181021,0.476854,0.429045942,-0.233016617,0.482147,0.422265952,-0.198743692,0.476687,0.418838817,-0.18099583,0.473957,0.41570002,-0.164481292,0.471475,0.454627237,-0.238218724,0.483238,0.454574725,-0.196957063,0.477696,0.454811569,-0.173115318,0.474464,0.455234702,-0.157513378,0.472155,0.475144033,-0.246530925,0.483975,0.473176122,-0.205664815,0.478424,0.472663437,-0.185203829,0.475584,0.472233509,-0.166298615,0.473002,0.497932664,-0.263431238,0.484546,0.502384249,-0.230545381,0.480343,0.505353484,-0.216651416,0.478412,0.507903989,-0.205801278,0.476708
0.44725764,-0.312365481,0.480732,0.462769891,-0.27318286,0.484937,0.43615886,-0.300364631,0.478658,0.413469684,-0.276179411,0.484333,0.391331737,-0.247950807,0.480437,0.378720828,-0.224640307,0.478086,0.440151452,-0.234989931,0.48477,0.433762847,-0.197863837,0.480567,0.432509757,-0.180212359,0.478466,0.433008962,-0.165898586,0.476555,0.467955526,-0.240064841,0.488569,0.471057115,-0.199548571,0.485321,0.472916966,-0.175601562,0.483427,0.475969601,-0.159469735,0.482074,0.490415074,-0.24816984,0.491266,0.492204907,-0.208338179,0.488145,0.493115321,-0.188007313,0.486549,0.494976184,-0.16950413,0.485097,0.515752774,-0.264561484,0.493646,0.5238351,-0.232429091,0.492383,0.527527834,-0.217732042,0.491802,0.533279378,-0.207117533,0.49129
0.453170655,-0.312884867,0.484904,0.469983367,-0.273985939,0.490199,0.441795405,-0.300175167,0.485753,0.430416374,-0.266619955,0.493796,0.42602546,-0.248677381,0.507889,0.432506855,-0.242149479,0.521972,0.460310408,-0.23434499,0.494492,0.463418272,-0.202442182,0.499083,0.467087475,-0.186255106,0.501378,0.470670125,-0.171284798,0.503464,0.484864758,-0.240981401,0.494772,0.492469836,-0.201778768,0.492808,0.497065297,-0.178274716,0.491663,0.500422311,-0.161186303,0.490845,0.503796873,-0.250144447,0.494459,0.506567134,-0.210903178,0.492453,0.509176915,-0.190998477,0.491426,0.512157836,-0.173077568,0.490493,0.523512596,-0.267378905,0.49315,0.534714023,-0.240348734,0.495447,0.542301579,-0.227468973,0.496502,0.54914669,-0.215792914,0.497433
0.466700393,-0.312387709,0.488467,0.486508381,-0.270746043,0.493386,0.448665386,-0.295210003,0.486024,0.441053111,-0.271109632,0.496456,0.419838192,-0.236761913,0.484707,0.418017677,-0.217633893,0.488725,0.468392893,-0.230411249,0.49317,0.464561604,-0.19304467,0.489039,0.465903092,-0.17601913,0.486973,0.467220454,-0.160062373,0.485095,0.4960023,-0.238538703,0.497636,0.503236903,-0.19951405,0.495361,0.511101496,-0.177587173,0.494034,0.516899426,-0.161505903,0.493086,0.517743668,-0.249062606,0.500809,0.523804782,-0.209890053,0.498127,0.527484732,-0.189812862,0.496755,0.531130809,-0.171460381,0.495508,0.541265534,-0.268071909,0.503613,0.554639336,-0.238179466,0.50353,0.560757897,-0.224500551,0.503491,0.569212625,-0.216021624,0.503457
0.490380716,-0.3137001,0.494366,0.507612226,-0.276236736,0.499175,0.48085926,-0.303098136,0.494131,0.464605636,-0.281835432,0.505114,0.441759442,-0.24918075,0.495375,0.438240104,-0.23062923,0.499256,0.488595487,-0.238924253,0.501766,0.485877339,-0.202584641,0.4992,0.488069326,-0.185972955,0.497917,0.490735345,-0.171380649,0.496751,0.514514144,-0.243771822,0.50333,0.523536343,-0.204356462,0.501077,0.528921532,-0.180994727,0.499762,0.532821197,-0.16413346,0.498824,0.535118882,-0.251593918,0.504125,0.539926459,-0.212311918,0.501734,0.544508783,-0.192914056,0.500511,0.54881569,-0.174827158,0.499399,0.557833779,-0.267456307,0.504188,0.5716182,-0.242978765,0.50945,0.58213143,-0.230926522,0.511868,0.591601031,-0.219963819,0.514001
0.507400767,-0.316325308,0.495394,0.523636918,-0.281221816,0.502327,0.487885456,-0.303910919,0.494377,0.470604811,-0.274522597,0.495261,0.451880361,-0.246611738,0.494403,0.447689473,-0.22512284,0.494052,0.504516305,-0.244859989,0.505179,0.505762679,-0.209083787,0.503611,0.506592504,-0.190860997,0.502827,0.507371002,-0.174036937,0.502115,0.53169008,-0.251300971,0.508315,0.54080824,-0.212490302,0.507689,0.546262594,-0.189317909,0.507324,0.550733806,-0.172633226,0.507063,0.553298927,-0.260152944,0.510187,0.559512678,-0.221603364,0.509406,0.562946964,-0.201674897,0.509007,0.566410123,-0.183406914,0.508644,0.577115055,-0.276778209,0.511121,0.586039762,-0.245783335,0.511605,0.590113505,-0.231640757,0.511827,0.593034433,-0.219763954,0.512024
0.508947432,-0.31408279,0.493903,0.524745611,-0.278473723,0.502102,0.490667043,-0.302395192,0.494052,0.48339436,-0.266399269,0.496986,0.473099446,-0.251198636,0.509656,0.474490417,-0.23037226,0.511312,0.509469105,-0.240053903,0.507257,0.517717808,-0.205943323,0.508062,0.524095776,-0.189143251,0.508464,0.530071479,-0.173486227,0.50883,0.535602643,-0.245655374,0.509218,0.548674979,-0.208797308,0.510265,0.55640375,-0.186975413,0.510876,0.561971032,-0.17124105,0.511312,0.556083733,-0.253812182,0.509994,0.567723955,-0.217005453,0.511004,0.575401482,-0.19811142,0.511521,0.582513254,-0.180579299,0.511991,0.578121733,-0.269564992,0.509431,0.597599748,-0.243650668,0.512738,0.60768701,-0.231419873,0.514258,0.616652012,-0.220527283,0.515599
0.520290427,-0.315653747,0.497134,0.538349989,-0.278049567,0.504647,0.501455402,-0.303638151,0.49651,0.489846846,-0.274653949,0.499221,0.47337607,-0.250930852,0.506475,0.468751979,-0.228830343,0.504695,0.521920811,-0.240435027,0.508379,0.528398655,-0.206992712,0.509278,0.535120136,-0.190194224,0.509728,0.541459535,-0.174589507,0.510136,0.548958854,-0.245459201,0.511166,0.558650037,-0.207898966,0.51165,0.566735143,-0.185885214,0.511933,0.568060259,-0.170807878,0.512135,0.570008124,-0.253465485,0.512692,0.576593626,-0.215762763,0.513012,0.580012482,-0.19653275,0.513176,0.583603622,-0.180043213,0.513325,0.592251306,-0.269503102,0.513124,0.612102984,-0.243643884,0.516819,0.621384639,-0.231731639,0.518517,0.629578147,-0.221213671,0.520015
0.524812195,-0.318682343,0.500675,0.54001193,-0.280804575,0.505909,0.505435465,-0.30591461,0.499169,0.492026947,-0.276420246,0.501571,0.473410427,-0.24530029,0.494986,0.46876417,-0.227815998,0.502176,0.522729877,-0.241192276,0.507116,0.528047598,-0.206473701,0.506506,0.533682931,-0.189255122,0.506201,0.538966485,-0.173295774,0.505924,0.549969474,-0.247362856,0.51045,0.563930234,-0.211965433,0.50905,0.571815658,-0.189883983,0.508233,0.578621304,-0.174192096,0.507649,0.572587474,-0.259363322,0.512661,0.577598637,-0.220145886,0.510432,0.580390741,-0.200036583,0.509291,0.581351703,-0.17996036,0.509826,0.594435273,-0.277551594,0.514295,0.61286507,-0.251728569,0.518944,0.621841972,-0.239786502,0.52108,0.632906115,-0.22595329,0.522965
0.541662037,-0.324949,0.509867,0.55080462,-0.285671124,0.512744,0.521203224,-0.31142985,0.506976,0.502586887,-0.27872414,0.504596,0.478014867,-0.247017144,0.497618,0.473270252,-0.226085304,0.497533,0.529641067,-0.244246019,0.510733,0.532954734,-0.207511957,0.506677,0.533829397,-0.188917203,0.504649,0.536942376,-0.172302574,0.502806,0.557819495,-0.251246842,0.515248,0.567265971,-0.212890674,0.511963,0.573820982,-0.190579799,0.510046,0.579986098,-0.175206392,0.508677,0.581306579,-0.259737336,0.518674,0.588258629,-0.220969835,0.515419,0.59355693,-0.201356913,0.513753,0.601113296,-0.185073637,0.51224,0.606863774,-0.277467543,0.522143,0.618702185,-0.247369671,0.522146,0.626618057,-0.234414937,0.522147,0.63362021,-0.225942676,0.522149
0.543425535,-0.324945824,0.509927,0.55199391,-0.285405552,0.512871,0.522933307,-0.311510206,0.507089,0.502201428,-0.278510372,0.504209,0.479288075,-0.247454546,0.498224,0.47389914,-0.225770468,0.496753,0.530244454,-0.244352282,0.510979,0.534013759,-0.207760114,0.506996,0.535101088,-0.189172134,0.505005,0.538008588,-0.172473417,0.503195,0.558320273,-0.251106754,0.515442,0.567515732,-0.212875871,0.512156,0.574026659,-0.190658028,0.510239,0.580269326,-0.175492816,0.508869,0.581470209,-0.259810448,0.51882,0.58850059,-0.221060723,0.515631,0.593842297,-0.20145372,0.514,0.601438355,-0.185173718,0.512517,0.606960241,-0.277511649,0.522226,0.619022795,-0.247859496,0.522336,0.62719868,-0.234874194,0.522387,0.63481878,-0.226236971,0.522432
0.537819747,-0.324213548,0.507873,0.551130398,-0.28626519,0.511891,0.521693923,-0.311528133,0.505634,0.501487768,-0.279792199,0.504386,0.480000199,-0.248676946,0.499121,0.474980607,-0.227134109,0.498068,0.531698126,-0.24626655,0.511422,0.533643989,-0.209080789,0.507416,0.53340493,-0.191679186,0.505413,0.537306425,-0.173540157,0.503592,0.559760357,-0.257418057,0.515392,0.56767301,-0.21593806,0.512135,0.573846743,-0.1932615,0.510234,0.579798006,-0.176543209,0.508877,0.581561189,-0.267609455,0.518254,0.584824291,-0.228091919,0.514797,0.589598575,-0.208653492,0.513028,0.595497391,-0.191720722,0.511419,0.605519617,-0.286302855,0.520868,0.614349766,-0.253928914,0.520015,0.620682677,-0.240448451,0.519623,0.630786603,-0.227098702,0.519277
