sluyters/QuantumLeap/backend/src/datasets/dynamic/HandGestureDataset_SHREC2017_csv/Gesture12/finger_2/subject_3_essai_2_skeletons_world.csv
Wrist_x,Wrist_y,Wrist_z,Palm_x,Palm_y,Palm_z,thumb_base_x,thumb_base_y,thumb_base_z,thumb_first_joint_x,thumb_first_joint_y,thumb_first_joint_z,thumb_second_joint_x,thumb_second_joint_y,thumb_second_joint_z,thumb_tip_x,thumb_tip_y,thumb_tip_z,index_base_x,index_base_y,index_base_z,index_first_joint_x,index_first_joint_y,index_first_joint_z,index_second_joint_x,index_second_joint_y,index_second_joint_z,index_tip_x,index_tip_y,index_tip_z,middle_base_x,middle_base_y,middle_base_z,middle_first_joint_x,middle_first_joint_y,middle_first_joint_z,middle_second_joint_x,middle_second_joint_y,middle_second_joint_z,middle_tip_x,middle_tip_y,middle_tip_z,ring_base_x,ring_base_y,ring_base_z,ring_first_joint_x,ring_first_joint_y,ring_first_joint_z,ring_second_joint_x,ring_second_joint_y,ring_second_joint_z,ring_tip_x,ring_tip_y,ring_tip_z,pinky_base_x,pinky_base_y,pinky_base_z,pinky_first_joint_x,pinky_first_joint_y,pinky_first_joint_z,pinky_second_joint_x,pinky_second_joint_y,pinky_second_joint_z,pinky_tip_x,pinky_tip_y,pinky_tip_z,
0.42985553,-0.38969556,0.53438,0.42586482,-0.34727719,0.542018,0.40473039,-0.37625855,0.528418,0.37690286,-0.34702884,0.524985,0.35355945,-0.32918918,0.524782,0.34365032,-0.31513954,0.524194,0.39215912,-0.31001589,0.539403,0.37722852,-0.2773451,0.539496,0.3698455,-0.2609939,0.539543,0.3649226,-0.24602283,0.539585,0.42206978,-0.31288155,0.549222,0.41362356,-0.27505829,0.549787,0.40870151,-0.25301745,0.550116,0.40781862,-0.24056339,0.550351,0.44707969,-0.31868142,0.556584,0.44501261,-0.28351122,0.558026,0.44395079,-0.26547587,0.558763,0.44298412,-0.24905663,0.559434,0.47707214,-0.33162177,0.563919,0.49103379,-0.31060367,0.576564,0.49744469,-0.30097411,0.582373,0.50366743,-0.29452217,0.5875
0.42989936,-0.38819725,0.534563,0.42570813,-0.34666097,0.54222,0.40491458,-0.37511195,0.528621,0.37720288,-0.34929237,0.525674,0.3531406,-0.32811723,0.523692,0.34355778,-0.31431637,0.524482,0.39191271,-0.30948524,0.539644,0.37642076,-0.27644191,0.539002,0.36905747,-0.25982575,0.538681,0.36406021,-0.24460257,0.538389,0.42181171,-0.31229988,0.549443,0.41225029,-0.27429455,0.549319,0.40787339,-0.25206272,0.549246,0.40728229,-0.23905015,0.549194,0.44682071,-0.31805345,0.556786,0.44515927,-0.28295776,0.558428,0.44430415,-0.26495012,0.559267,0.4435253,-0.24855021,0.560031,0.47683095,-0.33093277,0.564096,0.49130142,-0.31029652,0.577434,0.4981129,-0.30071838,0.583562,0.50412362,-0.2922614,0.588969
0.43035096,-0.38469275,0.535926,0.4239944,-0.34332236,0.542171,0.40551516,-0.37150797,0.529262,0.37641899,-0.34738111,0.526465,0.35133968,-0.32740265,0.523101,0.3409099,-0.31092644,0.522613,0.38484167,-0.30295699,0.537751,0.36908163,-0.27155087,0.538396,0.36724952,-0.25744794,0.538719,0.36374332,-0.24362914,0.539013,0.41478671,-0.30465474,0.548063,0.40241736,-0.26655299,0.546842,0.39713674,-0.24401228,0.546131,0.39332923,-0.22774895,0.545622,0.44017677,-0.3095168,0.555961,0.44230389,-0.27972462,0.565192,0.44339164,-0.26447784,0.569915,0.44437968,-0.25061436,0.574208,0.47124392,-0.32141453,0.56416,0.48927803,-0.30163223,0.577588,0.49756233,-0.29255136,0.583758,0.50635925,-0.29035838,0.591642
0.43363892,-0.37048311,0.537573,0.42520549,-0.32789729,0.544044,0.4078165,-0.3611224,0.530555,0.37639482,-0.3328307,0.524018,0.35138583,-0.32010026,0.525475,0.33783076,-0.30670581,0.522407,0.38505814,-0.29393474,0.539318,0.36807796,-0.26304472,0.539843,0.36275859,-0.24644141,0.540106,0.35784304,-0.23110498,0.540345,0.41478662,-0.29472544,0.550147,0.39914112,-0.25781373,0.548871,0.39479305,-0.23570083,0.548126,0.39163182,-0.21958463,0.547595,0.44032108,-0.29867796,0.55845,0.43609842,-0.26519947,0.561919,0.43393708,-0.24806577,0.563694,0.43331937,-0.2319933,0.565308,0.47216543,-0.30922088,0.567085,0.48637812,-0.28988106,0.581726,0.49290735,-0.28100864,0.588453,0.49891827,-0.27332386,0.594687
0.42959057,-0.35444893,0.534136,0.41135747,-0.31343271,0.539887,0.40583688,-0.34936177,0.531075,0.37627849,-0.32121781,0.531637,0.34753765,-0.30640186,0.528039,0.33714057,-0.29188977,0.529578,0.37168138,-0.28666406,0.539742,0.36073588,-0.25201297,0.538175,0.35681118,-0.23521342,0.537392,0.35337041,-0.21981013,0.53668,0.39844633,-0.2820231,0.545313,0.38501985,-0.24432681,0.543251,0.37711499,-0.22211231,0.542049,0.37143458,-0.20614082,0.54119,0.42178119,-0.28130343,0.549356,0.42137732,-0.26050362,0.547501,0.43268601,-0.2736425,0.546552,0.44783232,-0.29454702,0.560097,0.4515586,-0.2860092,0.553121,0.44080725,-0.25976202,0.556637,0.43631275,-0.24736774,0.558252,0.43261786,-0.23624052,0.559678
0.41957647,-0.34094939,0.533429,0.40627463,-0.29966543,0.540364,0.39122326,-0.32931926,0.532146,0.36735755,-0.30869359,0.535153,0.34331765,-0.28986258,0.533445,0.3346834,-0.27574795,0.536209,0.37264433,-0.27082182,0.543263,0.35631054,-0.23769918,0.541403,0.3484884,-0.22094695,0.540473,0.34157388,-0.20556816,0.539627,0.39910778,-0.26754931,0.546907,0.38724483,-0.23004136,0.546108,0.3821513,-0.20898441,0.548355,0.37844285,-0.19371265,0.54996,0.42161008,-0.26803101,0.549251,0.42194978,-0.24840771,0.5477,0.4319711,-0.2629519,0.546906,0.44699621,-0.28408519,0.560718,0.4493745,-0.27428327,0.550827,0.44167373,-0.25216138,0.559335,0.43859119,-0.24113077,0.563244,0.43605755,-0.23105346,0.566693
0.41344694,-0.32914466,0.532906,0.40692261,-0.28942832,0.542079,0.38964912,-0.32280889,0.530118,0.3626874,-0.29898553,0.531152,0.34395831,-0.29126582,0.537296,0.33418016,-0.27471146,0.536535,0.37288889,-0.25879833,0.544494,0.35842162,-0.22916917,0.548152,0.35119873,-0.2143744,0.549981,0.34533519,-0.19987081,0.551644,0.40111738,-0.25695785,0.550702,0.38903806,-0.22047957,0.552104,0.38197691,-0.19915808,0.552922,0.37692629,-0.18390917,0.553506,0.42496562,-0.2587027,0.554946,0.4296915,-0.23411119,0.569754,0.43211186,-0.22154187,0.57733,0.43495277,-0.21043139,0.585077,0.4539723,-0.26657595,0.55837,0.45882556,-0.2435622,0.568813,0.46106297,-0.23304694,0.573611,0.46484563,-0.22196015,0.577845
0.4078805,-0.31842485,0.532345,0.39802538,-0.27922349,0.541526,0.38600494,-0.31375057,0.53209,0.35950744,-0.29156772,0.538651,0.33820202,-0.27528748,0.540007,0.3304272,-0.25533323,0.534965,0.36732968,-0.25245305,0.547179,0.35604883,-0.21919634,0.54839,0.35035554,-0.20242091,0.548995,0.34532452,-0.18737461,0.549545,0.39350733,-0.24796757,0.550156,0.38309289,-0.21115406,0.55169,0.37701187,-0.18920926,0.552584,0.37286426,-0.17364663,0.553223,0.41570366,-0.24735775,0.55174,0.42459507,-0.22525633,0.569303,0.42914479,-0.21395159,0.578289,0.43307992,-0.20212207,0.586458,0.44284523,-0.25225136,0.552046,0.44994408,-0.23064034,0.563748,0.45402473,-0.22118284,0.570145,0.45762605,-0.212841,0.57579
0.40099287,-0.30747385,0.53251,0.39582283,-0.26968461,0.543818,0.37920121,-0.3032628,0.532517,0.35677993,-0.28497162,0.541939,0.33579898,-0.26922267,0.544082,0.32791712,-0.24993501,0.539555,0.36679914,-0.24439048,0.551192,0.35280968,-0.21289609,0.553716,0.34575616,-0.19678136,0.554979,0.34097788,-0.18400227,0.556126,0.39315928,-0.24011721,0.554449,0.38161255,-0.20526252,0.557819,0.3748381,-0.18441031,0.559786,0.36995216,-0.16939229,0.56119,0.41533635,-0.23951313,0.556061,0.42276675,-0.21930618,0.57489,0.42654393,-0.20882347,0.584523,0.42979185,-0.19818741,0.59328,0.44213777,-0.24411893,0.556043,0.44591501,-0.22017588,0.564894,0.44879041,-0.20979959,0.570395,0.45132737,-0.20064149,0.575249
0.40235835,-0.2972035,0.53471,0.39934512,-0.25965199,0.546989,0.37797072,-0.29009957,0.530574,0.35166378,-0.25944395,0.525919,0.33531763,-0.26812382,0.539411,0.32992072,-0.25614955,0.54504,0.3655274,-0.22893518,0.549706,0.35027751,-0.20410064,0.55458,0.34578881,-0.18775881,0.557018,0.34160198,-0.17260094,0.559233,0.39477286,-0.22973821,0.558531,0.38461234,-0.19680426,0.564531,0.37869579,-0.17761976,0.56803,0.37447509,-0.16392884,0.57053,0.41928281,-0.23340624,0.564636,0.41312932,-0.20857973,0.571956,0.41546864,-0.19139521,0.575702,0.41882597,-0.17571634,0.579106,0.44877825,-0.24305623,0.569716,0.45894177,-0.22393129,0.58456,0.46385416,-0.21527969,0.591688,0.46818925,-0.20764824,0.597978
0.40033674,-0.29448036,0.535479,0.39714302,-0.25804823,0.548517,0.37660522,-0.28208845,0.531919,0.3477019,-0.26113153,0.535196,0.32531673,-0.24561459,0.536841,0.31706164,-0.22644238,0.5336,0.36317653,-0.22337665,0.552465,0.34749591,-0.19801359,0.556626,0.34244398,-0.18158881,0.558706,0.34041679,-0.16958971,0.560598,0.39248435,-0.22486073,0.560774,0.38475594,-0.19291267,0.568397,0.3802687,-0.17433362,0.572843,0.37757255,-0.16328414,0.576019,0.41673078,-0.22919826,0.566382,0.4153244,-0.1997537,0.575407,0.41460573,-0.1846939,0.580024,0.41395293,-0.17100591,0.584221,0.44744995,-0.24165588,0.570752,0.45948886,-0.22236203,0.586241,0.46502917,-0.21347111,0.593357,0.46991973,-0.20561653,0.599636
0.39939272,-0.29175832,0.540733,0.39371215,-0.2560603,0.551982,0.37232326,-0.28205588,0.538333,0.34755582,-0.26315519,0.545542,0.32542859,-0.24572325,0.545349,0.31881221,-0.22745611,0.540004,0.3641766,-0.22302013,0.556244,0.34996481,-0.19414306,0.560259,0.34502126,-0.1776387,0.562266,0.34066704,-0.16470842,0.564091,0.39266512,-0.22370325,0.562556,0.38575298,-0.19069294,0.569353,0.38289907,-0.16851621,0.573317,0.37996561,-0.15826671,0.577794,0.41618718,-0.22752663,0.56669,0.41535301,-0.1969791,0.574584,0.41501425,-0.18139697,0.578743,0.4147069,-0.16723088,0.582525,0.44385158,-0.23779876,0.569634,0.45738766,-0.21665357,0.58312,0.4636256,-0.20689706,0.589317,0.46913416,-0.19827348,0.594785
0.38480941,-0.28051915,0.539315,0.38206823,-0.24144257,0.55359,0.35898172,-0.26653214,0.539541,0.34219015,-0.24541013,0.547384,0.32303483,-0.22844653,0.549169,0.31870317,-0.21899264,0.556964,0.3567226,-0.21459405,0.563176,0.34651276,-0.18314128,0.567812,0.34135642,-0.16728502,0.57013,0.33663968,-0.15279569,0.572238,0.38399923,-0.21272315,0.56701,0.37969998,-0.18056117,0.576364,0.37717151,-0.16173198,0.58182,0.37535648,-0.14825279,0.585717,0.40640681,-0.21405174,0.568818,0.40575621,-0.18382315,0.577191,0.40542475,-0.16836088,0.581476,0.40512281,-0.15430561,0.58537,0.43251637,-0.22079396,0.568528,0.44219013,-0.20144054,0.582238,0.44746691,-0.19297196,0.589631,0.45212194,-0.18549869,0.596153
0.38429592,-0.27754376,0.539176,0.38264909,-0.24150235,0.553521,0.3601101,-0.2663378,0.538889,0.34232876,-0.24598993,0.54659,0.32243336,-0.22902095,0.547976,0.31769135,-0.2190323,0.555631,0.35596464,-0.2150323,0.562496,0.34488119,-0.1835463,0.566951,0.33926749,-0.16763197,0.569178,0.334123,-0.15306573,0.571203,0.38358373,-0.21312824,0.567006,0.37852525,-0.18124012,0.576521,0.37554817,-0.16255657,0.582072,0.37340995,-0.14917506,0.586037,0.40637463,-0.21439176,0.569362,0.40498864,-0.18367593,0.577089,0.40427851,-0.16795702,0.581042,0.40363273,-0.15366507,0.584636,0.43311873,-0.22099401,0.569704,0.44234233,-0.2018562,0.583547,0.44734961,-0.19333227,0.590903,0.45176802,-0.18580973,0.597394
0.38647663,-0.27621589,0.539972,0.3835154,-0.24147323,0.553392,0.36448035,-0.27055642,0.539176,0.34361614,-0.24804827,0.54469,0.32213802,-0.2379464,0.545978,0.31509553,-0.22074257,0.550848,0.35381116,-0.21689329,0.561114,0.34151966,-0.18540726,0.564992,0.33530179,-0.16950279,0.566931,0.32960761,-0.15495086,0.568694,0.38193303,-0.21319988,0.566007,0.37518542,-0.18223648,0.575604,0.37163113,-0.16385882,0.581203,0.36908174,-0.15070257,0.585202,0.40493995,-0.21382104,0.568766,0.40380893,-0.1838123,0.577334,0.40322842,-0.16845216,0.581717,0.40270011,-0.15448472,0.585702,0.43239214,-0.21963773,0.569736,0.44077179,-0.19978277,0.583997,0.44532252,-0.19115046,0.591142,0.4505906,-0.184323,0.597447
0.38433226,-0.27682673,0.534399,0.38414812,-0.25075527,0.547533,0.36341915,-0.27171298,0.534852,0.33990203,-0.25634733,0.541821,0.32414854,-0.2455232,0.547781,0.31570754,-0.22524562,0.54619,0.35256335,-0.22352337,0.556672,0.3402368,-0.19223887,0.560682,0.33401805,-0.17647484,0.562686,0.32719341,-0.15893257,0.564509,0.37916394,-0.21981249,0.559897,0.37347366,-0.1895706,0.570845,0.37013718,-0.17188339,0.577232,0.36774624,-0.15922945,0.581794,0.40130807,-0.21962125,0.561314,0.39736419,-0.18998578,0.569728,0.39540879,-0.17486166,0.574118,0.39363132,-0.16111498,0.578108,0.42766979,-0.22458091,0.560766,0.43482959,-0.20521481,0.575085,0.43893867,-0.1967351,0.582741,0.44522854,-0.18490169,0.590171
0.38468735,-0.28576468,0.532867,0.3779849,-0.25960575,0.54469,0.36332016,-0.27971464,0.532468,0.3362596,-0.26639723,0.537336,0.31764082,-0.25533981,0.543439,0.31036064,-0.23665596,0.54204,0.3490748,-0.23241719,0.55189,0.33573751,-0.20030595,0.554455,0.32899978,-0.1840966,0.555738,0.32283409,-0.16927138,0.556904,0.37620914,-0.22957567,0.555821,0.36760369,-0.19536064,0.561778,0.36255619,-0.17532302,0.565252,0.35893917,-0.16097578,0.567734,0.39885703,-0.23021071,0.557944,0.39445672,-0.19798834,0.562065,0.39246369,-0.1802083,0.564173,0.39061367,-0.16384249,0.566089,0.42592706,-0.2363346,0.558442,0.43261399,-0.21635296,0.572228,0.43569526,-0.20722808,0.578563,0.43848707,-0.19775779,0.584152
0.38271956,-0.29307222,0.529003,0.3743531,-0.26838422,0.542083,0.35443951,-0.28954629,0.528532,0.3331799,-0.27555584,0.535445,0.31497778,-0.2647602,0.542174,0.30794725,-0.24628209,0.541206,0.34602033,-0.24152481,0.550011,0.33328185,-0.2099007,0.553547,0.32682399,-0.19389122,0.555316,0.32090077,-0.17922196,0.556923,0.37341222,-0.23892074,0.554397,0.36418614,-0.20440973,0.55939,0.35881493,-0.18382526,0.562303,0.35496624,-0.16885486,0.564383,0.39621726,-0.23969867,0.556776,0.39625625,-0.21293433,0.567214,0.39631842,-0.19711897,0.572555,0.39633932,-0.18256986,0.57741,0.42333486,-0.24590647,0.557363,0.42986983,-0.22581494,0.570938,0.43288205,-0.21664636,0.577176,0.43560598,-0.20718084,0.582679
0.37760421,-0.30737388,0.532745,0.37353643,-0.27874386,0.541281,0.35350766,-0.30014756,0.529184,0.33290938,-0.28183275,0.532736,0.31107767,-0.26029362,0.530417,0.30517658,-0.2385351,0.523734,0.34152256,-0.24878109,0.542302,0.3321613,-0.21418663,0.54139,0.32751614,-0.19679293,0.540933,0.32336899,-0.18106322,0.540518,0.37038382,-0.24770385,0.549316,0.36424991,-0.20905008,0.549778,0.36059693,-0.18605268,0.550047,0.35818309,-0.16993837,0.55024,0.39483332,-0.24984401,0.554286,0.39530879,-0.22278899,0.565475,0.39554213,-0.20735527,0.5712,0.39572427,-0.19302417,0.576404,0.42464592,-0.25795108,0.558672,0.429351,-0.23644923,0.569948,0.4315303,-0.22669059,0.575129,0.43348626,-0.21709029,0.5797
0.38040932,-0.33371267,0.531666,0.37539041,-0.29746944,0.53804,0.35684759,-0.32662245,0.528769,0.33614646,-0.30366095,0.532254,0.31382679,-0.28199132,0.529636,0.30672588,-0.26013846,0.522287,0.34314228,-0.26650258,0.5385,0.33151324,-0.23233267,0.536141,0.32561639,-0.2153536,0.534962,0.32023214,-0.20017855,0.533889,0.37090953,-0.26437601,0.54404,0.36223724,-0.22556254,0.542549,0.35708651,-0.20246482,0.541679,0.3533502,-0.18676811,0.541058,0.39460501,-0.26584518,0.548001,0.3939589,-0.23722515,0.557515,0.39338733,-0.2213598,0.562383,0.39281064,-0.20666521,0.566809,0.42379752,-0.27352817,0.551569,0.42754614,-0.25010533,0.561093,0.42928617,-0.23947685,0.56547,0.43074895,-0.22927614,0.569331
0.37292485,-0.32707803,0.516014,0.376879,-0.29520264,0.525335,0.35217756,-0.32139537,0.516518,0.33732107,-0.30159238,0.521639,0.31635151,-0.27597612,0.516145,0.30917409,-0.26227879,0.52215,0.3509163,-0.26491574,0.532049,0.33678219,-0.23216513,0.532374,0.32693681,-0.21508324,0.532536,0.32141962,-0.200315,0.532684,0.37711413,-0.26290744,0.534089,0.36883832,-0.2255365,0.535703,0.3640228,-0.20341559,0.536644,0.36054673,-0.18746263,0.537317,0.39878801,-0.26447872,0.534885,0.40566243,-0.2431792,0.553077,0.40917782,-0.23227539,0.562384,0.41237291,-0.22235949,0.570845,0.42438292,-0.27214724,0.534241,0.42914405,-0.25081686,0.545238,0.43135271,-0.24116265,0.55029,0.43409469,-0.23149152,0.554748
0.3752622,-0.33701552,0.512966,0.37570516,-0.3095563,0.521454,0.35487492,-0.33848716,0.512761,0.33684029,-0.32075573,0.521173,0.3154172,-0.29531771,0.51511,0.30815192,-0.27675005,0.513282,0.34907063,-0.27806122,0.526716,0.33575519,-0.24512409,0.52653,0.32895909,-0.22831104,0.526437,0.32269821,-0.21282136,0.526352,0.37552394,-0.27628947,0.529424,0.36626391,-0.2387483,0.530175,0.36078214,-0.21656676,0.530614,0.35681764,-0.2005346,0.530927,0.39756395,-0.27815348,0.530848,0.40239574,-0.25198288,0.544571,0.40486351,-0.23856733,0.551592,0.40697962,-0.22555191,0.557974,0.42378169,-0.28639122,0.53108,0.42757161,-0.26189729,0.539096,0.42932819,-0.25081273,0.542779,0.43121713,-0.24146718,0.546028
0.37076344,-0.34829413,0.505392,0.37364986,-0.32464376,0.518336,0.35037391,-0.34201056,0.506203,0.33170416,-0.33378371,0.514532,0.31178332,-0.31050669,0.512082,0.30601712,-0.29322885,0.512835,0.34962087,-0.29719144,0.527799,0.34398988,-0.26467688,0.532044,0.34111186,-0.24815994,0.534167,0.33845833,-0.23299316,0.536096,0.37619708,-0.29579073,0.530492,0.37198086,-0.26005178,0.535491,0.36946849,-0.23894174,0.538407,0.36765034,-0.22374534,0.54049,0.39794576,-0.29750939,0.531481,0.40029419,-0.26408328,0.536652,0.40148698,-0.24676739,0.539298,0.40256577,-0.23090003,0.541703,0.42322736,-0.3047237,0.530451,0.43115213,-0.28733776,0.545497,0.43481051,-0.27946004,0.55241,0.43902428,-0.27066488,0.55851
0.37897426,-0.37054455,0.513807,0.37694423,-0.34052175,0.519426,0.35922447,-0.37191064,0.513516,0.34061375,-0.34956923,0.517802,0.31778737,-0.31938326,0.505741,0.31140821,-0.30406221,0.508458,0.34800151,-0.30838566,0.522712,0.34061528,-0.27349713,0.521043,0.33773061,-0.25644385,0.521531,0.33506497,-0.24070943,0.521974,0.373645,-0.30559628,0.524702,0.36725571,-0.26713419,0.522928,0.36323425,-0.2452956,0.521894,0.36030046,-0.22930602,0.521154,0.39532759,-0.3067678,0.525808,0.39584747,-0.27110753,0.524644,0.39612765,-0.25251688,0.524049,0.39639067,-0.2354068,0.523508,0.42173084,-0.31446471,0.526153,0.41260505,-0.28660824,0.529154,0.40841564,-0.27381965,0.530532,0.40488349,-0.26264643,0.531961
0.39817667,-0.41912671,0.529103,0.39340664,-0.3758275,0.529526,0.37385834,-0.40725099,0.524486,0.34957147,-0.38268808,0.523855,0.32830782,-0.35568259,0.515388,0.32083072,-0.33943161,0.516611,0.36026636,-0.33442526,0.523905,0.34948012,-0.29809766,0.517076,0.34549385,-0.28091413,0.515817,0.3418242,-0.2650539,0.514672,0.38908886,-0.33655356,0.529923,0.38095863,-0.29993029,0.52291,0.37615019,-0.27785718,0.518819,0.37268376,-0.26174624,0.515897,0.41351114,-0.34221533,0.534838,0.40430129,-0.3028809,0.528599,0.40300764,-0.28988677,0.525406,0.40202451,-0.27826471,0.522504,0.44336974,-0.35598084,0.540521,0.45370958,-0.33171557,0.550056,0.45915785,-0.32114504,0.555289,0.46408674,-0.31190898,0.560054
0.39800431,-0.43917242,0.528436,0.39330526,-0.39577958,0.529103,0.37373294,-0.42723996,0.523829,0.34911974,-0.40240014,0.522851,0.32773207,-0.37569273,0.514672,0.3201687,-0.35963989,0.516081,0.36019531,-0.35409803,0.523654,0.34820883,-0.31831789,0.51668,0.34216504,-0.30020946,0.513193,0.33664013,-0.28361519,0.510023,0.38904574,-0.35632154,0.52973,0.38117259,-0.31992833,0.522936,0.37658945,-0.2981735,0.518973,0.37328805,-0.28229714,0.516142,0.41346228,-0.36208234,0.534669,0.40412147,-0.3225269,0.528596,0.40305494,-0.30997083,0.525489,0.40229388,-0.29878097,0.522664,0.44326186,-0.37598802,0.540338,0.45017238,-0.34729913,0.544118,0.45404976,-0.33414244,0.545855,0.45809084,-0.32312137,0.547388
0.39270911,-0.42829879,0.525033,0.39070016,-0.39285811,0.527037,0.3657991,-0.4119949,0.516163,0.36927651,-0.38454029,0.518963,0.35704513,-0.34587663,0.504527,0.36770807,-0.33144897,0.509305,0.35737144,-0.34763228,0.517012,0.35195876,-0.31806569,0.507214,0.34838909,-0.3037736,0.502315,0.34513974,-0.29047734,0.497862,0.39006344,-0.35565375,0.528918,0.39069892,-0.32571695,0.523213,0.39026025,-0.30738845,0.519885,0.39000555,-0.29383157,0.517508,0.41776298,-0.36599086,0.538531,0.40597924,-0.32509869,0.530172,0.40655909,-0.31870584,0.525895,0.40663283,-0.31120974,0.522007,0.45208571,-0.38791288,0.549446,0.45401782,-0.35579604,0.547327,0.45604436,-0.34192915,0.546353,0.4579801,-0.33052025,0.545494
0.38728779,-0.44392114,0.522225,0.38624337,-0.41308158,0.525282,0.36183329,-0.42741612,0.514645,0.36697816,-0.40674089,0.51833,0.3570004,-0.36737715,0.503965,0.36711377,-0.35282007,0.508667,0.35941059,-0.36684716,0.51759,0.35356201,-0.33944192,0.509116,0.35081141,-0.32570271,0.504879,0.34833898,-0.31295501,0.501028,0.39094002,-0.37727615,0.528153,0.39150944,-0.3472188,0.523402,0.39207049,-0.32961095,0.520631,0.39255888,-0.31666634,0.518652,0.41715533,-0.38950842,0.536558,0.40724313,-0.34911582,0.529392,0.40702704,-0.33899215,0.525726,0.40751767,-0.33198631,0.522393,0.4481867,-0.41072917,0.545883,0.43510718,-0.3741831,0.538897,0.43676847,-0.37283398,0.535687,0.43838301,-0.37167452,0.532855
0.37757294,-0.4604256,0.517472,0.38398304,-0.43074255,0.522208,0.35335834,-0.45193149,0.510322,0.36595864,-0.4262927,0.51689,0.35695577,-0.38745825,0.503902,0.36770702,-0.37359958,0.509489,0.35841691,-0.38495605,0.516159,0.35351479,-0.35913491,0.509048,0.35123804,-0.34618326,0.505493,0.34919552,-0.33414087,0.50226,0.38983119,-0.39568479,0.526655,0.39155432,-0.36749315,0.523462,0.39280021,-0.35096827,0.5216,0.39378351,-0.33878428,0.52027,0.4158243,-0.40809566,0.534846,0.40700851,-0.36850096,0.529087,0.40734757,-0.35930587,0.52614,0.40835082,-0.35320131,0.523461,0.44634185,-0.42939247,0.543636,0.43428202,-0.39345157,0.537875,0.43639341,-0.39292046,0.535227,0.43841345,-0.39250451,0.532892
0.37701485,-0.48065816,0.516704,0.38347008,-0.45049237,0.521498,0.35274459,-0.47179855,0.509474,0.36340159,-0.4452269,0.51365,0.35303427,-0.40480089,0.498896,0.36308444,-0.39040452,0.503513,0.3578553,-0.40368016,0.515384,0.35295311,-0.37848028,0.508274,0.35067594,-0.36587697,0.504719,0.34863443,-0.3541695,0.501488,0.38935912,-0.41486313,0.526,0.39112527,-0.38746809,0.522862,0.39239623,-0.37147218,0.521031,0.39339856,-0.35968717,0.519724,0.41543145,-0.42770632,0.534285,0.40662624,-0.38786128,0.528543,0.40697451,-0.37913383,0.525605,0.40798682,-0.37352639,0.522934,0.44604426,-0.44962346,0.543175,0.43399744,-0.41329918,0.537438,0.43612412,-0.41321257,0.534803,0.43815619,-0.41320672,0.532477
0.37453303,-0.49480175,0.514259,0.38216694,-0.46056037,0.519772,0.35061491,-0.47505065,0.507151,0.36211616,-0.45398044,0.511271,0.35294643,-0.41312438,0.49654,0.36378609,-0.39911738,0.501277,0.35832967,-0.41313566,0.514281,0.35519042,-0.38808464,0.507729,0.35381883,-0.37555955,0.504453,0.35262165,-0.36392163,0.501475,0.38974404,-0.42547909,0.524948,0.39358736,-0.39852146,0.522482,0.39611188,-0.38278538,0.521042,0.3980388,-0.37118794,0.520015,0.4155668,-0.43924823,0.533207,0.40864946,-0.39939625,0.528051,0.40983521,-0.39087046,0.525413,0.41155606,-0.38547615,0.523014,0.44556548,-0.46219292,0.541945,0.4351261,-0.4257082,0.536726,0.43767479,-0.42588598,0.534328,0.44009144,-0.42612047,0.532212
0.37267526,-0.50437783,0.512672,0.38165594,-0.46997866,0.519077,0.34914915,-0.48426024,0.505787,0.36159913,-0.46363959,0.510541,0.35245953,-0.42256273,0.495855,0.36334921,-0.40868443,0.500675,0.35845091,-0.42284498,0.514455,0.35582283,-0.39866828,0.508633,0.3547089,-0.3865783,0.505722,0.35374672,-0.37533046,0.503075,0.38985169,-0.4353452,0.525093,0.39395212,-0.40539657,0.523463,0.39691177,-0.385881,0.522512,0.39900526,-0.37375518,0.521833,0.41559486,-0.44920173,0.533243,0.40926083,-0.4098069,0.528841,0.41075173,-0.40179792,0.526588,0.41275686,-0.39690941,0.52454,0.44536651,-0.47216941,0.541703,0.43546336,-0.43604336,0.537142,0.43826373,-0.43668898,0.535047,0.44090677,-0.43734826,0.533198
0.36644053,-0.51121652,0.508222,0.37303285,-0.47811565,0.515377,0.34243868,-0.48950555,0.500096,0.35404407,-0.46878448,0.503487,0.34690138,-0.42720279,0.488391,0.35871955,-0.41376646,0.493253,0.34984302,-0.42872924,0.509657,0.35213215,-0.40512705,0.503801,0.35362543,-0.39336864,0.500873,0.35512072,-0.38244231,0.498211,0.38182459,-0.44379,0.522097,0.3913756,-0.41517619,0.521211,0.39743477,-0.39847622,0.520694,0.40195264,-0.38621496,0.520325,0.40790356,-0.45972983,0.531658,0.40450346,-0.42033066,0.527461,0.40871262,-0.41293705,0.525314,0.41326012,-0.40869077,0.523362,0.43784084,-0.48506441,0.541643,0.43094004,-0.449464,0.537422,0.43580613,-0.45207228,0.535483,0.44034,-0.45453165,0.533771
0.37878437,-0.53521305,0.49874,0.38044644,-0.49348665,0.502542,0.35561007,-0.52087683,0.493257,0.33491303,-0.48699405,0.485235,0.31587606,-0.46683452,0.486666,0.31474654,-0.46475174,0.500936,0.35227762,-0.44888735,0.498013,0.33852136,-0.41225861,0.491098,0.33162098,-0.39386873,0.48764,0.32936617,-0.38299957,0.484496,0.38202366,-0.45492544,0.506112,0.3780655,-0.41392682,0.502097,0.37575646,-0.39003369,0.499754,0.37410783,-0.37297835,0.498081,0.40645863,-0.46376729,0.512419,0.40478085,-0.42969918,0.507699,0.40394601,-0.41192728,0.505284,0.40320202,-0.39556097,0.503089,0.43497491,-0.48109499,0.519161,0.43205407,-0.44572139,0.516729,0.43701987,-0.44541649,0.515611,0.44163614,-0.445174,0.514625
0.38057689,-0.53778912,0.49982,0.37951316,-0.4942348,0.502064,0.35825706,-0.52586922,0.496491,0.34097386,-0.49634622,0.493008,0.31885645,-0.47050596,0.489234,0.31398489,-0.46232375,0.497513,0.34860452,-0.45327313,0.499273,0.34041175,-0.41311015,0.494441,0.34090887,-0.4111064,0.492025,0.34273144,-0.42414011,0.489828,0.37857503,-0.45433341,0.504172,0.37444682,-0.41475313,0.499674,0.3703153,-0.39514477,0.497051,0.37117552,-0.3756884,0.496332,0.40145633,-0.46052343,0.507992,0.40169628,-0.42827892,0.504136,0.40193758,-0.41160975,0.502163,0.40219353,-0.39619848,0.500369,0.42851492,-0.47490498,0.512085,0.41335331,-0.44538857,0.50555,0.40658518,-0.43153205,0.502547,0.40058785,-0.41923865,0.499898
0.38076457,-0.53806876,0.49964,0.37909976,-0.49435015,0.501769,0.35845881,-0.52653646,0.496625,0.34188942,-0.49785857,0.493996,0.31943502,-0.47111562,0.489448,0.31432341,-0.46238802,0.497313,0.34862686,-0.45330218,0.499305,0.34065684,-0.41340759,0.494797,0.34126847,-0.41154005,0.492544,0.34319814,-0.42471766,0.490495,0.37761251,-0.45435326,0.503769,0.37353009,-0.41535198,0.499254,0.36999419,-0.39480214,0.49662,0.36943752,-0.37584027,0.494739,0.40036662,-0.46009785,0.507242,0.40110157,-0.42826537,0.503492,0.40162931,-0.41187359,0.501574,0.40215315,-0.39670385,0.499829,0.42738656,-0.47397426,0.510949,0.41243756,-0.44440186,0.50443,0.40568471,-0.43057632,0.501434,0.39970077,-0.41831026,0.498791
0.38103752,-0.54134584,0.50095,0.37976075,-0.49694758,0.502949,0.35817562,-0.52850295,0.497269,0.33611023,-0.50014408,0.494201,0.31908535,-0.4711065,0.489484,0.31503882,-0.46157643,0.497282,0.3495494,-0.45416856,0.499549,0.34003414,-0.41472457,0.493208,0.33881891,-0.40846353,0.490038,0.33447471,-0.39513256,0.487155,0.37933812,-0.46026303,0.504825,0.37528093,-0.42470605,0.499306,0.37291613,-0.40343392,0.496087,0.37122718,-0.38798491,0.493787,0.4028593,-0.46830783,0.50898,0.4021027,-0.43471429,0.503909,0.40175121,-0.41451293,0.501315,0.40198003,-0.3989505,0.498957,0.43086777,-0.48519216,0.513506,0.43461981,-0.45270129,0.514168,0.43719269,-0.44330228,0.514472,0.44147027,-0.44537861,0.514741
0.37853446,-0.53824706,0.498405,0.37876692,-0.49570215,0.501746,0.35594819,-0.52547905,0.494696,0.33860056,-0.49650334,0.492117,0.3176084,-0.46937304,0.487602,0.31439228,-0.45453349,0.491094,0.35054424,-0.45236002,0.499154,0.33990316,-0.41361618,0.494835,0.33835637,-0.40696126,0.492676,0.33685842,-0.39753959,0.490712,0.37900875,-0.45673292,0.504852,0.37485605,-0.41639128,0.500548,0.37248135,-0.39319972,0.498038,0.37078227,-0.37654872,0.496244,0.40247833,-0.46378368,0.509224,0.40242422,-0.42970223,0.505401,0.40269805,-0.41292393,0.503446,0.40311489,-0.39858553,0.501668,0.43012878,-0.47907987,0.513774,0.4386421,-0.45367527,0.520655,0.44577479,-0.44155138,0.523817,0.45359904,-0.43893801,0.526607
0.37758684,-0.53825084,0.49833,0.37857109,-0.49624645,0.502018,0.35540916,-0.52580582,0.49498,0.33512478,-0.49801573,0.492806,0.31676347,-0.4690908,0.4871,0.31355238,-0.45703078,0.492333,0.35129319,-0.45402157,0.500109,0.3395732,-0.41459197,0.495515,0.33776188,-0.40744057,0.493218,0.33630423,-0.3984786,0.49113,0.37949974,-0.45768306,0.505447,0.37575381,-0.41763127,0.50149,0.37360048,-0.3944535,0.499181,0.37206093,-0.37781278,0.497532,0.40268883,-0.46457543,0.509491,0.40231821,-0.4302631,0.505946,0.40245357,-0.41327422,0.504132,0.40198701,-0.3977225,0.502483,0.43011493,-0.48107457,0.513597,0.43718515,-0.45259656,0.518537,0.44328813,-0.44298132,0.520806,0.45005182,-0.43813246,0.522808
0.37739645,-0.53796217,0.498681,0.37815396,-0.49582643,0.501911,0.35452966,-0.524558,0.494288,0.34826189,-0.4941061,0.486761,0.32349255,-0.46971183,0.481509,0.31387794,-0.46077552,0.492347,0.34976499,-0.45209227,0.498373,0.33811182,-0.41360949,0.4944,0.33641639,-0.4064599,0.492414,0.33517846,-0.39805381,0.490608,0.37877914,-0.45657433,0.504913,0.37384024,-0.41729651,0.500453,0.37073869,-0.39386481,0.497852,0.37007098,-0.37641756,0.495993,0.40271216,-0.46415971,0.509991,0.40170484,-0.42975838,0.505978,0.40049229,-0.41128129,0.503925,0.4016021,-0.39695385,0.502059,0.43079717,-0.4800465,0.515384,0.43937918,-0.45326853,0.521223,0.44559164,-0.44211493,0.523906,0.4519138,-0.43384738,0.526273
0.37715141,-0.53769947,0.49896,0.37798912,-0.49575706,0.502143,0.35426844,-0.52429762,0.49449,0.34768687,-0.49320787,0.48612,0.32250496,-0.4689427,0.480766,0.31424969,-0.45948716,0.491605,0.34954874,-0.45210918,0.498477,0.33772769,-0.41316398,0.494134,0.33505258,-0.40305875,0.491963,0.33429197,-0.39504583,0.489989,0.37866574,-0.45667934,0.505103,0.37188066,-0.41629412,0.500595,0.36995565,-0.39362644,0.502424,0.36969379,-0.3789056,0.50373,0.40268036,-0.46433221,0.510254,0.39883458,-0.42814276,0.506161,0.39908641,-0.41104895,0.504067,0.39945325,-0.39525231,0.502163,0.43084554,-0.47949164,0.515743,0.44009962,-0.45366214,0.52196,0.4461824,-0.442224,0.524816,0.45080907,-0.42963332,0.527336
0.37734959,-0.53804936,0.499691,0.37809209,-0.496059,0.502683,0.35461712,-0.52494657,0.495421,0.3455954,-0.49027814,0.483237,0.32114564,-0.46742594,0.479053,0.31412145,-0.45934811,0.490672,0.34972621,-0.45269983,0.499149,0.33748858,-0.41310578,0.494191,0.33472226,-0.40266917,0.491712,0.333725,-0.39433014,0.489458,0.37865938,-0.45695782,0.505464,0.37138401,-0.41584602,0.500799,0.37009674,-0.39413825,0.503765,0.3702145,-0.37982324,0.505883,0.40250782,-0.46436613,0.510378,0.39744399,-0.42642807,0.505991,0.39734127,-0.41012583,0.503747,0.39847276,-0.39478405,0.501706,0.43041936,-0.47934183,0.515621,0.43980728,-0.45254223,0.522007,0.44592636,-0.44181446,0.52494,0.45029489,-0.42947874,0.527529
0.37690649,-0.53678134,0.49928,0.37757844,-0.49405699,0.502407,0.35350375,-0.52284336,0.494035,0.34387401,-0.48682558,0.480894,0.31999972,-0.46567053,0.477954,0.3132315,-0.45797307,0.490316,0.34672092,-0.45038281,0.497715,0.33588544,-0.41164548,0.494233,0.33323681,-0.39587315,0.492492,0.32837414,-0.37890204,0.49091,0.37618766,-0.45484617,0.505315,0.37060067,-0.41382512,0.501364,0.36895265,-0.39047375,0.499059,0.37012302,-0.37410258,0.497413,0.39922572,-0.45869394,0.511274,0.39850555,-0.42562997,0.507948,0.39836106,-0.40234016,0.506246,0.39809911,-0.38493168,0.504699,0.42813712,-0.47388824,0.517717,0.43896824,-0.44666526,0.523855,0.44393006,-0.43424014,0.526675,0.4508374,-0.42892443,0.529164
0.37790575,-0.53838774,0.501743,0.3756612,-0.48728922,0.504248,0.35445282,-0.52312425,0.499206,0.33148334,-0.48614414,0.499755,0.31569546,-0.4637796,0.501395,0.31203909,-0.44488222,0.496713,0.34936701,-0.4395758,0.502618,0.33789568,-0.40487055,0.497232,0.33236692,-0.38847702,0.494539,0.32822284,-0.37658246,0.49209,0.37694699,-0.4439496,0.506578,0.37169991,-0.41037217,0.501647,0.36901355,-0.38787051,0.498771,0.36686141,-0.37304204,0.496716,0.39971694,-0.45159545,0.5096,0.39738044,-0.41708521,0.505454,0.39664881,-0.39792785,0.503333,0.39598613,-0.38047026,0.501405,0.42522039,-0.46862211,0.512711,0.43823855,-0.4443537,0.522255,0.44421532,-0.43323241,0.52664,0.4501662,-0.42601873,0.530509
0.36182355,-0.5263862,0.498874,0.36321392,-0.48566623,0.500179,0.34383362,-0.51356455,0.499289,0.32689199,-0.48690692,0.501995,0.3169845,-0.46453346,0.504567,0.3137816,-0.44499046,0.499467,0.34851542,-0.43969338,0.501548,0.33698987,-0.40773401,0.496469,0.33192706,-0.39090579,0.493929,0.32728286,-0.37542317,0.49162,0.37234737,-0.44477997,0.501391,0.36793676,-0.40744171,0.495843,0.36591072,-0.38629186,0.492607,0.36413954,-0.37080543,0.490295,0.39286933,-0.45452944,0.501137,0.38910594,-0.41805303,0.49602,0.38723328,-0.4002038,0.493401,0.38622068,-0.38460889,0.491021,0.41208759,-0.47410632,0.500619,0.41433544,-0.44494996,0.505423,0.41695075,-0.43136099,0.50763,0.41757518,-0.42567653,0.509578
0.36571619,-0.52559064,0.499844,0.36200377,-0.4745992,0.500198,0.34227789,-0.51023544,0.498115,0.32338922,-0.48252668,0.498817,0.30393407,-0.45760321,0.497745,0.29716285,-0.43743412,0.490665,0.33585619,-0.43287588,0.498211,0.32813024,-0.39609409,0.496264,0.32428306,-0.37899721,0.49529,0.32124856,-0.36857411,0.494405,0.36240805,-0.43523478,0.500525,0.35529094,-0.39501986,0.493886,0.35112361,-0.37133947,0.490012,0.3481408,-0.35432204,0.487246,0.38433638,-0.44125143,0.502396,0.38948497,-0.40726995,0.506162,0.39211858,-0.38989542,0.508089,0.39469297,-0.37443233,0.50984,0.41007312,-0.45558978,0.504524,0.41337837,-0.42302129,0.503261,0.4148861,-0.40813867,0.502681,0.41678859,-0.39732824,0.502169
0.33045115,-0.50865267,0.491074,0.34067218,-0.46777435,0.494476,0.31387271,-0.49507191,0.491924,0.306541,-0.47052653,0.496648,0.29338426,-0.43856318,0.488628,0.29265979,-0.41938851,0.487762,0.32607747,-0.42535238,0.497739,0.32599938,-0.38883142,0.497607,0.32249771,-0.38829081,0.497541,0.31910451,-0.38776966,0.497481,0.3500228,-0.43051032,0.497616,0.35061185,-0.38801717,0.493975,0.34997264,-0.37416701,0.491851,0.3452269,-0.36631793,0.490334,0.36902605,-0.43867478,0.497189,0.38311073,-0.40472597,0.501184,0.38741275,-0.38779921,0.503228,0.39136686,-0.37262278,0.505086,0.38987066,-0.45530503,0.496112,0.39791533,-0.42264859,0.493661,0.4014961,-0.40801838,0.492535,0.40796874,-0.39460712,0.493825
0.3291547,-0.50266524,0.490265,0.33801061,-0.45538116,0.493637,0.31320942,-0.49011159,0.49214,0.30095033,-0.45899396,0.496622,0.28674586,-0.42990255,0.491426,0.28400863,-0.41030087,0.488936,0.32397685,-0.41423213,0.498195,0.3250393,-0.38307525,0.503459,0.32200944,-0.38259499,0.506091,0.31893899,-0.38199256,0.508484,0.34671893,-0.41758626,0.496751,0.34274533,-0.38037425,0.49328,0.34040605,-0.35818367,0.491256,0.3387246,-0.34210473,0.48981,0.36482053,-0.42429447,0.49524,0.36610806,-0.38624638,0.491947,0.36675721,-0.36687726,0.490263,0.36361596,-0.36093923,0.488732,0.38482634,-0.43932383,0.492899,0.39378482,-0.40735091,0.491148,0.39770997,-0.39296463,0.490343,0.40080925,-0.38081152,0.489633
0.32179678,-0.48716967,0.486308,0.32946904,-0.43942506,0.490463,0.30747295,-0.47605713,0.489873,0.29018616,-0.44319765,0.493034,0.27453542,-0.41494033,0.488708,0.27064562,-0.39563478,0.486821,0.31948153,-0.40065635,0.497686,0.30770463,-0.36976787,0.496457,0.30166634,-0.35391635,0.495842,0.29608701,-0.33926097,0.495283,0.33997368,-0.40255706,0.494299,0.3355839,-0.36483073,0.49188,0.33294993,-0.34248733,0.49047,0.33105034,-0.32634261,0.489462,0.35607658,-0.40797491,0.491113,0.3553728,-0.37141077,0.488902,0.35358258,-0.35442714,0.487771,0.35137065,-0.33965672,0.486742,0.37348946,-0.42137043,0.486681,0.38689341,-0.39878192,0.49807,0.39280053,-0.38827798,0.503303,0.39800868,-0.37903928,0.50792
0.31309485,-0.47175069,0.484605,0.32027244,-0.42318416,0.487701,0.30126438,-0.46170808,0.489883,0.28942966,-0.4316642,0.49879,0.27424815,-0.40685358,0.496077,0.26742996,-0.38782677,0.490096,0.31321638,-0.38544604,0.496439,0.30053043,-0.35625072,0.49502,0.29396504,-0.34112349,0.49431,0.28786114,-0.32704856,0.493665,0.33003399,-0.3859334,0.490559,0.3233236,-0.34725486,0.487653,0.31937375,-0.32442054,0.485958,0.31653641,-0.30798461,0.484748,0.34323455,-0.39028545,0.485422,0.34861366,-0.35652685,0.489537,0.35049869,-0.3393828,0.491642,0.35221428,-0.32371805,0.493556,0.35737651,-0.40260518,0.478889,0.36930882,-0.3753065,0.484527,0.376867,-0.36507874,0.489893,0.38354713,-0.35605844,0.494667
0.31428407,-0.47315399,0.490188,0.3206572,-0.42347344,0.489874,0.30045903,-0.45625146,0.49512,0.28893312,-0.4320132,0.500684,0.27210424,-0.40480338,0.494564,0.26530535,-0.38541742,0.487971,0.31287719,-0.38319655,0.495989,0.2973955,-0.35303385,0.492569,0.28944981,-0.33752936,0.490859,0.28210119,-0.32317591,0.489304,0.32905099,-0.3839886,0.489584,0.31893568,-0.34535792,0.483675,0.30941446,-0.32538081,0.480228,0.30320581,-0.31078848,0.477766,0.34184884,-0.38881546,0.484342,0.34945454,-0.35751069,0.491577,0.35159522,-0.34153248,0.495279,0.3535371,-0.3268333,0.498645,0.35578499,-0.40210256,0.478264,0.36823057,-0.37502305,0.484062,0.37574609,-0.36458617,0.489135,0.38237843,-0.35536804,0.493623
0.30834187,-0.45956537,0.485936,0.3157476,-0.40967378,0.488321,0.2989682,-0.45084667,0.49304,0.28424526,-0.42236245,0.500302,0.26527604,-0.39787555,0.496676,0.25632506,-0.37902696,0.491844,0.30903053,-0.3743616,0.498942,0.29311574,-0.34520012,0.498181,0.28491138,-0.33016205,0.497801,0.27730309,-0.31621395,0.497455,0.32292753,-0.37165449,0.490522,0.31239533,-0.33313519,0.487547,0.30619791,-0.31043993,0.485811,0.30174656,-0.29412481,0.484571,0.333932,-0.37341743,0.483363,0.33265662,-0.33709507,0.483019,0.33117668,-0.31875123,0.482843,0.3298251,-0.30200069,0.482682,0.34592704,-0.38277821,0.474585,0.35685646,-0.35449522,0.478942,0.36371916,-0.34353871,0.48347,0.36964511,-0.33381426,0.487489
0.30809335,-0.45556068,0.484987,0.31452188,-0.40717789,0.488217,0.29742298,-0.44406997,0.491556,0.28415769,-0.42130901,0.500741,0.26430254,-0.39685685,0.496381,0.25493324,-0.37818956,0.491216,0.30157747,-0.37078053,0.498695,0.28622421,-0.34066169,0.49742,0.27832215,-0.32515157,0.496782,0.27360966,-0.31332673,0.496203,0.31721704,-0.36710784,0.4912,0.30741262,-0.32783989,0.488779,0.30168713,-0.30490461,0.487367,0.29759492,-0.28850933,0.486359,0.32997326,-0.36801425,0.48472,0.33503822,-0.33894917,0.495074,0.33734658,-0.32408363,0.500371,0.33878629,-0.31045708,0.505186,0.3445885,-0.37623444,0.476593,0.35343321,-0.34551749,0.477743,0.35917226,-0.33327206,0.480635,0.36441196,-0.32263639,0.483445
0.30845132,-0.44509899,0.487027,0.30876644,-0.39469113,0.492347,0.29161907,-0.43113909,0.488201,0.27088825,-0.40415494,0.493856,0.25224305,-0.37828936,0.489104,0.24659753,-0.36077142,0.489396,0.28637509,-0.35945832,0.49721,0.27551675,-0.32386333,0.495401,0.2689612,-0.3086326,0.494496,0.26285774,-0.29443809,0.493674,0.3109448,-0.35897147,0.497187,0.30336002,-0.3193409,0.495292,0.29891683,-0.29610955,0.494187,0.29573396,-0.27946329,0.493397,0.33109748,-0.36236544,0.496652,0.33474118,-0.3317969,0.505329,0.33673983,-0.31629433,0.509971,0.3385795,-0.30221555,0.514226,0.35446755,-0.37313998,0.495115,0.35901184,-0.34167087,0.495756,0.36028099,-0.32844008,0.49605,0.36141489,-0.31659262,0.49631
0.30089762,-0.42700823,0.483618,0.29931569,-0.38295515,0.489074,0.28233078,-0.41907743,0.485221,0.26081017,-0.39349972,0.490401,0.24153634,-0.36948813,0.486951,0.23554116,-0.35320184,0.488481,0.27668351,-0.34875394,0.494563,0.26586155,-0.31329201,0.493032,0.25945389,-0.29701416,0.492266,0.25352413,-0.2819403,0.49157,0.30095087,-0.3474615,0.494021,0.29366096,-0.30816187,0.492797,0.28928462,-0.2853492,0.492083,0.28544502,-0.26989623,0.491573,0.32086967,-0.35017999,0.493046,0.32200655,-0.31548982,0.495989,0.3224516,-0.29777044,0.497494,0.32285549,-0.28162029,0.498863,0.34401165,-0.36011881,0.49097,0.35316429,-0.33438109,0.498403,0.35735576,-0.32265739,0.501817,0.36068315,-0.31201773,0.50483
0.29018714,-0.41754777,0.47999,0.28997282,-0.37667604,0.486388,0.27293319,-0.41050843,0.483092,0.25410889,-0.38648092,0.490427,0.23958445,-0.36437219,0.491924,0.23535787,-0.34715218,0.492776,0.27185543,-0.34316894,0.494421,0.26249964,-0.30924418,0.49413,0.25774864,-0.29201439,0.493984,0.25404194,-0.27971031,0.493852,0.29446051,-0.34169646,0.492226,0.28884072,-0.30320962,0.491674,0.28699097,-0.28294431,0.491352,0.28382077,-0.26732518,0.491122,0.31275403,-0.34418394,0.4898,0.31204977,-0.30805425,0.488914,0.31168825,-0.28938029,0.48846,0.31135962,-0.2722917,0.488048,0.33354325,-0.35374265,0.485869,0.34533824,-0.32913396,0.495512,0.3512816,-0.31839342,0.500708,0.35876527,-0.31060926,0.505293
0.28642332,-0.41561006,0.479588,0.28751244,-0.37598189,0.487246,0.26486674,-0.40607198,0.482296,0.24684525,-0.38298593,0.488853,0.23257574,-0.36247958,0.491856,0.230096,-0.34906226,0.497248,0.26558836,-0.34143083,0.495569,0.25796727,-0.30701228,0.49608,0.25412145,-0.28964679,0.496336,0.25268224,-0.27573088,0.496569,0.28925767,-0.34045239,0.494233,0.28472375,-0.30238578,0.494693,0.28199092,-0.28023369,0.494962,0.28240409,-0.26579667,0.495153,0.3083394,-0.3432671,0.492392,0.30892791,-0.30713649,0.492563,0.30922937,-0.2886014,0.49265,0.31190224,-0.27329789,0.492729,0.32989546,-0.35302348,0.488928,0.33883412,-0.32470606,0.494041,0.34341742,-0.31217176,0.497089,0.35253153,-0.30547469,0.503299
0.2840216,-0.41647265,0.487334,0.28053941,-0.36791968,0.490858,0.26504834,-0.40689958,0.487705,0.24051259,-0.37660589,0.490848,0.22528834,-0.35858154,0.495526,0.22266964,-0.34709066,0.501968,0.25684087,-0.33147924,0.49354,0.2460349,-0.29472986,0.49014,0.23989942,-0.27743574,0.48844,0.23425367,-0.2615046,0.486894,0.28203103,-0.33162109,0.494037,0.2751168,-0.29088744,0.490471,0.26971191,-0.27136638,0.488391,0.26561992,-0.25801833,0.486905,0.3026606,-0.33565355,0.494103,0.30513972,-0.3041941,0.501893,0.30640392,-0.28803696,0.505878,0.30755122,-0.27331379,0.509501,0.3265465,-0.34731331,0.493572,0.33652912,-0.32087475,0.501276,0.34102555,-0.30853389,0.504816,0.34500399,-0.29756629,0.507939
0.2550302,-0.41058825,0.484854,0.26123468,-0.37107235,0.489329,0.23788804,-0.40057257,0.486413,0.2252436,-0.37773711,0.492846,0.20975052,-0.35060147,0.489091,0.20561319,-0.33073687,0.481798,0.24305612,-0.33377357,0.494133,0.23759696,-0.30019126,0.496958,0.23485377,-0.28333052,0.49837,0.23158086,-0.26810027,0.499654,0.26683048,-0.33543326,0.493365,0.26318886,-0.29513042,0.49081,0.26106162,-0.2715742,0.489319,0.25950069,-0.25474,0.488254,0.28594677,-0.34067904,0.492296,0.28516742,-0.30333177,0.490749,0.28476892,-0.28423932,0.489958,0.28457001,-0.26704481,0.48952,0.3073535,-0.35371488,0.490278,0.31834133,-0.32566251,0.495375,0.32411946,-0.31361059,0.49888,0.32926294,-0.3030167,0.502041
0.26157066,-0.41658496,0.495468,0.26409607,-0.37451246,0.497666,0.2410667,-0.40473174,0.493063,0.22189043,-0.37428665,0.488842,0.20198104,-0.35326003,0.489054,0.19812258,-0.34457678,0.497119,0.23524083,-0.33300104,0.495941,0.22578314,-0.29801122,0.495384,0.22099978,-0.2815092,0.495106,0.21716778,-0.26936766,0.494853,0.26256091,-0.33464003,0.499644,0.25550895,-0.29446202,0.494441,0.25141744,-0.27116034,0.491407,0.24873546,-0.25640657,0.489239,0.28501569,-0.33999109,0.502478,0.28082045,-0.3019925,0.497915,0.27867133,-0.28249722,0.49558,0.27833266,-0.26628848,0.49634,0.31126118,-0.35331161,0.505402,0.31458553,-0.3229589,0.5027,0.31615794,-0.30875393,0.501458,0.31757049,-0.29608056,0.500363
0.2494471,-0.4047677,0.4829,0.24319518,-0.36170121,0.487828,0.23339945,-0.3992324,0.487769,0.2085974,-0.37444343,0.493688,0.19686894,-0.35588893,0.498468,0.19164691,-0.33814686,0.498053,0.22764254,-0.33154704,0.497169,0.21495349,-0.29767454,0.496578,0.20853109,-0.28052807,0.496283,0.20264616,-0.26481584,0.496014,0.24771955,-0.32699382,0.492229,0.24817903,-0.29419546,0.502014,0.24842622,-0.27488284,0.507721,0.24859411,-0.26100967,0.511798,0.26386853,-0.3270259,0.487674,0.26206302,-0.29002736,0.484558,0.26113809,-0.27086854,0.482963,0.26029727,-0.25331349,0.481514,0.2821329,-0.33384686,0.481508,0.29524586,-0.31227914,0.494928,0.30170407,-0.30288013,0.501833,0.30740291,-0.29458617,0.507926
0.2324036,-0.39643376,0.47805,0.23389706,-0.35878667,0.487658,0.21549288,-0.38972113,0.480715,0.19385057,-0.36641753,0.486061,0.1836611,-0.35613705,0.496969,0.17869689,-0.33947006,0.498147,0.21358578,-0.32812069,0.497058,0.20503021,-0.2950164,0.49912,0.19923238,-0.27866739,0.500151,0.19276102,-0.26503136,0.501088,0.23806313,-0.32663371,0.496239,0.23354012,-0.28886347,0.498506,0.23089239,-0.26676682,0.499828,0.2289974,-0.25095527,0.500773,0.25775178,-0.32896992,0.494615,0.25809571,-0.29381383,0.496629,0.25612265,-0.27706946,0.497659,0.25426832,-0.26142588,0.498596,0.27988032,-0.33796077,0.491049,0.28761448,-0.30873698,0.49544,0.29117403,-0.2952707,0.497457,0.29431824,-0.28336877,0.499237
0.22559378,-0.40357834,0.480373,0.22628808,-0.3725656,0.487648,0.20826187,-0.3971097,0.483733,0.18816401,-0.38265759,0.49071,0.17635425,-0.36724498,0.499373,0.1761647,-0.35717209,0.508098,0.20783181,-0.34018561,0.496471,0.2001295,-0.30527475,0.497159,0.19434761,-0.28847348,0.497503,0.18902634,-0.27301319,0.497815,0.23111308,-0.33897324,0.494103,0.22856787,-0.29945838,0.494404,0.22395375,-0.27802406,0.494579,0.22024667,-0.26270688,0.494705,0.24974538,-0.34172917,0.491431,0.25375392,-0.31191205,0.501225,0.25499501,-0.29629929,0.506235,0.25538685,-0.28181338,0.51079,0.27050974,-0.3515485,0.48705,0.28005972,-0.32573806,0.496454,0.28444095,-0.31393504,0.500776,0.2870282,-0.30318073,0.504588
0.21838452,-0.40091587,0.476148,0.21504778,-0.36617136,0.485513,0.19902471,-0.40104052,0.482593,0.1827473,-0.38142356,0.493536,0.1693453,-0.36141729,0.497745,0.16219454,-0.34257881,0.494145,0.2028655,-0.34094496,0.499604,0.19211703,-0.30904063,0.503335,0.18668774,-0.29293349,0.505201,0.18171999,-0.27820086,0.506897,0.22146447,-0.33487175,0.49376,0.21220817,-0.29828914,0.496764,0.20670951,-0.27658847,0.498516,0.20273667,-0.26092375,0.499767,0.2361889,-0.33340644,0.488007,0.23807148,-0.29979443,0.493949,0.23903286,-0.28253162,0.496989,0.23990602,-0.2668003,0.499753,0.25231261,-0.33801791,0.47966,0.26521849,-0.31658553,0.493614,0.27165166,-0.3074186,0.500984,0.27736093,-0.2993685,0.507548
0.2131078,-0.40654937,0.479121,0.21352819,-0.36745433,0.486699,0.19753465,-0.40108309,0.483237,0.18045613,-0.38209319,0.493966,0.16071693,-0.3601143,0.494169,0.15793045,-0.34242899,0.493869,0.19180729,-0.33897096,0.496678,0.1823605,-0.30861302,0.502716,0.17664633,-0.29344815,0.505736,0.17130584,-0.2795357,0.508481,0.21284159,-0.33501022,0.493374,0.20395407,-0.29655951,0.49415,0.19872906,-0.27403813,0.494602,0.19603703,-0.25929408,0.494926,0.23017028,-0.33550867,0.48989,0.23078588,-0.30348625,0.497588,0.23050359,-0.28702489,0.501526,0.23024239,-0.27201926,0.505106,0.25024505,-0.34276577,0.484501,0.26058195,-0.31311743,0.48857,0.26349808,-0.30001756,0.49044,0.25911092,-0.28966249,0.49209
0.20614496,-0.40872691,0.480517,0.19997131,-0.37558747,0.487497,0.18893593,-0.4051234,0.484864,0.16739081,-0.3883505,0.493228,0.15156035,-0.36437923,0.492598,0.14909782,-0.35081973,0.498399,0.1814481,-0.34684756,0.497408,0.17101024,-0.31275247,0.497979,0.1638681,-0.29645535,0.498265,0.15724943,-0.28135343,0.498525,0.20142729,-0.34236543,0.493645,0.19280803,-0.30359687,0.493933,0.18634238,-0.28137403,0.494102,0.18169895,-0.26541518,0.494222,0.21791716,-0.3424656,0.489844,0.21674798,-0.30479121,0.489068,0.21418536,-0.28610082,0.488672,0.21182878,-0.26890431,0.488311,0.23708394,-0.34935479,0.48419,0.24643856,-0.31925901,0.48784,0.24903644,-0.30534568,0.489517,0.25035007,-0.29313722,0.490997
0.20951337,-0.40865945,0.479545,0.2023731,-0.37424022,0.486647,0.19385103,-0.40392122,0.483774,0.17341305,-0.39080211,0.49278,0.15220586,-0.36628801,0.491534,0.14826338,-0.35282493,0.496784,0.18090631,-0.34693559,0.49648,0.16958887,-0.31292983,0.497063,0.16258069,-0.2963944,0.497354,0.15463102,-0.28213908,0.497619,0.2010081,-0.341522,0.492903,0.19154812,-0.30291293,0.493266,0.18460847,-0.28077584,0.493477,0.17954268,-0.26489074,0.493629,0.21790951,-0.34080241,0.489242,0.21399488,-0.30558967,0.493615,0.21096415,-0.28832305,0.495853,0.20820492,-0.27260822,0.497887,0.23807267,-0.34662972,0.48373,0.24055553,-0.31367405,0.48743,0.24189058,-0.30073094,0.490652,0.24313423,-0.28939557,0.493628
0.20905356,-0.40956963,0.479581,0.20391755,-0.3753633,0.487278,0.19412598,-0.4063759,0.48534,0.17335456,-0.39136519,0.492346,0.16152708,-0.3790331,0.500862,0.16243469,-0.37287062,0.512399,0.18503256,-0.35103124,0.499457,0.17191452,-0.32253229,0.502838,0.16367737,-0.30751606,0.504529,0.15300579,-0.29560339,0.506066,0.20312054,-0.34299549,0.494056,0.19214764,-0.30552531,0.495357,0.18189927,-0.28736589,0.496117,0.17673154,-0.26931815,0.496659,0.2189867,-0.3408256,0.488834,0.22250566,-0.3210525,0.507086,0.22170707,-0.31018499,0.516424,0.22016777,-0.30000433,0.524914,0.23774113,-0.34483674,0.481401,0.24232141,-0.31500079,0.485825,0.24135128,-0.29976932,0.487858,0.24450172,-0.289238,0.489715
0.20742453,-0.40901706,0.478333,0.20393481,-0.375256,0.487093,0.19136308,-0.40704463,0.485149,0.17353032,-0.3908957,0.492686,0.15530441,-0.37127317,0.497985,0.15198642,-0.36520437,0.507634,0.18723505,-0.35167335,0.501294,0.1735522,-0.3228967,0.505509,0.16547715,-0.30825145,0.507617,0.15654852,-0.29577776,0.509533,0.20436348,-0.34347656,0.494808,0.1917467,-0.30810648,0.497222,0.18068466,-0.28957049,0.49863,0.17799149,-0.27346696,0.503745,0.21938533,-0.34078958,0.488586,0.22067269,-0.31907218,0.505907,0.21974106,-0.30741319,0.51477,0.21846806,-0.29660251,0.522826,0.23686382,-0.34406727,0.479801,0.24471173,-0.31620229,0.485488,0.24297013,-0.30350038,0.488101,0.24144122,-0.29293,0.490453
0.20717488,-0.4115048,0.480481,0.20370337,-0.37536677,0.48677,0.19151375,-0.40957875,0.487521,0.17412051,-0.39484637,0.499074,0.15647409,-0.36368594,0.494202,0.15704501,-0.34727714,0.497534,0.18959598,-0.35050905,0.499747,0.17489838,-0.32030089,0.502634,0.1771224,-0.30907421,0.513145,0.17481822,-0.2999001,0.522701,0.20633043,-0.34257582,0.49231,0.19115606,-0.30496256,0.49272,0.18319008,-0.28281198,0.492959,0.17729286,-0.26711941,0.49313,0.21901027,-0.33973839,0.485553,0.21685965,-0.30574436,0.489108,0.21516632,-0.28826429,0.490926,0.21360919,-0.27223767,0.49258,0.23518537,-0.34349621,0.476581,0.24816718,-0.31398571,0.474673,0.23883229,-0.31065819,0.473796,0.22943049,-0.32001089,0.473023
0.20651452,-0.41076298,0.47903,0.20804717,-0.37236848,0.485151,0.1930792,-0.40879472,0.486598,0.17709849,-0.39257705,0.496271,0.1683156,-0.37170369,0.499719,0.17242842,-0.35976324,0.509843,0.1995843,-0.34843232,0.498709,0.19319861,-0.32351909,0.51146,0.18951297,-0.31090004,0.517836,0.18612085,-0.29931478,0.523632,0.2157228,-0.3415661,0.490543,0.20430912,-0.30380932,0.49097,0.1963322,-0.28204756,0.491219,0.18997213,-0.26657292,0.491397,0.22862255,-0.33975122,0.483203,0.22406996,-0.30251587,0.482284,0.22173267,-0.28339283,0.481814,0.21960316,-0.26596536,0.481387,0.24297599,-0.34448087,0.473583,0.25607175,-0.31248862,0.471232,0.24670646,-0.30955289,0.470152,0.23734196,-0.3189353,0.469198
0.20730998,-0.40850248,0.475653,0.22355811,-0.37377961,0.484083,0.19750398,-0.40844145,0.483384,0.1930086,-0.3947122,0.496026,0.17894579,-0.37092006,0.496672,0.17643692,-0.35642806,0.504599,0.21223167,-0.35320367,0.499269,0.19626026,-0.3245916,0.504113,0.18809422,-0.30996517,0.506535,0.18056556,-0.29648182,0.508737,0.22758183,-0.34556335,0.491509,0.22081213,-0.30833108,0.49405,0.20973403,-0.28961723,0.495533,0.20137283,-0.27602708,0.496592,0.23982676,-0.34291405,0.484271,0.25106168,-0.30694492,0.483963,0.2421997,-0.29450695,0.483805,0.22915928,-0.29929895,0.483662,0.2533634,-0.34637543,0.474362,0.26548069,-0.31486485,0.474117,0.2646246,-0.30115239,0.474004,0.25826838,-0.29398474,0.473905
0.23390122,-0.4206897,0.486494,0.23857669,-0.3765416,0.488525,0.22922832,-0.41312512,0.490122,0.20968728,-0.39616891,0.498147,0.18469893,-0.36663132,0.485633,0.17649312,-0.35004998,0.484079,0.21154925,-0.34867,0.49447,0.20289468,-0.31762553,0.500474,0.19514106,-0.30344807,0.503477,0.1879415,-0.29028918,0.506206,0.23225325,-0.34113956,0.490314,0.22830881,-0.3082508,0.499446,0.22599022,-0.28898183,0.504773,0.22432636,-0.27518161,0.508578,0.24910874,-0.33991318,0.486687,0.24160898,-0.3009728,0.481795,0.23776054,-0.2809693,0.479292,0.23425536,-0.26273609,0.477017,0.2702867,-0.34568015,0.482109,0.26558254,-0.31011798,0.477939,0.25685428,-0.30918544,0.476023,0.25365372,-0.31995606,0.474332
0.25238206,-0.41912555,0.489098,0.24962638,-0.37740024,0.489639,0.23508761,-0.41424702,0.491453,0.2203597,-0.39607904,0.498034,0.19515173,-0.3663535,0.485265,0.18667295,-0.34910169,0.483441,0.22266477,-0.34649963,0.493021,0.21312631,-0.31734565,0.500033,0.20568695,-0.30348548,0.503539,0.19875884,-0.29058795,0.506727,0.24261844,-0.34100114,0.490115,0.2388892,-0.3083693,0.499638,0.23668974,-0.28922228,0.505193,0.23510824,-0.27549709,0.509161,0.26015424,-0.34059767,0.487667,0.25208454,-0.30088035,0.481647,0.2479532,-0.28054374,0.478566,0.24419664,-0.26204707,0.475766,0.28240748,-0.34755515,0.484724,0.27659692,-0.31086032,0.479083,0.2677347,-0.30948877,0.47649,0.26434204,-0.31986905,0.474203
0.2558529,-0.41530538,0.48602,0.25222923,-0.3753093,0.488738,0.2444984,-0.41158189,0.489308,0.24131918,-0.40097256,0.502548,0.21243707,-0.37492577,0.489821,0.2058153,-0.35898265,0.491029,0.22582395,-0.34793907,0.494665,0.21805469,-0.32356443,0.508081,0.21503953,-0.31254616,0.514789,0.21087365,-0.30134832,0.520887,0.2445518,-0.34081048,0.491132,0.24094675,-0.30879973,0.501531,0.23879417,-0.28990513,0.507597,0.23723493,-0.27631197,0.51193,0.26114761,-0.33883812,0.48795,0.25281245,-0.30019791,0.483332,0.24853249,-0.2803359,0.480969,0.24147661,-0.26272459,0.478821,0.28298986,-0.34028503,0.483768,0.26928674,-0.31449397,0.486333,0.26168655,-0.30125192,0.487512,0.25092953,-0.29217966,0.488552
0.26496812,-0.41625462,0.487685,0.2657912,-0.37657063,0.491473,0.24995187,-0.4149011,0.493441,0.23997732,-0.39915341,0.505242,0.22013061,-0.37549142,0.502454,0.21397368,-0.36087467,0.506317,0.24432763,-0.35061559,0.501252,0.23220141,-0.31575897,0.497791,0.22603667,-0.29801526,0.49606,0.22037166,-0.28169555,0.494487,0.2611725,-0.34197022,0.494809,0.25100537,-0.30429125,0.495642,0.24501105,-0.28208153,0.496129,0.2406998,-0.26611178,0.496476,0.2757551,-0.33875957,0.489122,0.26614397,-0.3010029,0.485166,0.26119126,-0.28151961,0.483141,0.25666824,-0.26370816,0.481301,0.29396369,-0.34201838,0.481837,0.27987471,-0.31499207,0.484977,0.27327518,-0.30312536,0.486419,0.26552361,-0.2935458,0.487692
0.2809034,-0.41526621,0.486246,0.2864529,-0.37623446,0.491015,0.27701674,-0.41369399,0.492281,0.26095282,-0.39867706,0.50449,0.24121579,-0.37592409,0.502832,0.23492173,-0.36090534,0.506161,0.26505209,-0.35106982,0.501756,0.25351944,-0.31643048,0.498756,0.24764973,-0.29877258,0.497256,0.24225127,-0.2825164,0.495892,0.28211887,-0.34228257,0.495214,0.2704311,-0.3026912,0.492989,0.26361042,-0.27958597,0.491691,0.26090729,-0.26528408,0.49488,0.29683361,-0.33889003,0.489348,0.28785338,-0.30155352,0.486107,0.28321831,-0.2822478,0.484449,0.27898015,-0.26457435,0.482942,0.31509815,-0.34180218,0.481682,0.3008397,-0.31527312,0.485012,0.2943403,-0.30317509,0.486542,0.28679733,-0.29364441,0.487892
0.30470735,-0.43400864,0.504483,0.30155993,-0.38944704,0.500274,0.28365243,-0.42463007,0.501883,0.26328719,-0.3994956,0.499847,0.24149446,-0.36565399,0.484839,0.23857699,-0.34546277,0.478662,0.27072354,-0.34928514,0.494324,0.25624662,-0.31757046,0.494569,0.2535125,-0.30977404,0.494692,0.25363778,-0.30825922,0.494803,0.29689621,-0.34920819,0.496566,0.28538145,-0.30408131,0.485487,0.28734888,-0.28684484,0.493841,0.28867396,-0.27392112,0.499808,0.31883337,-0.3536532,0.498836,0.31840868,-0.35651159,0.489799,0.31843994,-0.35840413,0.485176,0.32881995,-0.38639276,0.497449,0.34537807,-0.36674339,0.502219,0.32804019,-0.33391203,0.491384,0.32003975,-0.31874034,0.486406,0.31887763,-0.31535897,0.482013
0.31828621,-0.43785182,0.505323,0.32268755,-0.38947778,0.500322,0.30654784,-0.42764085,0.502094,0.28461247,-0.3990509,0.499394,0.26326918,-0.36516021,0.483899,0.26007657,-0.34405631,0.475695,0.29078973,-0.34835687,0.493073,0.27695412,-0.31773619,0.494902,0.27516256,-0.31044079,0.495817,0.27623945,-0.30938001,0.496648,0.31719312,-0.34874219,0.495918,0.30487102,-0.30317254,0.48405,0.30765297,-0.2863457,0.492993,0.30955835,-0.27368279,0.499381,0.33947821,-0.35362045,0.498764,0.33962351,-0.35622016,0.48933,0.33999796,-0.35797506,0.484502,0.35109882,-0.38580949,0.496584,0.36668262,-0.36734277,0.502958,0.34880008,-0.33396083,0.491399,0.34056084,-0.31856281,0.486088,0.33943756,-0.31499809,0.481402
0.33164117,-0.44267519,0.507004,0.32453533,-0.39211281,0.499995,0.30824629,-0.43084114,0.502531,0.2858756,-0.39969645,0.497935,0.26522176,-0.36752579,0.486095,0.26173117,-0.35088135,0.487574,0.29403032,-0.35083899,0.489903,0.28724463,-0.32640366,0.501576,0.28419931,-0.31355123,0.507412,0.2860367,-0.31079507,0.512718,0.32097818,-0.35286507,0.493822,0.32581079,-0.32371185,0.50882,0.32855672,-0.30611661,0.517568,0.33048646,-0.29329033,0.523817,0.34391395,-0.35922025,0.497754,0.3409666,-0.35534474,0.487136,0.34477221,-0.35697459,0.481704,0.35969779,-0.38322599,0.493225,0.37225047,-0.37502008,0.503565,0.35766183,-0.33749786,0.490314,0.35131193,-0.32097616,0.484225,0.34847598,-0.31371471,0.478853
0.32973686,-0.43340783,0.49719,0.32956883,-0.3927612,0.499852,0.306747,-0.42292302,0.493233,0.29689234,-0.39686213,0.493954,0.27374615,-0.36670838,0.484199,0.2625963,-0.34699439,0.48131,0.29863572,-0.35532137,0.496356,0.29264484,-0.32140761,0.498324,0.29148936,-0.30904534,0.499308,0.29223395,-0.30383204,0.500203,0.32692617,-0.35720476,0.502196,0.31957258,-0.31784509,0.503116,0.31507447,-0.29482472,0.503653,0.31317004,-0.27958919,0.504036,0.35067355,-0.3627507,0.506737,0.34458355,-0.32076862,0.502223,0.3412008,-0.30092481,0.499913,0.3521469,-0.30188166,0.513208,0.38026025,-0.37176953,0.511551,0.37722678,-0.34298287,0.505369,0.37585793,-0.32938634,0.50253,0.37581354,-0.3277736,0.500024
0.32894321,-0.42927084,0.493723,0.33366117,-0.38846996,0.499593,0.30763665,-0.42062669,0.49221,0.29614634,-0.38838817,0.493438,0.27730261,-0.35542341,0.482885,0.27332232,-0.33808727,0.484435,0.30913639,-0.35158974,0.501232,0.30265885,-0.31552683,0.500295,0.30202952,-0.30600261,0.499826,0.30166875,-0.29801138,0.4994,0.33619838,-0.35324038,0.504764,0.33212495,-0.31516741,0.502945,0.32970469,-0.29239054,0.501884,0.32795579,-0.27585519,0.501127,0.35838392,-0.3583346,0.507081,0.35843664,-0.32063298,0.505481,0.35846078,-0.30142184,0.504662,0.36012292,-0.29367537,0.504117,0.38420095,-0.37090496,0.508741,0.38755284,-0.34250841,0.505767,0.38912811,-0.3299034,0.504401,0.38910727,-0.32995811,0.503196
0.3283494,-0.42742381,0.493141,0.33395708,-0.38767223,0.500734,0.30657387,-0.41409355,0.488602,0.29094639,-0.37658541,0.487869,0.27578716,-0.34499281,0.480634,0.27402902,-0.32828322,0.483334,0.3092536,-0.34456578,0.499507,0.30522097,-0.30886009,0.495865,0.30397417,-0.2912787,0.494044,0.30391689,-0.27604716,0.492388,0.33791358,-0.35388702,0.507421,0.34345789,-0.31458595,0.506947,0.34678423,-0.29197427,0.50667,0.34918826,-0.27564326,0.506472,0.35975572,-0.36331356,0.513173,0.36911273,-0.32767993,0.512951,0.37336802,-0.30945333,0.512837,0.3777787,-0.29316099,0.513431,0.38695735,-0.38113472,0.518526,0.40329996,-0.35588684,0.518813,0.41101979,-0.34395362,0.518945,0.41509119,-0.34405953,0.519061
0.37796918,-0.38108798,0.486677,0.36222304,-0.35556254,0.497989,0.35162518,-0.37173842,0.477174,0.36144288,-0.34747775,0.489602,0.3532135,-0.30811698,0.473017,0.35162007,-0.29286071,0.476839,0.3196522,-0.32862865,0.492611,0.31599235,-0.2941729,0.494171,0.31417043,-0.27700618,0.494951,0.31885976,-0.26673964,0.505717,0.34899153,-0.3339737,0.507952,0.35299635,-0.29948632,0.511323,0.35537889,-0.27835346,0.513289,0.35710258,-0.26277901,0.514693,0.37465352,-0.34079659,0.519446,0.382954,-0.31123101,0.518247,0.38744498,-0.29534184,0.517635,0.39167981,-0.28041466,0.517077,0.4072887,-0.35300653,0.530822,0.41853558,-0.34111048,0.529504,0.42412696,-0.33526447,0.528899,0.43829992,-0.34919197,0.536911
0.37205906,-0.38569257,0.482575,0.36772868,-0.36372261,0.496757,0.34807299,-0.37532869,0.474935,0.34237049,-0.35172207,0.478216,0.30957325,-0.33628086,0.470398,0.30863287,-0.32480551,0.479232,0.33707926,-0.32920018,0.495552,0.32940049,-0.29443815,0.495155,0.32737888,-0.27692514,0.494956,0.3266811,-0.26096658,0.494776,0.36645271,-0.33794875,0.509247,0.37103296,-0.30246135,0.515323,0.38800704,-0.29594462,0.518867,0.40086161,-0.29982627,0.521398,0.39074163,-0.34807241,0.519097,0.40058422,-0.3186559,0.528122,0.41088941,-0.30781126,0.539688,0.42027981,-0.2976997,0.550203,0.4192586,-0.36497564,0.528054,0.43563694,-0.36172096,0.529122,0.4416113,-0.37371757,0.529612,0.44737059,-0.39398735,0.538627
0.38017681,-0.40038212,0.487107,0.38165839,-0.37046627,0.497778,0.35617806,-0.38817769,0.479322,0.35111431,-0.35903497,0.475457,0.31891456,-0.33443301,0.463877,0.31497858,-0.32329447,0.471596,0.34673612,-0.33601286,0.494233,0.35228093,-0.31001742,0.508987,0.35503366,-0.29687195,0.516364,0.35752496,-0.28483976,0.52307,0.37666218,-0.34195524,0.507176,0.37562964,-0.30381878,0.509727,0.38018752,-0.28564597,0.518228,0.3834218,-0.27237615,0.5243,0.40184555,-0.35007635,0.516761,0.40878588,-0.31558994,0.519072,0.41239302,-0.29754883,0.520254,0.41570648,-0.28091054,0.521329,0.4321912,-0.36519597,0.526029,0.44700339,-0.33775213,0.530988,0.45390353,-0.32486948,0.533266,0.46004273,-0.31335925,0.535277
0.3832897,-0.39995402,0.488066,0.38059026,-0.36493832,0.494438,0.35981865,-0.38996581,0.481797,0.35653443,-0.36575329,0.482582,0.32295585,-0.33649841,0.466384,0.31568296,-0.32320446,0.470352,0.3450684,-0.33133717,0.490221,0.34886605,-0.30453126,0.503771,0.35043341,-0.28832303,0.510546,0.35294017,-0.27890885,0.517468,0.37678764,-0.32979779,0.500049,0.37398037,-0.29473403,0.507074,0.37232731,-0.27420419,0.511172,0.37113888,-0.25950592,0.514098,0.40276806,-0.33381608,0.507501,0.40184408,-0.29820368,0.509225,0.40626637,-0.28262535,0.510107,0.40888693,-0.27165006,0.510908,0.43420687,-0.34503135,0.515046,0.4206411,-0.31223885,0.510413,0.41438256,-0.29709395,0.508284,0.40884718,-0.28368936,0.506406
0.38598795,-0.39765021,0.491526,0.38405992,-0.36050554,0.496401,0.36123106,-0.38755794,0.483988,0.35811914,-0.36566028,0.483717,0.32523792,-0.33472453,0.465555,0.3154978,-0.32068824,0.467963,0.34839106,-0.3224296,0.489622,0.35052638,-0.29345097,0.500559,0.35180873,-0.27864088,0.506027,0.35295671,-0.26504661,0.510999,0.37954249,-0.32433881,0.500694,0.37615733,-0.28570742,0.502497,0.3741698,-0.26306334,0.503549,0.37274468,-0.24684004,0.504301,0.40508704,-0.33235918,0.50932,0.40335412,-0.29597828,0.509648,0.40848982,-0.2814764,0.509816,0.41343681,-0.26801725,0.509968,0.43748565,-0.34504012,0.518496,0.42967433,-0.31247392,0.520476,0.42780275,-0.29838529,0.521385,0.426135,-0.28585918,0.522188
0.40622298,-0.41043228,0.507786,0.41215047,-0.36166082,0.513149,0.38359006,-0.39287661,0.499339,0.36197367,-0.36261257,0.48354,0.33147764,-0.3350431,0.465124,0.31846253,-0.32123883,0.467483,0.38024306,-0.32262298,0.505492,0.36975342,-0.29050866,0.508999,0.3670042,-0.27373361,0.510752,0.36446751,-0.25831741,0.512346,0.41041599,-0.32772415,0.517872,0.39655565,-0.28914305,0.516369,0.39988427,-0.26869918,0.515491,0.40235847,-0.25361984,0.514865,0.43543257,-0.33581328,0.527527,0.44524306,-0.30842081,0.54132,0.45026213,-0.29439813,0.548377,0.45482432,-0.28164552,0.554792,0.46482822,-0.35201853,0.537813,0.4740046,-0.32512101,0.544026,0.48652526,-0.31775699,0.546881,0.49790106,-0.31096242,0.5494
0.41272805,-0.4121397,0.512963,0.41726058,-0.36386665,0.517161,0.39638004,-0.3908529,0.504036,0.3687521,-0.36183365,0.487583,0.34188992,-0.33119697,0.4712,0.33231984,-0.31577795,0.4706,0.38482452,-0.32352942,0.508168,0.39010478,-0.29566369,0.521305,0.39145132,-0.28200565,0.527874,0.39266178,-0.26952187,0.533846,0.41477704,-0.32918739,0.520857,0.42158231,-0.29737193,0.533623,0.42437753,-0.27886663,0.541069,0.42636314,-0.26556589,0.546388,0.43968695,-0.33780648,0.530884,0.44617609,-0.30179428,0.531721,0.44877527,-0.28322379,0.53215,0.45115279,-0.26621103,0.532539,0.46912815,-0.35475873,0.541809,0.4724535,-0.32357044,0.541924,0.48283703,-0.31812935,0.541978,0.49165572,-0.31005338,0.542024
0.42824459,-0.40786014,0.518422,0.43135539,-0.36722726,0.520873,0.40380466,-0.39444188,0.508559,0.38243135,-0.36165045,0.490635,0.35399181,-0.33276876,0.473881,0.34349785,-0.31590711,0.471694,0.39786649,-0.32457767,0.509597,0.39402639,-0.29462578,0.518321,0.39034681,-0.27958913,0.523257,0.38979661,-0.26614243,0.527744,0.42769114,-0.33149324,0.523031,0.42583593,-0.29459817,0.527578,0.42471475,-0.27279462,0.530231,0.42389531,-0.25709329,0.532125,0.45263852,-0.34124398,0.533847,0.44991602,-0.30188353,0.528546,0.44917285,-0.2828136,0.529598,0.45142902,-0.26613891,0.530555,0.48242137,-0.35970899,0.545998,0.48419081,-0.32608638,0.541141,0.49219625,-0.31867561,0.538909,0.50006227,-0.31349845,0.53694
0.43077839,-0.40695737,0.517798,0.43392395,-0.36705871,0.521953,0.40829536,-0.39185051,0.506108,0.39930603,-0.35081051,0.487337,0.36832632,-0.33384073,0.480169,0.35813594,-0.33448814,0.490463,0.39934798,-0.32395387,0.509355,0.39180404,-0.29142001,0.513556,0.38966079,-0.27480129,0.515657,0.38768769,-0.25957898,0.517566,0.43082248,-0.33228752,0.525613,0.42511549,-0.29173542,0.524176,0.42749706,-0.26724749,0.523337,0.42923273,-0.25061266,0.522738,0.45716748,-0.34311146,0.538582,0.43900238,-0.30426137,0.533606,0.4506112,-0.29816154,0.531061,0.46026169,-0.30895243,0.528746,0.48855142,-0.36270804,0.552937,0.47721655,-0.32653177,0.546026,0.47331277,-0.31169353,0.54285,0.46905805,-0.29780868,0.540048
0.43221604,-0.40566302,0.516838,0.43530222,-0.36682657,0.522571,0.40902598,-0.39025,0.50445,0.39987431,-0.34964396,0.485834,0.37692064,-0.33445868,0.483937,0.36307282,-0.33445416,0.493086,0.40024636,-0.32425276,0.510035,0.39318847,-0.29195757,0.514397,0.39410513,-0.2748839,0.516578,0.39497236,-0.25941071,0.518561,0.43277963,-0.33299962,0.52762,0.42775133,-0.29370347,0.528401,0.42436764,-0.27103242,0.528856,0.42722777,-0.25430767,0.529181,0.45999187,-0.34406693,0.541523,0.44112997,-0.30517951,0.535975,0.45232511,-0.29857302,0.533137,0.46176976,-0.30914237,0.530556,0.49231254,-0.36380307,0.556686,0.49257012,-0.33046485,0.559707,0.49336147,-0.31728108,0.562286,0.49406587,-0.30570589,0.564562
0.43678323,-0.40718199,0.521064,0.4421408,-0.36766647,0.529247,0.41815986,-0.39664921,0.515919,0.40292227,-0.3616185,0.519546,0.38350099,-0.33793997,0.517745,0.37909661,-0.32927419,0.525963,0.41134593,-0.32617189,0.527596,0.40972169,-0.29128872,0.527611,0.40889414,-0.27352612,0.527618,0.40791019,-0.26349742,0.527624,0.44242175,-0.33032127,0.536453,0.43930875,-0.29184815,0.536517,0.43786963,-0.27143886,0.536554,0.43610303,-0.2555449,0.536581,0.46829967,-0.33729758,0.542923,0.46686398,-0.30597599,0.551192,0.46633207,-0.28974307,0.555423,0.46583068,-0.27490993,0.559268,0.49885301,-0.35183954,0.549007,0.49935578,-0.32923553,0.560319,0.49792191,-0.31904704,0.565517,0.50006439,-0.30865192,0.570103
0.44564364,-0.40676894,0.524379,0.45356964,-0.36536365,0.533971,0.42348701,-0.39610107,0.518302,0.41497603,-0.37112765,0.525433,0.39261076,-0.35052763,0.523277,0.38617989,-0.33933618,0.52941,0.42571125,-0.32948145,0.531991,0.41422737,-0.2934007,0.531024,0.41194763,-0.27539204,0.53054,0.41042673,-0.2631618,0.5301,0.45694491,-0.33383596,0.542434,0.45411404,-0.29534192,0.544618,0.45374031,-0.27368669,0.547429,0.45346501,-0.25815292,0.549436,0.48237903,-0.34108402,0.550063,0.49287015,-0.31083218,0.560006,0.49946363,-0.29497629,0.565093,0.50546701,-0.28048376,0.569718,0.51127119,-0.35594014,0.557235,0.52217715,-0.32873955,0.564581,0.52889913,-0.31611572,0.567956,0.53485239,-0.30488773,0.570934
0.44431117,-0.40723436,0.524657,0.4538963,-0.36720225,0.534538,0.42424328,-0.39575243,0.518816,0.41311862,-0.37004663,0.523748,0.39239419,-0.34968559,0.522959,0.386594,-0.33783309,0.52885,0.4264353,-0.33075314,0.533041,0.4148508,-0.29437225,0.531548,0.41187088,-0.27638052,0.530801,0.40998621,-0.26293278,0.530122,0.45772289,-0.33569913,0.543256,0.45459835,-0.2968993,0.544949,0.45333478,-0.27441598,0.546291,0.45242747,-0.25830674,0.54725,0.48317029,-0.34342192,0.550668,0.48304963,-0.31211245,0.554636,0.48942424,-0.29607826,0.556666,0.49534833,-0.28101902,0.558511,0.51204755,-0.35882632,0.557537,0.5245086,-0.3359337,0.566445,0.53024577,-0.32417039,0.570537,0.5365747,-0.31024058,0.574148
0.44837229,-0.40680422,0.525957,0.45436316,-0.36720685,0.534951,0.42602053,-0.39604363,0.520143,0.4113774,-0.36994094,0.522838,0.38789553,-0.35372958,0.523865,0.38444748,-0.33677554,0.526129,0.4259398,-0.33054034,0.532944,0.41477573,-0.29434458,0.531524,0.41141762,-0.27636187,0.530814,0.40917817,-0.26232329,0.530168,0.45682814,-0.33519631,0.542886,0.45065006,-0.29594609,0.543718,0.45005511,-0.27315329,0.544204,0.44694247,-0.25663979,0.54455,0.48206737,-0.34272479,0.550163,0.48640535,-0.30997978,0.556232,0.48750726,-0.29082344,0.559338,0.48958497,-0.27503232,0.56216,0.51096953,-0.35797668,0.557033,0.52436558,-0.33314068,0.567212,0.53117321,-0.32167654,0.571889,0.53718329,-0.31153723,0.576015
0.44626825,-0.40711207,0.525315,0.45082029,-0.36974037,0.533934,0.4243331,-0.39674296,0.520064,0.40788823,-0.37223265,0.522233,0.38853087,-0.35469779,0.52447,0.38343846,-0.33630998,0.524517,0.42445095,-0.33184223,0.532426,0.41209527,-0.29676402,0.530035,0.40471079,-0.28135537,0.52884,0.40298373,-0.26245448,0.527753,0.45533743,-0.33546005,0.541538,0.44993463,-0.2968842,0.542018,0.44539736,-0.27404535,0.542298,0.44345301,-0.2570699,0.542498,0.48026799,-0.34258431,0.548169,0.47906057,-0.30692559,0.549786,0.47769928,-0.29055666,0.550613,0.48140841,-0.27321093,0.554613,0.50886375,-0.35740201,0.554353,0.51927306,-0.33367783,0.562547,0.52115141,-0.32134509,0.566312,0.53023838,-0.31164015,0.573494
0.44573314,-0.40703988,0.525308,0.4446865,-0.37053757,0.532262,0.42427493,-0.39719187,0.52089,0.39836628,-0.37493763,0.524564,0.3768842,-0.34733698,0.513357,0.37696733,-0.33278487,0.516878,0.41377536,-0.33003696,0.530809,0.40384078,-0.29790669,0.527841,0.39828865,-0.2799322,0.526357,0.39255327,-0.26330132,0.525008,0.44407865,-0.33347181,0.538397,0.4390826,-0.29538108,0.537324,0.43700551,-0.27260559,0.536698,0.43607722,-0.25574915,0.536251,0.46922151,-0.3400356,0.543942,0.46780728,-0.30507396,0.544423,0.4698023,-0.28680962,0.544668,0.47237494,-0.2717142,0.54896,0.4987381,-0.35435127,0.549158,0.51207204,-0.33104222,0.558374,0.51677444,-0.31910455,0.562608,0.52242322,-0.30948845,0.567976
0.44453219,-0.40499833,0.523074,0.44217256,-0.37172394,0.531712,0.4238177,-0.39594598,0.519877,0.39753544,-0.37572671,0.524686,0.37894519,-0.34845265,0.51546,0.37674954,-0.33322242,0.51782,0.41409841,-0.33432383,0.532878,0.40480486,-0.29926277,0.532114,0.40015339,-0.2815338,0.531732,0.39721851,-0.26617458,0.531385,0.44358986,-0.33722449,0.539333,0.43867396,-0.29954884,0.539947,0.4395907,-0.27638385,0.541424,0.43921468,-0.25958054,0.542562,0.46503713,-0.34388391,0.543774,0.46875925,-0.30715361,0.545861,0.47102871,-0.28863346,0.546929,0.47380948,-0.27333032,0.550969,0.49542375,-0.35697073,0.547409,0.50892426,-0.33232436,0.558014,0.51608238,-0.32049273,0.562887,0.52217446,-0.3111032,0.568395
0.44670496,-0.40627481,0.525442,0.44299162,-0.36965904,0.531994,0.42462509,-0.3963045,0.521163,0.39839069,-0.37504659,0.524091,0.37949188,-0.34857686,0.516451,0.37599711,-0.33216646,0.519356,0.41184221,-0.33316341,0.530475,0.40200475,-0.29774933,0.527782,0.39565603,-0.27899351,0.526436,0.39234946,-0.26239822,0.525212,0.44233456,-0.33502807,0.537775,0.43628357,-0.29703597,0.53633,0.43437891,-0.27341982,0.535488,0.43378088,-0.25564109,0.534886,0.46545665,-0.34229035,0.543123,0.46644182,-0.30569944,0.543507,0.46759022,-0.28689191,0.543704,0.47216529,-0.27275829,0.549739,0.49659562,-0.35561334,0.548181,0.50817245,-0.33207394,0.558288,0.51371576,-0.32067709,0.562932,0.52020977,-0.31023597,0.56703
0.44511327,-0.40525857,0.523914,0.44076686,-0.36981832,0.530081,0.42290673,-0.39544723,0.520025,0.39701952,-0.37379659,0.519542,0.37559365,-0.34721354,0.513159,0.36923545,-0.33092796,0.513595,0.40973562,-0.334209,0.528843,0.40076207,-0.2974659,0.526392,0.39667019,-0.28026892,0.527597,0.39504893,-0.26485236,0.528693,0.43946133,-0.33681406,0.535536,0.43297573,-0.29670592,0.533754,0.43016938,-0.27314557,0.532714,0.42908208,-0.25567821,0.531971,0.46353183,-0.34194381,0.540426,0.46785652,-0.3076757,0.545414,0.46958269,-0.29004591,0.547966,0.47212281,-0.27379041,0.550286,0.4933342,-0.35587469,0.545027,0.505333,-0.33240449,0.556304,0.51105672,-0.32141451,0.561485,0.51881434,-0.31024467,0.566057
0.444586,-0.40553948,0.523877,0.4401637,-0.37023735,0.529991,0.42220825,-0.39574815,0.520315,0.39642212,-0.37424602,0.518995,0.37486152,-0.34735721,0.512565,0.36839249,-0.33128667,0.513356,0.40994907,-0.33507736,0.529145,0.40027387,-0.29778398,0.526743,0.39723395,-0.28100294,0.528234,0.39561232,-0.26558868,0.529589,0.43923298,-0.33732668,0.535401,0.43331976,-0.29732125,0.533595,0.43014824,-0.27383969,0.532541,0.4285467,-0.2562307,0.531789,0.46401114,-0.34232545,0.539936,0.46747435,-0.30805534,0.545124,0.46924606,-0.29049424,0.547779,0.47170081,-0.27425054,0.550192,0.49258207,-0.35581915,0.544132,0.50451944,-0.33229868,0.555401,0.51015404,-0.32129791,0.560578,0.51764358,-0.31010672,0.565146
0.44022994,-0.40722882,0.522066,0.43633875,-0.37116963,0.527208,0.41579344,-0.39733638,0.517444,0.39446361,-0.37513302,0.515949,0.37158315,-0.34949321,0.509681,0.36521628,-0.33573776,0.513574,0.40529714,-0.33533873,0.52439,0.39671851,-0.30413923,0.527801,0.397144,-0.28451451,0.529506,0.39501385,-0.26716633,0.531057,0.4352721,-0.33806065,0.531757,0.42765494,-0.29717141,0.528963,0.42347051,-0.27332626,0.527333,0.42128387,-0.25533408,0.526169,0.46023046,-0.34419627,0.537306,0.46325116,-0.30961037,0.54221,0.46479731,-0.29196297,0.544718,0.4675704,-0.27512502,0.546999,0.48585815,-0.36051374,0.542854,0.49980106,-0.331894,0.551358,0.50469922,-0.32007375,0.555567,0.51014013,-0.30825872,0.559281
