sluyters/QuantumLeap/backend/src/datasets/dynamic/HandGestureDataset_SHREC2017_csv/Gesture12/finger_2/subject_23_essai_2_skeletons_world.csv
Wrist_x,Wrist_y,Wrist_z,Palm_x,Palm_y,Palm_z,thumb_base_x,thumb_base_y,thumb_base_z,thumb_first_joint_x,thumb_first_joint_y,thumb_first_joint_z,thumb_second_joint_x,thumb_second_joint_y,thumb_second_joint_z,thumb_tip_x,thumb_tip_y,thumb_tip_z,index_base_x,index_base_y,index_base_z,index_first_joint_x,index_first_joint_y,index_first_joint_z,index_second_joint_x,index_second_joint_y,index_second_joint_z,index_tip_x,index_tip_y,index_tip_z,middle_base_x,middle_base_y,middle_base_z,middle_first_joint_x,middle_first_joint_y,middle_first_joint_z,middle_second_joint_x,middle_second_joint_y,middle_second_joint_z,middle_tip_x,middle_tip_y,middle_tip_z,ring_base_x,ring_base_y,ring_base_z,ring_first_joint_x,ring_first_joint_y,ring_first_joint_z,ring_second_joint_x,ring_second_joint_y,ring_second_joint_z,ring_tip_x,ring_tip_y,ring_tip_z,pinky_base_x,pinky_base_y,pinky_base_z,pinky_first_joint_x,pinky_first_joint_y,pinky_first_joint_z,pinky_second_joint_x,pinky_second_joint_y,pinky_second_joint_z,pinky_tip_x,pinky_tip_y,pinky_tip_z,
0.308433244,-0.176652699,0.411283,0.297962412,-0.126619608,0.402265,0.293392857,-0.169283669,0.413663,0.257469687,-0.146056009,0.407927,0.22501219,-0.129346087,0.391278,0.206865315,-0.113683224,0.381071,0.273969541,-0.096482255,0.401365,0.250623697,-0.0605949971,0.39115,0.238896308,-0.0425407564,0.386042,0.228202195,-0.0260599909,0.381399,0.291130481,-0.0941283347,0.396041,0.282744114,-0.0519258691,0.387324,0.277392832,-0.0270672463,0.38224,0.272529592,-0.00965920165,0.378608,0.30587432,-0.0957765585,0.392377,0.31012252,-0.0577730776,0.3869,0.311491824,-0.0374981352,0.384098,0.313080049,-0.0203499095,0.381551,0.32441653,-0.104152091,0.389366,0.334113964,-0.0775862261,0.378145,0.33871524,-0.0651994964,0.372989,0.341983623,-0.0560177651,0.36844
0.306897723,-0.175254227,0.409899,0.296727061,-0.125554422,0.401035,0.291869712,-0.167894294,0.412321,0.256592683,-0.145239981,0.406745,0.224049417,-0.128238977,0.390348,0.206085077,-0.112596155,0.380503,0.273068925,-0.0955319272,0.400255,0.249884025,-0.059612156,0.390169,0.238234276,-0.041533398,0.385127,0.227607214,-0.0250249286,0.380542,0.290223994,-0.0932191566,0.394918,0.281786435,-0.0509870101,0.386134,0.27649565,-0.026162326,0.38101,0.271459809,-0.0089446418,0.37735,0.304943069,-0.0948966851,0.391231,0.309361737,-0.0569745122,0.385825,0.310745879,-0.0366890977,0.38306,0.312277496,-0.0193363541,0.380546,0.323420005,-0.103297985,0.38817,0.333268063,-0.0767643888,0.377017,0.337938669,-0.0643942125,0.371893,0.341104606,-0.0551288312,0.367371
0.303966163,-0.172948372,0.406672,0.292608153,-0.121486212,0.397602,0.287899805,-0.164151504,0.408778,0.253597264,-0.143056686,0.402893,0.21936923,-0.123703583,0.38585,0.201944871,-0.108844313,0.376041,0.26968794,-0.0923541128,0.396331,0.246441562,-0.05635293,0.385908,0.234544983,-0.0370771181,0.380696,0.224119612,-0.0217142539,0.375958,0.287054668,-0.0902112941,0.391341,0.278287494,-0.0479758028,0.382421,0.272947002,-0.0232240294,0.377217,0.267465468,-0.00618215492,0.3735,0.301968679,-0.0920241094,0.387956,0.305728206,-0.0538808486,0.38157,0.306843421,-0.0335876601,0.378303,0.307700499,-0.0147483573,0.375332,0.32070661,-0.100597624,0.385281,0.330984843,-0.0741104893,0.374357,0.335857933,-0.0617570693,0.369338,0.339099205,-0.0534348113,0.36491
0.302609159,-0.171667369,0.405411,0.291599647,-0.120527302,0.396457,0.286559593,-0.162914139,0.407488,0.252522579,-0.142155829,0.401727,0.218267,-0.122982871,0.38463,0.200789457,-0.108064755,0.374793,0.268746977,-0.0914459374,0.3952,0.24550695,-0.055505398,0.384847,0.233580825,-0.0363457716,0.37967,0.223167694,-0.0208770916,0.374964,0.286133458,-0.0893109128,0.390278,0.277272763,-0.0471108627,0.381457,0.271885648,-0.0223722089,0.376311,0.266374465,-0.00527231501,0.372636,0.301063118,-0.0911235228,0.386939,0.304668363,-0.0528962375,0.380419,0.305762713,-0.0326043676,0.377082,0.306468316,-0.0137483736,0.37405,0.31981442,-0.0996899258,0.384302,0.330226297,-0.0732060855,0.373504,0.335161923,-0.0608515363,0.368542,0.338607297,-0.0523763889,0.364165
0.300439917,-0.169501606,0.404082,0.289312385,-0.11955274,0.393732,0.284864981,-0.161825933,0.405777,0.250048471,-0.140411615,0.399033,0.214841031,-0.120944777,0.381156,0.198099371,-0.106091629,0.371446,0.265647261,-0.0894693711,0.391381,0.240958751,-0.0519967706,0.379921,0.22886012,-0.0337581282,0.37419,0.21781685,-0.0170845851,0.368981,0.283088396,-0.0874524939,0.386588,0.273847319,-0.0452394699,0.377242,0.267119679,-0.0187647999,0.37179,0.262459233,-0.0037291601,0.367895,0.298142054,-0.0893809783,0.383467,0.299174211,-0.0488846884,0.374484,0.299506367,-0.028453567,0.369888,0.298941912,-0.00953513297,0.36571,0.317198778,-0.0981283893,0.381283,0.327145256,-0.0723841213,0.369863,0.331626353,-0.0611604521,0.364616,0.334413043,-0.0510450132,0.359986
0.296872777,-0.167278225,0.400927,0.285303857,-0.117903374,0.389036,0.281219045,-0.159515764,0.402518,0.245813105,-0.138853974,0.394861,0.212034982,-0.120317019,0.377205,0.193646071,-0.104341942,0.366277,0.26089472,-0.0875892745,0.385882,0.235760544,-0.0521296763,0.373589,0.223529473,-0.0337792094,0.367442,0.214453819,-0.0171359954,0.36404,0.277425518,-0.0867595431,0.380828,0.268449548,-0.0441415147,0.370536,0.261868012,-0.0191810187,0.364533,0.256030836,-0.00175194515,0.360245,0.292442385,-0.089013083,0.377615,0.293908572,-0.049454279,0.368464,0.294273699,-0.0288859972,0.363782,0.294423555,-0.00972050704,0.360069,0.311507747,-0.0982364123,0.375545,0.321592015,-0.0720506147,0.362998,0.324244305,-0.0610025716,0.357233,0.326529218,-0.0511237822,0.352147
0.293553654,-0.165297364,0.397167,0.280792063,-0.118571453,0.384853,0.276858123,-0.156845543,0.3983,0.24095609,-0.140515024,0.389729,0.207250894,-0.121236616,0.371294,0.191795438,-0.104061166,0.363111,0.256450015,-0.0896068251,0.380935,0.231567864,-0.0537704767,0.36811,0.21901965,-0.0356364445,0.361697,0.207545477,-0.0190151542,0.355868,0.273953642,-0.0879053165,0.376354,0.264312467,-0.0451442384,0.364753,0.256946273,-0.0204340561,0.357985,0.251493741,-0.00214018284,0.353151,0.289158965,-0.0901367709,0.373564,0.289582024,-0.0504564414,0.363495,0.289150442,-0.0298541522,0.358343,0.288825922,-0.0101946811,0.35366,0.308590044,-0.0993548473,0.37205,0.319071817,-0.0731319206,0.359643,0.321799269,-0.0608597846,0.353942,0.324469648,-0.0507793929,0.348912
0.290944581,-0.164641308,0.394991,0.278705841,-0.120484486,0.382586,0.274979737,-0.156663647,0.39614,0.239167147,-0.142794394,0.387577,0.204924553,-0.123390517,0.368377,0.18691135,-0.105829403,0.357268,0.254645107,-0.0915085289,0.378648,0.229928487,-0.0556467408,0.365939,0.217464429,-0.0375008629,0.359585,0.206409619,-0.0197352668,0.353808,0.272163317,-0.0897623297,0.374023,0.262274925,-0.046798811,0.361662,0.254865885,-0.0221459346,0.354451,0.249268295,-0.00333774696,0.3493,0.287375023,-0.0919554169,0.371205,0.286965047,-0.0520936423,0.360462,0.286158972,-0.031478171,0.354966,0.285628756,-0.0117886557,0.349969,0.306822558,-0.101120155,0.369671,0.317444368,-0.0751923797,0.357193,0.320654343,-0.0639353784,0.35146,0.322828241,-0.0530620724,0.346402
0.288232157,-0.164545203,0.392296,0.2766356,-0.124933271,0.379301,0.27183362,-0.157571344,0.393088,0.235556899,-0.149343119,0.383953,0.200437393,-0.130211445,0.364397,0.182485968,-0.111138237,0.35341,0.253577912,-0.097308722,0.374653,0.22876835,-0.0616979959,0.361381,0.216236515,-0.0436343788,0.354745,0.204763732,-0.0270491614,0.348713,0.271089208,-0.0957946626,0.370331,0.259585588,-0.052919072,0.357889,0.251268884,-0.0284377782,0.35063,0.246275073,-0.00796023515,0.345446,0.286318114,-0.0981636443,0.367809,0.28506365,-0.0581131146,0.356133,0.283686522,-0.0375101514,0.350159,0.281893877,-0.0161322481,0.344728,0.305838376,-0.107564047,0.366708,0.316382625,-0.0813547584,0.353982,0.318433779,-0.0678807346,0.348136,0.321008112,-0.057889163,0.342976
0.282587321,-0.169533719,0.386892,0.274828819,-0.129299105,0.375776,0.266735577,-0.162952411,0.387989,0.235143239,-0.150803307,0.380887,0.202705943,-0.134231582,0.361438,0.182785553,-0.115975458,0.351097,0.251065399,-0.101550548,0.372341,0.2276742,-0.0637180121,0.360383,0.215583504,-0.0456959789,0.354404,0.204301877,-0.0296047999,0.348969,0.269189514,-0.0977400345,0.368113,0.257509943,-0.0574685511,0.355799,0.249780728,-0.0305975406,0.348616,0.244006427,-0.0127063402,0.343485,0.284413075,-0.1002029,0.365516,0.282509164,-0.0629708505,0.353507,0.281324594,-0.0424586098,0.347363,0.280093385,-0.0209688306,0.341778,0.303659648,-0.109629989,0.364055,0.314886485,-0.0838803979,0.352603,0.317686487,-0.0764919043,0.347341,0.320619063,-0.0672058266,0.342699
0.281921138,-0.176147429,0.385713,0.273733889,-0.134712546,0.374366,0.266032629,-0.170410482,0.386631,0.234606862,-0.158799786,0.378724,0.201089893,-0.139532944,0.359356,0.18417688,-0.120971438,0.349668,0.24943062,-0.107051172,0.370611,0.22562912,-0.0713964539,0.358379,0.213581585,-0.053266237,0.352263,0.202447941,-0.0342788778,0.346703,0.2674481,-0.105940876,0.366553,0.256203539,-0.0630773526,0.354027,0.24857,-0.0386159384,0.346721,0.242899214,-0.0177957901,0.341502,0.28296237,-0.10868047,0.364114,0.281422368,-0.0688303509,0.351658,0.280022716,-0.0486479704,0.345285,0.278532447,-0.0266805804,0.339491,0.302510279,-0.118487058,0.362872,0.312827633,-0.0928616608,0.351265,0.316221348,-0.0822950517,0.345933,0.319337067,-0.0698131618,0.341227
0.281412137,-0.182211567,0.384661,0.273160421,-0.145475452,0.37302,0.265859927,-0.176645092,0.385877,0.234577801,-0.167849086,0.379284,0.200129296,-0.149056335,0.359778,0.181543847,-0.133458815,0.347871,0.250330227,-0.114299458,0.369517,0.225953816,-0.0789814494,0.357367,0.213627704,-0.0610529095,0.351292,0.202163396,-0.040539614,0.34577,0.267516625,-0.113325397,0.365005,0.255743712,-0.070439621,0.352788,0.247227717,-0.0460558319,0.345661,0.24175025,-0.0244593335,0.34057,0.282420558,-0.116217182,0.362217,0.281179953,-0.0761154716,0.350323,0.279938129,-0.0556039904,0.344238,0.278513153,-0.0333150329,0.338706,0.301312474,-0.126328098,0.360606,0.311750223,-0.0993559692,0.348368,0.312498698,-0.0898184988,0.342745,0.313353482,-0.0811370402,0.337784
0.281486098,-0.188177287,0.384047,0.273006162,-0.147748868,0.3728,0.265685391,-0.182995687,0.385328,0.234390422,-0.170317782,0.378523,0.200284399,-0.154618871,0.359213,0.181922558,-0.136556378,0.348122,0.249957269,-0.117029879,0.369551,0.224154623,-0.0854386198,0.357677,0.211267691,-0.0679640667,0.351741,0.201054605,-0.0482631316,0.346344,0.267126,-0.115695515,0.365056,0.255755408,-0.0726940089,0.352325,0.247285645,-0.0514802317,0.344898,0.240653551,-0.031159742,0.339593,0.282053678,-0.118277859,0.362251,0.280441863,-0.0781760116,0.350377,0.279308389,-0.057599876,0.344302,0.278307154,-0.0387427114,0.338779,0.301039931,-0.128007587,0.360563,0.312556625,-0.101755288,0.348759,0.314364472,-0.0919959291,0.343335,0.31617339,-0.0831238613,0.33855
0.28101331,-0.193664209,0.383211,0.272683398,-0.151711876,0.37224,0.265755641,-0.188379748,0.384754,0.234493755,-0.175067513,0.37818,0.200330975,-0.156948365,0.35937,0.181588138,-0.141534245,0.347462,0.249526188,-0.121432939,0.369444,0.224504536,-0.0871257059,0.357947,0.211797024,-0.0696245669,0.352198,0.200120471,-0.0534942736,0.346972,0.266527648,-0.119725518,0.364687,0.255472331,-0.0766463203,0.351516,0.247028006,-0.052644556,0.343834,0.240942176,-0.0350823923,0.338346,0.281322037,-0.121989457,0.361643,0.279082892,-0.0818186513,0.349092,0.27738647,-0.0614094785,0.342671,0.275775811,-0.042718137,0.336834,0.300178027,-0.131313617,0.359636,0.312574657,-0.106015734,0.347949,0.315570422,-0.0961429876,0.342579,0.318441076,-0.0871912991,0.33784
0.280559913,-0.199112502,0.382631,0.271992819,-0.156024964,0.371606,0.265122347,-0.190572822,0.384215,0.233395684,-0.179111205,0.377219,0.199200405,-0.160509329,0.358072,0.181060539,-0.14300653,0.347017,0.248983599,-0.125539793,0.368839,0.224579671,-0.0908971596,0.357345,0.212193195,-0.0732342772,0.351599,0.200360383,-0.0552633367,0.346375,0.266073575,-0.123990608,0.364016,0.254608614,-0.0808747154,0.350622,0.245800098,-0.059783347,0.342808,0.240316752,-0.0392079269,0.337227,0.280871558,-0.126386137,0.360923,0.278759892,-0.0891530439,0.348,0.276900946,-0.0660058203,0.341389,0.275197948,-0.0473925176,0.335379,0.299589063,-0.138727808,0.358866,0.311244692,-0.113780436,0.34703,0.315240236,-0.100738836,0.341592,0.318631443,-0.0916005266,0.336793
0.280407644,-0.204842166,0.383203,0.270957199,-0.162609827,0.371577,0.264241148,-0.198434657,0.384367,0.231481619,-0.188879424,0.377019,0.19756863,-0.169933088,0.356854,0.178940507,-0.15373553,0.34457,0.247426398,-0.134792848,0.368016,0.223911938,-0.0992845503,0.355832,0.211974846,-0.0813139889,0.34974,0.200647102,-0.0617015725,0.344202,0.264902734,-0.134192338,0.363572,0.253690839,-0.0910055013,0.350229,0.245798829,-0.0667757993,0.342445,0.239628528,-0.0458514784,0.336885,0.27993802,-0.137401408,0.360839,0.279377921,-0.097528548,0.348228,0.278270523,-0.0775470783,0.341776,0.277327247,-0.0590965818,0.33591,0.298816803,-0.147864685,0.359291,0.310747474,-0.122812265,0.347447,0.314420458,-0.113031903,0.342005,0.317882802,-0.10419814,0.337203
0.278699323,-0.213913859,0.382343,0.270645746,-0.169895665,0.371116,0.262992328,-0.204892591,0.383528,0.231590647,-0.195195829,0.375675,0.197968535,-0.172789268,0.357195,0.179636962,-0.15652629,0.34536,0.248645302,-0.14226345,0.367753,0.22493987,-0.10748314,0.355811,0.212910708,-0.0897579228,0.34984,0.201863577,-0.0734288114,0.344412,0.266111866,-0.141290897,0.363385,0.253824648,-0.0983781258,0.349815,0.245606414,-0.0741765614,0.341899,0.239585861,-0.0529063962,0.336244,0.281153399,-0.144185394,0.360683,0.279649866,-0.104378726,0.348274,0.278273009,-0.0842864732,0.341926,0.277302751,-0.0624461363,0.336155,0.300099601,-0.154292204,0.359113,0.310365419,-0.129014809,0.347256,0.314337041,-0.115432372,0.341808,0.317943564,-0.106039069,0.337002
0.278389757,-0.21666141,0.381726,0.271134095,-0.175775606,0.37079,0.262501515,-0.211176483,0.383044,0.231907933,-0.201844078,0.37683,0.197375083,-0.182693769,0.35653,0.178444385,-0.166534171,0.344389,0.248419352,-0.144571093,0.367723,0.225036685,-0.109525623,0.355965,0.21318292,-0.0916855722,0.350086,0.202303849,-0.0752649765,0.344741,0.265928483,-0.143569089,0.36326,0.253496686,-0.100522923,0.349492,0.245200605,-0.0763780426,0.34146,0.23923817,-0.0588065776,0.335723,0.280960393,-0.146431233,0.360456,0.279674525,-0.106650065,0.347827,0.278384086,-0.0866792856,0.341365,0.277271589,-0.0682468933,0.335491,0.299823562,-0.156464985,0.358727,0.3107756,-0.134894226,0.34719,0.315824365,-0.123898178,0.34189,0.319409341,-0.111044131,0.337213
0.277736878,-0.222712655,0.380569,0.271324513,-0.181515462,0.370521,0.26291342,-0.217463728,0.382293,0.23287881,-0.208115095,0.37617,0.198799523,-0.188653299,0.356696,0.179845124,-0.170040668,0.345283,0.24925402,-0.154290783,0.368354,0.226256073,-0.11908533,0.35753,0.214623357,-0.101220013,0.352119,0.203979096,-0.0812104819,0.347199,0.26657348,-0.153001425,0.363603,0.253598621,-0.109499571,0.34831,0.245076192,-0.0851469539,0.339389,0.238091661,-0.0640751708,0.333016,0.281428558,-0.155613631,0.360491,0.281019693,-0.115655306,0.348373,0.279589248,-0.0961910943,0.342172,0.278623887,-0.0746136797,0.336535,0.30002378,-0.165312144,0.358273,0.311027185,-0.14135215,0.346889,0.316065452,-0.130389661,0.341659,0.320460784,-0.117289116,0.337044
0.278678747,-0.228463044,0.380868,0.271954405,-0.186263202,0.370651,0.263306991,-0.219796073,0.382601,0.232968444,-0.209644258,0.376487,0.198825847,-0.190302027,0.356952,0.180259138,-0.174303549,0.34481,0.249616331,-0.155403074,0.368423,0.226639069,-0.120415814,0.357512,0.214992621,-0.102614907,0.352056,0.204305688,-0.0862387791,0.347096,0.26689482,-0.154174932,0.363617,0.253318578,-0.110756369,0.348182,0.24450318,-0.0864463597,0.339178,0.238181607,-0.0688438686,0.332747,0.281697109,-0.156840935,0.360472,0.2807942,-0.11690641,0.347861,0.279330075,-0.0972929057,0.341409,0.278007827,-0.0791967242,0.335544,0.300212115,-0.166610238,0.358241,0.310925447,-0.142684564,0.346737,0.315806244,-0.131759025,0.341451,0.320267323,-0.121978469,0.336787
0.279161003,-0.230860486,0.381151,0.272147776,-0.188143343,0.370553,0.26398431,-0.224583414,0.382793,0.233361129,-0.213620343,0.376523,0.199142857,-0.194593051,0.357139,0.18038336,-0.178727311,0.344906,0.250021577,-0.158631889,0.368045,0.226515583,-0.127165059,0.356842,0.214362037,-0.109875118,0.35124,0.203662179,-0.0906706033,0.346148,0.267197776,-0.157478015,0.363257,0.252758777,-0.114291142,0.347529,0.243699641,-0.0898075793,0.338354,0.237503675,-0.0705114164,0.331801,0.281951957,-0.160220951,0.360159,0.28050294,-0.120534273,0.347417,0.279194733,-0.100617522,0.340897,0.277691857,-0.0807956814,0.334971,0.300465456,-0.170120041,0.358035,0.311354468,-0.146594513,0.346455,0.317044543,-0.138769453,0.341134,0.320725597,-0.126361405,0.33644
0.280148364,-0.239283105,0.382194,0.272258756,-0.195852968,0.370889,0.264484448,-0.230240334,0.383474,0.232376924,-0.2229426,0.376462,0.198282999,-0.203498067,0.35654,0.180451572,-0.184721718,0.345225,0.248983811,-0.167732659,0.367613,0.225799004,-0.132731467,0.355707,0.213753517,-0.112170999,0.349753,0.202693075,-0.0959858042,0.344341,0.266463159,-0.167066291,0.363105,0.252913811,-0.12351541,0.346699,0.244302065,-0.0990304162,0.337128,0.238137467,-0.0813644623,0.330292,0.281454899,-0.170241374,0.360293,0.280627376,-0.130332285,0.346967,0.279441284,-0.110668526,0.340149,0.278208327,-0.0927973469,0.333951,0.300221016,-0.180697689,0.358606,0.311100035,-0.157162754,0.346711,0.315764679,-0.146819587,0.341246,0.320852933,-0.133471149,0.336424
0.280111832,-0.245026086,0.382507,0.272007932,-0.203321697,0.371044,0.264634231,-0.238839665,0.383932,0.233154238,-0.230340972,0.376505,0.199264078,-0.210359742,0.357272,0.180762234,-0.191101126,0.346055,0.250415042,-0.175064658,0.367885,0.2262534,-0.14171089,0.356012,0.213946768,-0.124645316,0.350075,0.20224911,-0.110015627,0.344678,0.267306566,-0.174322786,0.363152,0.253067463,-0.13115948,0.346581,0.243989485,-0.106819108,0.336914,0.237710644,-0.0852751025,0.330009,0.281884485,-0.177467126,0.360168,0.280471989,-0.13760238,0.346992,0.278903493,-0.117831511,0.34025,0.277661931,-0.09650372,0.334122,0.300273915,-0.187991964,0.358301,0.310506835,-0.164179345,0.346096,0.315110181,-0.153347466,0.340488,0.319264578,-0.140423775,0.335539
0.280304527,-0.255695041,0.383587,0.272694405,-0.210408914,0.371504,0.265009476,-0.246316651,0.38501,0.234194003,-0.236833399,0.37715,0.200448862,-0.217177497,0.357471,0.181826762,-0.197900372,0.345953,0.250526885,-0.181328732,0.368074,0.226164371,-0.147973132,0.355851,0.213761779,-0.130918541,0.349739,0.201955317,-0.113111864,0.344183,0.267356053,-0.18071791,0.363186,0.252671227,-0.137377659,0.346229,0.243283005,-0.113111071,0.336338,0.236758668,-0.0923274198,0.329273,0.281898996,-0.183985047,0.360123,0.279646551,-0.144357582,0.346054,0.277934336,-0.124546217,0.338857,0.27595072,-0.102965873,0.332313,0.300270357,-0.194660967,0.358252,0.310658115,-0.170341342,0.345594,0.314106528,-0.16065974,0.339778,0.317349048,-0.151959941,0.334646
0.280586904,-0.262566662,0.382292,0.273393041,-0.221337103,0.370198,0.265412063,-0.253456756,0.383961,0.235025236,-0.246330433,0.376913,0.200510762,-0.226597675,0.357164,0.181682975,-0.210583301,0.344394,0.250093044,-0.18988471,0.367076,0.225425319,-0.155924663,0.355055,0.212924381,-0.13866365,0.349045,0.201525784,-0.11949828,0.343581,0.266926566,-0.188143751,0.361872,0.251334901,-0.144455498,0.345037,0.241103174,-0.120869673,0.335216,0.233758129,-0.103790617,0.328201,0.281544076,-0.190504699,0.35855,0.276967135,-0.149967691,0.343327,0.273531158,-0.130668375,0.335538,0.270458462,-0.112838863,0.328457,0.300203207,-0.200151799,0.356378,0.308641181,-0.177034401,0.343344,0.312349041,-0.166680354,0.337356,0.315346846,-0.154082535,0.332072
0.280561961,-0.269362641,0.382253,0.272586694,-0.224198463,0.37045,0.265418666,-0.260311706,0.384004,0.233954198,-0.248516682,0.376356,0.199956511,-0.228557774,0.35719,0.181330999,-0.212246629,0.344633,0.250042275,-0.192525716,0.367558,0.225401691,-0.161928095,0.35577,0.2130403,-0.145061356,0.349875,0.201706173,-0.126661829,0.344517,0.26623181,-0.193868633,0.362325,0.251357305,-0.150757856,0.345686,0.241754128,-0.123926494,0.335981,0.234703089,-0.106700795,0.329048,0.280537813,-0.196799328,0.358955,0.276408731,-0.156742269,0.343549,0.273333176,-0.137338268,0.335667,0.270541855,-0.116150793,0.328501,0.298629779,-0.207112611,0.356685,0.3084162,-0.179875767,0.343756,0.310846132,-0.172527432,0.337816,0.314977495,-0.160628039,0.332574
0.279773539,-0.271425292,0.381035,0.270951413,-0.229016643,0.369308,0.264981407,-0.266298325,0.382884,0.233901374,-0.257313112,0.376299,0.199534658,-0.237707456,0.356742,0.180781736,-0.222133747,0.343863,0.248334291,-0.200401548,0.366572,0.223502012,-0.166874252,0.354626,0.211596324,-0.147172598,0.348653,0.199980095,-0.131908382,0.343223,0.264987012,-0.199072437,0.361234,0.249835711,-0.155619993,0.344345,0.2405143,-0.128731349,0.334493,0.233639836,-0.111312222,0.327456,0.279521356,-0.198937163,0.357772,0.27288723,-0.16055333,0.339815,0.268612742,-0.14082513,0.330628,0.267085645,-0.120833212,0.324675,0.297652179,-0.209012927,0.355383,0.307192643,-0.189151984,0.34261,0.311203382,-0.179357384,0.336742,0.31383023,-0.166821822,0.331564
0.282158391,-0.280791501,0.383983,0.27130584,-0.241210641,0.370294,0.265954066,-0.27435305,0.385313,0.233731771,-0.267368612,0.377375,0.199178276,-0.247821421,0.357664,0.180212148,-0.232233832,0.344294,0.247397092,-0.208864756,0.366049,0.221521295,-0.176575296,0.352857,0.208347706,-0.160086409,0.346261,0.196219377,-0.1448744,0.340264,0.264154621,-0.207500118,0.360869,0.24808023,-0.163778418,0.342404,0.23745571,-0.140603172,0.331633,0.229831954,-0.123828789,0.323939,0.278801209,-0.21023755,0.357694,0.270803321,-0.168949778,0.338431,0.265686141,-0.149535308,0.328576,0.262256891,-0.132334424,0.321078,0.297636883,-0.220447574,0.355921,0.306223346,-0.197959895,0.342161,0.308689638,-0.189572245,0.335838,0.311081038,-0.182047277,0.33026
0.280889716,-0.290764144,0.38279,0.270716966,-0.249907487,0.369198,0.265068965,-0.286058284,0.384087,0.232523966,-0.274775812,0.375645,0.19870843,-0.255373598,0.356558,0.180513826,-0.236413861,0.344708,0.247401915,-0.217026373,0.364953,0.221436289,-0.185224528,0.351785,0.208206348,-0.168975895,0.345201,0.195960558,-0.154178609,0.339216,0.264004147,-0.216001256,0.35984,0.24693749,-0.172888193,0.341688,0.235897428,-0.149636517,0.331099,0.227972279,-0.132821514,0.323535,0.278522358,-0.219047497,0.356712,0.270483658,-0.177903639,0.33756,0.265602765,-0.158018006,0.327761,0.262907555,-0.140758529,0.320954,0.297186648,-0.229698927,0.354981,0.305402645,-0.206557844,0.341139,0.307873693,-0.197606033,0.33478,0.31015219,-0.185507294,0.329168
0.279949757,-0.300248317,0.382962,0.269162424,-0.258884135,0.369113,0.263937722,-0.295196238,0.384067,0.230830595,-0.283255563,0.375546,0.197271056,-0.263361787,0.356379,0.178959983,-0.247646867,0.343129,0.246197907,-0.225338543,0.364514,0.220311108,-0.193959259,0.351039,0.207082907,-0.178016134,0.344301,0.194883678,-0.16328654,0.338176,0.262847439,-0.224814151,0.359579,0.246413314,-0.181802953,0.34105,0.235615474,-0.15883402,0.330242,0.227864854,-0.14220977,0.322522,0.27737799,-0.228297043,0.356617,0.269961339,-0.186911091,0.337297,0.264956176,-0.167597492,0.327413,0.261684115,-0.150612751,0.319953,0.295997838,-0.239515487,0.355118,0.303704941,-0.217368248,0.341348,0.307444986,-0.20708281,0.335021,0.310886445,-0.197912554,0.329438
0.279480877,-0.309993206,0.383724,0.269435671,-0.267243476,0.36922,0.263379765,-0.304097892,0.384827,0.231271307,-0.291979641,0.375948,0.197738266,-0.272272074,0.356482,0.179106458,-0.256008736,0.343351,0.246897958,-0.233044612,0.364333,0.220580558,-0.202598257,0.350499,0.207140201,-0.187016053,0.343582,0.194520438,-0.173515364,0.337294,0.263199732,-0.232856988,0.359235,0.245445375,-0.190819107,0.340382,0.234404806,-0.167334997,0.329385,0.226489097,-0.150396024,0.32153,0.277457863,-0.236659884,0.356191,0.269425269,-0.195678166,0.336354,0.264306616,-0.176190564,0.326205,0.261417651,-0.15941918,0.319101,0.295775032,-0.248344406,0.354689,0.303527407,-0.225456617,0.34033,0.305694641,-0.216699315,0.333733,0.307796203,-0.208867847,0.327911
0.279137035,-0.312394527,0.383186,0.269280052,-0.268402897,0.368809,0.263325005,-0.306138511,0.38437,0.231305325,-0.293283972,0.375716,0.197699864,-0.273589423,0.356345,0.179129587,-0.257622365,0.343135,0.246403687,-0.234564275,0.364079,0.220262984,-0.20353201,0.350383,0.206933065,-0.187673949,0.343536,0.194536362,-0.17348317,0.33731,0.262793679,-0.234100235,0.35891,0.245547625,-0.191794744,0.340029,0.234666921,-0.168499832,0.329015,0.226864137,-0.151680057,0.321148,0.277125576,-0.237660635,0.355798,0.26913765,-0.19654322,0.336024,0.264051003,-0.177078279,0.325907,0.261298696,-0.160399124,0.318963,0.29554116,-0.249018465,0.354198,0.303366389,-0.226560007,0.339902,0.305734393,-0.217892423,0.333333,0.308018079,-0.210144648,0.327538
0.278638472,-0.319826434,0.38331,0.269229956,-0.278320397,0.368704,0.263397354,-0.312756524,0.384401,0.230767524,-0.303362772,0.375592,0.196995443,-0.283410229,0.356499,0.179339158,-0.264216431,0.344389,0.246535114,-0.243863723,0.363758,0.220148745,-0.212952087,0.349858,0.20654264,-0.197873172,0.342908,0.193973758,-0.1839304,0.33659,0.262825718,-0.243583144,0.358648,0.245639527,-0.201264775,0.339527,0.234373385,-0.178763271,0.328373,0.226283121,-0.162476487,0.320406,0.277103139,-0.247350493,0.355604,0.269555135,-0.205047538,0.33571,0.263696179,-0.186510076,0.325532,0.259772359,-0.170387564,0.317957,0.295497128,-0.259071992,0.354115,0.301965795,-0.23693828,0.33959,0.304871767,-0.226995584,0.332917,0.307847975,-0.214733221,0.327028
0.279176622,-0.32617159,0.383623,0.269147082,-0.281405045,0.368899,0.2641906,-0.31901211,0.385064,0.232645592,-0.310320472,0.377245,0.198734788,-0.290571176,0.357877,0.180421955,-0.275789028,0.34423,0.244790082,-0.251663012,0.364348,0.218515028,-0.219209634,0.350331,0.205987655,-0.200418423,0.343323,0.193558719,-0.185849369,0.336951,0.261286972,-0.250394021,0.358762,0.245088416,-0.203710285,0.339323,0.233231329,-0.184799978,0.327984,0.225454733,-0.165710584,0.319884,0.275730739,-0.253239813,0.355335,0.267714119,-0.211242057,0.335038,0.262397574,-0.192317872,0.324654,0.260379126,-0.173829578,0.31866,0.294626741,-0.261088339,0.353415,0.300431494,-0.243218459,0.338725,0.30330546,-0.234021418,0.331976,0.305200572,-0.227053326,0.32602
0.28084547,-0.333332046,0.385747,0.269432197,-0.28790317,0.369865,0.265130803,-0.32651308,0.386668,0.232873471,-0.316098169,0.37736,0.199301895,-0.296458573,0.357949,0.181105396,-0.279260483,0.34508,0.244916391,-0.254068128,0.364149,0.218056908,-0.225345999,0.349412,0.204275627,-0.209449713,0.342043,0.19102105,-0.197515407,0.335344,0.261541236,-0.256348038,0.35893,0.243645642,-0.214738226,0.338584,0.233656925,-0.190704825,0.327369,0.225568826,-0.171185801,0.319359,0.275982358,-0.260102177,0.355897,0.268063846,-0.217349169,0.334913,0.262167817,-0.198859481,0.324176,0.260345431,-0.180622708,0.318643,0.294729754,-0.271698064,0.354604,0.301034808,-0.249983963,0.33938,0.3032364,-0.241279995,0.332385,0.304974306,-0.230895094,0.326213
0.281950017,-0.341003501,0.387694,0.270341251,-0.294902034,0.371652,0.266156809,-0.333034914,0.388358,0.23345765,-0.322983778,0.378641,0.199945585,-0.30329109,0.359009,0.181949333,-0.285841495,0.345995,0.245771397,-0.263312877,0.36554,0.218712359,-0.232101715,0.350497,0.204963678,-0.21623266,0.342975,0.191628229,-0.201184089,0.336137,0.262442373,-0.263211562,0.360608,0.24469798,-0.221611073,0.340055,0.234933048,-0.197713695,0.328906,0.22778871,-0.177406249,0.320942,0.277133469,-0.267098565,0.357823,0.269396531,-0.224302317,0.336788,0.263664266,-0.205885413,0.326026,0.26099389,-0.187861088,0.319405,0.296173728,-0.278866949,0.356844,0.302865008,-0.257355205,0.34176,0.305664222,-0.248174145,0.334829,0.307374561,-0.238568176,0.328714
0.28195884,-0.346119381,0.38823,0.270136606,-0.299948038,0.372003,0.265941632,-0.335564961,0.388643,0.233644143,-0.323669539,0.37856,0.200896361,-0.301671287,0.359698,0.18305957,-0.286337224,0.346167,0.245653465,-0.265179886,0.365493,0.218677088,-0.233732733,0.350138,0.204980304,-0.217754853,0.34246,0.191860246,-0.205818985,0.335481,0.26255699,-0.26535996,0.360831,0.245056769,-0.22366177,0.340139,0.235289801,-0.199594232,0.328702,0.228303686,-0.182295519,0.320533,0.277437556,-0.269496548,0.358283,0.269962196,-0.226648932,0.337187,0.264380531,-0.208232692,0.326394,0.2617817,-0.19316275,0.319561,0.296692082,-0.281595468,0.357609,0.303779958,-0.26029958,0.342689,0.306771096,-0.251224213,0.335834,0.309123628,-0.243855248,0.329786
0.282831165,-0.348513681,0.38893,0.270922547,-0.301407009,0.37212,0.266964249,-0.340294406,0.389664,0.235553553,-0.327586525,0.379955,0.202377564,-0.31005838,0.360318,0.183421069,-0.293026705,0.347236,0.246929372,-0.268163266,0.365764,0.219178349,-0.237692137,0.350368,0.205068581,-0.222197656,0.34267,0.191550958,-0.210624395,0.335672,0.263194467,-0.26824679,0.360546,0.245253074,-0.226192441,0.339258,0.234180744,-0.202679802,0.32684,0.226257846,-0.185777941,0.317971,0.277597582,-0.272335482,0.357587,0.268778927,-0.230029322,0.335885,0.262877717,-0.211035764,0.324781,0.261045561,-0.194499805,0.319107,0.296380393,-0.284440612,0.356514,0.303174824,-0.262739886,0.340906,0.305338445,-0.254371477,0.333735,0.306939605,-0.24760274,0.327408
0.282756404,-0.353112585,0.389187,0.271082507,-0.304999734,0.372009,0.267431912,-0.344709773,0.390186,0.236166225,-0.332480302,0.380806,0.202567637,-0.313393701,0.361768,0.184096649,-0.299088969,0.347817,0.247854252,-0.271330709,0.365831,0.219097245,-0.242298226,0.350468,0.204444871,-0.22751867,0.342786,0.190610178,-0.215448089,0.335803,0.263458227,-0.271443345,0.360182,0.244973249,-0.22934246,0.338517,0.232982994,-0.206912876,0.325879,0.224387866,-0.190741982,0.316852,0.277383217,-0.275594348,0.356898,0.267258552,-0.233754815,0.334782,0.261055098,-0.214046333,0.323466,0.260496269,-0.197940134,0.318684,0.295710439,-0.2878563,0.355496,0.302408878,-0.265299038,0.339366,0.303638459,-0.257665389,0.331955,0.304645187,-0.251204259,0.325415
0.279946829,-0.350696145,0.384944,0.27059852,-0.306323211,0.370277,0.265778899,-0.343276618,0.387202,0.236123416,-0.332153768,0.379891,0.204782822,-0.315778987,0.364457,0.187439389,-0.302971416,0.352345,0.248651216,-0.273233779,0.366786,0.220910686,-0.248331638,0.353869,0.206473068,-0.235608947,0.34741,0.192852897,-0.224928384,0.341538,0.263457355,-0.274549875,0.360179,0.246225952,-0.23439622,0.340625,0.234904254,-0.212944442,0.329218,0.227426305,-0.195452,0.321622,0.276569715,-0.278100513,0.355906,0.267203491,-0.238301065,0.335449,0.261406333,-0.21951035,0.324982,0.259240492,-0.204719338,0.319252,0.293541554,-0.289297066,0.352985,0.300694186,-0.267037872,0.337373,0.301933687,-0.259812721,0.3302,0.30333484,-0.251686291,0.323935
0.283644584,-0.356117611,0.389757,0.271545468,-0.307910073,0.37145,0.268290545,-0.34698882,0.390477,0.236818852,-0.332998966,0.380587,0.203943237,-0.313968182,0.362335,0.18590793,-0.299733621,0.348586,0.247127324,-0.272072028,0.364428,0.217389864,-0.244719081,0.348228,0.202015485,-0.231391656,0.340128,0.187614095,-0.220422845,0.332764,0.262603776,-0.273786114,0.358846,0.243145589,-0.231820964,0.336361,0.230565902,-0.209506509,0.323245,0.22178296,-0.19164774,0.313877,0.276544331,-0.278216538,0.355706,0.265007511,-0.237048441,0.332835,0.258066082,-0.217690721,0.321133,0.253789295,-0.201634532,0.312986,0.295066508,-0.290937655,0.354634,0.301239098,-0.267803304,0.337855,0.301974347,-0.260216502,0.330146,0.302819107,-0.252041585,0.323344
0.284244789,-0.357399839,0.390316,0.272020523,-0.308832113,0.372155,0.268867241,-0.348155649,0.391031,0.237257327,-0.33545916,0.381148,0.203025069,-0.317815344,0.362411,0.186017508,-0.30125311,0.349307,0.247398282,-0.274280973,0.36519,0.217812605,-0.245279462,0.349062,0.202456511,-0.232153084,0.340998,0.188113145,-0.221036187,0.333666,0.262998129,-0.274493192,0.359651,0.243352608,-0.232566494,0.33724,0.230566565,-0.210598154,0.324167,0.221377216,-0.194807399,0.314829,0.277024323,-0.278779938,0.356536,0.26544221,-0.237644395,0.333754,0.25829427,-0.218712705,0.322098,0.253264266,-0.202578851,0.313297,0.295656264,-0.291308968,0.355472,0.30175527,-0.267093196,0.338794,0.302257109,-0.2607209,0.33113,0.303144416,-0.252974579,0.324369
0.284644724,-0.358028005,0.390671,0.272490265,-0.308676111,0.373485,0.269159097,-0.348649227,0.391318,0.237362888,-0.33579421,0.381445,0.204186567,-0.31587306,0.363219,0.18592863,-0.301520098,0.349633,0.247967674,-0.275142057,0.366856,0.218571815,-0.243100466,0.350938,0.203189458,-0.232669761,0.342979,0.189165212,-0.220355681,0.335743,0.264079765,-0.274475924,0.361652,0.238757509,-0.232042166,0.341069,0.22421711,-0.211024856,0.329063,0.2137492,-0.195841184,0.320487,0.278298335,-0.277747566,0.358735,0.26688076,-0.238945832,0.336719,0.257060757,-0.220494734,0.325454,0.252301646,-0.204850712,0.315214,0.297223424,-0.29009157,0.357764,0.302460139,-0.260681033,0.341374,0.297604126,-0.253860345,0.333843,0.295447355,-0.248892699,0.327198
0.285601171,-0.359114629,0.391816,0.273458185,-0.308678154,0.375296,0.269859967,-0.348311031,0.392425,0.23786588,-0.335806116,0.382576,0.204100193,-0.315284805,0.36377,0.185598613,-0.301292951,0.349947,0.247446177,-0.273265983,0.368907,0.21768096,-0.240517588,0.35356,0.202445066,-0.229486288,0.345886,0.190455193,-0.219604856,0.33891,0.264018002,-0.271659936,0.363922,0.240819495,-0.231573418,0.343797,0.226719549,-0.211191709,0.332057,0.216549857,-0.196424945,0.323671,0.278696649,-0.275314319,0.361131,0.263919618,-0.236677152,0.340252,0.253242131,-0.218076246,0.32957,0.248080478,-0.204393005,0.319859,0.298239753,-0.285896492,0.360215,0.302246143,-0.254888019,0.344387,0.299231857,-0.253866646,0.337115,0.296412969,-0.249974876,0.330698
0.288047992,-0.362362808,0.395346,0.274777513,-0.304594925,0.38078,0.272403415,-0.352115462,0.396426,0.237698804,-0.329226664,0.387471,0.203415984,-0.310137943,0.370174,0.185503982,-0.295274651,0.356248,0.244553269,-0.268609596,0.375836,0.216597628,-0.234686354,0.361764,0.201890825,-0.22254182,0.354728,0.188224626,-0.211287151,0.348331,0.261325293,-0.265731297,0.370751,0.241197373,-0.221485324,0.351365,0.226650427,-0.207257528,0.340057,0.220040082,-0.200163767,0.331979,0.276319821,-0.267274703,0.367723,0.262502639,-0.228251807,0.348224,0.252800612,-0.216658743,0.338248,0.243772674,-0.206413977,0.329179,0.296162845,-0.276168025,0.366249,0.298346781,-0.247367246,0.351257,0.293491879,-0.244682662,0.344368,0.28924299,-0.242389111,0.33829
0.290075195,-0.349593012,0.404137,0.269963531,-0.290767889,0.389532,0.273193737,-0.342524877,0.405595,0.236639674,-0.321605491,0.39716,0.202805943,-0.304756895,0.380115,0.183551594,-0.290213947,0.367757,0.241218372,-0.261699577,0.385052,0.212792471,-0.225219199,0.370995,0.197936341,-0.21523957,0.363966,0.184057358,-0.205970104,0.357576,0.257916413,-0.256863209,0.379477,0.235190086,-0.212813349,0.360284,0.220015889,-0.200060902,0.349089,0.208908725,-0.190742453,0.341092,0.272987368,-0.256762733,0.376049,0.256603372,-0.216462345,0.356357,0.246253595,-0.204388257,0.346283,0.236730023,-0.193191935,0.337124,0.293216289,-0.263622028,0.37411,0.292887396,-0.23435396,0.358802,0.287999484,-0.231025116,0.351769,0.283713753,-0.228128929,0.345562
0.290681569,-0.340739634,0.415186,0.265443723,-0.280758055,0.398936,0.268790521,-0.326049037,0.417036,0.234135732,-0.315008346,0.408962,0.199488191,-0.299618501,0.39192,0.178781345,-0.284445739,0.380578,0.235414736,-0.252744509,0.39424,0.206502096,-0.215525592,0.379629,0.191379594,-0.207499608,0.372323,0.177215674,-0.200058409,0.365681,0.25151427,-0.246701468,0.387748,0.22787734,-0.200675072,0.367171,0.212103788,-0.192852724,0.355169,0.200546886,-0.187220817,0.346595,0.266248655,-0.245625791,0.383695,0.248169668,-0.205752679,0.362221,0.236734953,-0.195113607,0.351235,0.226200059,-0.185284642,0.341247,0.286402666,-0.251344224,0.381259,0.280730834,-0.223660956,0.364348,0.275237829,-0.217901178,0.356579,0.269644442,-0.214609407,0.349723
0.283680547,-0.329167846,0.422171,0.257769042,-0.272613889,0.407464,0.259885036,-0.316862548,0.424525,0.225414091,-0.306096965,0.417347,0.19105929,-0.291204478,0.401025,0.170878165,-0.277680883,0.388893,0.228502396,-0.245578248,0.404078,0.204207275,-0.207558687,0.391496,0.190755485,-0.202276287,0.385204,0.178055519,-0.197384374,0.379485,0.244827442,-0.239408009,0.397338,0.222179697,-0.193076492,0.377934,0.206894256,-0.18556383,0.366616,0.195661461,-0.180134283,0.358531,0.259568149,-0.238142617,0.392959,0.243691969,-0.198063616,0.37201,0.233502421,-0.184903847,0.361292,0.22380509,-0.174498896,0.351548,0.279398938,-0.243441879,0.389918,0.275368527,-0.215851435,0.373837,0.271451102,-0.207968814,0.366448,0.266813824,-0.2037609,0.359929
0.273538652,-0.323065904,0.42881,0.248383025,-0.271190603,0.415529,0.256737897,-0.31852232,0.431487,0.215652932,-0.303603299,0.424942,0.182179855,-0.288157902,0.409791,0.16240091,-0.27349817,0.399269,0.219920371,-0.244723035,0.413171,0.194712537,-0.208420777,0.401923,0.179847272,-0.197907321,0.396299,0.165895456,-0.18807551,0.391186,0.236303218,-0.238419971,0.406386,0.214063931,-0.19337221,0.388134,0.198332023,-0.180843097,0.377487,0.186762467,-0.171650118,0.369882,0.250979349,-0.236996915,0.401855,0.234680795,-0.1970096,0.382001,0.22415608,-0.18406215,0.371843,0.214202674,-0.173462987,0.362608,0.270537191,-0.242017586,0.398434,0.265480552,-0.215578664,0.383196,0.261320792,-0.207373369,0.376194,0.256451457,-0.202876131,0.370016
0.259168577,-0.31826935,0.428749,0.237514129,-0.268401917,0.418617,0.242970878,-0.313915798,0.431878,0.202938423,-0.298914073,0.42669,0.170824718,-0.282220892,0.414004,0.152188184,-0.267570297,0.404872,0.211649878,-0.242405978,0.418199,0.188051769,-0.208239204,0.410208,0.173399649,-0.196919079,0.406213,0.159622717,-0.186296924,0.402581,0.22763332,-0.235897269,0.411642,0.204277636,-0.19430145,0.396814,0.187999958,-0.176397569,0.388165,0.17591638,-0.1642509,0.381987,0.241838357,-0.23425325,0.407049,0.227983454,-0.191298775,0.390602,0.216518163,-0.178944165,0.382187,0.20584615,-0.167399866,0.374537,0.260591424,-0.238983486,0.403105,0.254111955,-0.210438903,0.390045,0.251157978,-0.197075725,0.384044,0.243533561,-0.196086622,0.378749
0.251401733,-0.314326285,0.433186,0.231309655,-0.261509147,0.42201,0.235082531,-0.309839426,0.43611,0.198364878,-0.2928882,0.431003,0.165555508,-0.278268187,0.416976,0.14614657,-0.264201997,0.407376,0.203526011,-0.235948292,0.420879,0.177575235,-0.201162988,0.410497,0.162004143,-0.188757734,0.405307,0.147423988,-0.178015905,0.400588,0.219848428,-0.229575121,0.414315,0.197809737,-0.186210508,0.398897,0.181098065,-0.170905629,0.389903,0.168774465,-0.159623018,0.383479,0.234468116,-0.228003899,0.4098,0.217240609,-0.188833223,0.392385,0.207115718,-0.171270222,0.383474,0.196450733,-0.160110315,0.375374,0.253892181,-0.232707209,0.406097,0.245407898,-0.204473502,0.392418,0.241510493,-0.191251799,0.386133,0.234765713,-0.188885936,0.380587
0.242581381,-0.306724417,0.434608,0.219336852,-0.257493349,0.426078,0.227437469,-0.303793954,0.439095,0.188812505,-0.291601686,0.436484,0.157046834,-0.278016433,0.425442,0.137603789,-0.265092734,0.416968,0.194156869,-0.234746454,0.428079,0.164881921,-0.204735877,0.420523,0.148483216,-0.191739517,0.416745,0.133314272,-0.179729309,0.41331,0.207986169,-0.226322435,0.420205,0.186963593,-0.183843957,0.406676,0.168244249,-0.170137614,0.398784,0.154366923,-0.160007204,0.393147,0.220656816,-0.222954863,0.414402,0.210508932,-0.180037222,0.400015,0.197295433,-0.168767774,0.392654,0.184899957,-0.158196378,0.385962,0.237965732,-0.225416252,0.408809,0.235275029,-0.194838703,0.395663,0.232397999,-0.182143075,0.389622,0.22354129,-0.181368897,0.384293
0.22883619,-0.302660113,0.436464,0.205761263,-0.254426738,0.429331,0.206175605,-0.297016625,0.44067,0.173756869,-0.287322694,0.438514,0.142741742,-0.273673656,0.42817,0.123714475,-0.260811118,0.420254,0.181749311,-0.231509573,0.43158,0.15266134,-0.201877477,0.424558,0.136640376,-0.188372318,0.421046,0.121854901,-0.175917811,0.417854,0.195778713,-0.223698123,0.42442,0.175069019,-0.182043392,0.411823,0.156904988,-0.165479331,0.404475,0.143224533,-0.154103794,0.399226,0.208514311,-0.220778317,0.419093,0.19824063,-0.177996751,0.404613,0.184838983,-0.165352592,0.397205,0.172286376,-0.153503231,0.39047,0.225684124,-0.223698511,0.413858,0.223730129,-0.190454177,0.402219,0.21866086,-0.178577747,0.396871,0.209306957,-0.179291423,0.392152
0.213982978,-0.300179348,0.439469,0.191619282,-0.252382955,0.431829,0.192120919,-0.293886725,0.443208,0.159910223,-0.284240837,0.441307,0.129657185,-0.271360143,0.432239,0.110359362,-0.259347607,0.422845,0.1683422,-0.227959297,0.433266,0.140592657,-0.196904412,0.425543,0.123574249,-0.184588665,0.421682,0.106867873,-0.175798064,0.418171,0.181878534,-0.22139618,0.426569,0.160721244,-0.179809342,0.413997,0.141626647,-0.16259682,0.406663,0.126736873,-0.152218197,0.401424,0.194273241,-0.219537711,0.421664,0.179023428,-0.177794224,0.40781,0.167254946,-0.159218726,0.400722,0.156429405,-0.142104652,0.394279,0.211089119,-0.223819323,0.416996,0.208711583,-0.189182478,0.405431,0.205316825,-0.174289329,0.400118,0.196112466,-0.17025649,0.395429
0.205100518,-0.302232756,0.451237,0.1812324,-0.253432101,0.440836,0.183679801,-0.293850244,0.454531,0.151600868,-0.285234173,0.449249,0.125895081,-0.266643406,0.440025,0.107660726,-0.252398015,0.430374,0.154162289,-0.228123595,0.440509,0.126772198,-0.194994521,0.43084,0.110547582,-0.180572938,0.426006,0.0956115245,-0.167308259,0.421611,0.169025764,-0.222435379,0.433674,0.145036177,-0.180937625,0.419264,0.127505977,-0.159764818,0.410858,0.114791274,-0.14440966,0.404854,0.182698733,-0.221331918,0.428875,0.168120739,-0.178834023,0.412188,0.157777282,-0.159352391,0.403651,0.145770332,-0.144809633,0.39589,0.201317403,-0.226477883,0.424727,0.197480775,-0.191287781,0.411407,0.188932298,-0.183479346,0.405288,0.181230477,-0.176448833,0.399888
0.200506391,-0.297888423,0.46004,0.173165018,-0.248606392,0.444811,0.184011607,-0.293475775,0.462468,0.146580239,-0.279440926,0.455337,0.114057121,-0.267345957,0.4414,0.0941422116,-0.254635288,0.430946,0.140227033,-0.22499497,0.441292,0.113935038,-0.190268202,0.43005,0.0958299866,-0.177929337,0.424429,0.0790359988,-0.166513633,0.419319,0.155738731,-0.218652599,0.434325,0.133007784,-0.17587165,0.419038,0.114605303,-0.155433426,0.41012,0.101225068,-0.140582119,0.40375,0.170480995,-0.216908146,0.429801,0.157660349,-0.173543104,0.411635,0.147783932,-0.154380958,0.40234,0.136239056,-0.141106304,0.393891,0.191285874,-0.221070099,0.426665,0.179602628,-0.18911437,0.410159,0.173915808,-0.174751441,0.402575,0.168122945,-0.163172147,0.395884
0.1957342,-0.291641776,0.454978,0.165632504,-0.240366923,0.442487,0.179797773,-0.289354918,0.459234,0.143031336,-0.278045117,0.455085,0.106807846,-0.265216705,0.442125,0.0902534994,-0.254035367,0.431265,0.133964211,-0.220240456,0.442477,0.10910221,-0.188393537,0.432671,0.0906023725,-0.180128502,0.427768,0.0731682753,-0.172396176,0.423311,0.148741821,-0.209665922,0.433887,0.12668581,-0.167366524,0.419429,0.108267618,-0.148074991,0.410995,0.0943447563,-0.135009221,0.404971,0.162662596,-0.204534743,0.42781,0.1435855,-0.16381106,0.410527,0.132863652,-0.143834961,0.401685,0.120394924,-0.13004294,0.393647,0.182294574,-0.204810331,0.42246,0.169889478,-0.176047419,0.406488,0.162489089,-0.165698123,0.39915,0.155863789,-0.15640834,0.392675
0.187080157,-0.285551952,0.452515,0.152306148,-0.240244092,0.440591,0.170408372,-0.283870738,0.455837,0.125149959,-0.275088744,0.450645,0.093071798,-0.263153664,0.438577,0.0729899174,-0.251019797,0.429027,0.121289548,-0.219633871,0.439641,0.0974050104,-0.187700248,0.432565,0.0798332718,-0.175794107,0.429027,0.063302341,-0.164902709,0.42581,0.136016851,-0.209539319,0.432381,0.114356752,-0.168049315,0.419685,0.0976746559,-0.146446497,0.412278,0.0839007337,-0.132988864,0.406988,0.149948619,-0.204766271,0.427354,0.135225975,-0.163387395,0.413863,0.123572849,-0.145228348,0.406961,0.112781628,-0.128395875,0.400686,0.169664922,-0.205473756,0.423155,0.161107274,-0.171546139,0.408444,0.153108618,-0.161499805,0.401685,0.145923589,-0.152463229,0.395721
0.173837432,-0.278517396,0.443519,0.145734987,-0.234919138,0.434301,0.151789342,-0.277954744,0.447855,0.11310104,-0.26925042,0.445989,0.081370376,-0.258606135,0.435215,0.0618163424,-0.246776485,0.427685,0.111810757,-0.212785809,0.435811,0.0906019384,-0.182518574,0.429971,0.0721514073,-0.173928873,0.42705,0.0588891893,-0.165083085,0.424395,0.126723636,-0.202955436,0.427954,0.105490376,-0.163356537,0.417961,0.0866315832,-0.144228089,0.412132,0.0722157946,-0.131030854,0.407969,0.140558009,-0.198345726,0.422219,0.124531297,-0.158120722,0.410431,0.112736966,-0.13975587,0.404401,0.100973053,-0.123647901,0.398918,0.159695418,-0.199113917,0.416804,0.145604316,-0.17019723,0.403529,0.139014973,-0.156623107,0.397429,0.133004912,-0.144635881,0.392048
0.155717583,-0.275420922,0.441395,0.128402305,-0.231132689,0.431832,0.139493707,-0.273716021,0.445115,0.0991608784,-0.265371027,0.442697,0.0680107819,-0.254059978,0.432615,0.0482876028,-0.242205319,0.424727,0.0986279056,-0.209346829,0.432411,0.0767670011,-0.177517265,0.425589,0.0582144812,-0.166958085,0.422177,0.0407631284,-0.157060909,0.419076,0.113879115,-0.200984511,0.425248,0.0962452723,-0.161009439,0.416176,0.0778273689,-0.141618458,0.410885,0.06714648,-0.131516811,0.407105,0.128048356,-0.197590695,0.420112,0.113457034,-0.156848113,0.408181,0.10227898,-0.137961148,0.402077,0.0956949777,-0.122124844,0.396528,0.147611579,-0.199836499,0.415449,0.135311253,-0.167668999,0.40247,0.129376716,-0.15295784,0.396507,0.121136561,-0.144291893,0.391245
0.143035842,-0.27414906,0.438769,0.115141264,-0.230708434,0.428527,0.127328906,-0.271932186,0.442562,0.0879902611,-0.263601193,0.439409,0.0572057048,-0.255492329,0.434485,0.0432531185,-0.244616473,0.429086,0.0862945932,-0.208733535,0.428904,0.06667164,-0.178795796,0.42672,0.0471372851,-0.17066084,0.425628,0.0285319416,-0.162929566,0.424635,0.0999176459,-0.200396667,0.421475,0.0825546772,-0.160027085,0.414101,0.0647565674,-0.13997133,0.4098,0.0506122699,-0.126136682,0.406728,0.112926015,-0.19702064,0.416174,0.10030662,-0.156873694,0.407047,0.0914475993,-0.137006719,0.402378,0.0795956456,-0.120781733,0.398133,0.13142603,-0.19934812,0.411414,0.124033873,-0.165095891,0.401198,0.120661387,-0.149528509,0.396504,0.110955317,-0.142868662,0.392363
0.130562258,-0.271637355,0.437066,0.102887196,-0.225895844,0.425869,0.11559192,-0.268402589,0.440903,0.0743571126,-0.260332535,0.437061,0.0419652746,-0.246983962,0.422939,0.0291711074,-0.235874188,0.41262,0.0746370491,-0.201616301,0.425889,0.0521935198,-0.167361771,0.416542,0.0317514513,-0.160169634,0.411869,0.0200146402,-0.154938261,0.40762,0.0879585278,-0.1956613,0.418161,0.0706303981,-0.15382159,0.407095,0.052576897,-0.132982116,0.40064,0.0379406508,-0.119046978,0.396029,0.100702402,-0.194260686,0.412689,0.0875523981,-0.153009164,0.400357,0.0778633512,-0.132975549,0.394047,0.0718805346,-0.117074918,0.38831,0.118798771,-0.198924555,0.407866,0.110951738,-0.164493482,0.393381,0.104065805,-0.150758355,0.386725,0.10307328,-0.138837742,0.381529
0.128944516,-0.271247224,0.437291,0.102856103,-0.225933514,0.425672,0.114099251,-0.268046469,0.441269,0.0747794913,-0.260656813,0.437025,0.0421130576,-0.247943493,0.422535,0.0266991817,-0.236220544,0.411932,0.0745357103,-0.202191314,0.425688,0.0514910045,-0.168341887,0.415968,0.0309686667,-0.161349355,0.411108,0.0115991554,-0.154812371,0.406689,0.087542402,-0.195555327,0.417673,0.0676043888,-0.154182092,0.405809,0.0450671475,-0.13498734,0.398888,0.034072353,-0.119531049,0.393945,0.100063695,-0.193603312,0.411999,0.0855802692,-0.152155666,0.398299,0.0756569193,-0.131965988,0.391289,0.0637648938,-0.11512251,0.384917,0.117987379,-0.197638925,0.406997,0.107677159,-0.164001587,0.392024,0.101276218,-0.149555378,0.385145,0.0995492713,-0.137165094,0.379074
0.129433698,-0.268019598,0.431322,0.0922540139,-0.222528191,0.416849,0.110080259,-0.265163568,0.434883,0.0718402927,-0.257177318,0.429486,0.0385946225,-0.248036597,0.417008,0.0192238291,-0.235993541,0.407279,0.0609492984,-0.20253782,0.415096,0.0388160189,-0.17278244,0.407525,0.0183906104,-0.164437885,0.403739,-0.000849857959,-0.156626174,0.400297,0.074393277,-0.191480786,0.406884,0.0604152935,-0.151180008,0.39619,0.0353395469,-0.135551561,0.389951,0.0187550856,-0.124077864,0.385495,0.0874694289,-0.185939709,0.401275,0.0729577524,-0.14521262,0.389659,0.0608548239,-0.126379219,0.383716,0.0541355038,-0.112138723,0.378313,0.106559103,-0.185801638,0.396757,0.092586137,-0.152114325,0.379891,0.0861710493,-0.136649766,0.372142,0.0756804862,-0.133114074,0.365304
0.124599126,-0.263476847,0.422386,0.0884350281,-0.221068386,0.40946,0.105236952,-0.264465893,0.42545,0.0627821136,-0.258752901,0.419505,0.0326583386,-0.246746665,0.408912,0.0169289587,-0.234047141,0.40231,0.0557053423,-0.205251329,0.407749,0.0372673202,-0.17276696,0.401765,0.0159298818,-0.168966077,0.398773,-0.00348054058,-0.163048984,0.396053,0.0707992767,-0.190933908,0.400562,0.0489129279,-0.154149365,0.391974,0.0322513235,-0.134591564,0.386965,0.0168803166,-0.121904482,0.383387,0.0835474512,-0.185189065,0.395673,0.0685349576,-0.145144352,0.384905,0.0528280685,-0.127855374,0.379395,0.0437446263,-0.110436127,0.374387,0.102309577,-0.184626445,0.391781,0.0885047802,-0.151529051,0.376519,0.0821429847,-0.136271905,0.369507,0.0715292841,-0.132884325,0.36332
0.120941262,-0.259685581,0.415151,0.0863868975,-0.218447336,0.403244,0.0964908372,-0.262365557,0.418608,0.0604027888,-0.255159254,0.41336,0.0283894942,-0.243575218,0.401458,0.0104044617,-0.231591033,0.393704,0.0542480037,-0.201824769,0.402474,0.0342342412,-0.170580281,0.394491,0.0133850599,-0.165117237,0.390499,-0.00434398788,-0.160314057,0.38687,0.0672846338,-0.190359841,0.395047,0.0466905698,-0.151743135,0.38711,0.0274634404,-0.132234822,0.38248,0.015023068,-0.119323244,0.379173,0.08004485,-0.184316732,0.389879,0.0606594863,-0.144403744,0.376505,0.0493534989,-0.124457314,0.369663,0.0416859095,-0.107789913,0.366559,0.0987750822,-0.183322108,0.385514,0.0833982522,-0.151004681,0.370846,0.0762861058,-0.136053363,0.364107,0.0684998991,-0.132292334,0.35816
0.114679743,-0.258933657,0.411654,0.0822755509,-0.219191086,0.399393,0.093922449,-0.261993417,0.416152,0.0568743645,-0.255867709,0.412391,0.022557474,-0.244234878,0.398488,0.00543670647,-0.230622442,0.389829,0.0523228207,-0.200562565,0.399791,0.0308840628,-0.167282004,0.390208,0.011272376,-0.163733103,0.385416,-0.00749395833,-0.160434133,0.38106,0.0650650285,-0.189221788,0.390952,0.0420576974,-0.149337366,0.380037,0.0236335406,-0.12849249,0.37367,0.00861245696,-0.114749056,0.369122,0.0774704711,-0.183337342,0.384651,0.0587995997,-0.144259679,0.372103,0.0477737114,-0.124543557,0.365683,0.0373665251,-0.106566863,0.359847,0.0924721285,-0.187395841,0.379006,0.0813197646,-0.15446974,0.363067,0.0739620968,-0.141025584,0.355743,0.0650602544,-0.130320369,0.349281
0.106523554,-0.258851287,0.405712,0.0799399816,-0.216239129,0.393417,0.0914607745,-0.258715498,0.410141,0.0555802289,-0.251827107,0.406275,0.0189560612,-0.243865363,0.391907,0.00159846284,-0.229159411,0.382931,0.0494006284,-0.196945523,0.393713,0.0296721593,-0.163912672,0.384048,0.0101648378,-0.16373583,0.379215,-0.00712246101,-0.16509571,0.374821,0.0602488192,-0.187361031,0.384953,0.0375047441,-0.146414811,0.372208,0.0200798182,-0.124503703,0.364774,0.00395090279,-0.111775735,0.359464,0.0723324184,-0.18284828,0.378719,0.0578621594,-0.142148904,0.367549,0.0468741464,-0.122885705,0.361834,0.0356365186,-0.10581781,0.356639,0.0900352434,-0.183835302,0.373157,0.0812264081,-0.150661535,0.357056,0.0736198613,-0.13822709,0.349658,0.0668026126,-0.127089512,0.34313
0.104942411,-0.258079314,0.402415,0.077949577,-0.215603342,0.389528,0.0899422946,-0.257551703,0.406501,0.0533160902,-0.250114449,0.402056,0.0201899054,-0.241283451,0.385914,0.00178256513,-0.229765507,0.372759,0.0477398281,-0.19582407,0.389131,0.031181101,-0.162347556,0.378827,0.0116467243,-0.161998884,0.373676,-0.00544559633,-0.162798266,0.368992,0.0599468149,-0.186127098,0.380656,0.036943718,-0.145349927,0.368223,0.0199278935,-0.123175214,0.36097,0.00471853216,-0.110486939,0.355789,0.0719280365,-0.181666809,0.374704,0.0581911157,-0.140609914,0.362294,0.0464862487,-0.121590654,0.355945,0.0340371477,-0.105391859,0.350173,0.0897509018,-0.18276697,0.369558,0.0817327604,-0.149494973,0.353307,0.0753261585,-0.13637093,0.345841,0.0677469705,-0.126434927,0.339252
0.103440517,-0.257823876,0.39958,0.0767991335,-0.218425677,0.385763,0.0881974495,-0.256618733,0.402983,0.0505042431,-0.249648848,0.397426,0.0170781339,-0.238046647,0.378928,0.00322964024,-0.227037804,0.363868,0.0476014622,-0.195672233,0.384095,0.0300670802,-0.159723264,0.372665,0.0127792194,-0.159552096,0.36695,-0.00351918081,-0.159689971,0.361754,0.0614210523,-0.18680422,0.37625,0.0404391217,-0.14530194,0.363401,0.0246890187,-0.125161571,0.355906,0.00873768275,-0.109262629,0.350552,0.0766264007,-0.185028622,0.37089,0.0619604675,-0.143279402,0.355872,0.0510492126,-0.123810311,0.348188,0.0403561072,-0.106308043,0.341203,0.0962141453,-0.187930308,0.366572,0.0872894547,-0.156816975,0.350263,0.083161125,-0.142385196,0.34277,0.073450891,-0.140151162,0.336158
0.103866572,-0.257867294,0.398034,0.0846152218,-0.217197051,0.381371,0.087383994,-0.256923325,0.399233,0.0565602027,-0.249403014,0.390191,0.0245299276,-0.238050714,0.371388,0.00497062951,-0.224848827,0.357495,0.0513462669,-0.193641623,0.37567,0.0304949694,-0.156664887,0.360754,0.0153073281,-0.155739243,0.353296,0.000808450397,-0.155007704,0.346516,0.0676713565,-0.18479113,0.369899,0.0454509026,-0.142423626,0.354731,0.0271006677,-0.121653585,0.345883,0.0136323659,-0.106456857,0.339563,0.0830045864,-0.181219955,0.366473,0.0639081964,-0.141195753,0.351906,0.0540911032,-0.12062097,0.344453,0.0416240638,-0.104076525,0.337678,0.104563134,-0.183677729,0.364831,0.0970256963,-0.150529363,0.34832,0.0910072851,-0.1381703,0.340733,0.0822418608,-0.138929119,0.334039
0.108373522,-0.258606488,0.38227,0.0883723269,-0.216809183,0.370538,0.0920157908,-0.256771873,0.38503,0.0605672832,-0.249141162,0.378804,0.0282735563,-0.23621469,0.360707,0.0100255332,-0.223590034,0.347162,0.0596056067,-0.195071736,0.368957,0.036686498,-0.15919648,0.357815,0.0177203569,-0.153343994,0.352244,0.000171660272,-0.151613525,0.34718,0.072941946,-0.18610742,0.362461,0.05519981,-0.145702154,0.353055,0.0367690815,-0.126041712,0.347568,0.0185387794,-0.109680795,0.343649,0.0857876715,-0.182217411,0.358046,0.0755340463,-0.141327302,0.347271,0.0636111904,-0.123511847,0.341758,0.0524589162,-0.10686105,0.336747,0.104293983,-0.183998722,0.35454,0.0979219648,-0.152283321,0.340497,0.0949804947,-0.137563234,0.334044,0.0907130972,-0.125648769,0.328351
0.119888625,-0.257244581,0.377775,0.102055107,-0.213282893,0.36618,0.113596572,-0.254818865,0.381626,0.0782211005,-0.248696293,0.376988,0.0449650657,-0.236875667,0.360558,0.0249997375,-0.225042778,0.348369,0.0694946935,-0.194526463,0.366043,0.0445467901,-0.162231271,0.356218,0.0209806516,-0.153915841,0.351305,0.00178605952,-0.150574875,0.34684,0.0829840978,-0.184386819,0.358196,0.0644231117,-0.141624457,0.344425,0.0442727564,-0.1237344,0.336391,0.0283494349,-0.112641325,0.330653,0.0962657161,-0.179385579,0.352659,0.0818293531,-0.138823642,0.340977,0.0744791501,-0.118181434,0.335,0.0611248877,-0.104649928,0.329566,0.115766058,-0.17950423,0.347815,0.106015962,-0.148946527,0.332766,0.10149191,-0.134694154,0.325851,0.0966717342,-0.122845493,0.319751
0.129963805,-0.253768707,0.371858,0.108154876,-0.210843915,0.360631,0.113657941,-0.253327388,0.374989,0.0814340628,-0.249060542,0.370259,0.0478399253,-0.237774194,0.354213,0.0260222591,-0.224247445,0.343889,0.077927126,-0.191973714,0.359741,0.0490822434,-0.159851674,0.349337,0.0303483766,-0.149188444,0.344135,0.0126016181,-0.139165223,0.339406,0.0921120967,-0.18059793,0.352901,0.0790472305,-0.140521809,0.343029,0.0589444705,-0.130918244,0.33727,0.0435572692,-0.123661732,0.333156,0.105580396,-0.174687813,0.348164,0.0927650874,-0.136287169,0.34167,0.0833768607,-0.117422855,0.338348,0.0746678261,-0.0999132935,0.335328,0.124802918,-0.173914741,0.344206,0.119479545,-0.143263751,0.330206,0.113201703,-0.133097049,0.323773,0.107535295,-0.123889033,0.318097
0.129667161,-0.255077837,0.370615,0.11000248,-0.212659578,0.3617,0.112733054,-0.252217475,0.371163,0.0793720647,-0.245706163,0.365475,0.0467706924,-0.234895525,0.350045,0.0259700088,-0.222445296,0.340752,0.0804719093,-0.190636251,0.358531,0.050097438,-0.159430157,0.347395,0.0314853929,-0.14834926,0.341827,0.0139006112,-0.137957389,0.336765,0.0959725637,-0.182573642,0.355561,0.0744883676,-0.142992984,0.342111,0.057865157,-0.12089268,0.334265,0.0457989696,-0.104863905,0.328661,0.113844788,-0.181070119,0.353826,0.097096329,-0.140052839,0.339007,0.0872551266,-0.119804283,0.331426,0.0781793546,-0.101300771,0.324533,0.134155107,-0.184970034,0.353061,0.128712318,-0.153149115,0.348905,0.126973048,-0.139596378,0.348992,0.12543996,-0.127649481,0.349069
0.132424221,-0.252306695,0.362339,0.121182203,-0.20889808,0.354246,0.120606661,-0.251739395,0.367106,0.095350672,-0.243841343,0.364385,0.0624484821,-0.23209413,0.347328,0.0428737969,-0.219940276,0.334985,0.0961817814,-0.189564853,0.356792,0.0622258455,-0.16441249,0.349735,0.0445495584,-0.151369862,0.346206,0.0280362814,-0.139216895,0.342999,0.107647517,-0.179205157,0.348675,0.0802397645,-0.141199789,0.33664,0.0642346859,-0.11900692,0.32962,0.0490334207,-0.103355791,0.324606,0.11871449,-0.174039882,0.342636,0.111271065,-0.134925601,0.335826,0.0990507006,-0.118431629,0.332342,0.0834057649,-0.102793438,0.329175,0.134734157,-0.174087785,0.336704,0.131229095,-0.145295463,0.323271,0.129642937,-0.131782537,0.317099,0.125553635,-0.121616643,0.311654
0.145295083,-0.25348423,0.362437,0.129432268,-0.208008862,0.353431,0.129624097,-0.251554929,0.365092,0.0983580395,-0.246723073,0.362647,0.0638771968,-0.234570257,0.348663,0.044767386,-0.223034455,0.339534,0.100363078,-0.187263739,0.352898,0.068684415,-0.15798574,0.343456,0.0517803873,-0.143950453,0.338735,0.0358253299,-0.138004426,0.334443,0.116320678,-0.177775779,0.34723,0.0939564281,-0.136421347,0.332829,0.0762534039,-0.117817008,0.324429,0.0631163729,-0.104041658,0.318429,0.130876974,-0.173426746,0.34328,0.115111547,-0.133661604,0.33046,0.105106106,-0.114667306,0.323901,0.0927857996,-0.103087346,0.317938,0.150724719,-0.174491917,0.33993,0.147074498,-0.149482875,0.328294,0.145431281,-0.137559893,0.322947,0.143554658,-0.127208094,0.31823
0.151119621,-0.255539174,0.36512,0.140471729,-0.210150334,0.355265,0.133820449,-0.25202526,0.365401,0.106276089,-0.241975432,0.357504,0.0739609133,-0.227586777,0.337541,0.0546490383,-0.21377688,0.325221,0.109209654,-0.186928583,0.35135,0.077014371,-0.157741366,0.339456,0.0604895178,-0.142804796,0.333508,0.0447519812,-0.134335131,0.328102,0.127034986,-0.179497052,0.34848,0.102381179,-0.140140794,0.333203,0.0877700915,-0.116804038,0.324291,0.0770956885,-0.10005572,0.317926,0.143286577,-0.176872844,0.346901,0.128870898,-0.135467194,0.331487,0.121547671,-0.114501509,0.3236,0.110552513,-0.10635847,0.316431,0.165321876,-0.180096272,0.346454,0.162913176,-0.153203376,0.336215,0.16185667,-0.140407456,0.33151,0.160954181,-0.128860256,0.327359
0.165489338,-0.253862768,0.361986,0.150903563,-0.209672406,0.353,0.147316734,-0.250970277,0.362895,0.118279797,-0.242280114,0.355626,0.0846867752,-0.227875729,0.335717,0.0645435595,-0.214300329,0.324805,0.119109209,-0.187189217,0.35026,0.0871369809,-0.156852738,0.339374,0.0705807021,-0.142170678,0.333931,0.0502689599,-0.131662291,0.328983,0.136608559,-0.179498411,0.346813,0.112638838,-0.139161957,0.334469,0.0974953918,-0.116426482,0.327268,0.0823908568,-0.100702055,0.322125,0.15269968,-0.176626284,0.34469,0.139693012,-0.134098611,0.329578,0.129511813,-0.116485968,0.321847,0.120046525,-0.100035554,0.314818,0.174662412,-0.179494719,0.343482,0.178143023,-0.146804711,0.333587,0.174166689,-0.140107748,0.32904,0.170587594,-0.13398338,0.325029
0.174523159,-0.250972631,0.359149,0.16122405,-0.206220326,0.352626,0.156939477,-0.248101517,0.360758,0.126539636,-0.2395824,0.355422,0.0954611073,-0.229337242,0.337955,0.0763378139,-0.218377105,0.327801,0.131988802,-0.183391576,0.351842,0.100277321,-0.157407041,0.342961,0.0835655147,-0.143770719,0.338521,0.0674756389,-0.134152871,0.334484,0.149439995,-0.176448675,0.348135,0.129339635,-0.13569623,0.33598,0.113888205,-0.117225824,0.328889,0.101969294,-0.104770976,0.323825,0.165200146,-0.174151245,0.345602,0.151979953,-0.133842333,0.332467,0.145190283,-0.113093264,0.325747,0.139015151,-0.0941591136,0.31967,0.18623761,-0.177619024,0.34356,0.192078605,-0.146382823,0.336011,0.191581624,-0.134925057,0.332543,0.191192254,-0.124486147,0.329483
0.181698117,-0.253626208,0.363623,0.171271138,-0.206535765,0.3531,0.168044882,-0.24835312,0.363694,0.138227291,-0.240253454,0.355602,0.104180544,-0.2269388,0.335581,0.0794857916,-0.214541157,0.323039,0.140439157,-0.181897631,0.348616,0.106202544,-0.154215684,0.336186,0.0851630079,-0.1401511,0.329971,0.0688655211,-0.129265343,0.324322,0.157442058,-0.175409446,0.345835,0.129353415,-0.134107971,0.330199,0.113297258,-0.113378883,0.321077,0.101407865,-0.0988820226,0.314562,0.173246837,-0.173570441,0.344381,0.160731668,-0.131348718,0.329759,0.150549197,-0.113657577,0.322278,0.140360452,-0.0985905269,0.315477,0.195077322,-0.177851957,0.344173,0.198274286,-0.145029046,0.333791,0.197258089,-0.132039436,0.32902,0.191132851,-0.130642593,0.324811
0.184831512,-0.254767439,0.364532,0.173226017,-0.207869778,0.353382,0.169996018,-0.248701433,0.363378,0.138591312,-0.239676778,0.354174,0.105225915,-0.225741767,0.333344,0.0849987887,-0.212064643,0.321012,0.142159348,-0.181335684,0.347071,0.112891028,-0.152382207,0.33332,0.096450782,-0.13812629,0.326444,0.0809858148,-0.125555407,0.320193,0.16297005,-0.177145557,0.345686,0.142384869,-0.133873171,0.329163,0.127034441,-0.11328382,0.319525,0.11580223,-0.0981781208,0.312641,0.179824979,-0.177096653,0.345429,0.170385506,-0.13531381,0.331965,0.163230113,-0.115989904,0.325076,0.156648162,-0.0980717363,0.318813,0.202582737,-0.183682685,0.346716,0.209519526,-0.152780843,0.337357,0.212665131,-0.138669731,0.333057,0.210334144,-0.132780629,0.329263
0.195963154,-0.254968815,0.363741,0.185544548,-0.209269269,0.352813,0.177467806,-0.249611446,0.363357,0.149164459,-0.240014643,0.353227,0.117015369,-0.225097558,0.330431,0.0976399799,-0.210552686,0.315891,0.154410062,-0.182896359,0.347577,0.123202103,-0.151798779,0.334554,0.107097095,-0.136876479,0.328043,0.0922031553,-0.123089722,0.322123,0.173240934,-0.177474114,0.34527,0.152533042,-0.134584504,0.328883,0.139056853,-0.111761668,0.319323,0.128330816,-0.0998547963,0.312496,0.190203935,-0.176621815,0.344237,0.18208083,-0.136414154,0.334224,0.176958585,-0.116601913,0.329101,0.172261151,-0.0982793735,0.324444,0.212846085,-0.182158324,0.344581,0.21746097,-0.153219312,0.334476,0.219672952,-0.139723544,0.329833,0.21948001,-0.131251633,0.325736
0.203751273,-0.256383723,0.364407,0.196057143,-0.209389015,0.353394,0.19004802,-0.250822156,0.363537,0.160311654,-0.241161562,0.354259,0.127888334,-0.227433831,0.331976,0.102858652,-0.212728331,0.319143,0.164439319,-0.182680623,0.347503,0.133219243,-0.152460199,0.334049,0.117297324,-0.137059603,0.327323,0.102486789,-0.126011597,0.321207,0.183607718,-0.177738573,0.345792,0.162511463,-0.134973597,0.329376,0.149000891,-0.112182208,0.319801,0.139228663,-0.0956415162,0.312961,0.20091394,-0.177268694,0.345258,0.193956089,-0.13637212,0.334593,0.188776921,-0.117264646,0.329136,0.182779188,-0.102679189,0.324176,0.224023938,-0.18324911,0.346199,0.230373172,-0.154273462,0.336554,0.232417147,-0.142519271,0.332123,0.233565165,-0.133331157,0.328213
0.214840262,-0.257314838,0.366474,0.205650494,-0.208543506,0.354181,0.200024049,-0.250473836,0.364945,0.1692709,-0.238754818,0.353428,0.138093147,-0.224874561,0.330055,0.118264743,-0.210338572,0.315492,0.173735893,-0.180442366,0.346897,0.14278,-0.149559418,0.332198,0.127034674,-0.133862379,0.324849,0.112995333,-0.124114192,0.318167,0.193419714,-0.176345919,0.345695,0.170329586,-0.134181497,0.328272,0.159235194,-0.111328563,0.32283,0.151177798,-0.0946735913,0.318943,0.211141061,-0.176634125,0.345681,0.202302799,-0.136011008,0.332746,0.197238687,-0.115997016,0.326129,0.192618771,-0.0975392706,0.320113,0.23472047,-0.183626103,0.347415,0.24149738,-0.156004381,0.33757,0.244748707,-0.143084202,0.333047,0.24769321,-0.131558749,0.329056
0.223647358,-0.254677207,0.363919,0.216384849,-0.207291228,0.353211,0.209154991,-0.248621386,0.363112,0.181578482,-0.238352488,0.352227,0.147109564,-0.221203101,0.329137,0.126360507,-0.205576227,0.317271,0.184040965,-0.181037383,0.347533,0.154043372,-0.147874706,0.334305,0.138935477,-0.131505356,0.327691,0.125134854,-0.116550325,0.321679,0.203783208,-0.175651166,0.34582,0.182517021,-0.133575542,0.329668,0.169763918,-0.110913302,0.320246,0.160515518,-0.0943783465,0.313516,0.22140673,-0.174833609,0.345259,0.213723866,-0.134955208,0.334553,0.209731669,-0.114525595,0.329075,0.206098579,-0.095789033,0.324096,0.244702947,-0.180348792,0.346126,0.252812272,-0.151469048,0.33685,0.254536054,-0.143659297,0.332588,0.256258543,-0.136527884,0.328828
0.231753119,-0.255091926,0.364915,0.217836745,-0.207830171,0.353484,0.211870356,-0.248943625,0.363232,0.182128002,-0.238102071,0.351101,0.148211218,-0.221374684,0.32769,0.130573635,-0.207375177,0.312172,0.185039714,-0.180500312,0.346379,0.154879053,-0.146865616,0.332059,0.141839661,-0.132749089,0.324899,0.128148728,-0.120423445,0.31839,0.205258277,-0.175860947,0.345593,0.184339218,-0.133026346,0.328774,0.171682941,-0.110453305,0.318963,0.162479535,-0.0952712235,0.311955,0.223374065,-0.175679134,0.345853,0.215507282,-0.135097484,0.334108,0.211101536,-0.115465139,0.328099,0.207086674,-0.097310648,0.322636,0.247388674,-0.18203399,0.347786,0.256027357,-0.15306157,0.338762,0.258470895,-0.144119125,0.334616,0.260829061,-0.135972899,0.330958
0.239720148,-0.255218513,0.364127,0.23006,-0.209004876,0.353633,0.22014454,-0.249503256,0.363038,0.194031463,-0.240175814,0.352229,0.161093438,-0.224829501,0.328905,0.135853886,-0.209295794,0.315341,0.198721715,-0.181722611,0.347689,0.168803236,-0.151589378,0.334367,0.153528153,-0.136194638,0.327706,0.13448471,-0.121822705,0.32165,0.21823696,-0.177158688,0.346389,0.198259829,-0.135050614,0.330324,0.186103701,-0.111805957,0.320952,0.17697484,-0.0971774071,0.314258,0.23577646,-0.17700565,0.346152,0.231335969,-0.137994895,0.339359,0.228790961,-0.118120617,0.335884,0.226474234,-0.0997954966,0.332724,0.259109494,-0.183388031,0.347367,0.268407324,-0.154969823,0.338597,0.270847604,-0.145481293,0.334567,0.273123096,-0.136975444,0.331011
0.243379859,-0.25564573,0.364125,0.234290948,-0.209461146,0.354057,0.231222194,-0.250088285,0.362573,0.201078829,-0.23926585,0.351412,0.168811971,-0.223536378,0.327615,0.147919601,-0.207747233,0.314068,0.206984474,-0.18153255,0.347712,0.178215196,-0.149355675,0.334286,0.164090249,-0.135624344,0.327573,0.150885034,-0.122770464,0.321471,0.227291673,-0.177815654,0.347108,0.207766883,-0.134528734,0.331479,0.19586888,-0.112381021,0.322362,0.187250654,-0.0962040808,0.31585,0.245372253,-0.178371544,0.34741,0.236653646,-0.137386958,0.3335,0.231742739,-0.118194358,0.326384,0.227281483,-0.10038221,0.319915,0.269119839,-0.185597733,0.349198,0.279079656,-0.157797587,0.341005,0.283218491,-0.146528954,0.33724,0.285894972,-0.138797527,0.333919
0.255276859,-0.257274795,0.365034,0.242783414,-0.209744523,0.354736,0.235214992,-0.250183766,0.363009,0.209558325,-0.238299879,0.350797,0.177232132,-0.222041212,0.32665,0.156915859,-0.206214147,0.312195,0.215460848,-0.18057451,0.34769,0.187277689,-0.149234526,0.333774,0.172977655,-0.13358827,0.326816,0.159763918,-0.119106849,0.32049,0.236136343,-0.177393477,0.347628,0.217097676,-0.135631505,0.331746,0.205847764,-0.111814921,0.322481,0.19771354,-0.0978344801,0.315863,0.254537547,-0.178403448,0.348394,0.248719593,-0.137780468,0.337361,0.245279583,-0.118964206,0.331716,0.242172884,-0.101401438,0.326585,0.278687955,-0.186213013,0.35076,0.289888561,-0.159085318,0.343075,0.294889105,-0.147461468,0.339544,0.29946495,-0.137001411,0.336429
0.262911787,-0.257341714,0.365469,0.250513338,-0.209033092,0.354536,0.242415643,-0.249707543,0.362827,0.216342974,-0.237504719,0.349865,0.184955703,-0.221947545,0.325377,0.16510359,-0.206492932,0.310123,0.222060763,-0.179369379,0.34643,0.194033608,-0.14592456,0.331685,0.181018587,-0.132136673,0.324312,0.169057419,-0.119638513,0.31761,0.243351168,-0.17651973,0.34699,0.224464523,-0.132611193,0.330516,0.214011554,-0.112280546,0.320906,0.206431239,-0.0972824246,0.314041,0.262237881,-0.177831625,0.348317,0.255794664,-0.137073892,0.335927,0.252553666,-0.118140484,0.329588,0.249647681,-0.100512889,0.323825,0.286941412,-0.186024256,0.351433,0.299111026,-0.160208365,0.343833,0.304877815,-0.148316642,0.34034,0.309340944,-0.140279245,0.337259
0.270841874,-0.258017849,0.366127,0.258763739,-0.210050177,0.355315,0.250238929,-0.250129411,0.363343,0.224962844,-0.238568379,0.349945,0.193530094,-0.222239458,0.325403,0.174038031,-0.206440477,0.310238,0.230675113,-0.180943745,0.347083,0.203641742,-0.149510762,0.332306,0.18985273,-0.133419034,0.324917,0.173351662,-0.119439291,0.3182,0.252114597,-0.178572791,0.347853,0.233765629,-0.13583373,0.331476,0.223156911,-0.112342039,0.321922,0.215727709,-0.0972285482,0.315099,0.271129344,-0.180282989,0.349343,0.266124968,-0.139790964,0.338389,0.26361736,-0.120841516,0.332784,0.261387029,-0.103240912,0.327689,0.295968059,-0.188980524,0.352634,0.308492734,-0.162194544,0.345413,0.314093844,-0.151762683,0.342095,0.319272892,-0.142313541,0.339168
0.276918954,-0.256813575,0.364747,0.265031952,-0.209662422,0.354757,0.256786791,-0.249381033,0.362596,0.231453384,-0.238284272,0.350199,0.196212856,-0.222527275,0.326008,0.176584982,-0.207111578,0.310985,0.233578797,-0.180587955,0.347685,0.206486932,-0.149579726,0.333856,0.192641742,-0.133674876,0.326942,0.180472604,-0.120676114,0.320656,0.254566632,-0.17772447,0.347861,0.23526207,-0.135715225,0.332236,0.224031248,-0.111846803,0.323121,0.216064691,-0.0955772308,0.31661,0.273183719,-0.178991143,0.348798,0.267355874,-0.138264028,0.337294,0.264313808,-0.119721062,0.331408,0.261595736,-0.102421621,0.326057,0.297506475,-0.187085868,0.351322,0.313392671,-0.159398899,0.344295,0.316135652,-0.150321184,0.341066,0.320954598,-0.142013486,0.338218
0.281139937,-0.258138494,0.366495,0.271502922,-0.210099361,0.356018,0.264079565,-0.250601953,0.364102,0.235225017,-0.23936161,0.351517,0.206775821,-0.223896861,0.327084,0.182818573,-0.208055657,0.312673,0.242466331,-0.181159693,0.348427,0.215444735,-0.150450502,0.334134,0.201638619,-0.134693528,0.326987,0.18555821,-0.12072455,0.32049,0.263599026,-0.178564228,0.348786,0.246279776,-0.135501119,0.332729,0.236378315,-0.1139056,0.323362,0.229264731,-0.0984244787,0.316672,0.282384772,-0.180069546,0.349912,0.279856074,-0.140515374,0.342191,0.278685056,-0.121925444,0.338241,0.277684774,-0.104495197,0.33465,0.306979778,-0.188494265,0.352727,0.320887784,-0.162711984,0.345851,0.327318367,-0.152109122,0.342691,0.33322141,-0.142532377,0.339904
0.288233186,-0.259208007,0.366996,0.278721708,-0.211751277,0.356634,0.270584547,-0.250973312,0.364126,0.245538689,-0.240712823,0.351325,0.213037351,-0.223966978,0.326879,0.189904436,-0.208185275,0.312458,0.250479352,-0.182538105,0.348487,0.22417252,-0.150722754,0.333912,0.210899092,-0.134700478,0.326624,0.198943942,-0.120468405,0.319999,0.272133492,-0.180224925,0.349481,0.254846928,-0.138100305,0.333448,0.245013118,-0.114597796,0.324095,0.233898742,-0.0980930615,0.317414,0.291340032,-0.181969672,0.351121,0.286317347,-0.141554432,0.33988,0.284053693,-0.122214503,0.334128,0.282194919,-0.105904662,0.3289,0.316446896,-0.190687639,0.354523,0.32979545,-0.164334081,0.347434,0.335842142,-0.154459199,0.344177,0.338025064,-0.144307148,0.341303
0.295650495,-0.259987698,0.367824,0.28705811,-0.212962137,0.357405,0.278246317,-0.252527025,0.365286,0.253970521,-0.241349227,0.352676,0.222535261,-0.225592806,0.328227,0.198278057,-0.209580489,0.313723,0.258689832,-0.183251847,0.349655,0.231979011,-0.151972656,0.335288,0.218998175,-0.137386604,0.328105,0.20343833,-0.122423348,0.321575,0.280037439,-0.180824715,0.350213,0.26226023,-0.138295803,0.334181,0.252294116,-0.115943722,0.324829,0.241861379,-0.0990427105,0.318149,0.299024765,-0.182472583,0.351498,0.296632482,-0.143138469,0.34368,0.295615105,-0.123472201,0.33968,0.294802514,-0.105588429,0.336044,0.323904487,-0.19108218,0.354492,0.336692078,-0.164407334,0.347119,0.342676362,-0.153760671,0.343732,0.344305885,-0.145434115,0.340743
0.301127489,-0.260268809,0.367165,0.292979116,-0.212930546,0.357465,0.284155334,-0.252559664,0.364571,0.256327284,-0.240603238,0.351982,0.224277723,-0.223817482,0.327606,0.203439176,-0.207272783,0.31347,0.261315256,-0.183048852,0.349955,0.238663695,-0.151558061,0.335964,0.225873645,-0.135557727,0.328968,0.211417601,-0.123583131,0.322609,0.282897093,-0.180912519,0.350769,0.269751079,-0.138411052,0.335427,0.260928718,-0.114853073,0.326478,0.254603431,-0.0977456867,0.320085,0.302017185,-0.182780845,0.352207,0.298599693,-0.142869609,0.342778,0.300171539,-0.124294709,0.337954,0.295893558,-0.105858375,0.333568,0.326943847,-0.191621609,0.355278,0.344523493,-0.166280414,0.349201,0.35152965,-0.156806103,0.346408,0.354530261,-0.147588651,0.343944
0.30786791,-0.261437216,0.368012,0.298433551,-0.213479321,0.35808,0.286996894,-0.252878084,0.365038,0.261828933,-0.240795139,0.351839,0.23313204,-0.224933186,0.326972,0.212242563,-0.208181745,0.312259,0.269664796,-0.182994482,0.349989,0.245040853,-0.151559122,0.335594,0.232487428,-0.135414439,0.328397,0.218075462,-0.122084062,0.321854,0.291661142,-0.181587887,0.351225,0.276020834,-0.138977651,0.335577,0.267631873,-0.116869033,0.32645,0.258030127,-0.0991682697,0.31993,0.311053636,-0.184081828,0.35303,0.307560022,-0.144275998,0.341818,0.306103798,-0.124756262,0.336081,0.300816819,-0.106370974,0.330866,0.33616845,-0.193698442,0.356564,0.351538357,-0.168534837,0.350335,0.358960723,-0.158049482,0.347473,0.362253313,-0.149320198,0.344947
0.309626245,-0.25850681,0.363896,0.302819484,-0.213231733,0.35728,0.290141676,-0.250912638,0.362341,0.267098201,-0.24145167,0.352199,0.237198665,-0.226575775,0.329538,0.21875584,-0.212366585,0.318642,0.273708005,-0.184390454,0.35243,0.251001036,-0.154082718,0.341052,0.239304554,-0.138326605,0.335363,0.228713817,-0.124128527,0.330191,0.295055877,-0.182350629,0.352713,0.281540232,-0.141213675,0.340032,0.274419665,-0.119568599,0.332635,0.269302229,-0.103530111,0.327351,0.313612726,-0.184196226,0.35347,0.309581207,-0.144004206,0.341963,0.307681185,-0.123906596,0.336075,0.306383733,-0.106751823,0.330723,0.337187813,-0.192758182,0.355302,0.353607361,-0.168168198,0.350265,0.361546244,-0.158397994,0.34795,0.368618293,-0.150576865,0.345908
0.317484536,-0.262854572,0.369882,0.310144953,-0.214786097,0.359455,0.298613526,-0.254012907,0.366509,0.276252229,-0.241928166,0.352504,0.244337017,-0.224849691,0.327588,0.225385901,-0.209029918,0.312074,0.280624669,-0.18441472,0.350642,0.255716277,-0.151792838,0.335667,0.243077991,-0.135129928,0.328179,0.232667367,-0.12155529,0.321373,0.302908612,-0.182784566,0.352258,0.287223354,-0.13993292,0.336192,0.279285222,-0.117445323,0.32682,0.273615956,-0.100993031,0.320125,0.322572521,-0.185109663,0.354415,0.319016515,-0.1448401,0.343911,0.318538681,-0.126712881,0.338537,0.314550983,-0.108970484,0.333651,0.348099672,-0.194523492,0.358433,0.363343432,-0.169295606,0.352098,0.370934269,-0.159604377,0.349187,0.3747573,-0.150925145,0.346619
0.329868924,-0.265082971,0.375422,0.319279765,-0.215325213,0.36244,0.311198854,-0.25574857,0.37146,0.29073108,-0.242349488,0.356235,0.258031997,-0.225764609,0.331314,0.239482503,-0.210848414,0.316068,0.290231028,-0.1840298,0.351769,0.262931501,-0.148834889,0.334872,0.249807163,-0.131883759,0.326423,0.239336874,-0.118473163,0.318742,0.312364198,-0.182048532,0.35348,0.29348348,-0.138133037,0.3351,0.284608585,-0.115314501,0.324379,0.274537814,-0.0994028352,0.316721,0.331701412,-0.184067086,0.355917,0.329357246,-0.144241942,0.345601,0.329739555,-0.125086709,0.340323,0.33020137,-0.107312116,0.335524,0.356451049,-0.192967007,0.360628,0.370562915,-0.170272811,0.352449,0.377690421,-0.160624197,0.348691,0.380463607,-0.151790338,0.345375
0.344771077,-0.266134844,0.380928,0.334372876,-0.216260736,0.365478,0.326883797,-0.256274396,0.376629,0.301882571,-0.245619299,0.360688,0.264634707,-0.229107878,0.336551,0.245054351,-0.213837939,0.321132,0.299639928,-0.186670204,0.353307,0.269206648,-0.150379736,0.334742,0.256242488,-0.134763818,0.32546,0.241202927,-0.119089304,0.317022,0.321350168,-0.183619242,0.354814,0.303040165,-0.139916432,0.337371,0.294223655,-0.116276918,0.327196,0.284591207,-0.0995112003,0.319929,0.340613296,-0.184854953,0.35728,0.335085729,-0.144090473,0.345959,0.335771341,-0.12665082,0.340167,0.333129695,-0.108760874,0.334902,0.365842516,-0.192994276,0.362376,0.380226655,-0.170809273,0.353679,0.387206205,-0.160336537,0.349684,0.393574745,-0.150935357,0.346158
0.346645294,-0.265124159,0.380023,0.335611899,-0.216122091,0.364771,0.328434443,-0.25583402,0.375022,0.306570346,-0.2457284,0.358159,0.272822448,-0.228397338,0.333325,0.248980499,-0.21255845,0.319521,0.301358542,-0.186261975,0.351794,0.270313743,-0.148827186,0.332831,0.261403743,-0.131752402,0.32335,0.25081957,-0.116632979,0.31473,0.323260865,-0.183530775,0.354244,0.304548127,-0.139607383,0.33624,0.29969256,-0.116528557,0.325737,0.290534766,-0.099234503,0.318236,0.342551001,-0.185033227,0.357469,0.341645539,-0.145207888,0.345921,0.342744823,-0.126290432,0.340012,0.343886784,-0.108756976,0.334641,0.367605834,-0.193462116,0.363429,0.382731203,-0.172293161,0.355096,0.390100057,-0.1622698,0.351268,0.396854571,-0.153288778,0.34789
0.360785424,-0.266180447,0.383269,0.348685942,-0.218001423,0.365914,0.338679826,-0.258359657,0.376762,0.317348514,-0.245889266,0.357787,0.281799308,-0.2274045,0.333048,0.260792088,-0.211400348,0.31935,0.312743472,-0.187935737,0.350112,0.280229037,-0.150797103,0.333337,0.269440871,-0.135094289,0.324949,0.256226219,-0.119064415,0.317323,0.334543914,-0.184769465,0.353935,0.316145413,-0.140918684,0.339309,0.309237565,-0.116930014,0.330776,0.303668606,-0.101472825,0.324682,0.353899656,-0.186001914,0.358457,0.346662376,-0.144954004,0.343953,0.346050686,-0.125983514,0.336532,0.349045382,-0.11288334,0.329786,0.379361853,-0.19422612,0.36624,0.392853775,-0.173632047,0.356551,0.399505726,-0.163871994,0.352099,0.402080907,-0.155122909,0.348171
0.36204856,-0.265685623,0.382376,0.347830297,-0.217295739,0.36488,0.340034734,-0.257984625,0.375655,0.316245859,-0.244241105,0.356409,0.282219073,-0.225722027,0.331698,0.261792208,-0.209479019,0.317711,0.311916128,-0.187124337,0.348745,0.279754903,-0.150160461,0.332252,0.269038404,-0.13430342,0.324005,0.25688771,-0.118825699,0.316508,0.333687943,-0.184026116,0.352804,0.316327595,-0.140453579,0.338025,0.309741653,-0.116509348,0.329405,0.307548499,-0.100879627,0.323247,0.353014534,-0.185321031,0.357532,0.34707678,-0.14457614,0.34368,0.34760896,-0.126112403,0.336593,0.35002308,-0.111248091,0.330151,0.378436693,-0.193623067,0.365576,0.393421303,-0.173862759,0.356591,0.400786899,-0.164487011,0.352463,0.407593181,-0.156119887,0.34882
0.362697972,-0.265638525,0.381535,0.348004574,-0.216667681,0.363675,0.339855524,-0.256896762,0.373485,0.314036333,-0.24203958,0.353191,0.279556825,-0.223055381,0.328401,0.259791152,-0.207032723,0.314742,0.31609459,-0.183101402,0.345694,0.286515827,-0.144682174,0.329595,0.278046567,-0.127781561,0.321546,0.270311456,-0.112097925,0.314228,0.334309845,-0.182983455,0.351347,0.316596694,-0.139639212,0.337177,0.31304447,-0.116257506,0.328911,0.309448516,-0.100690957,0.323006,0.35454171,-0.185439455,0.357417,0.355307845,-0.145620324,0.345811,0.357539947,-0.126890619,0.339873,0.357481681,-0.110245238,0.334475,0.381039839,-0.195195894,0.367087,0.397129538,-0.175493192,0.357924,0.404763623,-0.166066582,0.353714,0.410446888,-0.157091112,0.349999
0.363881538,-0.265171647,0.381175,0.349473808,-0.216509905,0.363588,0.346764555,-0.257443635,0.373513,0.321147741,-0.240378696,0.353356,0.283928787,-0.221752688,0.32886,0.263231994,-0.205590253,0.314941,0.317941842,-0.184202154,0.346219,0.28829411,-0.146308382,0.330159,0.278452228,-0.129391514,0.322128,0.269446972,-0.113734791,0.314828,0.340292948,-0.182878341,0.351448,0.32613411,-0.139579772,0.33839,0.322842272,-0.116568868,0.330773,0.318288251,-0.10045253,0.325332,0.359871493,-0.185657942,0.357147,0.358098811,-0.145853354,0.346478,0.360439742,-0.127062156,0.341019,0.362782772,-0.10968291,0.336057,0.385185966,-0.19575994,0.366343,0.401389644,-0.175741936,0.357755,0.409277881,-0.166273215,0.353809,0.416492099,-0.157762872,0.350327
0.369414839,-0.264404361,0.380471,0.356806678,-0.215623403,0.363847,0.348686651,-0.257061886,0.373908,0.324213908,-0.240632603,0.354991,0.290588808,-0.221566544,0.330378,0.271885301,-0.205520705,0.316559,0.323494686,-0.185394399,0.348293,0.292552597,-0.147346359,0.330977,0.280387647,-0.12973909,0.322318,0.270738073,-0.11411162,0.314447,0.345505987,-0.183118678,0.352373,0.328822089,-0.13914019,0.338741,0.325170572,-0.116134274,0.330789,0.323411474,-0.0999331082,0.325109,0.364703535,-0.185011458,0.35705,0.362387216,-0.145076263,0.346633,0.364090937,-0.125939079,0.341303,0.364655314,-0.109003234,0.336458,0.389342626,-0.193872674,0.364908,0.4113506,-0.173389987,0.358599,0.420626799,-0.163933375,0.3557,0.429073286,-0.155422044,0.353142
0.37169601,-0.264348673,0.381277,0.361530292,-0.214875506,0.364517,0.350843936,-0.256899216,0.374579,0.328721017,-0.24008032,0.355483,0.295700459,-0.221645262,0.330598,0.277559534,-0.205924896,0.316012,0.3280473,-0.184534772,0.348731,0.296899386,-0.146333967,0.33106,0.285768049,-0.12976125,0.322225,0.273822035,-0.11366442,0.314193,0.350336966,-0.182426884,0.352949,0.332781035,-0.138085031,0.338332,0.328774423,-0.115153529,0.329805,0.327617806,-0.0997396898,0.323715,0.369776816,-0.184446855,0.357749,0.366346687,-0.144159278,0.347494,0.368474154,-0.125349334,0.342248,0.371858049,-0.109061119,0.337478,0.394705336,-0.193456645,0.365773,0.412723887,-0.172863018,0.35868,0.421433734,-0.163118203,0.355421,0.429364437,-0.154359501,0.352546
0.373634122,-0.264385748,0.381461,0.364013902,-0.215589466,0.365305,0.354410966,-0.255533027,0.373708,0.331467294,-0.239283303,0.354005,0.298593872,-0.220769276,0.329862,0.28029249,-0.206325665,0.31718,0.330994704,-0.184248091,0.348443,0.302189341,-0.147299825,0.333627,0.291945902,-0.130814845,0.326219,0.281164797,-0.116004071,0.319484,0.354609237,-0.183005269,0.354153,0.33929623,-0.139635497,0.341806,0.336381916,-0.116821467,0.334604,0.33443042,-0.101501765,0.32946,0.37523223,-0.185726294,0.360135,0.372717627,-0.145644562,0.350751,0.376242285,-0.127467303,0.34595,0.380778364,-0.111537083,0.341586,0.401639277,-0.195597824,0.369459,0.419032256,-0.175289881,0.363157,0.428311986,-0.165788075,0.360261,0.436922824,-0.15752577,0.357706
0.377539567,-0.265877891,0.383979,0.368541059,-0.21627017,0.366958,0.360476785,-0.256598893,0.37671,0.338066208,-0.241234126,0.356923,0.304148262,-0.221590363,0.332015,0.284505414,-0.205892097,0.317454,0.335621908,-0.18480603,0.350334,0.306153531,-0.147322121,0.334876,0.295551249,-0.130346729,0.327147,0.284795446,-0.115104268,0.32012,0.358220327,-0.183320124,0.35521,0.341674126,-0.139492711,0.341285,0.337276714,-0.116047133,0.333163,0.334981125,-0.100182526,0.327361,0.378012613,-0.185911814,0.360572,0.37442061,-0.145501594,0.349657,0.377673746,-0.12764801,0.344073,0.379748176,-0.11119596,0.338996,0.403547317,-0.195722439,0.369293,0.417871963,-0.173706751,0.360525,0.425447892,-0.163618316,0.356496,0.431761535,-0.155364174,0.352941
0.386147644,-0.265629637,0.386468,0.373500812,-0.216452552,0.368651,0.366462927,-0.257107396,0.378944,0.343785907,-0.241242309,0.358736,0.308991407,-0.221918344,0.333952,0.288847966,-0.206316049,0.319542,0.340341632,-0.184448202,0.351357,0.310704681,-0.147261421,0.335548,0.300000675,-0.130346838,0.327644,0.288157454,-0.115051032,0.320459,0.362603107,-0.182564783,0.356352,0.345399483,-0.138848676,0.342075,0.341526961,-0.115889576,0.333746,0.338010828,-0.100071006,0.327797,0.382153784,-0.184833812,0.361877,0.378236213,-0.144465921,0.350798,0.382062576,-0.127117077,0.345129,0.384144522,-0.111084929,0.339976,0.407474861,-0.194253379,0.370902,0.422916987,-0.174281586,0.361791,0.430482576,-0.164824456,0.357605,0.436828957,-0.15729095,0.353911
0.387240206,-0.264996797,0.3864,0.375492746,-0.214897967,0.36838,0.367648393,-0.256577702,0.378954,0.345984255,-0.239283539,0.358802,0.309839138,-0.220634156,0.334001,0.291682413,-0.20459754,0.319452,0.341336466,-0.183844316,0.351098,0.310620636,-0.146017331,0.333739,0.301457457,-0.129083589,0.32506,0.289469366,-0.11329085,0.31717,0.363358057,-0.181840478,0.355942,0.345897451,-0.13792837,0.340762,0.341286482,-0.114634419,0.331906,0.33928284,-0.0984361951,0.325581,0.382677653,-0.184011806,0.361358,0.380536401,-0.142803251,0.349963,0.38402572,-0.125056883,0.344133,0.386359679,-0.109967652,0.338833,0.407679584,-0.193305646,0.370283,0.426055265,-0.173671793,0.361739,0.434513398,-0.164972125,0.357813,0.440008458,-0.156704202,0.354349
0.388693034,-0.263520176,0.384758,0.375944447,-0.214490795,0.367498,0.366323015,-0.254706993,0.376192,0.343528217,-0.237323707,0.355433,0.308575644,-0.218952095,0.331805,0.292174196,-0.203985192,0.318921,0.342338374,-0.182164897,0.349124,0.313638333,-0.145263913,0.333869,0.305868222,-0.127991686,0.326242,0.295840462,-0.113657727,0.319718,0.365847734,-0.181042307,0.355584,0.350066036,-0.137678018,0.342018,0.348757688,-0.114177391,0.334105,0.346874828,-0.0993783722,0.328453,0.386429738,-0.183905352,0.36227,0.3839695,-0.143739406,0.351374,0.38760691,-0.125729629,0.3458,0.391755012,-0.10939491,0.340732,0.412899191,-0.194012244,0.372579,0.432655521,-0.175730779,0.365957,0.44377901,-0.166258731,0.363039,0.452815116,-0.158111207,0.360497
0.388875293,-0.263098276,0.38392,0.376130239,-0.214247425,0.366825,0.369097139,-0.25475049,0.37644,0.344861337,-0.238099386,0.356403,0.310581294,-0.218406683,0.331571,0.294486834,-0.201612853,0.316165,0.343799763,-0.182460441,0.349901,0.313539906,-0.143403527,0.331944,0.303641437,-0.126560667,0.322965,0.29461549,-0.110992888,0.314803,0.366016158,-0.180869101,0.355025,0.349244719,-0.136171889,0.338737,0.344634771,-0.112648213,0.329236,0.343789464,-0.0973373318,0.32245,0.385424243,-0.183369618,0.360599,0.383613657,-0.143106424,0.348638,0.388414304,-0.125478653,0.342519,0.390451602,-0.108515093,0.336956,0.410393633,-0.19303504,0.369578,0.430826399,-0.173846028,0.362879,0.440219487,-0.164523621,0.359802,0.448769318,-0.156139266,0.357086
0.388821854,-0.262324616,0.382779,0.377467304,-0.213378386,0.365943,0.368882737,-0.253839505,0.375106,0.344295083,-0.236729673,0.354899,0.315036463,-0.21645735,0.329859,0.295202843,-0.200198629,0.31538,0.344576959,-0.181497694,0.348887,0.313805951,-0.143022635,0.331429,0.305382688,-0.126026068,0.322701,0.295702424,-0.110914504,0.314765,0.367095827,-0.180351961,0.354322,0.349667194,-0.135883822,0.338368,0.346601598,-0.112485782,0.329062,0.344826372,-0.097276389,0.322415,0.386737305,-0.183229346,0.360131,0.385355791,-0.143144937,0.348319,0.389014166,-0.125243551,0.342275,0.391391069,-0.108491785,0.336781,0.411948441,-0.193368242,0.369349,0.433084533,-0.17366061,0.363306,0.442677979,-0.164056203,0.36053,0.450529436,-0.155855927,0.35808
0.389452926,-0.262161266,0.382531,0.37791262,-0.213306453,0.365786,0.369451531,-0.253638211,0.374818,0.344582519,-0.236275049,0.354583,0.315382926,-0.215691166,0.329598,0.295913885,-0.199541365,0.31521,0.344949997,-0.181349751,0.348719,0.314299308,-0.142946528,0.331473,0.305971646,-0.126086406,0.32285,0.296607616,-0.110961739,0.31501,0.367512345,-0.180249228,0.354229,0.350215475,-0.135825628,0.338432,0.347146441,-0.112443339,0.329217,0.34570743,-0.0973124927,0.322635,0.38718971,-0.183163528,0.360091,0.385767941,-0.143026215,0.348407,0.389627849,-0.125226984,0.342429,0.392324812,-0.108580254,0.336994,0.412445312,-0.193348564,0.369359,0.433440488,-0.173384199,0.363396,0.44304145,-0.163735065,0.360656,0.451033735,-0.155495289,0.358238
0.392546845,-0.262454564,0.383462,0.380834514,-0.213965683,0.366273,0.37242234,-0.25401076,0.375611,0.349225342,-0.235925392,0.355146,0.320152438,-0.217984418,0.329953,0.300468842,-0.200143192,0.315732,0.347215619,-0.181892721,0.348838,0.317816569,-0.14362286,0.331836,0.30702218,-0.126541693,0.323335,0.298675939,-0.111063951,0.315607,0.369256417,-0.180648306,0.354409,0.353035729,-0.13632163,0.338898,0.348281795,-0.112738367,0.329849,0.347989201,-0.0975017511,0.323386,0.389019966,-0.183539102,0.360358,0.386603915,-0.143247648,0.348885,0.390282309,-0.125296709,0.343015,0.393300429,-0.10877119,0.337679,0.414471453,-0.193728364,0.36979,0.434017152,-0.173421696,0.363356,0.443420931,-0.163823863,0.3604,0.451241545,-0.155518492,0.357791
0.394934313,-0.262536533,0.383845,0.381743449,-0.2139991,0.366477,0.374548076,-0.253823214,0.375937,0.350315794,-0.236243641,0.355379,0.320940862,-0.217862173,0.330251,0.301005283,-0.200378294,0.316038,0.348910473,-0.182089038,0.348891,0.318855583,-0.143692975,0.331834,0.309127016,-0.126650181,0.323305,0.29922618,-0.1109362,0.315552,0.371397819,-0.180673162,0.354489,0.354754448,-0.136323335,0.338884,0.350442214,-0.112647651,0.329781,0.348567367,-0.0972518184,0.323278,0.391072694,-0.183327611,0.360474,0.387804461,-0.143200755,0.348976,0.391558631,-0.125314381,0.343094,0.394892569,-0.108803134,0.337746,0.41642199,-0.193203195,0.369974,0.43506943,-0.173193526,0.363351,0.444012871,-0.163833857,0.360307,0.452485265,-0.155238765,0.357622
0.396171043,-0.262236694,0.383789,0.381243262,-0.214032766,0.366592,0.374919392,-0.253838768,0.37593,0.352937048,-0.236898878,0.355455,0.322495486,-0.217523026,0.330281,0.302967145,-0.19972529,0.316312,0.348704056,-0.182158298,0.349143,0.319483003,-0.143681034,0.331996,0.309892563,-0.126645861,0.323423,0.300846591,-0.11108848,0.315629,0.371278387,-0.180960358,0.354723,0.355908681,-0.136678282,0.339483,0.353421399,-0.113315893,0.330593,0.350089063,-0.0974326486,0.324243,0.390997154,-0.183796088,0.360679,0.38859716,-0.143527777,0.349291,0.392368806,-0.125595016,0.343464,0.39571724,-0.109012063,0.338168,0.416350227,-0.193893013,0.370121,0.435215707,-0.173780412,0.363429,0.444523117,-0.164233943,0.360354,0.452989324,-0.155667647,0.35764
0.397256791,-0.262070615,0.383687,0.382455617,-0.214229481,0.366612,0.376177802,-0.253707613,0.375925,0.353472184,-0.237346014,0.355579,0.323253694,-0.218016707,0.330433,0.302942573,-0.200522697,0.316163,0.349949564,-0.182317384,0.349339,0.321803446,-0.144143556,0.332234,0.312069331,-0.126973464,0.323681,0.301822962,-0.111264232,0.315906,0.372419616,-0.181107485,0.354826,0.358627123,-0.137384627,0.339785,0.354790811,-0.113623215,0.331011,0.352392976,-0.0972755669,0.324744,0.392012879,-0.18392162,0.360697,0.391093058,-0.144232243,0.349642,0.394421504,-0.12595617,0.343987,0.397564462,-0.109427501,0.338845,0.417145431,-0.193965918,0.370022,0.43774037,-0.174836234,0.363387,0.44725747,-0.165661566,0.360338,0.453474606,-0.156110281,0.357648
0.397885955,-0.262217549,0.383548,0.382876333,-0.214301482,0.366724,0.376846133,-0.253708132,0.375823,0.353788644,-0.237487726,0.35556,0.323619798,-0.218180377,0.330336,0.30535195,-0.201142188,0.315922,0.350519909,-0.182351991,0.349607,0.322198737,-0.143963224,0.33241,0.312674245,-0.126947282,0.323812,0.303160987,-0.11133357,0.315996,0.373083592,-0.181265669,0.355111,0.35921043,-0.13736853,0.339916,0.356485656,-0.113702196,0.331052,0.352981862,-0.097248463,0.32472,0.393753837,-0.184467745,0.360976,0.393086375,-0.144761383,0.350059,0.39656109,-0.126336402,0.344473,0.398651642,-0.109574139,0.339395,0.41882062,-0.194550477,0.370259,0.436909284,-0.174288346,0.363336,0.447360727,-0.165788155,0.360155,0.453542414,-0.156225466,0.357349
0.398330631,-0.262231511,0.383145,0.382968863,-0.214222575,0.36658,0.377396093,-0.253667516,0.375537,0.353902071,-0.237516641,0.355449,0.323815017,-0.218256492,0.330221,0.30549588,-0.20116859,0.315735,0.350863491,-0.182334124,0.349724,0.322397948,-0.143814276,0.332461,0.313010937,-0.126902604,0.32383,0.30361015,-0.111349488,0.315983,0.373394902,-0.181293578,0.355147,0.359547238,-0.137337857,0.339954,0.356834761,-0.113720296,0.331092,0.353488477,-0.0972461119,0.324762,0.39393109,-0.18450066,0.360924,0.393548588,-0.144872379,0.350086,0.396912923,-0.126331691,0.34454,0.399117053,-0.109583647,0.339499,0.418874336,-0.19463319,0.370066,0.437041967,-0.174426797,0.363184,0.44741599,-0.165867559,0.360022,0.453751883,-0.156371102,0.357232
0.398875358,-0.262229035,0.383263,0.383645302,-0.214262462,0.36665,0.377989205,-0.253649537,0.375678,0.354220535,-0.237696611,0.355608,0.32420208,-0.218477697,0.330391,0.30579014,-0.201313468,0.315799,0.351116655,-0.182312933,0.349801,0.322552413,-0.14371336,0.33251,0.313271972,-0.126878959,0.323864,0.303989479,-0.111372848,0.316004,0.373644331,-0.181318862,0.355182,0.359810969,-0.137324761,0.340003,0.357100333,-0.113742778,0.331149,0.353915445,-0.0972533767,0.324825,0.39410261,-0.184545206,0.360928,0.393885086,-0.144956782,0.350129,0.397169742,-0.126335631,0.344604,0.399487707,-0.109590874,0.339581,0.41904157,-0.194752139,0.370042,0.437246584,-0.174574973,0.36315,0.447526404,-0.165950573,0.359984,0.454340677,-0.156509475,0.35719
0.399465422,-0.262207794,0.383445,0.384293397,-0.214261135,0.366722,0.378603101,-0.253618061,0.375866,0.354514131,-0.237868284,0.355782,0.324552095,-0.218683767,0.330579,0.306055671,-0.201451594,0.315893,0.351290441,-0.182281086,0.349834,0.322658787,-0.143633471,0.332537,0.31346734,-0.126861011,0.323889,0.304298062,-0.111393362,0.316026,0.373811229,-0.181323255,0.355179,0.359992127,-0.137308586,0.340024,0.357283928,-0.113756894,0.331184,0.354250024,-0.0972572603,0.324869,0.394202828,-0.184565327,0.360905,0.394160789,-0.145030063,0.350191,0.397421597,-0.126360184,0.344709,0.400198367,-0.109498159,0.339725,0.419151158,-0.194834001,0.37001,0.437293783,-0.174646999,0.363026,0.447437016,-0.165948993,0.359817,0.454839877,-0.15670893,0.356985
0.399966486,-0.262104565,0.383291,0.385048093,-0.21427973,0.36687,0.379157139,-0.253511737,0.375844,0.354979572,-0.237925534,0.35596,0.324779961,-0.21868349,0.330804,0.305624008,-0.201129582,0.316279,0.352607456,-0.18238632,0.350281,0.323010095,-0.143576376,0.333035,0.313966251,-0.126913169,0.324412,0.305478597,-0.111618744,0.316573,0.375162268,-0.181492195,0.355535,0.36045232,-0.137246707,0.340267,0.357748669,-0.113785864,0.331361,0.355682485,-0.0972293174,0.324999,0.394729421,-0.184539328,0.361163,0.394617462,-0.144934182,0.350401,0.397809492,-0.126231129,0.344896,0.400865867,-0.109440817,0.33989,0.419647355,-0.194814423,0.370109,0.438644027,-0.174997749,0.363225,0.447375238,-0.165263009,0.360062,0.455851154,-0.15687616,0.357272
