sluyters/QuantumLeap/backend/src/datasets/dynamic/HandGestureDataset_SHREC2017_csv/Gesture12/finger_2/subject_21_essai_3_skeletons_world.csv
Wrist_x,Wrist_y,Wrist_z,Palm_x,Palm_y,Palm_z,thumb_base_x,thumb_base_y,thumb_base_z,thumb_first_joint_x,thumb_first_joint_y,thumb_first_joint_z,thumb_second_joint_x,thumb_second_joint_y,thumb_second_joint_z,thumb_tip_x,thumb_tip_y,thumb_tip_z,index_base_x,index_base_y,index_base_z,index_first_joint_x,index_first_joint_y,index_first_joint_z,index_second_joint_x,index_second_joint_y,index_second_joint_z,index_tip_x,index_tip_y,index_tip_z,middle_base_x,middle_base_y,middle_base_z,middle_first_joint_x,middle_first_joint_y,middle_first_joint_z,middle_second_joint_x,middle_second_joint_y,middle_second_joint_z,middle_tip_x,middle_tip_y,middle_tip_z,ring_base_x,ring_base_y,ring_base_z,ring_first_joint_x,ring_first_joint_y,ring_first_joint_z,ring_second_joint_x,ring_second_joint_y,ring_second_joint_z,ring_tip_x,ring_tip_y,ring_tip_z,pinky_base_x,pinky_base_y,pinky_base_z,pinky_first_joint_x,pinky_first_joint_y,pinky_first_joint_z,pinky_second_joint_x,pinky_second_joint_y,pinky_second_joint_z,pinky_tip_x,pinky_tip_y,pinky_tip_z,
0.328050805,-0.214344876,0.407261,0.328928632,-0.169332612,0.408929,0.31146483,-0.201662998,0.410234,0.29032371,-0.176496755,0.4133,0.268646882,-0.152177107,0.410478,0.259689052,-0.132829636,0.408112,0.310307208,-0.135198683,0.413588,0.306023717,-0.0961648117,0.411179,0.303797092,-0.0773892704,0.409974,0.301764544,-0.0602098057,0.408878,0.330087062,-0.131920631,0.410345,0.327574573,-0.0945911098,0.410481,0.325508064,-0.0710889548,0.410561,0.325233271,-0.0569305577,0.410617,0.346709294,-0.134283992,0.407543,0.34384523,-0.0970353049,0.40543,0.342239244,-0.0771727711,0.404348,0.340705782,-0.0587864427,0.403365,0.366210481,-0.14307904,0.403994,0.371055321,-0.114531051,0.405418,0.373332144,-0.100875811,0.406073,0.375412198,-0.088151857,0.40665
0.32768552,-0.213195786,0.407029,0.328605328,-0.168717312,0.40857,0.311407204,-0.201276364,0.410225,0.289809804,-0.175823145,0.412746,0.268669164,-0.151806004,0.410801,0.260022497,-0.132751986,0.409214,0.310068988,-0.134573237,0.413437,0.306267661,-0.0960902022,0.41161,0.304331081,-0.0774426848,0.410696,0.302565569,-0.0604183756,0.409865,0.329742556,-0.131826902,0.409878,0.328504812,-0.0948224213,0.411806,0.327202087,-0.0714389565,0.412931,0.327914844,-0.0567256087,0.414605,0.346141575,-0.134199826,0.406826,0.344940547,-0.097415967,0.406679,0.344166382,-0.0776081632,0.406604,0.343406054,-0.059211424,0.406535,0.365334241,-0.143005754,0.403,0.371638661,-0.115097505,0.406203,0.374603377,-0.101536021,0.407675,0.377284233,-0.088896918,0.408973
0.326427162,-0.211817204,0.406079,0.327229086,-0.167670806,0.407276,0.309724832,-0.199949795,0.408599,0.287862502,-0.173083724,0.410474,0.265455417,-0.148472928,0.406795,0.258541036,-0.131658216,0.407752,0.307703581,-0.13175054,0.411103,0.304609582,-0.0950712388,0.409736,0.302891869,-0.0765256001,0.409052,0.301266573,-0.0594873309,0.408431,0.328235667,-0.131023908,0.408296,0.324531412,-0.0926903415,0.407517,0.322369409,-0.0697188895,0.407062,0.320554285,-0.0526608122,0.406738,0.345096701,-0.133708081,0.405891,0.341099321,-0.0957131875,0.402582,0.338942231,-0.0756000274,0.400889,0.33704346,-0.0574532971,0.399349,0.364921366,-0.142911507,0.402879,0.3694441,-0.114501846,0.40393,0.371576107,-0.100653526,0.404412,0.373511058,-0.087902829,0.404838
0.32537443,-0.211298982,0.405129,0.326354623,-0.167616873,0.406422,0.309910388,-0.202286034,0.40825,0.287200764,-0.173709474,0.410312,0.264291023,-0.148778044,0.405943,0.257385214,-0.131693564,0.406991,0.307499572,-0.132222396,0.411057,0.301780627,-0.0947945275,0.406588,0.298799122,-0.0761389426,0.404353,0.291740691,-0.0621439233,0.402322,0.327481451,-0.131301295,0.407528,0.32301431,-0.0926126005,0.40592,0.320171509,-0.0692502253,0.404982,0.318342301,-0.0523606948,0.404313,0.34382071,-0.133812126,0.404521,0.339720966,-0.0958261253,0.401321,0.337541954,-0.0757781265,0.399684,0.335700802,-0.0575706344,0.398196,0.362866499,-0.14318849,0.400783,0.368487538,-0.116926983,0.402846,0.370645881,-0.101387087,0.403794,0.37357033,-0.0900346339,0.40463
0.328085462,-0.216669131,0.408064,0.324077634,-0.179428821,0.403686,0.31105298,-0.207386383,0.408812,0.281863189,-0.184995596,0.403961,0.259003383,-0.160155692,0.399862,0.251190612,-0.142021158,0.400487,0.300025646,-0.141963903,0.402156,0.29879345,-0.106734239,0.403186,0.297949532,-0.0884519767,0.403702,0.299644706,-0.0711156353,0.404862,0.321110596,-0.141715512,0.399941,0.315777547,-0.101888485,0.396916,0.312660494,-0.0786479884,0.395152,0.310334264,-0.0614490933,0.393892,0.338751128,-0.144934357,0.398461,0.333640718,-0.106031172,0.394653,0.331025689,-0.0861312706,0.392704,0.328649207,-0.0680431738,0.390933,0.360225563,-0.155066261,0.397344,0.364069224,-0.126512276,0.397978,0.365956671,-0.113081475,0.39827,0.368013311,-0.102538076,0.398527
0.328108964,-0.23079638,0.407066,0.322735225,-0.193815294,0.402219,0.312376805,-0.221063911,0.409572,0.283940895,-0.200274373,0.407148,0.25929727,-0.173304954,0.399597,0.24978462,-0.153327179,0.396783,0.30226376,-0.156455488,0.402617,0.296942718,-0.119627586,0.400856,0.294274677,-0.1011488,0.399975,0.291545731,-0.0841167977,0.399175,0.320972144,-0.155721906,0.398064,0.316474178,-0.115910924,0.395433,0.313687389,-0.0925783169,0.393899,0.311405971,-0.075633012,0.392803,0.336623837,-0.15858525,0.394697,0.332358239,-0.120506129,0.392649,0.330177355,-0.101048182,0.391601,0.328068428,-0.0831932209,0.390648,0.355625603,-0.168405298,0.391418,0.359278081,-0.139530244,0.392383,0.360706325,-0.125634443,0.392826,0.361820407,-0.113106403,0.393217
0.31845436,-0.241143252,0.399506,0.318338248,-0.204675439,0.398638,0.302622985,-0.23122315,0.401928,0.28105907,-0.211924767,0.404487,0.259603204,-0.186837289,0.40128,0.25083347,-0.167128208,0.399179,0.298259528,-0.168361255,0.401177,0.29612988,-0.132067313,0.399853,0.294787447,-0.113677475,0.399191,0.293044644,-0.0966337134,0.398589,0.318462684,-0.167988567,0.397892,0.313718484,-0.127758586,0.39379,0.31063178,-0.104055808,0.391397,0.308308667,-0.0869298779,0.389688,0.335067236,-0.171029149,0.395257,0.330275269,-0.131822425,0.390719,0.327824881,-0.111788982,0.388398,0.325888433,-0.0936756103,0.386633,0.354662815,-0.180767483,0.392269,0.35946831,-0.151641542,0.392706,0.361822018,-0.137754165,0.392907,0.363923932,-0.125336667,0.393084
0.316788963,-0.244016191,0.397997,0.317858684,-0.206924187,0.398217,0.300363378,-0.23921831,0.40036,0.279808953,-0.219166268,0.406206,0.253478728,-0.192646462,0.397006,0.244402632,-0.174181569,0.396546,0.298560084,-0.170699748,0.401298,0.296350234,-0.134510086,0.400053,0.294844593,-0.11605434,0.399431,0.293201324,-0.0990107137,0.398865,0.319090086,-0.170698208,0.398406,0.313514541,-0.130033393,0.393625,0.310050498,-0.106205801,0.390837,0.307446648,-0.0890400492,0.388845,0.335878494,-0.174010498,0.396008,0.330568932,-0.134538538,0.390911,0.327853204,-0.114381303,0.388303,0.32569517,-0.0961708562,0.3863,0.355570078,-0.186843126,0.393143,0.359553797,-0.157369321,0.392274,0.361625769,-0.143958348,0.391874,0.362992776,-0.128295218,0.391522
0.308405425,-0.273209077,0.396131,0.313149705,-0.231479991,0.396864,0.294405844,-0.263006008,0.399862,0.275430262,-0.237537732,0.404018,0.2528097,-0.210719033,0.397853,0.244785511,-0.191170553,0.396457,0.298322285,-0.19515884,0.401949,0.293483685,-0.156878763,0.397184,0.290700981,-0.137813025,0.394801,0.287562679,-0.120642035,0.392635,0.31722289,-0.195659643,0.397494,0.312637779,-0.15453438,0.39228,0.309637345,-0.130640888,0.389239,0.306984733,-0.113723099,0.387066,0.332433978,-0.19935449,0.39377,0.328390253,-0.159845206,0.388757,0.326257052,-0.13970012,0.386192,0.324165763,-0.121361709,0.38386,0.349756217,-0.209755473,0.389264,0.356451391,-0.181034397,0.390302,0.359453385,-0.167639222,0.390779,0.36144968,-0.156759711,0.391199
0.312616772,-0.282648712,0.397998,0.316057687,-0.248086369,0.397039,0.299403987,-0.280726601,0.400326,0.279655295,-0.255158058,0.403861,0.257776224,-0.22882809,0.399434,0.248520168,-0.208395417,0.395782,0.296474839,-0.211415259,0.39941,0.289595574,-0.172526913,0.393309,0.28573742,-0.153443932,0.390259,0.282217315,-0.135958017,0.387486,0.316660839,-0.211426402,0.396216,0.310282508,-0.169418808,0.389089,0.306385533,-0.145164513,0.384931,0.303331846,-0.128149346,0.381962,0.333245618,-0.214793276,0.393663,0.326895565,-0.174671089,0.386882,0.323647051,-0.154145929,0.383413,0.320693552,-0.135487947,0.380259,0.352766133,-0.224942623,0.390784,0.357316966,-0.195058313,0.390884,0.359445063,-0.18125804,0.39093,0.361291705,-0.169690356,0.39097
0.316489079,-0.299705538,0.399167,0.316420486,-0.264152266,0.396688,0.300499957,-0.289572018,0.40148,0.281115578,-0.273513908,0.406411,0.256532751,-0.247433311,0.399617,0.245138593,-0.227034142,0.394446,0.296337176,-0.226750923,0.398177,0.288745854,-0.187923556,0.391868,0.285086014,-0.168622071,0.388895,0.281759811,-0.151080804,0.386193,0.316180263,-0.226699849,0.394556,0.30743626,-0.184375163,0.386305,0.302142587,-0.160078074,0.381491,0.298216579,-0.142899393,0.378053,0.332539195,-0.230073608,0.391772,0.325250726,-0.18958062,0.383751,0.321521928,-0.168892175,0.379647,0.318415773,-0.150235973,0.376251,0.351924456,-0.24033643,0.388838,0.355765564,-0.210347642,0.389076,0.357553792,-0.196623189,0.389185,0.359133984,-0.184663715,0.389281
0.316256448,-0.329941468,0.400949,0.315062461,-0.285944004,0.397099,0.300356579,-0.319608658,0.403157,0.277051516,-0.292953423,0.40328,0.254256116,-0.267714913,0.399165,0.243600569,-0.247435474,0.395151,0.294476516,-0.248118433,0.397684,0.287037727,-0.208806838,0.390174,0.283327039,-0.189168669,0.38643,0.279953057,-0.171321626,0.383025,0.314039448,-0.248168105,0.393796,0.305143233,-0.205712731,0.385425,0.299841771,-0.181217783,0.380542,0.295828463,-0.164069009,0.377054,0.330240474,-0.251665361,0.390897,0.322535111,-0.210953346,0.382544,0.318563504,-0.19023847,0.378271,0.314952421,-0.171400702,0.374386,0.349562203,-0.262147284,0.388028,0.35478504,-0.231771085,0.387564,0.357170889,-0.217889316,0.387351,0.359204803,-0.206370686,0.387163
0.315264317,-0.338522615,0.401992,0.31204941,-0.300996532,0.396658,0.299277405,-0.327701316,0.40395,0.274085564,-0.306335159,0.402182,0.251623136,-0.279808217,0.397017,0.24384664,-0.26060474,0.396316,0.291540006,-0.261850398,0.396093,0.283117233,-0.22207162,0.385924,0.278905514,-0.202157513,0.38084,0.275076094,-0.184038409,0.376218,0.310838566,-0.262371552,0.392083,0.303465152,-0.219394855,0.381321,0.299145091,-0.194396525,0.375043,0.295840604,-0.176914729,0.370558,0.326868331,-0.266331857,0.389201,0.319532474,-0.2248062,0.378669,0.315761457,-0.203676462,0.37328,0.311840379,-0.18600629,0.368382,0.346080354,-0.277518085,0.386564,0.350771759,-0.246231328,0.384356,0.352904112,-0.231961749,0.383342,0.354459033,-0.220951153,0.382447
0.314604448,-0.354149061,0.403348,0.31209163,-0.315613531,0.396023,0.298226632,-0.342588572,0.404563,0.274826928,-0.321490309,0.403354,0.251434256,-0.295341108,0.397669,0.242736933,-0.276077975,0.396227,0.290178894,-0.275873321,0.393413,0.281909448,-0.235774148,0.384251,0.277947314,-0.215904153,0.379903,0.274345617,-0.197850156,0.37595,0.309859089,-0.276899799,0.389756,0.301372067,-0.233380095,0.378521,0.29625558,-0.208497819,0.371968,0.292600848,-0.190696537,0.367287,0.326266806,-0.281306673,0.387322,0.31776655,-0.239397095,0.376142,0.313414939,-0.21805254,0.370422,0.30913098,-0.200110855,0.365222,0.346027304,-0.293046993,0.385504,0.348600915,-0.260638091,0.381835,0.349758765,-0.245875969,0.38015,0.3503713,-0.236573756,0.378663
0.313549872,-0.36379253,0.401737,0.311690665,-0.318745291,0.395041,0.298200891,-0.353010945,0.404015,0.273932341,-0.32761649,0.401258,0.251194091,-0.301924666,0.396256,0.242799323,-0.279250533,0.395614,0.292142141,-0.283166478,0.394124,0.282607514,-0.242088077,0.383186,0.276852903,-0.223494291,0.377718,0.271597424,-0.206386186,0.372746,0.310698875,-0.28386684,0.389322,0.300869218,-0.240104806,0.377536,0.295056744,-0.214834005,0.37066,0.290373461,-0.197943892,0.365749,0.326105028,-0.288018817,0.385897,0.317427322,-0.246480075,0.375563,0.312939512,-0.225405955,0.370276,0.309087917,-0.203286226,0.36547,0.344558362,-0.299490307,0.382819,0.347736496,-0.26791534,0.381164,0.349178593,-0.253521681,0.380403,0.350702654,-0.239812364,0.379732
0.316324451,-0.370901793,0.406219,0.311371839,-0.331560553,0.396107,0.299330499,-0.358333581,0.406359,0.273663068,-0.334576501,0.401599,0.250636927,-0.30787259,0.394402,0.242550474,-0.284738972,0.39331,0.288334266,-0.290738449,0.390602,0.278579044,-0.250066756,0.380014,0.273882523,-0.229929335,0.374964,0.269758847,-0.208374687,0.370398,0.308383001,-0.292738087,0.387485,0.298585871,-0.248214489,0.374525,0.292631109,-0.223234434,0.366965,0.288221714,-0.205931881,0.361565,0.325145249,-0.297968711,0.385714,0.316228405,-0.256066339,0.373401,0.311808944,-0.234767796,0.367271,0.307789904,-0.215410186,0.361697,0.34541603,-0.310710974,0.385083,0.34796088,-0.277861631,0.379616,0.349128536,-0.262987214,0.377104,0.350128161,-0.251860175,0.374887
0.266710514,-0.327181101,0.344718,0.281191415,-0.303845827,0.357704,0.250302395,-0.317731343,0.346387,0.237502005,-0.302647261,0.357188,0.233165486,-0.301441309,0.375797,0.238061243,-0.292658771,0.387975,0.270602417,-0.28392791,0.367094,0.273380354,-0.258881547,0.371506,0.274749976,-0.245198409,0.373712,0.275983394,-0.232032073,0.375718,0.293132932,-0.287329832,0.368793,0.297663225,-0.259629591,0.37388,0.3002591,-0.242025069,0.376848,0.302123146,-0.228620715,0.378968,0.311134106,-0.291617598,0.369172,0.316910096,-0.262338739,0.37361,0.319259141,-0.248350074,0.375881,0.32141763,-0.234767177,0.377945,0.331520967,-0.299690817,0.36775,0.345417046,-0.275995109,0.372458,0.347324451,-0.268524564,0.374621,0.349003119,-0.261495474,0.37653
0.250812301,-0.30682312,0.323619,0.277176573,-0.300569441,0.351777,0.24049939,-0.305086762,0.332338,0.234453371,-0.300327114,0.352746,0.230350228,-0.305706425,0.372819,0.236486174,-0.293823238,0.385427,0.280565401,-0.300425914,0.378504,0.292903729,-0.286100797,0.397831,0.299408154,-0.277293079,0.408142,0.305362813,-0.268043633,0.417697,0.300303294,-0.300148551,0.375802,0.316057732,-0.284049743,0.39667,0.325493349,-0.271927005,0.409258,0.333053407,-0.257201849,0.418546,0.314644648,-0.30010045,0.371373,0.332026956,-0.28337818,0.391246,0.340959218,-0.272551402,0.401415,0.349210007,-0.258206018,0.410705,0.327304042,-0.297756479,0.362088,0.351549976,-0.282345406,0.378157,0.357908411,-0.277765321,0.38554,0.363484543,-0.273046759,0.392054
0.314503647,-0.381978884,0.40071,0.310068306,-0.345440513,0.390894,0.29999504,-0.38242829,0.400861,0.270791974,-0.351117662,0.394423,0.246582147,-0.326550201,0.38965,0.236382738,-0.307217679,0.387647,0.28404152,-0.306238931,0.385565,0.272402688,-0.263132807,0.37123,0.267831887,-0.244175706,0.365828,0.263670803,-0.226799385,0.360917,0.304203391,-0.302951061,0.382513,0.292053626,-0.2589761,0.367547,0.284260634,-0.237899007,0.358816,0.278892033,-0.221318227,0.35258,0.32153244,-0.307942956,0.38077,0.309524423,-0.26509193,0.366208,0.303379329,-0.243262396,0.358757,0.296384633,-0.238027402,0.351984,0.342348522,-0.318194363,0.380123,0.339829359,-0.282084335,0.371816,0.340747624,-0.266009758,0.368,0.33755964,-0.266513469,0.364632
0.314843274,-0.380634496,0.401886,0.307083851,-0.342703111,0.389743,0.297191972,-0.373918618,0.401765,0.265713758,-0.348754958,0.395599,0.238528457,-0.324990737,0.388619,0.232748984,-0.307506689,0.388455,0.278261498,-0.303158931,0.382765,0.263107301,-0.255416958,0.366958,0.255332975,-0.24137176,0.359054,0.248200241,-0.228338279,0.351869,0.298552226,-0.301888763,0.379372,0.284944217,-0.256186779,0.362708,0.276734695,-0.233241619,0.352987,0.27222077,-0.21663984,0.346044,0.315910431,-0.304559076,0.37753,0.303537712,-0.262638926,0.362523,0.297209369,-0.241318198,0.354845,0.292977509,-0.22245317,0.347959,0.339071735,-0.313987391,0.377097,0.336243183,-0.279448744,0.369194,0.335883951,-0.267448025,0.365563,0.335544679,-0.259234194,0.36236
0.314674866,-0.382103023,0.401986,0.305191973,-0.341359775,0.388719,0.296659389,-0.374397778,0.401638,0.266160304,-0.349153621,0.396841,0.238753373,-0.326133508,0.389946,0.228005858,-0.307579998,0.388619,0.275927685,-0.301017262,0.380817,0.261887358,-0.257444945,0.366985,0.254969153,-0.24068624,0.360069,0.24774967,-0.220945327,0.353781,0.295959614,-0.300261209,0.377376,0.278791501,-0.255485172,0.359302,0.269575017,-0.230301655,0.348759,0.262990194,-0.212289177,0.341228,0.313236757,-0.303382527,0.375581,0.297372026,-0.260636828,0.358913,0.289908492,-0.239458179,0.350386,0.283122634,-0.220178709,0.342634,0.333721646,-0.313810523,0.375365,0.333603576,-0.280170623,0.368573,0.334699008,-0.267113373,0.365452,0.335088407,-0.254547591,0.362699
0.312512107,-0.384565639,0.400267,0.300729711,-0.339449955,0.387509,0.295475429,-0.374914123,0.401529,0.265844218,-0.34999442,0.39777,0.238392989,-0.325566103,0.389992,0.22684009,-0.306200474,0.386972,0.268712949,-0.3006765,0.381894,0.256845665,-0.257314468,0.365189,0.244868625,-0.240489511,0.356836,0.236145002,-0.22579673,0.349243,0.286939985,-0.299305632,0.376581,0.27473187,-0.254307891,0.359515,0.261847071,-0.229521479,0.34956,0.257639606,-0.214398517,0.342449,0.302843252,-0.301872049,0.373204,0.292366775,-0.258863779,0.358038,0.281801801,-0.238426875,0.350278,0.277895612,-0.220748551,0.343224,0.323315363,-0.311704019,0.371044,0.321996545,-0.277964821,0.363966,0.321733448,-0.26279704,0.361108,0.326608946,-0.250972547,0.360309
0.310060255,-0.375922615,0.400159,0.288796809,-0.328345899,0.386773,0.290786148,-0.370132435,0.399661,0.251428157,-0.338050458,0.392894,0.22408006,-0.314138467,0.385683,0.209753671,-0.294100955,0.379221,0.257758402,-0.288602281,0.378583,0.241207195,-0.24781113,0.364077,0.232607424,-0.2283865,0.356824,0.224769629,-0.21065278,0.35023,0.277863186,-0.287375567,0.375275,0.259545807,-0.243906392,0.359083,0.248868545,-0.218589956,0.349637,0.240976319,-0.201491416,0.34289,0.295410702,-0.290067567,0.373593,0.278526499,-0.247400658,0.355872,0.269690754,-0.226980618,0.346806,0.261646862,-0.208330939,0.338563,0.318015961,-0.300072764,0.373518,0.313896018,-0.264801322,0.364513,0.311984035,-0.248741584,0.360375,0.309818958,-0.240069683,0.356724
0.301441025,-0.365293418,0.395133,0.278031798,-0.314658285,0.384097,0.276593692,-0.357384317,0.395541,0.244326155,-0.327979182,0.392649,0.216727045,-0.304829944,0.386421,0.201663761,-0.285386053,0.379884,0.245564002,-0.278452855,0.378383,0.231990073,-0.234613668,0.365457,0.222471896,-0.22049805,0.358994,0.213637133,-0.207330709,0.353119,0.265235581,-0.275134801,0.374637,0.246522843,-0.230438929,0.358623,0.235661891,-0.204612454,0.349281,0.226632636,-0.192290952,0.342609,0.28261147,-0.275990827,0.372413,0.266362423,-0.230948198,0.357156,0.25698815,-0.213354771,0.34935,0.248386598,-0.19707934,0.342254,0.305317861,-0.283607351,0.371361,0.298705979,-0.248263275,0.360269,0.296179641,-0.232509788,0.355796,0.293990786,-0.218645254,0.351898
0.288312203,-0.352336915,0.391769,0.267664065,-0.300195516,0.38112,0.26968664,-0.346024512,0.393503,0.23526709,-0.318146597,0.390518,0.20769717,-0.298085062,0.387117,0.193267207,-0.280357203,0.384273,0.233682316,-0.267013286,0.37728,0.216318743,-0.223367458,0.361995,0.205354831,-0.209176803,0.354352,0.195191204,-0.195985227,0.347404,0.251946241,-0.260539453,0.371991,0.232836659,-0.218626818,0.359302,0.221621253,-0.19427906,0.3519,0.213601103,-0.176859351,0.346613,0.268308265,-0.258796059,0.368465,0.248708845,-0.216327491,0.352664,0.237900727,-0.199463494,0.344579,0.227944058,-0.183826929,0.337229,0.290204374,-0.263301014,0.365821,0.281082422,-0.228903594,0.352805,0.276432686,-0.216081593,0.346824,0.272008416,-0.207209709,0.341547
0.281446152,-0.341117924,0.392975,0.255964622,-0.290925976,0.381384,0.261476587,-0.334918062,0.393397,0.224607725,-0.308866997,0.39073,0.19629542,-0.288518745,0.386185,0.180188702,-0.270240623,0.380759,0.21944093,-0.259057258,0.375376,0.201468796,-0.217736019,0.363308,0.190316987,-0.20175823,0.357274,0.179989044,-0.186932325,0.351788,0.238677299,-0.253339288,0.371449,0.216435835,-0.210544029,0.356401,0.202968116,-0.18688604,0.347622,0.193311125,-0.169902448,0.341352,0.256073035,-0.252056162,0.369118,0.234349972,-0.21086443,0.355604,0.222600607,-0.192020916,0.34869,0.211835263,-0.174718518,0.342404,0.279470595,-0.256826057,0.368021,0.267103508,-0.220273529,0.354654,0.260877961,-0.209069277,0.348512,0.255346359,-0.19900442,0.343093
0.271644629,-0.336433968,0.395793,0.247950124,-0.289594926,0.382164,0.251463379,-0.329145699,0.395515,0.213072601,-0.302687137,0.389812,0.18515096,-0.281813636,0.38483,0.170941794,-0.26298765,0.380854,0.213388018,-0.253001114,0.374129,0.190670345,-0.215289298,0.363696,0.178987595,-0.196961647,0.358479,0.167596348,-0.181272761,0.353737,0.235582717,-0.251213742,0.37048,0.213254011,-0.207853946,0.354527,0.199870045,-0.183597762,0.34522,0.189822831,-0.167388964,0.338573,0.253192835,-0.251168475,0.368537,0.22884539,-0.208864208,0.356258,0.215801839,-0.192597836,0.349976,0.203722251,-0.17750042,0.344265,0.27682511,-0.257692233,0.36819,0.262731353,-0.224796169,0.36172,0.258315406,-0.210078803,0.359787,0.254451518,-0.197123974,0.358125
0.253607652,-0.32824472,0.39081,0.228892019,-0.278761577,0.381577,0.226528981,-0.317877942,0.392376,0.196047081,-0.294831235,0.390037,0.169491248,-0.274072824,0.386814,0.155747585,-0.256005541,0.383973,0.19668775,-0.244870628,0.378326,0.176178508,-0.206115333,0.367122,0.164307641,-0.188810999,0.361519,0.153391106,-0.172887223,0.356426,0.215016364,-0.239712621,0.373662,0.191579101,-0.198052755,0.359693,0.177851214,-0.174001388,0.351544,0.166136426,-0.160768698,0.345724,0.231415734,-0.238997333,0.370541,0.210262204,-0.197682896,0.357139,0.197757787,-0.179989135,0.350282,0.186225123,-0.163632791,0.344049,0.25322554,-0.244678845,0.368172,0.241448921,-0.210146104,0.357668,0.236355465,-0.194584273,0.353304,0.231861412,-0.180852117,0.349454
0.237565742,-0.318331812,0.387429,0.214761104,-0.270513386,0.380174,0.220502932,-0.313362996,0.39107,0.186256354,-0.290290964,0.392645,0.159870128,-0.270761105,0.390564,0.145954168,-0.253385664,0.388455,0.184230459,-0.239745289,0.380632,0.163246733,-0.202878053,0.372009,0.150552418,-0.186406078,0.367698,0.138855636,-0.171227016,0.363778,0.2000053,-0.232727222,0.373954,0.175390036,-0.192691613,0.362185,0.16093479,-0.169571198,0.355319,0.147824938,-0.156869358,0.350415,0.214409159,-0.230364941,0.369022,0.192493641,-0.190621457,0.357727,0.178705232,-0.173579811,0.351948,0.165962659,-0.157815823,0.346695,0.234040141,-0.233900779,0.36423,0.220389964,-0.199702756,0.354225,0.214523234,-0.184395515,0.350258,0.209346977,-0.170889719,0.346758
0.217479211,-0.298387274,0.385918,0.197519091,-0.255052505,0.378337,0.199003198,-0.294745965,0.388727,0.167922526,-0.275500417,0.388406,0.142041982,-0.259303432,0.388742,0.124405744,-0.242260247,0.383051,0.163212824,-0.226096306,0.377572,0.146211133,-0.189130167,0.370892,0.132942059,-0.174310448,0.367552,0.120542228,-0.16046807,0.364515,0.180430374,-0.217956114,0.371839,0.155549927,-0.177498482,0.359536,0.139683634,-0.155293774,0.35236,0.127128683,-0.140836325,0.347234,0.196140941,-0.214620565,0.36771,0.171456967,-0.176931282,0.357285,0.157871517,-0.158696065,0.351951,0.144672025,-0.142957984,0.347102,0.217558261,-0.216861121,0.363913,0.206519678,-0.185218782,0.359948,0.201463636,-0.170732537,0.358127,0.196277655,-0.158293471,0.356519
0.209186519,-0.297500906,0.387309,0.183146415,-0.250924154,0.379497,0.181929759,-0.29040006,0.389938,0.15272682,-0.269533536,0.390101,0.127794488,-0.252493684,0.391037,0.116133337,-0.236408282,0.391366,0.15097756,-0.219491661,0.378378,0.134945337,-0.1812312,0.369569,0.120437944,-0.168805299,0.365164,0.106718318,-0.157086457,0.36116,0.168649787,-0.212838412,0.372801,0.145586621,-0.171587083,0.360274,0.129863802,-0.14966513,0.352966,0.117104327,-0.136067612,0.347747,0.184501696,-0.210811401,0.368819,0.160857299,-0.172099307,0.35751,0.147010163,-0.154148564,0.351724,0.133723199,-0.138430677,0.346464,0.205670209,-0.21475878,0.365229,0.189822286,-0.183400981,0.359046,0.182546397,-0.169005282,0.356206,0.176182964,-0.156357048,0.353808
0.194364113,-0.289387693,0.384364,0.170808959,-0.244309392,0.380189,0.177131469,-0.286112405,0.38836,0.14389431,-0.266328786,0.392487,0.120040065,-0.249707043,0.393828,0.106498592,-0.23369363,0.393382,0.138708674,-0.218184444,0.382829,0.119184422,-0.182330209,0.376462,0.10676752,-0.165800913,0.373278,0.0953203407,-0.150565382,0.370384,0.154249153,-0.209014048,0.37661,0.130120324,-0.170766848,0.367948,0.113563393,-0.149994598,0.362895,0.101616383,-0.135006787,0.359286,0.168624518,-0.204650959,0.371817,0.146343022,-0.166823915,0.362688,0.133235678,-0.148624167,0.358017,0.12097281,-0.132117359,0.35377,0.188501408,-0.205401429,0.366748,0.176560829,-0.172438252,0.36027,0.168562934,-0.158842423,0.357293,0.161426534,-0.146698346,0.354666
0.190749197,-0.286739652,0.38447,0.167683937,-0.242225476,0.380476,0.16995015,-0.28123172,0.388886,0.137782461,-0.262691,0.393194,0.112651199,-0.246341008,0.393761,0.101280083,-0.231872091,0.391939,0.132811423,-0.214048386,0.383741,0.113223719,-0.178997944,0.378045,0.09920158,-0.1637935,0.375196,0.0861813391,-0.149684345,0.372607,0.14819189,-0.204588257,0.377051,0.123193631,-0.166552139,0.368139,0.107279027,-0.145130828,0.36294,0.0982627034,-0.132639853,0.359226,0.162369543,-0.199998139,0.371856,0.139566923,-0.164250495,0.365182,0.126046518,-0.146967187,0.361768,0.113406582,-0.13124737,0.358664,0.181912194,-0.200480099,0.366286,0.169628495,-0.170317711,0.363949,0.164257366,-0.156763152,0.36342,0.159519179,-0.144806137,0.362953
0.185390056,-0.282982836,0.387301,0.158488818,-0.238426177,0.382847,0.168751015,-0.281429616,0.392444,0.132428742,-0.262461689,0.395917,0.105019172,-0.248770627,0.397002,0.0921077222,-0.234193367,0.397538,0.125136646,-0.21403674,0.386762,0.1070055,-0.177840986,0.379468,0.0907964489,-0.164748718,0.37582,0.0755821912,-0.152488035,0.372505,0.139851289,-0.204015378,0.379029,0.114451128,-0.166603508,0.370941,0.0997723703,-0.144981279,0.36659,0.0892983071,-0.129553756,0.363524,0.153655551,-0.198908235,0.37301,0.13269836,-0.163464588,0.367379,0.11808163,-0.147355049,0.364498,0.104553704,-0.132447862,0.361879,0.173035024,-0.198643363,0.366533,0.15957698,-0.1705275,0.366246,0.153030246,-0.157683553,0.366115,0.147242156,-0.146328415,0.365998
0.17982057,-0.278809484,0.38771,0.155954986,-0.236847254,0.383879,0.163709388,-0.277795592,0.393404,0.127622948,-0.260084222,0.397553,0.101570948,-0.245848538,0.398553,0.0894097336,-0.233250436,0.398718,0.121551461,-0.211199549,0.388834,0.0996266814,-0.178146086,0.384744,0.0867417426,-0.162378801,0.382699,0.0749134156,-0.147907115,0.380839,0.134572014,-0.200364124,0.380595,0.110001046,-0.163753826,0.37402,0.0945219814,-0.142865504,0.370185,0.083412096,-0.1278738,0.367446,0.147021147,-0.194539554,0.374112,0.123729292,-0.159694049,0.368306,0.110238509,-0.142584287,0.365336,0.0978922134,-0.126926144,0.362636,0.164899617,-0.193386973,0.366996,0.15435831,-0.164386072,0.366953,0.149731599,-0.15131196,0.36742,0.145647669,-0.139772532,0.367831
0.178640242,-0.277991697,0.388068,0.155066291,-0.236256048,0.384121,0.162676056,-0.277042605,0.393789,0.127697746,-0.260236653,0.397786,0.101622427,-0.245973143,0.398755,0.0883986109,-0.2326561,0.398638,0.121617421,-0.211314156,0.389045,0.0996911582,-0.178261379,0.384993,0.0868024869,-0.162492514,0.382967,0.0749696735,-0.148018189,0.381125,0.134622576,-0.200439406,0.380738,0.110033104,-0.163801548,0.374129,0.0945447064,-0.142899852,0.370274,0.0834288944,-0.127899553,0.36752,0.147058874,-0.194589475,0.374208,0.123764902,-0.159740009,0.368412,0.110271701,-0.142627218,0.365446,0.0979229872,-0.126966045,0.36275,0.164925678,-0.193417536,0.367054,0.154386493,-0.164416087,0.36702,0.149762163,-0.151342847,0.367495,0.145680534,-0.139804071,0.367914
0.181253373,-0.278987975,0.388151,0.155348238,-0.235614508,0.383581,0.162786623,-0.276069713,0.39329,0.129938007,-0.260768513,0.39723,0.104638549,-0.246466551,0.396554,0.0883394406,-0.231221595,0.396914,0.122340871,-0.211935096,0.387428,0.103057659,-0.178771872,0.384691,0.0933349242,-0.16232719,0.383322,0.0778075137,-0.148078024,0.382078,0.136141006,-0.201281142,0.379665,0.11103604,-0.163731291,0.373481,0.0958932425,-0.14294899,0.369873,0.085078932,-0.129870583,0.367297,0.1477541,-0.194417939,0.37363,0.124192918,-0.160066154,0.368368,0.111087142,-0.142966444,0.365676,0.0991172744,-0.127348778,0.363228,0.166349079,-0.19324364,0.367151,0.155522069,-0.163730617,0.366317,0.150607175,-0.150257187,0.366042,0.145782938,-0.138491525,0.365801
0.179857459,-0.277286346,0.389716,0.155696559,-0.23483978,0.383711,0.162794881,-0.275333277,0.393511,0.13098498,-0.257295164,0.396432,0.105100547,-0.240964016,0.3954,0.089797096,-0.225329703,0.394062,0.120983759,-0.209016967,0.385067,0.105606811,-0.169515936,0.378592,0.0974097459,-0.151143533,0.375354,0.0843924615,-0.146637617,0.37241,0.135121547,-0.198838528,0.378563,0.113059478,-0.160577671,0.370703,0.0997642286,-0.135914625,0.366118,0.0881783349,-0.125346696,0.362843,0.150514872,-0.192865474,0.373678,0.132836419,-0.15031355,0.361519,0.118165708,-0.133753925,0.355298,0.102830674,-0.125034067,0.349643,0.170733748,-0.192150681,0.368761,0.162277762,-0.158444276,0.364482,0.157996659,-0.143686614,0.362515,0.154225966,-0.130690487,0.360781
0.181642628,-0.278023662,0.388937,0.158060905,-0.233726122,0.381848,0.164210025,-0.275590793,0.392191,0.130965664,-0.25431613,0.392031,0.105795494,-0.239299195,0.393273,0.0910860169,-0.223560518,0.391945,0.12642403,-0.20629059,0.381916,0.10731983,-0.169736967,0.37713,0.0991667874,-0.151965442,0.374737,0.0851340619,-0.146115697,0.372562,0.143033064,-0.197121727,0.375771,0.120628056,-0.158713781,0.368181,0.106166177,-0.136957347,0.363753,0.091255099,-0.120974111,0.360591,0.158409436,-0.192854601,0.371265,0.135951316,-0.1552475,0.362079,0.121774601,-0.135436335,0.35738,0.10873473,-0.125806395,0.353107,0.179709707,-0.193834281,0.366952,0.169570706,-0.162576426,0.36391,0.164928397,-0.148270462,0.362512,0.157400856,-0.137105804,0.361279
0.18680938,-0.279211343,0.386663,0.175701252,-0.23443036,0.379427,0.171059603,-0.276210638,0.389135,0.149425637,-0.256639938,0.393225,0.117092838,-0.23569819,0.383267,0.100296986,-0.218079013,0.378402,0.140100027,-0.206937487,0.378436,0.122906354,-0.171779083,0.374302,0.113981385,-0.15439625,0.372235,0.0972918605,-0.149154944,0.370356,0.156371068,-0.199046265,0.373224,0.13342081,-0.160232029,0.364654,0.118295949,-0.138532401,0.359654,0.107433053,-0.122945365,0.356084,0.171671086,-0.195754162,0.369497,0.148805354,-0.158414595,0.36081,0.137221441,-0.139510132,0.356366,0.121447238,-0.128967248,0.352326,0.193148917,-0.197832747,0.366126,0.181146607,-0.163789138,0.357818,0.174448554,-0.148881845,0.354,0.167941489,-0.136098269,0.350632
0.204212091,-0.27441995,0.385431,0.188987902,-0.231554587,0.378824,0.185702759,-0.271718913,0.388056,0.158425738,-0.254327676,0.385414,0.133359599,-0.24146915,0.387478,0.126591195,-0.232542323,0.395518,0.153263244,-0.205367573,0.378378,0.129902593,-0.168384667,0.36772,0.118240561,-0.149923192,0.362391,0.107787053,-0.133327977,0.358002,0.170102961,-0.195268162,0.37316,0.146232536,-0.156016657,0.363302,0.132518958,-0.133490811,0.357552,0.11948247,-0.126004768,0.353444,0.185693407,-0.190215763,0.369379,0.165229329,-0.152143353,0.36095,0.154926435,-0.133011553,0.356638,0.141945882,-0.124160021,0.352718,0.207373806,-0.190256008,0.365855,0.197954229,-0.154985323,0.355655,0.189887426,-0.144529263,0.350968,0.18259075,-0.135027252,0.346833
0.212670431,-0.271754825,0.377306,0.200970212,-0.230312921,0.370291,0.193498594,-0.267902546,0.378892,0.164903007,-0.247983346,0.373738,0.138307973,-0.231773486,0.373488,0.125349769,-0.217089253,0.374541,0.167397025,-0.199387529,0.368317,0.149723741,-0.17185403,0.372763,0.140900969,-0.158108217,0.374987,0.132887544,-0.145623208,0.377008,0.186046283,-0.192552493,0.364277,0.162237343,-0.15179182,0.352091,0.148505914,-0.128321181,0.344983,0.136664054,-0.121094296,0.339905,0.202794372,-0.190330698,0.361498,0.183606232,-0.154434871,0.357344,0.173937822,-0.136223472,0.35546,0.165156743,-0.119683933,0.353748,0.22519069,-0.193995988,0.359216,0.215180133,-0.160704079,0.352627,0.208382973,-0.147751793,0.3496,0.202271925,-0.136058939,0.346928
0.221389046,-0.274974509,0.369766,0.21754446,-0.236416332,0.366909,0.209325781,-0.273877396,0.369907,0.182377497,-0.253055085,0.372118,0.153708766,-0.228994609,0.363631,0.139565712,-0.20883812,0.355964,0.188047781,-0.204781312,0.365473,0.165631338,-0.172402393,0.360442,0.154189674,-0.155864997,0.357926,0.143645374,-0.140618106,0.355639,0.208166373,-0.199857634,0.36446,0.18626717,-0.161208528,0.355352,0.173409268,-0.138495169,0.350039,0.163803217,-0.132460585,0.346244,0.225857592,-0.199023957,0.363848,0.199875064,-0.164046691,0.3555,0.186574404,-0.146140691,0.351229,0.175745073,-0.138293926,0.347346,0.24888655,-0.20413776,0.363533,0.243833155,-0.181292723,0.371166,0.242464128,-0.171595018,0.376051,0.241296819,-0.163074849,0.380418
0.237488177,-0.27716837,0.368038,0.233552917,-0.229600667,0.363833,0.227038134,-0.26751712,0.367335,0.200173871,-0.248730368,0.370197,0.169315405,-0.225790852,0.35842,0.153374663,-0.20638275,0.351146,0.202342308,-0.197879362,0.360584,0.180611007,-0.165501606,0.350876,0.169395585,-0.148731676,0.346022,0.158974074,-0.13311153,0.341609,0.222292111,-0.192736853,0.360229,0.199587465,-0.155084814,0.349818,0.186088585,-0.132619545,0.343745,0.176321015,-0.116325003,0.339408,0.240169361,-0.191705351,0.360264,0.212670553,-0.156189447,0.350519,0.197941826,-0.141192164,0.345533,0.187285975,-0.135366481,0.341001,0.263979851,-0.196644225,0.360906,0.257794348,-0.164805532,0.356158,0.252043954,-0.153056969,0.353977,0.246837733,-0.142350743,0.352052
0.25309623,-0.277584765,0.369729,0.244102284,-0.235473805,0.365426,0.232324623,-0.269716521,0.368349,0.20672859,-0.249485881,0.365683,0.177898374,-0.227498235,0.359329,0.160351231,-0.209677349,0.356292,0.211121349,-0.202155293,0.361274,0.191683255,-0.168105088,0.351354,0.181701623,-0.150531368,0.346394,0.171812888,-0.136452849,0.341885,0.232614128,-0.198540914,0.361738,0.211984989,-0.157585708,0.351113,0.205671442,-0.13790979,0.354424,0.200977992,-0.123388767,0.356788,0.251731835,-0.198858474,0.362454,0.231938845,-0.159927742,0.352258,0.221791269,-0.139955408,0.347041,0.212553806,-0.121765237,0.342299,0.276814066,-0.205494426,0.363916,0.267892066,-0.171393278,0.357136,0.26304717,-0.15692275,0.354021,0.258524658,-0.145071654,0.351273
0.266941883,-0.278889043,0.368893,0.263413599,-0.23531104,0.363217,0.253704369,-0.270536087,0.364345,0.220933898,-0.245074087,0.357406,0.19183138,-0.221775524,0.349028,0.180681669,-0.20724181,0.351381,0.226961555,-0.199644165,0.354332,0.212649189,-0.166410833,0.354833,0.205526997,-0.149826372,0.355134,0.199052857,-0.134751534,0.355407,0.251904011,-0.197626744,0.358352,0.232412943,-0.155498649,0.346082,0.221727067,-0.131402169,0.339931,0.21408329,-0.114153601,0.335538,0.273517397,-0.199377297,0.3621,0.253201247,-0.158977514,0.35088,0.242922926,-0.138643992,0.345139,0.238283078,-0.12649544,0.33992,0.301046161,-0.207745169,0.367344,0.299726491,-0.176836938,0.367101,0.299580894,-0.162965921,0.367551,0.299451773,-0.15073279,0.367947
0.298997434,-0.280098176,0.369954,0.284566326,-0.234986491,0.363531,0.276743429,-0.271586447,0.367398,0.246855192,-0.247307931,0.363163,0.216156163,-0.220761322,0.350372,0.203918567,-0.203708309,0.349847,0.249128805,-0.199777302,0.356715,0.229101523,-0.160479972,0.345122,0.220095673,-0.146728266,0.339326,0.211679248,-0.133735147,0.334057,0.272309083,-0.196807134,0.358026,0.252691136,-0.154777241,0.345416,0.241822079,-0.132671776,0.338061,0.233940479,-0.11647873,0.332807,0.292693135,-0.197788258,0.359604,0.286521801,-0.162651197,0.36204,0.283368513,-0.14469358,0.363286,0.280504633,-0.128379942,0.364419,0.319143664,-0.205353393,0.362388,0.31833699,-0.174051852,0.361521,0.318791888,-0.160206204,0.36206,0.319193595,-0.147992212,0.362536
0.306840975,-0.28002458,0.369255,0.302040784,-0.2344074,0.362628,0.284614885,-0.271004666,0.366693,0.262411277,-0.246470773,0.362486,0.230073673,-0.218305271,0.344626,0.216406482,-0.199153046,0.340141,0.267450607,-0.197800536,0.355689,0.249152991,-0.159231567,0.343692,0.239998233,-0.139925603,0.337694,0.233935763,-0.133494967,0.332241,0.290797874,-0.195665339,0.356947,0.273607496,-0.154053182,0.347183,0.263641903,-0.13002422,0.341487,0.258762643,-0.1214147,0.337419,0.311301473,-0.197379361,0.358499,0.293714005,-0.157519426,0.346196,0.284682462,-0.136964342,0.339902,0.276450253,-0.118174535,0.33418,0.337844542,-0.205929903,0.36128,0.331191818,-0.172151561,0.355331,0.329356255,-0.15836533,0.352598,0.327750676,-0.145946885,0.350186
0.322320957,-0.28062718,0.368972,0.317832218,-0.23418087,0.362813,0.299827668,-0.270469094,0.366078,0.274481981,-0.242858166,0.357145,0.242391799,-0.213260068,0.338016,0.229072356,-0.194475437,0.334722,0.284083015,-0.196403401,0.355722,0.267977137,-0.157245127,0.343989,0.259938275,-0.137732539,0.338123,0.255478328,-0.130399555,0.33279,0.30791525,-0.195313183,0.357533,0.292551102,-0.154616654,0.345088,0.283532741,-0.130471284,0.337828,0.27722698,-0.11332071,0.332642,0.32866353,-0.197888338,0.359503,0.314433704,-0.159100844,0.347473,0.307114604,-0.138863202,0.341319,0.300434845,-0.120210079,0.335724,0.355285425,-0.207457176,0.362712,0.351689911,-0.17518977,0.359017,0.352075763,-0.16203341,0.35732,0.352468624,-0.150105195,0.355822
0.342806399,-0.284239889,0.374738,0.338399062,-0.238339773,0.366416,0.328328775,-0.273635832,0.37105,0.298998849,-0.249784822,0.366527,0.267394036,-0.223797936,0.354025,0.255641955,-0.204947588,0.339458,0.303764472,-0.201196549,0.357119,0.291694601,-0.161648253,0.347333,0.285658493,-0.141863531,0.34244,0.280170537,-0.123871026,0.337992,0.328006284,-0.199818815,0.35929,0.311186759,-0.156467593,0.34499,0.30138579,-0.131279994,0.336648,0.295824992,-0.113890305,0.332301,0.348976562,-0.2021871,0.361724,0.331534069,-0.1600353,0.347944,0.324244204,-0.140160243,0.340894,0.318243135,-0.122641814,0.334485,0.375571411,-0.211455961,0.365791,0.368614135,-0.177698948,0.35982,0.366791088,-0.162865053,0.357076,0.366445506,-0.150878721,0.354655
0.355652777,-0.284388217,0.374756,0.34226626,-0.237298797,0.36584,0.331241702,-0.272695143,0.369023,0.308456775,-0.23765207,0.355774,0.2829674,-0.21878054,0.35562,0.27829918,-0.213020263,0.366138,0.308813644,-0.195640574,0.353651,0.287155905,-0.156674105,0.339049,0.283762851,-0.140712384,0.331748,0.278494073,-0.126772024,0.32511,0.334738496,-0.196216123,0.358204,0.318522665,-0.154460565,0.343071,0.310473457,-0.13133371,0.334243,0.304726381,-0.114473736,0.327937,0.357393695,-0.200294916,0.362645,0.34922967,-0.160055858,0.354602,0.34505236,-0.139411284,0.350487,0.341254502,-0.120608209,0.346746,0.386635567,-0.211893397,0.369169,0.390409874,-0.182403052,0.370872,0.393368993,-0.16953985,0.372825,0.395979221,-0.1581973,0.374548
0.380557277,-0.283436524,0.373483,0.365211498,-0.237533723,0.366772,0.354900247,-0.272550845,0.367269,0.323180503,-0.244110412,0.354097,0.29100713,-0.219363872,0.342937,0.279058318,-0.205906395,0.345693,0.325308392,-0.199537564,0.355224,0.311122178,-0.162973855,0.342509,0.3039943,-0.144284403,0.336152,0.297490883,-0.127030847,0.330372,0.352240313,-0.199041258,0.361025,0.338124686,-0.157376148,0.348038,0.330099848,-0.132966396,0.340462,0.324363022,-0.115366549,0.335051,0.375909086,-0.202066185,0.366322,0.365964768,-0.161264981,0.357788,0.362052832,-0.140880487,0.353423,0.358500454,-0.122189464,0.349454,0.406550598,-0.212132667,0.373543,0.395354194,-0.177972971,0.366698,0.393569363,-0.163635177,0.363554,0.392964699,-0.151668088,0.360779
0.381789977,-0.283958374,0.373098,0.367783184,-0.237709349,0.366539,0.356590315,-0.272586357,0.367148,0.324635095,-0.24376044,0.35493,0.294929037,-0.213387817,0.337202,0.281837118,-0.193605606,0.332335,0.332948845,-0.198288058,0.355407,0.321590564,-0.16033521,0.342904,0.315983684,-0.141125699,0.336653,0.310889473,-0.12345844,0.33097,0.359758853,-0.199068209,0.360922,0.347637857,-0.156816288,0.347815,0.341567352,-0.13271883,0.34017,0.337249082,-0.115268098,0.334709,0.383082898,-0.203201099,0.365972,0.371424256,-0.162692622,0.353304,0.366036753,-0.142165899,0.346823,0.361156183,-0.123291672,0.340931,0.412913797,-0.2146583,0.372878,0.411686959,-0.183108194,0.370588,0.413201242,-0.168793631,0.369536,0.417483417,-0.158356656,0.368607
0.382607777,-0.283085063,0.371072,0.37935285,-0.238735707,0.366457,0.357771997,-0.271286325,0.365325,0.341382626,-0.239627719,0.355456,0.311374233,-0.211821885,0.345917,0.305175189,-0.200671698,0.353514,0.344031302,-0.198425243,0.356674,0.331956891,-0.160959651,0.345037,0.327051498,-0.143208438,0.339219,0.322610796,-0.126665046,0.33393,0.371676746,-0.200472867,0.362504,0.360555352,-0.158467133,0.351031,0.354070795,-0.13377647,0.344338,0.349440329,-0.116049082,0.339557,0.395517145,-0.205609698,0.367662,0.381381505,-0.163661872,0.356403,0.376401052,-0.143543362,0.350642,0.371889298,-0.125023396,0.345405,0.42554617,-0.218219181,0.374419,0.420580006,-0.185906186,0.371609,0.416924382,-0.170182398,0.370319,0.418607082,-0.158424857,0.36918
0.385020518,-0.283397481,0.372089,0.381164087,-0.23829788,0.367333,0.360312413,-0.271228048,0.36611,0.341480204,-0.239842275,0.354443,0.308578553,-0.209238518,0.335931,0.298348575,-0.193494407,0.337623,0.346749222,-0.197818038,0.357179,0.337926447,-0.157144871,0.346476,0.335928582,-0.140136911,0.341125,0.334219699,-0.124186935,0.33626,0.374268376,-0.200090526,0.36326,0.363209764,-0.158130811,0.351645,0.357061341,-0.133571676,0.34487,0.352675956,-0.115875994,0.340031,0.397837689,-0.205415851,0.368633,0.384039947,-0.163512195,0.357219,0.37949966,-0.143439968,0.351379,0.375397363,-0.124940668,0.34607,0.42726617,-0.218211124,0.375666,0.425618302,-0.186827951,0.37451,0.428896878,-0.172098579,0.373978,0.427146273,-0.159804187,0.373509
0.389385714,-0.285617087,0.374822,0.384393727,-0.239915505,0.369114,0.364156339,-0.272842081,0.368146,0.346747152,-0.243138643,0.353752,0.31319035,-0.211706252,0.33488,0.300185115,-0.194385288,0.336419,0.351053432,-0.198563293,0.357552,0.339317493,-0.158527315,0.345785,0.336910124,-0.14132661,0.339901,0.334824245,-0.125247932,0.334552,0.378566242,-0.201130991,0.364225,0.366879571,-0.159079391,0.351738,0.360646067,-0.134602545,0.344453,0.353850158,-0.116610928,0.33925,0.402047968,-0.206730524,0.370161,0.38829252,-0.164742946,0.358293,0.388127082,-0.148105265,0.352221,0.387983707,-0.132469781,0.346701,0.431253116,-0.219864278,0.377994,0.432779637,-0.189274463,0.378032,0.434305175,-0.175333351,0.378049,0.436496633,-0.162957921,0.378064
0.390195864,-0.285707755,0.374762,0.384865291,-0.240239469,0.369176,0.365145767,-0.272907461,0.368087,0.345071317,-0.241825437,0.354059,0.312051427,-0.21033198,0.335883,0.302044742,-0.194493038,0.337489,0.351270723,-0.199194297,0.357686,0.340081891,-0.159191562,0.345919,0.337725776,-0.141805681,0.340035,0.335697346,-0.125592957,0.334686,0.378791202,-0.201729895,0.364393,0.367973813,-0.15961475,0.352011,0.364375561,-0.136587079,0.344789,0.361036401,-0.119203575,0.33963,0.401317857,-0.207248556,0.370346,0.38937356,-0.165416792,0.358364,0.387888759,-0.147254909,0.352234,0.383659848,-0.12831678,0.346661,0.431081192,-0.220381953,0.378183,0.432719836,-0.18928168,0.377269,0.433832461,-0.175094147,0.376849,0.43590458,-0.162615658,0.376479
0.393928867,-0.288123008,0.377615,0.389922843,-0.243181642,0.371441,0.369862794,-0.274573732,0.370086,0.350279022,-0.245210248,0.355542,0.320370717,-0.214117186,0.336098,0.306440966,-0.195956173,0.337468,0.355655309,-0.201676056,0.358551,0.34783777,-0.16404542,0.34597,0.34442165,-0.145696892,0.339679,0.338114279,-0.127104468,0.333961,0.384049272,-0.204902872,0.366153,0.375910377,-0.163761144,0.353214,0.369137364,-0.138319112,0.345666,0.366149732,-0.120886015,0.340274,0.408284903,-0.211059801,0.37289,0.398014428,-0.170303099,0.360165,0.391489508,-0.14908403,0.353655,0.388182287,-0.130640122,0.347737,0.438374784,-0.224901223,0.381737,0.437547315,-0.192499517,0.379715,0.437580868,-0.178025125,0.378787,0.438992151,-0.165351132,0.377967
0.395065348,-0.288717311,0.378159,0.39087275,-0.243851301,0.371912,0.370966035,-0.275117241,0.370594,0.351338823,-0.245818681,0.35602,0.320586141,-0.214261163,0.336324,0.307533896,-0.196320569,0.337286,0.356676537,-0.202266229,0.358935,0.348056947,-0.164148787,0.346188,0.344558535,-0.145754797,0.339814,0.338989622,-0.127524427,0.33402,0.385141231,-0.205595557,0.366561,0.376274352,-0.163919706,0.353556,0.370128028,-0.138817319,0.345971,0.366980498,-0.121316635,0.340552,0.409419335,-0.211839272,0.373323,0.398458673,-0.170493184,0.360567,0.392505497,-0.149370875,0.354041,0.389042077,-0.130861602,0.348108,0.439519427,-0.225787788,0.382209,0.438600137,-0.19335476,0.380235,0.438554038,-0.178875779,0.379328,0.439772663,-0.166180988,0.378528
