sluyters/QuantumLeap/backend/src/datasets/dynamic/HandGestureDataset_SHREC2017_csv/Gesture12/finger_2/subject_11_essai_2_skeletons_world.csv
Wrist_x,Wrist_y,Wrist_z,Palm_x,Palm_y,Palm_z,thumb_base_x,thumb_base_y,thumb_base_z,thumb_first_joint_x,thumb_first_joint_y,thumb_first_joint_z,thumb_second_joint_x,thumb_second_joint_y,thumb_second_joint_z,thumb_tip_x,thumb_tip_y,thumb_tip_z,index_base_x,index_base_y,index_base_z,index_first_joint_x,index_first_joint_y,index_first_joint_z,index_second_joint_x,index_second_joint_y,index_second_joint_z,index_tip_x,index_tip_y,index_tip_z,middle_base_x,middle_base_y,middle_base_z,middle_first_joint_x,middle_first_joint_y,middle_first_joint_z,middle_second_joint_x,middle_second_joint_y,middle_second_joint_z,middle_tip_x,middle_tip_y,middle_tip_z,ring_base_x,ring_base_y,ring_base_z,ring_first_joint_x,ring_first_joint_y,ring_first_joint_z,ring_second_joint_x,ring_second_joint_y,ring_second_joint_z,ring_tip_x,ring_tip_y,ring_tip_z,pinky_base_x,pinky_base_y,pinky_base_z,pinky_first_joint_x,pinky_first_joint_y,pinky_first_joint_z,pinky_second_joint_x,pinky_second_joint_y,pinky_second_joint_z,pinky_tip_x,pinky_tip_y,pinky_tip_z,
0.4785844,-0.26937734,0.588757,0.48119788,-0.22088212,0.590398,0.45892154,-0.24949626,0.586803,0.43762585,-0.21738132,0.58419,0.40433916,-0.18634374,0.55981,0.398785,-0.16666523,0.558455,0.45773848,-0.17011019,0.588968,0.45050266,-0.12915643,0.58764,0.4509554,-0.10906364,0.586975,0.45159521,-0.090344737,0.586372,0.4835567,-0.17381908,0.591962,0.4766467,-0.12335065,0.585546,0.4750475,-0.093810769,0.581803,0.47393973,-0.072034249,0.57913,0.504658,-0.17962548,0.594251,0.49713549,-0.13103884,0.588372,0.49648669,-0.10562739,0.585365,0.49743032,-0.084607872,0.582631,0.5295867,-0.19200433,0.596598,0.52230096,-0.1448698,0.589663,0.52101843,-0.12415959,0.586476,0.5185801,-0.11113062,0.583664
0.48059525,-0.26873062,0.590809,0.48206083,-0.22195956,0.591467,0.46043647,-0.2498135,0.588789,0.43913421,-0.217766,0.584061,0.40678837,-0.18427315,0.559074,0.39923905,-0.16563276,0.557159,0.45733588,-0.17120026,0.589283,0.44869757,-0.12872574,0.586124,0.44822355,-0.10849658,0.584544,0.44791686,-0.089422085,0.583108,0.48306301,-0.17456056,0.592094,0.47453461,-0.12392877,0.584503,0.47221854,-0.094725817,0.580075,0.47059543,-0.073173625,0.576912,0.50421166,-0.18010893,0.594337,0.49633961,-0.13031647,0.587439,0.49481842,-0.10446404,0.58391,0.49420419,-0.081721238,0.580702,0.52944256,-0.19223855,0.596817,0.52272175,-0.14490756,0.589372,0.52102473,-0.12361689,0.585951,0.51989912,-0.10485888,0.582933
0.4777005,-0.2666915,0.589361,0.47920169,-0.22118611,0.590075,0.45591662,-0.24731586,0.585763,0.42925953,-0.20908871,0.578413,0.40213612,-0.17516779,0.558598,0.3995584,-0.15463079,0.557034,0.45440754,-0.17013465,0.585873,0.44660799,-0.12772454,0.583595,0.44617492,-0.10806556,0.582456,0.44586261,-0.089383673,0.581421,0.48169403,-0.17456541,0.590755,0.4770254,-0.12341706,0.58258,0.47190935,-0.093844185,0.577811,0.47030484,-0.07224971,0.574405,0.50421366,-0.1809742,0.594698,0.4959381,-0.13179173,0.587073,0.49420231,-0.11017418,0.583172,0.49385682,-0.085538126,0.579626,0.53070182,-0.19477513,0.599141,0.5207305,-0.15295369,0.590194,0.51946399,-0.13641421,0.586083,0.51960881,-0.12322105,0.582456
0.47760857,-0.26585578,0.590244,0.47856377,-0.22025943,0.589979,0.45705855,-0.24738002,0.588367,0.43397212,-0.2128741,0.582189,0.40336308,-0.17672575,0.559419,0.39933277,-0.16002864,0.55632,0.45544474,-0.16919135,0.587354,0.43787903,-0.1224137,0.57885,0.4347655,-0.11163044,0.574599,0.43193982,-0.10126112,0.570733,0.48080891,-0.17299343,0.589727,0.47227143,-0.12165817,0.581028,0.47048135,-0.092730887,0.575953,0.46871016,-0.071483776,0.572329,0.50166959,-0.17891355,0.59171,0.49213892,-0.1267675,0.583622,0.4890701,-0.10072094,0.579484,0.4864689,-0.07675673,0.575723,0.52682846,-0.19045374,0.594061,0.51826049,-0.14284517,0.585295,0.51537073,-0.12236602,0.581268,0.51394746,-0.10518315,0.577715
0.47736275,-0.26515941,0.590651,0.47811896,-0.21967471,0.589845,0.45692581,-0.2469385,0.588953,0.43423004,-0.21268812,0.582626,0.4033473,-0.17705961,0.559103,0.3993422,-0.15958536,0.55658,0.45516908,-0.16828758,0.587085,0.43732984,-0.12226017,0.578124,0.43404215,-0.11144471,0.573643,0.43105964,-0.10105478,0.56957,0.48025075,-0.17203966,0.589077,0.47155428,-0.12063355,0.579802,0.4692599,-0.091992605,0.574392,0.46729754,-0.070955245,0.570527,0.50089507,-0.17794688,0.590804,0.49062596,-0.12573014,0.582212,0.48713824,-0.09974388,0.577816,0.48420775,-0.075934867,0.573819,0.52576694,-0.18964943,0.59296,0.51653541,-0.14195539,0.583825,0.51357355,-0.12178853,0.579628,0.51194477,-0.10488919,0.575925
0.47535313,-0.2670138,0.589538,0.47425372,-0.21922273,0.588183,0.45506394,-0.24679267,0.587867,0.43435649,-0.21335151,0.583254,0.40396071,-0.17908079,0.559437,0.40013693,-0.15990761,0.558027,0.45313435,-0.17001353,0.585086,0.44454816,-0.12778449,0.581972,0.4413283,-0.1102359,0.580415,0.44161624,-0.090158565,0.579,0.47742819,-0.17429485,0.586892,0.47138576,-0.12237421,0.576913,0.46765403,-0.090660444,0.571092,0.46455847,-0.070349643,0.566935,0.49743754,-0.18110441,0.588525,0.48596174,-0.13120357,0.579275,0.48479647,-0.10714237,0.574543,0.48090703,-0.085850077,0.57024,0.52175133,-0.19444664,0.590675,0.51214345,-0.14730832,0.580982,0.51011925,-0.12277595,0.576528,0.50881729,-0.10534707,0.572598
0.47491045,-0.26700279,0.589832,0.47478397,-0.22021525,0.588132,0.45430935,-0.24698957,0.587847,0.4340898,-0.21352451,0.583076,0.40417688,-0.17916283,0.559663,0.40054371,-0.15994175,0.558621,0.45243041,-0.16981314,0.584393,0.44418572,-0.12786118,0.581705,0.44143358,-0.11018095,0.58036,0.44151596,-0.090680826,0.579138,0.47747461,-0.17390551,0.586514,0.47082289,-0.12225977,0.576081,0.46628767,-0.091319298,0.569995,0.46387319,-0.070077485,0.565648,0.49773987,-0.18066346,0.588443,0.48722643,-0.13000715,0.578734,0.48317421,-0.10605524,0.573767,0.48156666,-0.087700597,0.569251,0.52202313,-0.1949687,0.591002,0.51280666,-0.14746204,0.580883,0.51068128,-0.12709815,0.576234,0.50868629,-0.10598076,0.572132
0.47496642,-0.26721866,0.590801,0.47349706,-0.23503141,0.589488,0.45356943,-0.25320278,0.588469,0.43348685,-0.22396643,0.581875,0.40418755,-0.18977099,0.560716,0.40245971,-0.16815381,0.561714,0.45311947,-0.18456662,0.58556,0.44390929,-0.14163569,0.580781,0.44057132,-0.12128497,0.578392,0.43683748,-0.10275395,0.57622,0.47875032,-0.18858834,0.588238,0.47247098,-0.13436386,0.578045,0.46950273,-0.1037382,0.572099,0.46510465,-0.084677719,0.567852,0.50001668,-0.19451379,0.590585,0.4901949,-0.14284029,0.580975,0.48597213,-0.11858391,0.576059,0.48441819,-0.10204835,0.571589,0.52450964,-0.20880906,0.593556,0.51574624,-0.15971382,0.583508,0.51356151,-0.1394662,0.578892,0.51224207,-0.12136486,0.574818
0.4696513,-0.27113699,0.588728,0.47079073,-0.23691005,0.588015,0.44668125,-0.25431426,0.586068,0.42976602,-0.22721137,0.581011,0.40356893,-0.19226893,0.560334,0.40051364,-0.172215,0.562148,0.45188159,-0.18379512,0.584067,0.44707161,-0.14503666,0.582743,0.44916117,-0.12995073,0.58208,0.450517,-0.11556934,0.581478,0.47630175,-0.19241799,0.587337,0.47601015,-0.14482296,0.582924,0.47723029,-0.11547281,0.58035,0.4789105,-0.10129144,0.578512,0.49726042,-0.20051616,0.590105,0.49081289,-0.14951339,0.581057,0.49061557,-0.12914488,0.576427,0.49062306,-0.1096636,0.572218,0.52182177,-0.21576735,0.593453,0.52512018,-0.17127796,0.589743,0.52763033,-0.1501945,0.588038,0.52988044,-0.13141295,0.586534
0.47035735,-0.29081183,0.590812,0.47346533,-0.25439808,0.584198,0.45145221,-0.27987858,0.583514,0.43129879,-0.24456933,0.57548,0.40563664,-0.20951577,0.556125,0.40308089,-0.1913551,0.55885,0.44251996,-0.19799564,0.570202,0.44061765,-0.15958892,0.57511,0.44517453,-0.14163666,0.577564,0.44948317,-0.12416138,0.579795,0.47147209,-0.2048626,0.577899,0.47226537,-0.16060739,0.580775,0.4762861,-0.13250491,0.582453,0.4811775,-0.10699958,0.583652,0.49601807,-0.21357776,0.58495,0.48562641,-0.16058275,0.568953,0.48427074,-0.14031945,0.560768,0.48327735,-0.12113887,0.553328,0.52642939,-0.23003831,0.594378,0.52432174,-0.18395189,0.587675,0.52602329,-0.16305039,0.584595,0.5275954,-0.14428928,0.581877
0.47622739,-0.29893131,0.581201,0.47926846,-0.26167998,0.580349,0.45809605,-0.28677619,0.575064,0.43797858,-0.25677862,0.574173,0.41039481,-0.22316118,0.556597,0.40835169,-0.2058554,0.560948,0.44438109,-0.21192942,0.571778,0.44587711,-0.17754937,0.580994,0.45178842,-0.16047264,0.585603,0.45732047,-0.14371113,0.589792,0.47378787,-0.21588992,0.579538,0.47322232,-0.16970747,0.580834,0.47491127,-0.14123174,0.58159,0.47833712,-0.12297919,0.58213,0.49868554,-0.22184662,0.586021,0.49039914,-0.16630954,0.576352,0.48781975,-0.14665677,0.571404,0.48698091,-0.12467314,0.566907,0.5295721,-0.23432363,0.593705,0.52163566,-0.19071402,0.587177,0.52347401,-0.17346075,0.584177,0.52525487,-0.15766697,0.581531
0.48695594,-0.31169489,0.585589,0.48172909,-0.2742853,0.582832,0.46127317,-0.29455089,0.579306,0.4356829,-0.26981355,0.574145,0.40745303,-0.23868605,0.558929,0.40420009,-0.22308063,0.565071,0.44881133,-0.22053999,0.572776,0.44391445,-0.18212156,0.577632,0.44938271,-0.16417461,0.58006,0.45301743,-0.14429908,0.582267,0.47738834,-0.22580612,0.580206,0.4727196,-0.17979247,0.58037,0.47501611,-0.15171211,0.580466,0.47868327,-0.13270944,0.580535,0.50144003,-0.23304007,0.586621,0.48848492,-0.18080483,0.575016,0.48956515,-0.16128695,0.569079,0.49083564,-0.14270983,0.563681,0.53105443,-0.24737517,0.594586,0.52138108,-0.19934103,0.58449,0.52271448,-0.18136562,0.579852,0.52405082,-0.16502416,0.575759
0.46990751,-0.33207569,0.579353,0.47386956,-0.29187024,0.580947,0.44771435,-0.31374373,0.575206,0.43393006,-0.28196261,0.575682,0.41240274,-0.24728026,0.560836,0.41140599,-0.2323176,0.567152,0.45033435,-0.24060127,0.576628,0.44504798,-0.19685272,0.577063,0.44616328,-0.17708958,0.577281,0.44722175,-0.15818777,0.577479,0.47805876,-0.2471723,0.582465,0.47820664,-0.19870583,0.580591,0.47921024,-0.16999175,0.579499,0.48209655,-0.15310005,0.578718,0.50085874,-0.25519813,0.587099,0.4976622,-0.2052888,0.579845,0.49633539,-0.17927918,0.576134,0.49693121,-0.15013338,0.57276,0.52792951,-0.2700118,0.592179,0.52514365,-0.22292162,0.585746,0.52385767,-0.20138443,0.582791,0.52271897,-0.18243306,0.580183
0.46518704,-0.33807657,0.574184,0.47231519,-0.30983332,0.578249,0.44503018,-0.33055962,0.572857,0.43051666,-0.29873344,0.573148,0.41058174,-0.26666343,0.563158,0.41156424,-0.25444947,0.572675,0.45483485,-0.26338661,0.57928,0.44796899,-0.21709988,0.57508,0.44582374,-0.19665663,0.572979,0.44385426,-0.17729912,0.57107,0.48024104,-0.26856767,0.582121,0.47909961,-0.21923602,0.578035,0.47862947,-0.19027714,0.575651,0.47848981,-0.16962767,0.573949,0.50082946,-0.27517317,0.584022,0.49782732,-0.22695851,0.579609,0.49639399,-0.20157067,0.577352,0.49510186,-0.17791155,0.575299,0.52480008,-0.28782244,0.585464,0.52038669,-0.24110694,0.579954,0.51888335,-0.21997968,0.577423,0.518106,-0.20236081,0.575189
0.48580839,-0.3820929,0.60452,0.48616454,-0.33616297,0.595784,0.46467772,-0.36279009,0.598879,0.44801819,-0.33067691,0.591269,0.42141306,-0.29530416,0.572077,0.41651404,-0.27746056,0.573824,0.46127627,-0.27729291,0.582505,0.44334018,-0.22713774,0.569899,0.43926228,-0.20911635,0.563597,0.43558626,-0.19213266,0.557867,0.48796888,-0.2843938,0.587464,0.48537642,-0.23387759,0.581515,0.48635901,-0.20511176,0.578045,0.48787901,-0.18502166,0.575566,0.51026434,-0.29352425,0.592489,0.4952566,-0.24109765,0.575102,0.48757776,-0.21402036,0.566206,0.48059623,-0.18924357,0.558118,0.5373191,-0.31078191,0.599965,0.52410532,-0.26163183,0.583459,0.51803603,-0.23899642,0.575875,0.51357019,-0.21996283,0.569183
0.48395034,-0.3877259,0.598223,0.4868537,-0.35108374,0.591047,0.46450829,-0.3774898,0.591359,0.44256037,-0.34441505,0.583428,0.41406235,-0.30798568,0.561684,0.41019301,-0.28937667,0.562155,0.45938788,-0.29144378,0.577234,0.4416034,-0.24124669,0.565178,0.43840374,-0.22203274,0.55915,0.43554835,-0.20397704,0.55367,0.48752945,-0.29905618,0.584213,0.48038731,-0.24593586,0.572964,0.48045685,-0.21828215,0.566402,0.48060913,-0.19807253,0.561715,0.51108526,-0.30859376,0.590733,0.49680992,-0.25599196,0.574187,0.48950592,-0.228855,0.565721,0.48293935,-0.20409522,0.558025,0.53972869,-0.32631087,0.59965,0.52306734,-0.27524412,0.585051,0.52015658,-0.25581951,0.578344,0.52047196,-0.24472376,0.572425
0.4812722,-0.3996421,0.594943,0.48023513,-0.35819659,0.589685,0.45839101,-0.37875291,0.587813,0.43797133,-0.34864333,0.581881,0.41384368,-0.31003453,0.562456,0.41171431,-0.29238133,0.565158,0.45443731,-0.29800088,0.576827,0.43753954,-0.24950197,0.561018,0.43130869,-0.2292302,0.553114,0.42564188,-0.21030805,0.545928,0.48354127,-0.30718088,0.584677,0.47720744,-0.25341589,0.570273,0.47518712,-0.22469729,0.561871,0.47458246,-0.20647289,0.555869,0.50785929,-0.31795401,0.591708,0.49982905,-0.2607659,0.577854,0.49787343,-0.23753277,0.573529,0.49732376,-0.21433274,0.569597,0.53722415,-0.33709353,0.600857,0.5240584,-0.28525103,0.586288,0.5217394,-0.26615066,0.579594,0.52136603,-0.25551311,0.573688
0.48033179,-0.41214228,0.595012,0.48786554,-0.37604057,0.592432,0.45786953,-0.39025928,0.58856,0.43751221,-0.36201717,0.579451,0.4111743,-0.32445159,0.558741,0.40981188,-0.30501813,0.555771,0.46479282,-0.31750656,0.582277,0.45236111,-0.27391282,0.568706,0.44621342,-0.2517215,0.56192,0.44060892,-0.2311313,0.555752,0.49386812,-0.32750301,0.589975,0.49081521,-0.27695056,0.577904,0.48968317,-0.25071877,0.570863,0.48898758,-0.23144573,0.565833,0.51807859,-0.33876575,0.596593,0.50832738,-0.28455861,0.584417,0.50498991,-0.25903851,0.578188,0.50308517,-0.23901094,0.572524,0.54713103,-0.35821828,0.604758,0.54605108,-0.31578395,0.602312,0.54839665,-0.29629112,0.601188,0.55152156,-0.28393424,0.600196
0.51056246,-0.42153843,0.601681,0.50019776,-0.37444042,0.595587,0.48480497,-0.40835953,0.595042,0.45323696,-0.37787358,0.585322,0.42128499,-0.34542083,0.56665,0.41141874,-0.32340086,0.557846,0.46155801,-0.32909172,0.582803,0.44887102,-0.2809645,0.568808,0.44699156,-0.26535824,0.561811,0.44539723,-0.2507892,0.55545,0.49214574,-0.32953152,0.589783,0.48088269,-0.2863983,0.573894,0.47659634,-0.2618933,0.564625,0.47359366,-0.2440564,0.558005,0.51669217,-0.33820038,0.596189,0.506274,-0.29045691,0.581999,0.50524269,-0.27292054,0.574739,0.50446051,-0.25657224,0.56814,0.54719277,-0.35536393,0.604769,0.53846828,-0.30961184,0.592621,0.54089723,-0.29890394,0.58704,0.54214315,-0.29024021,0.582115
0.51246493,-0.43344327,0.603923,0.50130719,-0.39553689,0.596908,0.48666583,-0.43045106,0.597326,0.45163242,-0.39936465,0.585807,0.42034551,-0.36948888,0.570585,0.40866229,-0.34737927,0.561551,0.46215198,-0.34932577,0.583553,0.44902494,-0.30055896,0.569003,0.44692552,-0.28514632,0.561728,0.4451286,-0.27078212,0.555115,0.4909489,-0.35181366,0.590227,0.48053495,-0.30628673,0.573479,0.47582315,-0.28181086,0.563709,0.47251238,-0.26402722,0.556731,0.51591226,-0.35802638,0.596479,0.50602261,-0.31022787,0.58171,0.50472848,-0.29286978,0.574154,0.50370134,-0.2767128,0.567285,0.5475017,-0.3728952,0.605054,0.53943938,-0.32817008,0.592344,0.54040429,-0.31877013,0.586505,0.54143254,-0.31030107,0.581352
0.49584121,-0.4611954,0.605478,0.49577907,-0.4127502,0.597902,0.4742722,-0.44428446,0.601039,0.454118,-0.41071067,0.591832,0.42562064,-0.37362018,0.575043,0.41599961,-0.35130013,0.567665,0.46859427,-0.36236353,0.586976,0.45950737,-0.31815213,0.571223,0.45498227,-0.29586919,0.563347,0.44844986,-0.27341745,0.556186,0.49540891,-0.36877456,0.590687,0.48549956,-0.3268465,0.573484,0.47980976,-0.30244517,0.563449,0.4757885,-0.28472898,0.556281,0.5179672,-0.37833356,0.594559,0.50993776,-0.33430822,0.578844,0.50587675,-0.31157259,0.570804,0.50221262,-0.29073855,0.563495,0.54522822,-0.39742926,0.600477,0.54044085,-0.35269837,0.586627,0.53861606,-0.33531266,0.580264,0.53704195,-0.31984926,0.574649
0.49432438,-0.46756542,0.604632,0.49614961,-0.4271736,0.597616,0.47320896,-0.4503069,0.59998,0.45444446,-0.42680273,0.593757,0.42789774,-0.39075435,0.573411,0.42453222,-0.37372437,0.574273,0.47167112,-0.37700069,0.586795,0.46715241,-0.33256652,0.582295,0.46722916,-0.31895275,0.580046,0.46737936,-0.30604086,0.578,0.49814744,-0.38466563,0.590935,0.49119791,-0.34242084,0.574293,0.4871901,-0.31757315,0.564585,0.48434907,-0.29972509,0.55765,0.52008773,-0.39507852,0.595101,0.51431382,-0.34595982,0.579921,0.5119166,-0.32263759,0.572155,0.50978909,-0.30121578,0.565094,0.54604325,-0.41482728,0.601255,0.54042513,-0.37078183,0.588049,0.53902437,-0.35418859,0.581982,0.53782995,-0.33941788,0.576628
0.49857504,-0.48258464,0.606399,0.49871121,-0.43965849,0.59844,0.4761245,-0.46293632,0.601049,0.46052766,-0.43851748,0.598969,0.43440756,-0.40125727,0.577355,0.43041691,-0.38268062,0.576151,0.46972141,-0.3761592,0.586067,0.46770004,-0.33250556,0.580659,0.46774489,-0.31934688,0.577956,0.46788008,-0.30688771,0.575498,0.49708055,-0.38352226,0.590859,0.48853534,-0.33987987,0.573212,0.48368812,-0.31601426,0.562917,0.48027349,-0.29875425,0.555564,0.52017103,-0.39340005,0.595664,0.51103533,-0.35103969,0.579439,0.50660083,-0.33024444,0.571138,0.50258925,-0.31123341,0.563592,0.54949163,-0.4088207,0.602736,0.54051175,-0.36976161,0.588063,0.53777176,-0.35366836,0.581321,0.53537704,-0.33938921,0.575372
0.47742698,-0.51470003,0.601603,0.48499657,-0.46833378,0.597922,0.45920962,-0.48613832,0.59836,0.44870285,-0.45349931,0.595354,0.42817243,-0.41387425,0.576276,0.4286443,-0.39657023,0.578334,0.47288312,-0.38951198,0.591199,0.46826048,-0.34566577,0.579543,0.4660463,-0.32543648,0.573715,0.46387231,-0.31392026,0.568417,0.49804261,-0.40012908,0.594416,0.4955014,-0.35945884,0.58153,0.49412551,-0.33722763,0.574013,0.49325489,-0.3209569,0.568644,0.5188831,-0.41117504,0.597463,0.51517485,-0.35587985,0.585691,0.51318646,-0.35389688,0.579668,0.51157223,-0.35219221,0.574193,0.54409922,-0.42981477,0.601691,0.54093086,-0.38612156,0.590348,0.54003799,-0.37008952,0.585137,0.53930864,-0.35574949,0.580538
0.48544299,-0.51762923,0.607008,0.4899231,-0.46855808,0.6006,0.46544571,-0.48797068,0.602311,0.44780809,-0.45057624,0.591956,0.42634929,-0.41247522,0.573956,0.42697201,-0.39638942,0.577509,0.47325028,-0.38728409,0.590132,0.46473446,-0.34388219,0.575402,0.46052735,-0.32296967,0.568037,0.45662683,-0.31894373,0.561341,0.49938574,-0.39823786,0.594498,0.49423642,-0.36029572,0.578493,0.49286329,-0.34292829,0.569156,0.49106226,-0.32821563,0.562488,0.52137365,-0.40977239,0.598783,0.51254388,-0.35273161,0.583951,0.50981811,-0.35145052,0.576363,0.50754853,-0.35046085,0.569464,0.55008378,-0.42660314,0.604962,0.54294289,-0.3857812,0.590746,0.54081295,-0.37097119,0.584214,0.53900056,-0.35772273,0.578451
0.49395576,-0.49715833,0.601427,0.49861166,-0.44980081,0.59709,0.47133366,-0.48259959,0.597621,0.461517,-0.45802155,0.598898,0.43538005,-0.42427782,0.581995,0.42989806,-0.401532,0.581366,0.47057018,-0.40750084,0.589187,0.46357565,-0.36394954,0.577065,0.46119211,-0.34917312,0.571005,0.45907739,-0.33550625,0.565495,0.49788725,-0.4118901,0.592959,0.49194593,-0.37196797,0.579358,0.48879117,-0.34988456,0.571425,0.48657692,-0.33392224,0.565758,0.52063023,-0.41997107,0.596532,0.51808905,-0.37669911,0.584532,0.51333599,-0.35329485,0.578393,0.51563402,-0.33431881,0.572812,0.54745578,-0.43728792,0.601495,0.54196389,-0.39502846,0.590267,0.54131223,-0.38152275,0.585108,0.54080519,-0.36943898,0.580556
0.49229478,-0.50435516,0.603953,0.49307009,-0.46156166,0.597956,0.46947562,-0.48647073,0.599337,0.4508444,-0.45813403,0.593364,0.4280596,-0.42037974,0.575201,0.42674843,-0.40512276,0.578076,0.46912511,-0.41124533,0.587873,0.46284004,-0.35274963,0.573857,0.4615601,-0.34094632,0.566848,0.46062912,-0.32981898,0.560477,0.49620432,-0.4187374,0.592246,0.49283437,-0.36260665,0.576688,0.49018953,-0.33805392,0.567613,0.48878435,-0.32156785,0.561131,0.51870039,-0.42949012,0.596493,0.51206868,-0.36483722,0.582248,0.51026523,-0.34844112,0.57496,0.51313615,-0.32944276,0.568335,0.5453044,-0.45028964,0.602549,0.54043586,-0.3942453,0.589335,0.53985218,-0.37980903,0.583263,0.53968309,-0.36480882,0.577905
0.49030539,-0.50873342,0.603217,0.49265304,-0.46125962,0.597016,0.46967281,-0.4881074,0.599069,0.45082375,-0.45998341,0.592989,0.42613955,-0.42309353,0.575076,0.42637275,-0.40629979,0.577982,0.4664005,-0.41562407,0.587403,0.45973195,-0.36022546,0.573153,0.45605552,-0.34490317,0.566027,0.45667954,-0.33090388,0.55955,0.49415189,-0.42007806,0.59111,0.48718195,-0.36800523,0.575402,0.48223541,-0.33842665,0.56624,0.48457144,-0.31785867,0.559695,0.51630122,-0.43026729,0.594831,0.51217604,-0.37256446,0.580533,0.50864247,-0.35131021,0.573218,0.50971223,-0.33049996,0.566568,0.54263539,-0.45043014,0.600315,0.53820668,-0.39469137,0.587246,0.53744049,-0.37838139,0.581241,0.53685695,-0.35923784,0.575943
0.48782317,-0.50105067,0.599422,0.47751993,-0.44474079,0.59074,0.46333353,-0.48514311,0.595064,0.43580804,-0.44889526,0.587179,0.40880894,-0.4126757,0.568226,0.40547916,-0.39623919,0.569871,0.44635135,-0.39870965,0.579169,0.43352934,-0.34171725,0.562637,0.42864012,-0.32811479,0.554371,0.42432132,-0.31623885,0.546856,0.47280368,-0.40303473,0.582472,0.46002643,-0.3472838,0.564293,0.4534366,-0.31927478,0.553689,0.44877212,-0.29881707,0.546114,0.49538352,-0.41136009,0.586128,0.48407564,-0.35014098,0.569638,0.48054782,-0.33090643,0.561202,0.47753572,-0.31266452,0.553532,0.52320594,-0.42965527,0.592002,0.51379363,-0.37554377,0.576911,0.51046065,-0.35536896,0.569978,0.50757404,-0.33726508,0.56386
0.48075763,-0.48442748,0.588768,0.47399024,-0.4412302,0.585617,0.4572122,-0.47852805,0.586947,0.43024852,-0.44750271,0.580212,0.40361122,-0.41169938,0.56428,0.40053178,-0.39642243,0.56746,0.44611417,-0.40193161,0.581106,0.43833349,-0.35056335,0.576843,0.43585484,-0.34234529,0.574712,0.43354203,-0.33439896,0.572774,0.47135523,-0.40361895,0.582617,0.46280256,-0.35060826,0.570844,0.45473037,-0.32222638,0.563977,0.45080452,-0.30185352,0.559072,0.4926245,-0.40929532,0.584201,0.48313596,-0.34506195,0.57416,0.47984981,-0.32806589,0.569023,0.47692535,-0.31175888,0.564352,0.51837118,-0.42144434,0.586631,0.50885104,-0.36870816,0.576793,0.50448133,-0.34458137,0.572273,0.50062678,-0.32333972,0.568285
0.47827813,-0.48105276,0.59392,0.46295443,-0.42602559,0.58643,0.4445203,-0.46097424,0.589622,0.42051653,-0.43353134,0.577657,0.38648995,-0.39744539,0.553076,0.3794733,-0.38098582,0.550799,0.43238965,-0.38195588,0.575747,0.41890375,-0.32833572,0.56996,0.41488506,-0.31530068,0.567067,0.41191841,-0.3070664,0.564437,0.45928199,-0.38585703,0.579297,0.44881649,-0.32928272,0.562528,0.44281787,-0.2965876,0.552747,0.43922644,-0.28667345,0.54576,0.4820742,-0.39370728,0.583027,0.46432902,-0.32727421,0.567359,0.46002823,-0.31646904,0.559343,0.45626724,-0.30623985,0.552056,0.50971977,-0.41113353,0.588765,0.4948347,-0.3544475,0.573591,0.49113944,-0.34166651,0.566619,0.48796629,-0.33007289,0.560468
0.46521267,-0.47328537,0.596821,0.45834468,-0.41937977,0.587966,0.44216588,-0.45826781,0.591083,0.41194005,-0.42260727,0.580905,0.38400887,-0.39003681,0.563839,0.37774408,-0.37321497,0.563907,0.42694598,-0.37248575,0.574478,0.40849096,-0.31876924,0.556868,0.39984901,-0.30578949,0.548063,0.3918809,-0.29358401,0.540058,0.45465524,-0.37807524,0.579531,0.43900702,-0.32324278,0.560805,0.42986942,-0.29081908,0.549882,0.42333792,-0.28638323,0.542079,0.47837992,-0.38745705,0.584647,0.46018106,-0.32159688,0.569263,0.45369336,-0.3109119,0.561392,0.44778688,-0.30078992,0.554236,0.50753475,-0.407074,0.59225,0.49551858,-0.35000339,0.57679,0.49031319,-0.32747332,0.569687,0.4858593,-0.31058915,0.56342
0.44931823,-0.45959643,0.580647,0.44174282,-0.41196144,0.577774,0.42702766,-0.44699637,0.580449,0.39762659,-0.41837967,0.575622,0.3698908,-0.38556453,0.560217,0.36546704,-0.3692651,0.561678,0.41747355,-0.37551174,0.575565,0.40319966,-0.3218848,0.56504,0.39510875,-0.30289271,0.559777,0.38755722,-0.28490236,0.554993,0.44083079,-0.37560139,0.575038,0.4259714,-0.32086764,0.563576,0.41714096,-0.28933734,0.55689,0.41077799,-0.26668204,0.552115,0.46042446,-0.37980814,0.574913,0.44781918,-0.31833256,0.564682,0.44077497,-0.29824022,0.559448,0.43420261,-0.27897514,0.55469,0.48406431,-0.39220603,0.575308,0.47348447,-0.34144381,0.565456,0.46854677,-0.31822494,0.560929,0.46406266,-0.29810088,0.556935
0.43903074,-0.45858496,0.585254,0.43273669,-0.40620437,0.576501,0.41911946,-0.44576268,0.583064,0.38979458,-0.4127788,0.577005,0.36134355,-0.37908489,0.558436,0.36066772,-0.36586969,0.559429,0.40847035,-0.36167374,0.567706,0.38426889,-0.30867654,0.551271,0.37245262,-0.2900893,0.543054,0.36223679,-0.2782208,0.535584,0.43205531,-0.36574089,0.568165,0.41711497,-0.31332671,0.550133,0.40724705,-0.28786796,0.539614,0.39990316,-0.27066454,0.532101,0.45397533,-0.37499335,0.569487,0.43104241,-0.32007196,0.553455,0.42020389,-0.29161794,0.545252,0.41022911,-0.26510174,0.537795,0.47565653,-0.39154748,0.572666,0.46580427,-0.33826389,0.557672,0.45972506,-0.31459387,0.550783,0.45376806,-0.30205783,0.544704
0.40180133,-0.44048086,0.575888,0.41533771,-0.39927459,0.575168,0.3901699,-0.43013295,0.579445,0.36931704,-0.40090825,0.574275,0.34209133,-0.36585185,0.554496,0.33803716,-0.34946807,0.555976,0.40821539,-0.36499777,0.579311,0.38890394,-0.31971571,0.573479,0.37890054,-0.29612296,0.570563,0.36958826,-0.27407908,0.567911,0.42600968,-0.3664584,0.574482,0.4142253,-0.31643718,0.566288,0.4072219,-0.28624525,0.561508,0.40215677,-0.26418631,0.558094,0.43975191,-0.37147865,0.570582,0.42637504,-0.31368115,0.564661,0.41946861,-0.28372663,0.561632,0.41315144,-0.25626064,0.558878,0.45418015,-0.38430494,0.566191,0.45790653,-0.33496983,0.559128,0.45521818,-0.31496902,0.555883,0.44727117,-0.30475412,0.553019
0.41763967,-0.42321926,0.577556,0.40940669,-0.37493643,0.569946,0.39737315,-0.41467619,0.576874,0.37091101,-0.38998601,0.571807,0.33779885,-0.35819496,0.551656,0.3316779,-0.3442369,0.551177,0.37878882,-0.33702339,0.56389,0.35396882,-0.2828389,0.54875,0.34262781,-0.26350665,0.54118,0.33217648,-0.24594128,0.534298,0.40196611,-0.33521921,0.562698,0.3843728,-0.27742827,0.545879,0.37412508,-0.24384528,0.536068,0.36737091,-0.23330376,0.529061,0.4219098,-0.33826197,0.562536,0.3993547,-0.27827537,0.547791,0.38775009,-0.24729647,0.540247,0.38058674,-0.23602361,0.533389,0.44684226,-0.34983227,0.563779,0.42414685,-0.3117424,0.54979,0.41343842,-0.29353114,0.543362,0.40382639,-0.27704726,0.537691
0.39789461,-0.42048113,0.581439,0.39660569,-0.37214235,0.573804,0.3795322,-0.40976248,0.581497,0.35368387,-0.3809,0.57274,0.32190911,-0.34601536,0.549537,0.31394508,-0.32826021,0.546925,0.37238712,-0.33171456,0.568694,0.3493932,-0.27996807,0.554439,0.33773156,-0.25357188,0.547311,0.32702692,-0.22924749,0.540831,0.39477298,-0.33267643,0.566531,0.38207731,-0.27686249,0.549883,0.3758284,-0.24484753,0.540171,0.36957928,-0.23554394,0.533235,0.41336261,-0.3379451,0.565574,0.40356588,-0.27882617,0.550571,0.40186583,-0.24682065,0.542896,0.39675089,-0.23810679,0.535918,0.43555361,-0.35203886,0.565897,0.4151133,-0.31572097,0.552217,0.40608919,-0.30075107,0.545932,0.3983805,-0.28869058,0.540386
0.38019121,-0.40277022,0.563623,0.37109425,-0.35271127,0.560727,0.35463205,-0.38435675,0.564195,0.33214209,-0.35996758,0.564258,0.30319898,-0.32831273,0.546677,0.2968423,-0.31264316,0.548665,0.34508784,-0.30263054,0.559506,0.32556517,-0.25703984,0.549312,0.31423349,-0.24146631,0.544216,0.30361943,-0.22681321,0.539582,0.36756152,-0.30213581,0.557969,0.35058262,-0.25339702,0.546608,0.33944403,-0.22748145,0.539981,0.33136299,-0.20855696,0.535247,0.38652229,-0.30486866,0.557015,0.37092357,-0.26403436,0.547025,0.36295653,-0.2432003,0.541913,0.35519629,-0.22544611,0.537266,0.41012462,-0.31433268,0.556452,0.39573089,-0.27189482,0.546725,0.38909725,-0.25229531,0.542255,0.38323341,-0.23494693,0.538311
0.36032334,-0.38750886,0.554033,0.35218112,-0.34088164,0.554086,0.34205375,-0.37548839,0.556116,0.31336682,-0.34687132,0.557155,0.2859167,-0.31402171,0.539303,0.28159488,-0.29791446,0.540591,0.33146175,-0.29554546,0.556836,0.31362861,-0.25265991,0.549822,0.30364552,-0.23203953,0.546315,0.29412023,-0.21341419,0.543127,0.35210519,-0.29330329,0.554137,0.33744867,-0.24543908,0.546353,0.32495306,-0.22274477,0.541811,0.31575531,-0.20595303,0.538568,0.36933943,-0.2943025,0.55191,0.35793675,-0.25458898,0.545027,0.35058668,-0.23587319,0.541506,0.34288151,-0.22072524,0.538305,0.39050053,-0.30121799,0.549314,0.38405837,-0.25812357,0.542588,0.37887028,-0.23991223,0.539498,0.37257795,-0.22734783,0.536771
0.34658844,-0.3792063,0.548545,0.34730028,-0.33713374,0.549572,0.32815161,-0.3667199,0.549662,0.30897613,-0.34380007,0.55386,0.28212822,-0.31195315,0.537366,0.27803113,-0.29666852,0.540617,0.32630999,-0.29153126,0.551725,0.30985235,-0.24887072,0.545343,0.30005413,-0.22968587,0.542152,0.28892792,-0.21685509,0.539252,0.3479881,-0.29030798,0.55055,0.33345598,-0.24318728,0.54357,0.32083465,-0.2160696,0.539498,0.31355306,-0.20207246,0.53659,0.3660556,-0.29208411,0.549473,0.34984581,-0.25232281,0.543428,0.34154341,-0.23364521,0.540335,0.3336584,-0.21712963,0.537523,0.38809982,-0.29981284,0.548029,0.37498609,-0.25659986,0.54133,0.36814421,-0.23920267,0.538253,0.36187605,-0.22401815,0.535537
0.33855072,-0.37132483,0.540627,0.3381328,-0.32903947,0.548023,0.32249014,-0.36132715,0.545124,0.29940061,-0.33553535,0.552591,0.2754676,-0.3067236,0.541121,0.27253499,-0.29284885,0.548032,0.3236258,-0.28904104,0.558903,0.31164428,-0.24808395,0.559388,0.30297534,-0.23035042,0.559631,0.29854925,-0.21898994,0.559852,0.34379212,-0.28620514,0.555067,0.33319951,-0.24189873,0.555672,0.32498571,-0.21662597,0.556025,0.31785047,-0.19966344,0.556277,0.35996106,-0.28625391,0.551111,0.34983899,-0.25036793,0.552251,0.34344978,-0.23263364,0.552835,0.33714037,-0.21671023,0.553366,0.37863954,-0.29118371,0.545128,0.37415864,-0.25193764,0.544926,0.36998141,-0.2345018,0.544833,0.36599326,-0.21908669,0.544751
0.34225273,-0.36775965,0.55608,0.33542593,-0.31476689,0.552426,0.32312562,-0.35559619,0.556917,0.29668708,-0.32729182,0.55607,0.26508195,-0.30010043,0.538522,0.2550088,-0.28564067,0.540384,0.30663934,-0.26705731,0.551035,0.2803425,-0.22484291,0.540657,0.26535439,-0.21467539,0.535468,0.25116837,-0.20506704,0.53075,0.32767972,-0.26469291,0.548946,0.30459079,-0.21792513,0.53692,0.28863841,-0.19458987,0.529906,0.27630997,-0.18125575,0.524895,0.34581802,-0.26587178,0.547619,0.32449109,-0.22720746,0.537292,0.31270303,-0.20869414,0.532008,0.30170268,-0.19204639,0.527205,0.36904731,-0.2734766,0.546765,0.36125079,-0.22983899,0.536874,0.35230871,-0.22107297,0.532329,0.34418931,-0.21307224,0.528319
0.33964484,-0.36380334,0.554158,0.33136179,-0.31417739,0.550756,0.31933555,-0.35139089,0.553857,0.29526519,-0.3269722,0.556998,0.2642416,-0.29793602,0.538359,0.25443546,-0.28218527,0.538782,0.29611754,-0.266943,0.548053,0.27486741,-0.22213541,0.537018,0.26265245,-0.20189472,0.5315,0.25073928,-0.18850479,0.526484,0.31890705,-0.26465236,0.547516,0.30098075,-0.21682464,0.535436,0.28608713,-0.19238454,0.528389,0.27419022,-0.17230978,0.523356,0.33853753,-0.26587232,0.547441,0.32161487,-0.22636706,0.536718,0.31047786,-0.20710307,0.531232,0.30000163,-0.19005018,0.526245,0.36364579,-0.27344593,0.547992,0.34392566,-0.230815,0.537352,0.33436157,-0.21201506,0.532463,0.32603161,-0.20323171,0.528149
0.33905358,-0.36100896,0.553229,0.32934841,-0.31290077,0.549837,0.3185357,-0.34963683,0.553446,0.29537871,-0.32729962,0.558226,0.26446057,-0.29827562,0.539785,0.25434536,-0.2822756,0.539769,0.29316296,-0.26691723,0.547817,0.27241604,-0.22182721,0.53665,0.26023213,-0.20169914,0.531067,0.24826438,-0.18814629,0.525991,0.31240908,-0.26236949,0.546607,0.28982289,-0.21423639,0.534612,0.27439938,-0.18958742,0.527615,0.26314149,-0.17152763,0.522618,0.33169917,-0.26159264,0.545976,0.31003769,-0.22259359,0.535435,0.29846063,-0.203356,0.530042,0.28786288,-0.1857197,0.52514,0.35691562,-0.26664855,0.545882,0.3386604,-0.22417548,0.535876,0.32931563,-0.20637937,0.531278,0.32096254,-0.19049237,0.527222
0.33914901,-0.3598197,0.553406,0.32879731,-0.31266866,0.550102,0.31848304,-0.349045,0.553929,0.29487526,-0.3273442,0.558183,0.26359821,-0.29828789,0.539339,0.25317176,-0.28228181,0.539101,0.29268395,-0.26730043,0.548541,0.27219499,-0.22211524,0.537476,0.26005572,-0.20200581,0.531944,0.24809284,-0.18837119,0.526915,0.31271263,-0.26254023,0.546956,0.2902545,-0.21444219,0.535116,0.27489367,-0.18977754,0.528209,0.2636806,-0.1717051,0.523276,0.33180611,-0.26161037,0.546006,0.31072792,-0.22232519,0.535646,0.29943206,-0.20288479,0.530345,0.28911847,-0.18511719,0.525527,0.35674785,-0.26647464,0.545525,0.33755259,-0.22468598,0.535533,0.3278681,-0.2074487,0.530942,0.31919209,-0.19202373,0.526891
0.33467576,-0.35545594,0.551672,0.31400162,-0.31283487,0.549024,0.31333513,-0.34482504,0.551833,0.27805546,-0.32108842,0.552318,0.25231074,-0.29164259,0.538416,0.24678938,-0.27732556,0.543142,0.28285961,-0.2662973,0.547435,0.26538129,-0.22109068,0.538124,0.25354515,-0.20234996,0.533468,0.24517193,-0.18711731,0.529235,0.30554758,-0.26326565,0.546502,0.28868279,-0.21450532,0.535253,0.27391931,-0.18953693,0.528692,0.26314396,-0.17124502,0.524005,0.32497672,-0.26380961,0.546018,0.30969051,-0.22275224,0.536057,0.29902879,-0.20309208,0.530961,0.28921222,-0.18522785,0.526328,0.34971244,-0.27045966,0.545955,0.33255783,-0.22814566,0.537103,0.32359203,-0.20977227,0.533036,0.31888866,-0.19250868,0.529448
0.33175018,-0.35486437,0.550329,0.31350862,-0.3123437,0.548162,0.31043099,-0.34417635,0.550479,0.27768494,-0.32066054,0.551582,0.25216922,-0.291479,0.538114,0.24680619,-0.27734445,0.543179,0.28257646,-0.26603072,0.546887,0.26543504,-0.22113547,0.538233,0.25375332,-0.2025161,0.533906,0.24458726,-0.1867576,0.529972,0.30532226,-0.26307151,0.546099,0.28793241,-0.21456437,0.53539,0.27353961,-0.18949137,0.529143,0.26303137,-0.17111619,0.524681,0.32477793,-0.26364824,0.545684,0.30912227,-0.22293133,0.536179,0.29885296,-0.20321368,0.531316,0.28935068,-0.18534191,0.526896,0.34949081,-0.27028826,0.545609,0.33271819,-0.22825568,0.537362,0.32391803,-0.2099836,0.533573,0.31822642,-0.19319355,0.53023
0.31916148,-0.35214298,0.551163,0.30969713,-0.29904797,0.548508,0.29700999,-0.33981259,0.549603,0.26803921,-0.30452497,0.547084,0.2419324,-0.27730139,0.53473,0.23620959,-0.26557643,0.541417,0.28083885,-0.2520609,0.544673,0.26112636,-0.20790002,0.534265,0.25503908,-0.20041618,0.529061,0.24531316,-0.18843466,0.52433,0.30453762,-0.25085663,0.54598,0.28296461,-0.20557441,0.534484,0.27045339,-0.1860839,0.527778,0.26161121,-0.16928283,0.522988,0.32472451,-0.25279975,0.547342,0.30586131,-0.2142558,0.536949,0.29611686,-0.19428678,0.531632,0.28903747,-0.18044139,0.526798,0.35014131,-0.26094577,0.549422,0.3317997,-0.21860945,0.539027,0.32293455,-0.19989848,0.534251,0.31775923,-0.19266242,0.530037
0.31800862,-0.34943625,0.551766,0.30876133,-0.29733129,0.547857,0.29283612,-0.32918403,0.550011,0.26626922,-0.30227066,0.544424,0.23642812,-0.27078685,0.524633,0.22737512,-0.25554254,0.526153,0.28007463,-0.25072111,0.542915,0.25997855,-0.21229796,0.531182,0.2491495,-0.1953181,0.525316,0.24304299,-0.18430121,0.519982,0.30311858,-0.24901805,0.544134,0.28127098,-0.20366903,0.531265,0.26703194,-0.17959576,0.523758,0.25877482,-0.16682142,0.518396,0.32289522,-0.25056669,0.545558,0.30348371,-0.21166255,0.533895,0.29311227,-0.19221974,0.527928,0.28493321,-0.17922849,0.522503,0.34804774,-0.25829539,0.547946,0.33211083,-0.21549157,0.536678,0.32564475,-0.19606832,0.5315,0.31700137,-0.18727403,0.526932
0.32815534,-0.35211587,0.552798,0.31218814,-0.29924058,0.547458,0.30407123,-0.33956417,0.550784,0.27370583,-0.30656159,0.544507,0.24568971,-0.27691915,0.528224,0.2332991,-0.25933124,0.529637,0.28436785,-0.25576276,0.541209,0.26326614,-0.21390635,0.52812,0.25012519,-0.19181794,0.521576,0.24259249,-0.17261974,0.515627,0.3068332,-0.25206064,0.542372,0.28101461,-0.20308048,0.527941,0.2668039,-0.1775561,0.519522,0.25660872,-0.16510281,0.513509,0.32454293,-0.25155817,0.543906,0.30856867,-0.21148789,0.530966,0.29780365,-0.19316952,0.524345,0.28731385,-0.17777124,0.518326,0.35014912,-0.25859274,0.546689,0.33954406,-0.21314363,0.534727,0.32702832,-0.19605775,0.529231,0.31860765,-0.18473795,0.524382
0.32377382,-0.34257816,0.541868,0.32084689,-0.29245909,0.540302,0.3094578,-0.33522985,0.544282,0.28416757,-0.30637064,0.545392,0.25248924,-0.2778936,0.526689,0.24381893,-0.26307499,0.527674,0.29583703,-0.25199223,0.542384,0.27175921,-0.21242959,0.533381,0.25769655,-0.19356435,0.528879,0.24737634,-0.17432434,0.524786,0.3136376,-0.24530119,0.538812,0.29204774,-0.19822126,0.529055,0.27941274,-0.17064879,0.523363,0.27036844,-0.15090278,0.519297,0.32911969,-0.24257336,0.536039,0.32261986,-0.21233966,0.544547,0.31930262,-0.19689387,0.548901,0.31629064,-0.18286446,0.552858,0.34928309,-0.24496566,0.533114,0.34603504,-0.21050068,0.532117,0.33710687,-0.19447138,0.531659,0.32713986,-0.18228774,0.531255
0.316152,-0.33965671,0.533958,0.32004489,-0.30376278,0.537105,0.29722139,-0.33109156,0.536435,0.28202277,-0.31245227,0.539773,0.25384671,-0.28103885,0.521764,0.2456915,-0.26317312,0.524528,0.29415041,-0.26495166,0.542467,0.28417068,-0.221681,0.537985,0.27863791,-0.19962008,0.535744,0.26889147,-0.1892352,0.533707,0.31551309,-0.26079064,0.540103,0.2998831,-0.2157064,0.535468,0.29266527,-0.18779842,0.532765,0.28620885,-0.16796205,0.530834,0.33338128,-0.25996761,0.537816,0.32203808,-0.22042759,0.533886,0.31578306,-0.20069504,0.531875,0.31007403,-0.18267117,0.530047,0.35611809,-0.26154954,0.53457,0.34670181,-0.22046087,0.530625,0.34210781,-0.2015283,0.528812,0.338033,-0.18471037,0.527212
0.34063512,-0.35076588,0.54552,0.34222436,-0.3084359,0.54098,0.32798097,-0.34008263,0.540861,0.30388267,-0.316566,0.539859,0.27188477,-0.28554251,0.51949,0.26318186,-0.26954706,0.520207,0.30269187,-0.25852866,0.531827,0.29355259,-0.22442535,0.541977,0.28674107,-0.20555234,0.547051,0.28505491,-0.19179745,0.55233,0.32969974,-0.25803362,0.536655,0.30783408,-0.20818369,0.522645,0.2954727,-0.18130636,0.514473,0.28925006,-0.17164606,0.508636,0.35307458,-0.26077556,0.54112,0.33555153,-0.21850124,0.528548,0.32710993,-0.19873735,0.522116,0.31967148,-0.18163599,0.516268,0.38305938,-0.27018115,0.547156,0.37341609,-0.23193918,0.547399,0.36903442,-0.21455932,0.547511,0.36519346,-0.19932242,0.54761
0.3607246,-0.36233598,0.55104,0.35742416,-0.32234779,0.545448,0.33519388,-0.3474651,0.545532,0.32034134,-0.3282105,0.546658,0.2896622,-0.29420358,0.524517,0.28203604,-0.27640936,0.523106,0.32270218,-0.26798748,0.534476,0.3178373,-0.23115548,0.543534,0.31534241,-0.21248926,0.548063,0.31303855,-0.19537748,0.55218,0.35048313,-0.27084161,0.540121,0.33360059,-0.21967403,0.524882,0.32426596,-0.19216714,0.515993,0.31930375,-0.18193588,0.509644,0.37420004,-0.2764813,0.545373,0.3606751,-0.23300522,0.531633,0.35448451,-0.21340897,0.524603,0.34911372,-0.19670364,0.518212,0.40393239,-0.28958146,0.552519,0.39787158,-0.24909691,0.550684,0.39558777,-0.23093377,0.550512,0.39377951,-0.21506233,0.550642
0.38749236,-0.35712767,0.547572,0.3768315,-0.31432754,0.54462,0.3625681,-0.34509263,0.543927,0.34309635,-0.32497966,0.547489,0.30975213,-0.29300474,0.525602,0.30097984,-0.27594929,0.524327,0.33815041,-0.26599943,0.537867,0.31996755,-0.22313799,0.53295,0.31082808,-0.20157926,0.530491,0.30249146,-0.18190469,0.528256,0.36487426,-0.26496204,0.541809,0.34682786,-0.21788417,0.534918,0.33638138,-0.1906853,0.530898,0.32987219,-0.17406863,0.528027,0.38787399,-0.26719142,0.545373,0.3750808,-0.229138,0.54206,0.36860711,-0.20968037,0.540366,0.36272132,-0.1919913,0.538825,0.41712222,-0.27584273,0.550065,0.40169133,-0.2347358,0.544204,0.39519131,-0.21618511,0.541511,0.3894199,-0.19967736,0.539135
0.3870876,-0.358619,0.545282,0.38665774,-0.31890027,0.545385,0.36170501,-0.34332163,0.539258,0.34372316,-0.31726564,0.537365,0.31469686,-0.28666528,0.520916,0.30550867,-0.27631703,0.526477,0.35568578,-0.26465158,0.537609,0.34137368,-0.22626572,0.540862,0.33420122,-0.20703355,0.542488,0.32767207,-0.18952769,0.543967,0.38473052,-0.26984443,0.545483,0.38213373,-0.22850293,0.552048,0.38062414,-0.20441742,0.555878,0.37954747,-0.1872265,0.558613,0.4088516,-0.27711035,0.551957,0.40628695,-0.24390349,0.558006,0.40611191,-0.22763478,0.562651,0.40594727,-0.21281271,0.566875,0.43792499,-0.291553,0.559451,0.41823226,-0.25110275,0.550785,0.41962015,-0.24215328,0.546803,0.42382928,-0.24887842,0.54329
0.3868326,-0.35900864,0.544346,0.39773459,-0.31952909,0.544744,0.36300233,-0.34137913,0.537893,0.3532277,-0.30657158,0.53305,0.33396735,-0.27411866,0.520313,0.33446628,-0.26158675,0.528767,0.38079889,-0.26057778,0.53661,0.37846404,-0.2198202,0.5406,0.37728627,-0.19935605,0.542595,0.37620991,-0.18070344,0.544409,0.40924674,-0.27182225,0.545123,0.41921813,-0.23033142,0.55197,0.42521716,-0.20622669,0.556204,0.42950299,-0.18899953,0.559228,0.43207853,-0.28401976,0.552091,0.439232,-0.25014316,0.557767,0.44477065,-0.2339173,0.56306,0.44981108,-0.21909653,0.567872,0.45798707,-0.3042494,0.560103,0.44777778,-0.26149087,0.551353,0.4513316,-0.25390486,0.547333,0.45329438,-0.26206773,0.543786
0.43498984,-0.37819721,0.573643,0.43510192,-0.32967411,0.56242,0.41045138,-0.35460571,0.562532,0.40182321,-0.32236208,0.551764,0.37664635,-0.28348567,0.525813,0.37071789,-0.2637571,0.522687,0.40581342,-0.26491684,0.540328,0.42534087,-0.22908651,0.54846,0.43513826,-0.21107146,0.552526,0.44776594,-0.20016673,0.556222,0.43675262,-0.27609587,0.551731,0.4425456,-0.23285812,0.555469,0.44592503,-0.20762607,0.557649,0.45367574,-0.19524756,0.559207,0.46290128,-0.28892417,0.562331,0.46695937,-0.24862649,0.542473,0.46149294,-0.25218572,0.532314,0.46189778,-0.27263347,0.541264,0.49487028,-0.31115436,0.576744,0.47751919,-0.2634036,0.556796,0.47708565,-0.26548236,0.547631,0.47298835,-0.27737732,0.539544
0.43719392,-0.37495632,0.577398,0.43595258,-0.31915151,0.564154,0.41215458,-0.35008354,0.564355,0.38288567,-0.30102755,0.538757,0.36347102,-0.27318413,0.531092,0.36540851,-0.26174328,0.54294,0.40686037,-0.2522603,0.538172,0.40233766,-0.207947,0.53089,0.40008768,-0.18531542,0.527249,0.39856982,-0.16462942,0.523939,0.43689684,-0.2648069,0.55154,0.44513735,-0.2210533,0.554536,0.44998264,-0.19523718,0.556284,0.46182625,-0.18470673,0.557532,0.4622651,-0.2787786,0.563977,0.46819123,-0.24727883,0.541423,0.46704678,-0.24978308,0.529883,0.46216351,-0.26973068,0.536897,0.49331063,-0.30238091,0.580901,0.48861067,-0.3016704,0.559157,0.47475527,-0.31325733,0.549166,0.47340851,-0.32962581,0.553542
0.48154588,-0.34219511,0.554528,0.4700335,-0.30013088,0.55298,0.45175405,-0.32656617,0.546556,0.42564296,-0.2979135,0.541016,0.40137734,-0.27227606,0.533296,0.3991222,-0.26446759,0.544687,0.42636376,-0.2510757,0.541545,0.41614144,-0.20892605,0.530763,0.41099994,-0.18720097,0.525372,0.41066331,-0.176204,0.520471,0.45759029,-0.25408921,0.551506,0.44865584,-0.20597431,0.540672,0.44538246,-0.17972135,0.534352,0.44428311,-0.16283392,0.529838,0.48456226,-0.25934051,0.559875,0.47998924,-0.2265819,0.558104,0.48357113,-0.21534102,0.557197,0.50130799,-0.21056384,0.572663,0.51892322,-0.2710679,0.56988,0.50959673,-0.22731845,0.560718,0.5097016,-0.21199661,0.556508,0.50990854,-0.19808009,0.552793
0.48245697,-0.34543399,0.552558,0.47948946,-0.30911541,0.553997,0.45406761,-0.32772481,0.54373,0.44092599,-0.2995357,0.539585,0.41405144,-0.26733777,0.523808,0.40845467,-0.25640338,0.530711,0.44335928,-0.25517867,0.543475,0.4365832,-0.20955565,0.533489,0.43830329,-0.18904632,0.528497,0.44351337,-0.17368063,0.523958,0.47309989,-0.26362954,0.555368,0.47772097,-0.21808666,0.547695,0.4824283,-0.19186505,0.543218,0.48753009,-0.17391893,0.540021,0.49798844,-0.27329258,0.565006,0.50033838,-0.23390383,0.558322,0.50523747,-0.21556183,0.554902,0.52691656,-0.20655037,0.568354,0.52833446,-0.29004156,0.575923,0.53677121,-0.28215469,0.566175,0.53032047,-0.29860286,0.561696,0.53461653,-0.3190078,0.570681
0.49252722,-0.35173908,0.561573,0.49764029,-0.30977033,0.559812,0.4666041,-0.3343011,0.555224,0.46634698,-0.30687247,0.559181,0.44185812,-0.27440541,0.54475,0.43921236,-0.26102108,0.550383,0.46867158,-0.25408858,0.550347,0.47306719,-0.21245601,0.540765,0.47510683,-0.1955315,0.535974,0.47636094,-0.18418287,0.531618,0.49889534,-0.26105018,0.558135,0.49797999,-0.21221148,0.547539,0.4993188,-0.18740698,0.541357,0.5002445,-0.17737154,0.536942,0.52424571,-0.26985983,0.564738,0.51193607,-0.227502,0.55254,0.50694247,-0.20707009,0.546298,0.51984864,-0.200355,0.559304,0.55498898,-0.28641687,0.572734,0.55520421,-0.24480884,0.563595,0.55772679,-0.2338481,0.559397,0.56915081,-0.2457162,0.569482
0.50959259,-0.35901918,0.571951,0.52069097,-0.31076337,0.566414,0.48835165,-0.33613378,0.564775,0.47016294,-0.29373506,0.545552,0.44226169,-0.25868871,0.524774,0.43799011,-0.24273854,0.527635,0.49204791,-0.25272837,0.553307,0.501296,-0.21227411,0.541443,0.50866757,-0.1925961,0.538176,0.51560284,-0.1742911,0.535205,0.5212123,-0.26300958,0.56114,0.52649078,-0.21781752,0.545806,0.52994524,-0.20179112,0.536862,0.52571062,-0.2088279,0.530473,0.54580289,-0.27455036,0.568187,0.54453296,-0.23277815,0.554145,0.54643321,-0.21857317,0.546961,0.56428569,-0.22704566,0.559256,0.57600179,-0.29437027,0.577407,0.57056668,-0.25044344,0.562616,0.57010691,-0.23318866,0.55582,0.57124776,-0.2236746,0.549824
0.54413284,-0.36117801,0.574754,0.53766745,-0.31560805,0.569745,0.51875927,-0.34233154,0.568407,0.50736162,-0.31097524,0.566403,0.47491461,-0.27641786,0.546501,0.47680692,-0.2587475,0.548094,0.5028346,-0.25951659,0.558076,0.50647857,-0.21569231,0.545274,0.51044365,-0.19521617,0.538873,0.5142189,-0.17629269,0.533054,0.5312462,-0.26572703,0.564974,0.52956126,-0.2197346,0.550276,0.5268053,-0.19242902,0.541702,0.52920259,-0.17818969,0.535578,0.55539683,-0.27396261,0.571194,0.55501338,-0.23652768,0.556988,0.55244009,-0.21901376,0.54972,0.55652021,-0.20154233,0.543112,0.58556092,-0.28985958,0.579356,0.5850304,-0.28430636,0.565197,0.58143126,-0.29913712,0.558691,0.58657015,-0.30970528,0.567417
0.54575591,-0.35749185,0.573505,0.54051569,-0.31294682,0.569799,0.51908741,-0.33616373,0.564227,0.50235609,-0.29656214,0.553759,0.47471781,-0.26167241,0.534919,0.47415427,-0.24580024,0.539308,0.50913101,-0.25129449,0.555198,0.51529912,-0.20799456,0.54306,0.51848734,-0.186117,0.536991,0.52727568,-0.18109856,0.531473,0.53806149,-0.26196821,0.566269,0.54830429,-0.21981209,0.552853,0.55472288,-0.1945254,0.545026,0.55952768,-0.17612079,0.539436,0.56116035,-0.2749467,0.575786,0.56793456,-0.24091448,0.561219,0.57104259,-0.22372553,0.553766,0.57406044,-0.20784552,0.54699,0.59312574,-0.29375184,0.587529,0.59527613,-0.26117904,0.573627,0.60050331,-0.27213783,0.56724,0.60713802,-0.29060825,0.575235
0.53949169,-0.35680755,0.574007,0.54766531,-0.31194642,0.570917,0.51967557,-0.33339316,0.564022,0.49714721,-0.29093303,0.548179,0.47830677,-0.25373394,0.531707,0.4850629,-0.23699313,0.534221,0.53134598,-0.25065635,0.555812,0.53347864,-0.20597789,0.54152,0.53460325,-0.18349489,0.534373,0.54210497,-0.17773182,0.527877,0.56067222,-0.26733637,0.567973,0.57582008,-0.22511816,0.555245,0.58493646,-0.20012591,0.547821,0.59368284,-0.19581305,0.542518,0.58460832,-0.28401446,0.578321,0.59410861,-0.25274057,0.563679,0.59981898,-0.237397,0.556187,0.60530541,-0.22324245,0.549377,0.61235131,-0.30962771,0.590913,0.60949275,-0.26479299,0.577354,0.61638197,-0.25332081,0.571124,0.62277504,-0.24299723,0.565627
0.53935045,-0.3523857,0.565813,0.55875244,-0.31469045,0.567486,0.51939106,-0.33164726,0.560947,0.52390461,-0.30087493,0.562111,0.50393807,-0.26500143,0.545057,0.50652433,-0.24938881,0.549887,0.54568285,-0.25728885,0.562284,0.55174756,-0.21325382,0.555893,0.55474395,-0.19135482,0.552697,0.56228028,-0.18029139,0.549792,0.57326406,-0.26954171,0.569079,0.58232022,-0.22534117,0.561823,0.58716195,-0.19555117,0.557589,0.59511497,-0.18661659,0.554566,0.5951669,-0.28240074,0.574495,0.59251794,-0.24152816,0.56634,0.59738526,-0.22555721,0.562168,0.6034708,-0.21797504,0.558375,0.61956156,-0.30315453,0.580467,0.62424679,-0.26144874,0.573147,0.6285804,-0.24324228,0.569784,0.63541725,-0.23331704,0.566817
0.55293948,-0.36054053,0.576034,0.57275152,-0.32296192,0.575086,0.53823331,-0.33906262,0.569676,0.54180105,-0.31440269,0.573428,0.51468384,-0.27575567,0.548105,0.51363752,-0.25609925,0.545038,0.56044158,-0.26386316,0.56616,0.5613889,-0.21984467,0.559782,0.56948551,-0.20209216,0.556593,0.57863471,-0.19182726,0.553694,0.5882542,-0.27629065,0.574183,0.59627313,-0.22926773,0.564127,0.60109898,-0.2016745,0.558262,0.60630664,-0.18279541,0.554072,0.61032343,-0.2894364,0.580892,0.61952365,-0.25499813,0.574765,0.62943291,-0.25149698,0.571631,0.63827048,-0.24971129,0.568782,0.63478484,-0.31072021,0.588857,0.63956977,-0.26926387,0.57898,0.64207838,-0.25026613,0.574442,0.64765223,-0.23719483,0.570438
0.55978741,-0.36025259,0.578345,0.58168956,-0.31650827,0.576234,0.54251015,-0.33707985,0.570956,0.53852105,-0.29778086,0.562887,0.51433702,-0.26099806,0.541094,0.51641575,-0.24333072,0.542845,0.57234167,-0.25553729,0.565177,0.57102353,-0.21265265,0.559693,0.58116778,-0.20032106,0.556951,0.59122055,-0.19158558,0.554458,0.59993975,-0.27108303,0.574224,0.61587499,-0.22765085,0.564553,0.62549513,-0.20183186,0.558912,0.63465737,-0.18541563,0.554883,0.62179248,-0.28677654,0.581901,0.62380043,-0.24603326,0.571526,0.62588943,-0.22572478,0.566218,0.62825286,-0.20746109,0.561393,0.64583487,-0.31108243,0.591209,0.65637775,-0.27122874,0.583523,0.66115906,-0.25303724,0.579992,0.6667907,-0.23752323,0.576876
0.56121744,-0.35883835,0.578222,0.58387642,-0.31622783,0.578041,0.54998202,-0.33610368,0.574777,0.54172314,-0.29754868,0.566351,0.51822333,-0.26052271,0.544326,0.52115842,-0.24272817,0.545648,0.57788623,-0.25804639,0.573431,0.57983772,-0.21975318,0.572229,0.58754288,-0.21164391,0.571629,0.59592517,-0.20085239,0.571082,0.60353304,-0.27209419,0.577868,0.61839218,-0.22792975,0.569313,0.6232416,-0.19956174,0.564323,0.62870284,-0.18023893,0.560759,0.62237842,-0.2858761,0.581542,0.63335197,-0.24739006,0.573835,0.63940823,-0.22865507,0.569893,0.64519426,-0.21161476,0.566308,0.64259795,-0.30764067,0.58584,0.65642607,-0.26979786,0.583538,0.66277453,-0.25242091,0.58248,0.66909487,-0.23732791,0.581547
0.56446247,-0.35838367,0.577626,0.58546085,-0.31701641,0.57869,0.55133461,-0.33578351,0.574871,0.54408765,-0.29898495,0.567775,0.52070612,-0.26177567,0.545589,0.52328177,-0.24388597,0.546788,0.57946679,-0.26062968,0.575825,0.58534914,-0.22048146,0.569195,0.59047119,-0.20635559,0.56588,0.59401726,-0.19790351,0.562866,0.60514918,-0.27326547,0.579704,0.61053354,-0.22719481,0.572029,0.61798347,-0.20604391,0.567552,0.62064419,-0.18822302,0.564354,0.62415486,-0.28642803,0.582784,0.63157163,-0.24768887,0.575775,0.63328931,-0.22753196,0.572189,0.6370503,-0.20953028,0.568929,0.6445264,-0.30740798,0.586158,0.65781463,-0.26994642,0.584623,0.66422497,-0.25268468,0.583917,0.67035647,-0.23762118,0.583295
0.56656096,-0.35902189,0.578389,0.58664821,-0.31832946,0.57953,0.55305825,-0.33666488,0.575766,0.54910067,-0.3033815,0.570471,0.52555901,-0.26559052,0.547411,0.52483867,-0.24541788,0.547629,0.57894473,-0.26395884,0.576889,0.58550669,-0.22231705,0.570543,0.59123163,-0.21113615,0.56737,0.59593578,-0.19936887,0.564486,0.60548077,-0.27446822,0.580617,0.61047582,-0.22894383,0.573174,0.61846097,-0.20797556,0.568832,0.62460547,-0.19232675,0.565731,0.6246783,-0.28734443,0.583565,0.63214775,-0.24870625,0.576658,0.63459168,-0.22895618,0.573125,0.63853382,-0.21104604,0.569913,0.64540429,-0.30800515,0.586771,0.65825373,-0.27044964,0.585467,0.66464487,-0.2531471,0.584867,0.67064507,-0.23799553,0.584339
0.56893662,-0.35981839,0.579745,0.5877198,-0.31902848,0.580561,0.553515,-0.33679734,0.575676,0.54952234,-0.30434327,0.57111,0.52515202,-0.26675354,0.548578,0.52545158,-0.24698946,0.549359,0.57668222,-0.2632293,0.575814,0.57943976,-0.21753683,0.568481,0.58474887,-0.20557343,0.564815,0.59179286,-0.19296429,0.561481,0.6053999,-0.27463446,0.581338,0.60921695,-0.22847799,0.573217,0.61568198,-0.20731766,0.56848,0.62166729,-0.19109882,0.565097,0.62651745,-0.28795738,0.585798,0.62743297,-0.24694834,0.577558,0.62744913,-0.2254923,0.575132,0.63079191,-0.20763912,0.572927,0.64976299,-0.30931397,0.590822,0.65136992,-0.26905099,0.588938,0.65834293,-0.25311018,0.588073,0.66481016,-0.23887561,0.587309
0.57223854,-0.35925121,0.579155,0.58830005,-0.3192778,0.580233,0.55524548,-0.33744964,0.575824,0.55053983,-0.30547108,0.572037,0.52595547,-0.26805846,0.550255,0.52717267,-0.24860986,0.551535,0.57512293,-0.26564956,0.576626,0.58134177,-0.22573837,0.570203,0.58707056,-0.20794738,0.566992,0.59276735,-0.19046017,0.564072,0.60310205,-0.27580646,0.581259,0.60661934,-0.23103328,0.573518,0.61313126,-0.20613372,0.569002,0.61746331,-0.18606822,0.565777,0.62510283,-0.28757524,0.584958,0.6297233,-0.24835621,0.578009,0.63312778,-0.22854463,0.574454,0.63662147,-0.21057464,0.571222,0.64893918,-0.30742248,0.58905,0.65202026,-0.26815611,0.587997,0.6617627,-0.25224108,0.587513,0.6688798,-0.23848418,0.587086
0.57705289,-0.36136817,0.582991,0.59089492,-0.32034782,0.582822,0.55765431,-0.33860568,0.577775,0.55181904,-0.30624763,0.57316,0.52671471,-0.26910664,0.551774,0.52832158,-0.25147643,0.553539,0.57116307,-0.26285355,0.575913,0.57030042,-0.22155051,0.566861,0.57499121,-0.20241354,0.562335,0.57401503,-0.18257442,0.558221,0.6007495,-0.27325502,0.58266,0.60077435,-0.22400699,0.573335,0.60441161,-0.20057409,0.567896,0.61059478,-0.18406314,0.56401,0.62492346,-0.28477763,0.588235,0.62074021,-0.24111699,0.578519,0.6211341,-0.22190406,0.573548,0.62207756,-0.20573414,0.569029,0.65235857,-0.30059925,0.594737,0.65446331,-0.26179007,0.591427,0.65870083,-0.24394807,0.589906,0.66268897,-0.22813616,0.588564
0.57913991,-0.36355876,0.587134,0.59150877,-0.32011989,0.585458,0.56070942,-0.34141514,0.583182,0.54024631,-0.30162119,0.57561,0.51926833,-0.26889503,0.560787,0.5128177,-0.24999379,0.555538,0.5706983,-0.26353644,0.579172,0.57237433,-0.22222647,0.569125,0.57454391,-0.20566339,0.564101,0.57208474,-0.19202046,0.559533,0.59849044,-0.27263758,0.583862,0.59935186,-0.22415729,0.573034,0.6009853,-0.20188339,0.566717,0.60132554,-0.18895487,0.562205,0.62311367,-0.28438298,0.587905,0.61965649,-0.242376,0.57769,0.61954355,-0.22242561,0.572463,0.6199548,-0.20615971,0.567712,0.64848562,-0.30131801,0.592912,0.65297086,-0.26186224,0.58989,0.65672911,-0.24375372,0.588501,0.66016055,-0.22775348,0.587276
0.5827329,-0.36440969,0.590012,0.59249644,-0.32097112,0.587535,0.56438354,-0.34249589,0.586375,0.54303208,-0.30469191,0.578639,0.5206093,-0.27174571,0.563696,0.51863209,-0.25296662,0.563032,0.57072814,-0.26439852,0.581116,0.57256008,-0.2228884,0.570444,0.57071223,-0.20652965,0.565108,0.57037238,-0.19146537,0.560257,0.59863456,-0.27368617,0.585176,0.5955042,-0.22784682,0.573524,0.59698652,-0.20403205,0.566727,0.59427455,-0.19277763,0.561872,0.62103831,-0.28404787,0.588786,0.61873792,-0.24489859,0.578085,0.61887429,-0.22338238,0.572609,0.61892516,-0.20683311,0.567632,0.64593568,-0.30343924,0.593442,0.64302262,-0.26034832,0.58441,0.63887447,-0.24450851,0.58026,0.6388934,-0.23004907,0.576598
0.5810877,-0.36324025,0.59196,0.5860426,-0.31896869,0.589318,0.56239336,-0.34005837,0.589338,0.52916977,-0.30249814,0.57521,0.50776786,-0.27183925,0.560858,0.50226269,-0.25214255,0.557936,0.57179911,-0.26587198,0.584107,0.56040467,-0.22959734,0.572818,0.55663916,-0.21053962,0.567173,0.55327111,-0.19269562,0.562042,0.5956406,-0.27506792,0.586801,0.59020051,-0.2303128,0.575128,0.58854032,-0.20345838,0.568319,0.58745072,-0.18383844,0.563455,0.61658452,-0.28514126,0.589304,0.60792124,-0.24506042,0.578153,0.60474381,-0.22629036,0.572448,0.6019117,-0.20890217,0.567262,0.63853903,-0.30257193,0.592706,0.63134651,-0.26079767,0.584665,0.62995106,-0.24670825,0.58097,0.62879796,-0.23390355,0.57771
0.57895929,-0.36198116,0.596433,0.58115302,-0.31902232,0.591888,0.56154616,-0.34085654,0.593891,0.52984891,-0.30476102,0.579233,0.50361976,-0.27475283,0.564479,0.49867187,-0.25288955,0.55718,0.57016645,-0.26699069,0.585491,0.55454914,-0.23243588,0.572455,0.54807773,-0.21440121,0.565937,0.54218923,-0.19752945,0.560011,0.59299826,-0.27521796,0.58756,0.58297432,-0.23269899,0.573871,0.57792796,-0.20691876,0.565885,0.57332725,-0.19076763,0.560182,0.61334038,-0.28502957,0.589753,0.60388291,-0.24397268,0.577038,0.59532046,-0.22319408,0.570533,0.59458879,-0.20647873,0.564619,0.6375116,-0.30262665,0.593153,0.62955463,-0.26099224,0.584779,0.6272825,-0.24638183,0.580931,0.62533012,-0.23313061,0.577536
0.55822575,-0.35421971,0.587918,0.56962521,-0.31932213,0.592939,0.54760693,-0.33796593,0.591999,0.52533841,-0.31031019,0.589496,0.50806219,-0.28312957,0.581689,0.50358122,-0.26359272,0.579203,0.57281524,-0.27440508,0.601663,0.57125407,-0.24400783,0.600955,0.57076925,-0.22766639,0.600952,0.57042488,-0.21201443,0.601077,0.59165734,-0.28001484,0.597721,0.59434161,-0.24159828,0.595818,0.59646998,-0.21758639,0.595059,0.5969145,-0.20246027,0.594517,0.60587847,-0.28698969,0.593933,0.60713544,-0.25017925,0.593207,0.60767869,-0.23191869,0.592835,0.60816211,-0.21516799,0.592497,0.62048319,-0.30012782,0.588594,0.62359155,-0.26380369,0.590753,0.62557935,-0.25065307,0.591745,0.62737087,-0.238501,0.59262
0.54082598,-0.35249481,0.586313,0.55559486,-0.31869283,0.591932,0.53205741,-0.33730382,0.591697,0.51275851,-0.30940277,0.59126,0.49641532,-0.28216316,0.582713,0.49412022,-0.2635651,0.583563,0.56208425,-0.27613977,0.602761,0.56076001,-0.24685165,0.602756,0.56042198,-0.23107204,0.603165,0.56020058,-0.21591833,0.603671,0.57913587,-0.28067093,0.597284,0.58041617,-0.2422616,0.596417,0.58176895,-0.21829163,0.596432,0.58287375,-0.20029843,0.596533,0.59174353,-0.28665049,0.592169,0.59474546,-0.25143113,0.592636,0.59585315,-0.23374278,0.592875,0.59690214,-0.21706852,0.593105,0.60422012,-0.29841677,0.585175,0.60691589,-0.26132812,0.587456,0.60784939,-0.24541497,0.588503,0.60866994,-0.23089116,0.589428
0.53671546,-0.35347646,0.585254,0.55107091,-0.31985213,0.591313,0.52199032,-0.33967126,0.590807,0.5028225,-0.3186693,0.590769,0.47897506,-0.29168802,0.579809,0.4747783,-0.27547139,0.583431,0.54685981,-0.27822118,0.60266,0.54271082,-0.24903968,0.603429,0.54074593,-0.23328983,0.604174,0.53893488,-0.21816349,0.604981,0.5649292,-0.2810165,0.597083,0.56663647,-0.24002137,0.596743,0.56810777,-0.21464506,0.59696,0.56927438,-0.19573108,0.597194,0.57859438,-0.28563982,0.591838,0.58027311,-0.25234729,0.592417,0.58116255,-0.23438488,0.592713,0.58206793,-0.21750056,0.593061,0.59287246,-0.29591986,0.58461,0.5944489,-0.25716615,0.583586,0.59337888,-0.24553492,0.583116,0.5924089,-0.2347788,0.582701
0.53556903,-0.35452539,0.586103,0.54606603,-0.32105924,0.591556,0.52033423,-0.34063125,0.590723,0.50089227,-0.31726996,0.589135,0.48029137,-0.29159559,0.581667,0.47543522,-0.27471528,0.584322,0.54325984,-0.27862511,0.601275,0.53871533,-0.25044048,0.600632,0.53630089,-0.23914811,0.601436,0.5358964,-0.22156062,0.602167,0.56241345,-0.28168269,0.596748,0.56401234,-0.23812449,0.595469,0.56037936,-0.22887927,0.594723,0.55869584,-0.22282064,0.594189,0.57710685,-0.28659453,0.592433,0.57360219,-0.24474361,0.59242,0.57335876,-0.22598399,0.592414,0.57313397,-0.20798093,0.592408,0.59280054,-0.29730568,0.5864,0.58242128,-0.25488303,0.584449,0.58187092,-0.24392187,0.583552,0.5868838,-0.23427005,0.582761
0.5279869,-0.35580551,0.584534,0.53272378,-0.32477262,0.591646,0.51312317,-0.34379669,0.588609,0.48900128,-0.32314446,0.586853,0.46644178,-0.29676029,0.578164,0.46238025,-0.28171962,0.583293,0.52293828,-0.28444949,0.601781,0.51950993,-0.25423597,0.601624,0.5181408,-0.23840827,0.602064,0.5169313,-0.22345841,0.602582,0.54385669,-0.28573213,0.598418,0.54313274,-0.24819734,0.598635,0.5425702,-0.22684311,0.598761,0.5421734,-0.21061724,0.598891,0.5602031,-0.28921892,0.594883,0.56056628,-0.24705408,0.595143,0.56075685,-0.22412243,0.595277,0.56093881,-0.20755538,0.595398,0.5782487,-0.29822914,0.589442,0.56598293,-0.25759673,0.588497,0.56024577,-0.23856776,0.588063,0.55592023,-0.22236059,0.58768
0.52730754,-0.36301219,0.588666,0.51699363,-0.32949171,0.588779,0.50015074,-0.35213124,0.58614,0.47260376,-0.32670678,0.573096,0.44235793,-0.29633355,0.555408,0.44125191,-0.28168952,0.559944,0.48857384,-0.28038205,0.585565,0.48490553,-0.24444146,0.578205,0.48325114,-0.2259408,0.574685,0.48196423,-0.20935614,0.571485,0.51540047,-0.2832392,0.588886,0.5110063,-0.23935507,0.580347,0.50877479,-0.2125596,0.575628,0.50728472,-0.19278213,0.572317,0.53775191,-0.28865764,0.591608,0.53188598,-0.2433854,0.583441,0.52892179,-0.21925453,0.579263,0.52838542,-0.20120418,0.575465,0.56483237,-0.30103783,0.594747,0.56165759,-0.25971973,0.593671,0.56612148,-0.25213059,0.593176,0.5703307,-0.24516815,0.592739
0.50986559,-0.37118183,0.587662,0.50561423,-0.33148823,0.591427,0.49104885,-0.35890631,0.589475,0.46139984,-0.33002844,0.5834,0.43864797,-0.30233456,0.572438,0.43223787,-0.28427742,0.571799,0.48611293,-0.28878218,0.596345,0.48340237,-0.25760718,0.592451,0.48149575,-0.24326919,0.590505,0.47938362,-0.2312309,0.588735,0.50901667,-0.2892015,0.595013,0.50229245,-0.25201625,0.591118,0.49853096,-0.22878476,0.589228,0.49583125,-0.21134889,0.587962,0.52767657,-0.29224754,0.59351,0.526751,-0.25329607,0.590064,0.52635862,-0.23193753,0.5883,0.52404252,-0.22914789,0.586697,0.54968641,-0.30121036,0.591058,0.55339477,-0.25755243,0.587834,0.55409778,-0.24075238,0.586353,0.55377846,-0.23028895,0.585047
0.49136041,-0.3740747,0.581953,0.48580549,-0.33906193,0.583366,0.46403819,-0.36637784,0.580499,0.44393574,-0.33435278,0.569281,0.43037266,-0.32680034,0.581887,0.43371705,-0.32858034,0.600861,0.46012702,-0.29102447,0.582431,0.45241952,-0.2562176,0.576227,0.44902383,-0.23946181,0.573125,0.44639264,-0.22514151,0.570305,0.48597116,-0.29370154,0.584711,0.48202942,-0.2525424,0.577979,0.48015115,-0.22721694,0.574478,0.48197077,-0.20755872,0.573598,0.50730343,-0.29887506,0.586437,0.49956231,-0.24974163,0.580304,0.49875561,-0.23005661,0.577166,0.49927853,-0.21621323,0.574313,0.53284922,-0.31078948,0.588174,0.52917439,-0.26701558,0.58173,0.52824538,-0.24799682,0.57877,0.52838812,-0.23424683,0.576158
0.46842806,-0.37156949,0.57111,0.46322691,-0.3308577,0.576807,0.43766871,-0.35317078,0.56776,0.41910193,-0.32199813,0.563148,0.39666419,-0.28982012,0.549223,0.39463149,-0.2775095,0.557355,0.43802886,-0.28342235,0.576312,0.43397007,-0.24582377,0.574326,0.43488081,-0.22954042,0.573333,0.4357665,-0.21419156,0.572431,0.46591059,-0.28909713,0.582233,0.47249767,-0.24844704,0.580416,0.47676799,-0.22307328,0.579458,0.48225609,-0.20745806,0.578775,0.48858338,-0.29640089,0.586495,0.47981402,-0.24883291,0.58316,0.48114117,-0.22795546,0.581453,0.48526187,-0.2126754,0.579901,0.51507333,-0.31019556,0.590371,0.51691744,-0.26820231,0.585902,0.51784687,-0.24833654,0.583848,0.5220812,-0.24006658,0.582036
0.45728436,-0.37201842,0.572482,0.45770539,-0.33021516,0.572948,0.43650678,-0.3569098,0.571205,0.41440629,-0.32928197,0.568313,0.38784369,-0.29464418,0.548563,0.38735248,-0.27611224,0.550887,0.43335993,-0.28224452,0.571602,0.42023198,-0.24016261,0.563985,0.41738244,-0.22757132,0.560176,0.41479197,-0.21562401,0.556714,0.45811196,-0.28579467,0.573393,0.45044663,-0.24234986,0.565308,0.44762834,-0.22009141,0.560592,0.44566521,-0.20386055,0.557224,0.47845165,-0.29160353,0.574817,0.47125768,-0.24934135,0.567296,0.46777897,-0.22659832,0.563448,0.4672296,-0.20719493,0.55995,0.50269193,-0.30540962,0.576382,0.49559198,-0.26568934,0.568074,0.49275846,-0.24836719,0.564258,0.4909068,-0.23560395,0.56089
0.46221155,-0.34101867,0.580749,0.45156194,-0.29660646,0.576206,0.44401686,-0.34986087,0.575775,0.41743456,-0.32081241,0.573181,0.38616911,-0.29436545,0.555732,0.37232915,-0.27747,0.551993,0.41845022,-0.28694251,0.566642,0.40279677,-0.24051358,0.553646,0.3969381,-0.2245982,0.547148,0.39157406,-0.20968747,0.541241,0.44631988,-0.28339339,0.571879,0.43378458,-0.24058089,0.557827,0.42680291,-0.21646128,0.549631,0.42203677,-0.19989,0.543776,0.47125998,-0.28790898,0.576682,0.45871544,-0.24315835,0.563863,0.45267143,-0.22091197,0.557305,0.44742053,-0.20108438,0.551343,0.50051349,-0.30482292,0.58311,0.48883969,-0.26137038,0.571038,0.48417434,-0.24240491,0.565491,0.48005836,-0.22563117,0.560597
0.45888197,-0.34351256,0.584208,0.44333285,-0.29837377,0.57842,0.44096616,-0.34413815,0.57952,0.40647717,-0.32119587,0.574116,0.37578875,-0.29452415,0.556741,0.36176286,-0.27713577,0.552399,0.41019037,-0.28731317,0.568384,0.39274429,-0.24024104,0.554016,0.38631114,-0.22427029,0.546833,0.38041899,-0.20933788,0.540302,0.43779564,-0.28442877,0.572907,0.423369,-0.24072601,0.557561,0.41538081,-0.21631404,0.548609,0.40993049,-0.19956694,0.542215,0.46219388,-0.28965683,0.577255,0.44772014,-0.24382092,0.563143,0.44135105,-0.22253263,0.555923,0.43567208,-0.20323037,0.549359,0.49036305,-0.30749505,0.583391,0.47757581,-0.26334582,0.569825,0.4728757,-0.24516704,0.563592,0.468829,-0.22925912,0.558092
0.44459574,-0.34341201,0.581297,0.4388268,-0.29865266,0.576825,0.42761244,-0.34374465,0.577985,0.39429721,-0.31954589,0.570342,0.36295516,-0.29284024,0.554218,0.35075692,-0.27657586,0.552176,0.40825193,-0.2877778,0.569475,0.39300449,-0.24169478,0.556675,0.38634855,-0.22506884,0.550275,0.38022888,-0.20950787,0.544457,0.43496985,-0.28538484,0.572566,0.41806745,-0.24106828,0.558824,0.40964815,-0.21876753,0.550809,0.40781616,-0.20156168,0.545083,0.45528992,-0.2930521,0.575594,0.44069585,-0.24800534,0.56268,0.43335125,-0.22632794,0.556073,0.42673117,-0.20726514,0.550066,0.48027925,-0.31211847,0.579948,0.46918339,-0.26819158,0.567572,0.46409867,-0.24841404,0.561885,0.46369383,-0.22999535,0.556868
0.44152938,-0.34338469,0.58038,0.43438927,-0.29964405,0.576232,0.42483095,-0.34373678,0.577491,0.39320162,-0.31995502,0.570795,0.36175853,-0.29284973,0.553479,0.34875712,-0.27548344,0.549657,0.40493791,-0.28807139,0.569654,0.39240371,-0.24218645,0.557282,0.38378269,-0.22491852,0.551096,0.37939908,-0.2094674,0.545472,0.43145588,-0.28657186,0.572283,0.41717417,-0.2419413,0.558957,0.40880113,-0.21905404,0.551183,0.40277677,-0.20237008,0.545631,0.45401611,-0.29282564,0.574895,0.43980883,-0.24801689,0.562504,0.4326589,-0.22642973,0.556165,0.42621485,-0.20743965,0.550402,0.47859675,-0.31149325,0.578706,0.46719887,-0.26793512,0.566419,0.46197678,-0.24828609,0.560774,0.4573809,-0.23121898,0.555793
0.4453861,-0.34311972,0.580009,0.43330481,-0.29990763,0.575385,0.42470913,-0.34450153,0.577177,0.39537298,-0.32171449,0.570269,0.36227022,-0.29447906,0.553461,0.34887891,-0.27734097,0.549682,0.40276273,-0.29047501,0.568556,0.38913046,-0.24824092,0.555816,0.38232861,-0.22557471,0.549446,0.37732955,-0.20900431,0.543656,0.42953708,-0.28669357,0.570981,0.4136339,-0.24333151,0.557156,0.40591449,-0.2189169,0.549092,0.39952285,-0.20248174,0.543332,0.45209624,-0.2918992,0.573476,0.43800936,-0.247566,0.560728,0.43076479,-0.22640737,0.554206,0.42349811,-0.20963514,0.548276,0.4772981,-0.309417,0.577241,0.46479597,-0.26568451,0.564541,0.45776142,-0.2459042,0.558706,0.45500425,-0.2302118,0.554912
0.44068892,-0.34333969,0.57983,0.43181257,-0.2988671,0.574631,0.42385653,-0.34404883,0.576624,0.39354921,-0.32116153,0.56948,0.35997658,-0.29599878,0.548791,0.3471434,-0.27741204,0.547167,0.39993795,-0.28731318,0.566926,0.38525511,-0.24126091,0.553609,0.37771773,-0.22200232,0.54695,0.37233874,-0.20628208,0.540896,0.42641811,-0.28543844,0.56968,0.40766622,-0.23876591,0.555184,0.40154304,-0.21767096,0.546727,0.39635048,-0.201637,0.540687,0.44842853,-0.28909228,0.572508,0.43498446,-0.24576965,0.559221,0.42828441,-0.22407084,0.552423,0.42173891,-0.20741071,0.546242,0.47541627,-0.30504619,0.576768,0.46176996,-0.26106741,0.563809,0.45583223,-0.24296544,0.557856,0.45277818,-0.22937713,0.552602
0.44051201,-0.34328511,0.579683,0.43061705,-0.29853018,0.573988,0.42354105,-0.34410289,0.57624,0.3935506,-0.32160548,0.568146,0.35876001,-0.2956029,0.54719,0.34446244,-0.27743915,0.543304,0.3974926,-0.28967868,0.565636,0.38069511,-0.24244615,0.551775,0.37287939,-0.22151792,0.544844,0.36862184,-0.20491394,0.538544,0.42347375,-0.28486415,0.568563,0.4073133,-0.24061141,0.553501,0.39803415,-0.21780086,0.544715,0.39150147,-0.20384385,0.538439,0.44683928,-0.28832457,0.571588,0.43151116,-0.24207126,0.557878,0.42654729,-0.22291453,0.550864,0.42013962,-0.2067028,0.544488,0.47433505,-0.30406631,0.576169,0.46020068,-0.25999556,0.562712,0.45412088,-0.24226203,0.556529,0.4497694,-0.22883729,0.551074
