sluyters/QuantumLeap/backend/src/datasets/dynamic/HandGestureDataset_SHREC2017_csv/Gesture12/finger_2/subject_2_essai_1_skeletons_world.csv
Wrist_x,Wrist_y,Wrist_z,Palm_x,Palm_y,Palm_z,thumb_base_x,thumb_base_y,thumb_base_z,thumb_first_joint_x,thumb_first_joint_y,thumb_first_joint_z,thumb_second_joint_x,thumb_second_joint_y,thumb_second_joint_z,thumb_tip_x,thumb_tip_y,thumb_tip_z,index_base_x,index_base_y,index_base_z,index_first_joint_x,index_first_joint_y,index_first_joint_z,index_second_joint_x,index_second_joint_y,index_second_joint_z,index_tip_x,index_tip_y,index_tip_z,middle_base_x,middle_base_y,middle_base_z,middle_first_joint_x,middle_first_joint_y,middle_first_joint_z,middle_second_joint_x,middle_second_joint_y,middle_second_joint_z,middle_tip_x,middle_tip_y,middle_tip_z,ring_base_x,ring_base_y,ring_base_z,ring_first_joint_x,ring_first_joint_y,ring_first_joint_z,ring_second_joint_x,ring_second_joint_y,ring_second_joint_z,ring_tip_x,ring_tip_y,ring_tip_z,pinky_base_x,pinky_base_y,pinky_base_z,pinky_first_joint_x,pinky_first_joint_y,pinky_first_joint_z,pinky_second_joint_x,pinky_second_joint_y,pinky_second_joint_z,pinky_tip_x,pinky_tip_y,pinky_tip_z,
0.2586293,-0.27625207,0.387157,0.25720693,-0.23187273,0.385447,0.23789173,-0.26384563,0.383879,0.2060746,-0.23502858,0.371695,0.18182296,-0.20886188,0.357379,0.17059545,-0.19050545,0.352623,0.23115933,-0.1939175,0.380379,0.21889828,-0.15516397,0.376056,0.21415706,-0.13725791,0.373895,0.20990731,-0.12055348,0.37193,0.25604337,-0.19680954,0.384036,0.24888959,-0.15175258,0.37462,0.24616257,-0.12852921,0.369127,0.24477047,-0.11355215,0.365204,0.27671094,-0.2026287,0.387187,0.2707385,-0.1586276,0.378125,0.26929952,-0.1376108,0.373488,0.26954924,-0.12230865,0.369273,0.30151819,-0.21580526,0.391151,0.30240585,-0.17738708,0.383372,0.30364286,-0.16287971,0.379798,0.30489141,-0.15025797,0.376644
0.25742716,-0.27427198,0.385391,0.25589104,-0.2282773,0.384759,0.2367332,-0.26183264,0.382062,0.20298707,-0.22880399,0.369909,0.18050181,-0.19998676,0.354015,0.16925053,-0.18686436,0.349805,0.23034431,-0.1885754,0.380214,0.21833836,-0.15018679,0.376396,0.21436607,-0.13247739,0.374487,0.21146331,-0.11844103,0.372751,0.25539229,-0.19203233,0.384237,0.24933704,-0.14728062,0.375829,0.24739262,-0.12375135,0.370923,0.24645273,-0.10978686,0.36742,0.27608768,-0.19824216,0.387601,0.27125305,-0.15435429,0.379655,0.27075694,-0.13433172,0.375589,0.27137396,-0.12184559,0.371893,0.30101963,-0.2089423,0.391654,0.30321081,-0.17051708,0.385199,0.3052775,-0.15562525,0.382234,0.30822206,-0.14602351,0.379617
0.25703153,-0.27203467,0.385075,0.25717512,-0.21340546,0.384507,0.23547802,-0.25251839,0.381538,0.20434924,-0.21570329,0.369165,0.18152645,-0.18942198,0.353201,0.17000632,-0.17027097,0.346851,0.2316256,-0.17584634,0.379734,0.21933147,-0.13754306,0.375667,0.21531508,-0.11947577,0.373633,0.21175347,-0.10263931,0.371784,0.25686111,-0.17936586,0.384038,0.25072101,-0.13456373,0.375663,0.24882028,-0.11067019,0.370778,0.24808845,-0.094794112,0.367288,0.27774354,-0.18560242,0.387628,0.27273517,-0.14188863,0.379676,0.27228903,-0.12168246,0.375608,0.27291783,-0.10645346,0.371909,0.30266157,-0.19909557,0.391937,0.30483002,-0.16061412,0.385444,0.30691274,-0.1455065,0.38246,0.30893281,-0.13191822,0.379827
0.25588144,-0.26551481,0.384023,0.25694008,-0.21242867,0.384234,0.23567493,-0.24610474,0.380583,0.20535188,-0.21476661,0.370062,0.18309886,-0.18762399,0.353426,0.1723149,-0.16832448,0.347218,0.23173543,-0.17527767,0.380008,0.21974346,-0.13727847,0.376473,0.2158762,-0.1192231,0.374705,0.21244896,-0.10237653,0.373098,0.25701466,-0.17883781,0.384408,0.25132822,-0.13431146,0.376782,0.24969669,-0.11043257,0.372334,0.24916081,-0.094510717,0.369156,0.27790096,-0.18506698,0.388012,0.27332349,-0.14168268,0.380748,0.27310366,-0.12149676,0.377032,0.27394725,-0.10620916,0.373653,0.30275341,-0.19847743,0.392223,0.30528751,-0.16021307,0.386296,0.30754799,-0.14510722,0.383573,0.30972667,-0.13150486,0.38117
0.25658894,-0.25094151,0.38363,0.25694788,-0.20158108,0.384324,0.23586962,-0.23837955,0.380121,0.20643394,-0.20383378,0.371102,0.18506445,-0.17615301,0.354416,0.17487618,-0.15658156,0.348105,0.23184047,-0.16484017,0.380274,0.22018758,-0.12726827,0.377334,0.21648745,-0.10898836,0.375864,0.21321045,-0.091881849,0.374528,0.25724723,-0.16847733,0.384896,0.25181531,-0.12407779,0.377721,0.25033551,-0.099904382,0.373536,0.24991087,-0.083636573,0.370547,0.27823535,-0.17472612,0.388643,0.27389872,-0.13170331,0.381802,0.27380576,-0.11129134,0.378301,0.27477234,-0.095588418,0.375119,0.30318646,-0.18808545,0.392951,0.30590842,-0.1498785,0.387355,0.3082615,-0.13452147,0.384784,0.31052249,-0.1206708,0.382516
0.26066329,-0.25039401,0.385667,0.26784231,-0.20166578,0.384699,0.23939063,-0.23735147,0.381458,0.21734536,-0.20412294,0.37168,0.19506884,-0.17578365,0.353399,0.18501292,-0.15640293,0.34738,0.24137484,-0.16394378,0.378861,0.22955976,-0.12625427,0.375745,0.22607698,-0.10803596,0.374187,0.22302955,-0.090987218,0.372771,0.26706432,-0.16776348,0.383901,0.26059277,-0.12284161,0.37507,0.25942154,-0.1004546,0.369919,0.25955702,-0.087421826,0.36624,0.28843187,-0.17423993,0.388128,0.28276634,-0.13052916,0.379585,0.28227379,-0.10999779,0.375214,0.28300307,-0.094303,0.371241,0.31409314,-0.18803096,0.393248,0.31582089,-0.14922113,0.386234,0.31789717,-0.13374034,0.38301,0.31992477,-0.11981875,0.380167
0.29060362,-0.21853258,0.399663,0.27536648,-0.17264817,0.392146,0.26567432,-0.20893072,0.393477,0.23003435,-0.1837471,0.379063,0.19923167,-0.15969819,0.361825,0.18591014,-0.14023262,0.350659,0.2371387,-0.13773912,0.38025,0.22951339,-0.10317523,0.38565,0.22563337,-0.085669448,0.38835,0.22212303,-0.068120173,0.390804,0.2631816,-0.13643112,0.385949,0.25097562,-0.093068127,0.3708,0.24568836,-0.073737186,0.361964,0.24204774,-0.059545059,0.355652,0.28610608,-0.13887382,0.391256,0.27994933,-0.11777772,0.374894,0.27325533,-0.13650645,0.366522,0.28042507,-0.16131296,0.377434,0.31584562,-0.1483014,0.398622,0.30218275,-0.14086734,0.382813,0.29782351,-0.15559245,0.375549,0.30555039,-0.17358388,0.383532
0.28592863,-0.21241879,0.401545,0.26625196,-0.15794247,0.389286,0.25283229,-0.19139585,0.391633,0.21554329,-0.15940032,0.369741,0.18831521,-0.13509503,0.357122,0.17479658,-0.11978292,0.35387,0.22785444,-0.12000628,0.37011,0.22344979,-0.08496124,0.377165,0.22106835,-0.066673131,0.380693,0.21981743,-0.04875729,0.3839,0.255575,-0.12264404,0.37918,0.24503828,-0.079271702,0.359474,0.23801464,-0.069916781,0.347978,0.23373238,-0.059056632,0.339767,0.28003709,-0.12822274,0.387651,0.25883493,-0.084601078,0.365926,0.25498291,-0.073615878,0.354811,0.26480255,-0.06651571,0.362684,0.31193092,-0.14131855,0.399447,0.29009489,-0.10376774,0.385709,0.28557644,-0.088422998,0.379398,0.29678041,-0.090120252,0.38776
0.27537502,-0.20288974,0.399608,0.26397836,-0.15643109,0.387826,0.24882387,-0.18858493,0.389573,0.21096397,-0.15446127,0.369789,0.18506161,-0.1282608,0.356207,0.17337479,-0.1156528,0.352613,0.22705017,-0.11836645,0.368756,0.22324466,-0.083479233,0.376394,0.22114996,-0.065193243,0.380213,0.22034335,-0.047443602,0.383685,0.25487968,-0.12179471,0.378113,0.24533833,-0.078980132,0.358844,0.23868193,-0.069498651,0.347604,0.23462286,-0.05978187,0.339575,0.27932922,-0.12797906,0.386782,0.25962824,-0.084354434,0.365377,0.25593295,-0.07346209,0.354425,0.26589773,-0.066423406,0.36235,0.31099534,-0.14172576,0.39874,0.29042212,-0.10501831,0.387073,0.28587413,-0.088942158,0.381712,0.29358053,-0.081723382,0.390728
0.27024632,-0.19964585,0.395021,0.26131394,-0.15475924,0.384793,0.2443327,-0.18521403,0.385369,0.21232663,-0.14722286,0.368919,0.18909877,-0.1208949,0.3587,0.18004734,-0.10736012,0.358165,0.22639709,-0.11746518,0.367052,0.2231635,-0.082840092,0.375294,0.22135097,-0.064650571,0.379415,0.2215649,-0.048430285,0.383162,0.25412889,-0.12139817,0.376363,0.24605225,-0.078922858,0.35853,0.24102922,-0.067786816,0.348127,0.23609591,-0.059099161,0.340697,0.27833919,-0.12789067,0.384866,0.26063538,-0.084556342,0.364826,0.2571499,-0.072634147,0.354573,0.26733565,-0.064495258,0.363106,0.31057942,-0.14322327,0.396397,0.2931637,-0.10643194,0.38981,0.28982607,-0.090122559,0.386784,0.28883081,-0.078563144,0.384113
0.2643663,-0.19591,0.390091,0.25857432,-0.15305539,0.382646,0.23937267,-0.18157009,0.381149,0.20238921,-0.14236874,0.363565,0.17764477,-0.1167003,0.352931,0.17285355,-0.10371241,0.352857,0.22621341,-0.11670459,0.367315,0.22353007,-0.082217243,0.376509,0.22197637,-0.06402313,0.381106,0.22061368,-0.046446874,0.385286,0.25386458,-0.12108333,0.37651,0.24805762,-0.079454011,0.361279,0.24291275,-0.069273437,0.352395,0.23979952,-0.060266288,0.346049,0.27776565,-0.12783124,0.384689,0.261067,-0.083889973,0.367135,0.25719446,-0.063860517,0.358153,0.26708302,-0.051321899,0.36773,0.30799346,-0.14183212,0.395424,0.29258559,-0.10648947,0.389207,0.28926858,-0.089882852,0.386351,0.2884293,-0.077724706,0.38383
0.25813804,-0.18962378,0.386489,0.25285809,-0.13929365,0.379915,0.23245912,-0.17304242,0.378245,0.19833078,-0.13240433,0.359423,0.17103179,-0.10755724,0.346794,0.16199537,-0.095721678,0.3451,0.22432945,-0.10431424,0.365937,0.22238216,-0.06972801,0.376376,0.22117479,-0.051384282,0.381595,0.21993988,-0.034089262,0.38634,0.251418,-0.10975385,0.374496,0.24760438,-0.069045189,0.360097,0.24290911,-0.058221044,0.351698,0.2388339,-0.05520356,0.345698,0.274546,-0.11717269,0.38208,0.26148681,-0.07262501,0.365511,0.25823501,-0.055780942,0.357034,0.26795972,-0.047894052,0.367186,0.30332642,-0.13160057,0.391986,0.29329804,-0.10252042,0.390358,0.29113697,-0.082823618,0.38961,0.2923047,-0.070008264,0.38895
0.26743096,-0.19302413,0.385889,0.26472176,-0.14257824,0.37845,0.2433004,-0.18039521,0.378764,0.21565001,-0.14749885,0.360822,0.1858446,-0.1247945,0.347268,0.17286895,-0.11403266,0.350062,0.22828837,-0.10660365,0.365413,0.2203934,-0.069088203,0.367925,0.21629795,-0.04973262,0.369181,0.21248701,-0.031781292,0.370323,0.25217716,-0.1087649,0.372318,0.24682547,-0.063007765,0.357165,0.24392457,-0.037442752,0.348326,0.24364399,-0.022508022,0.342013,0.27456203,-0.11466311,0.378611,0.2784353,-0.093885075,0.36186,0.27623415,-0.11231122,0.353289,0.28108514,-0.13132333,0.36381,0.30603787,-0.12497486,0.387126,0.29894378,-0.10367328,0.371078,0.29929979,-0.11716583,0.363704,0.30361299,-0.12922692,0.371406
0.2704822,-0.19238074,0.387017,0.26505561,-0.1424355,0.37826,0.24827753,-0.17988736,0.379781,0.21663892,-0.14767287,0.361426,0.18641473,-0.1239001,0.34611,0.17274042,-0.10865346,0.343096,0.22808678,-0.10608561,0.364366,0.21980191,-0.067893114,0.365237,0.21551835,-0.048181218,0.365673,0.21153911,-0.029891718,0.366069,0.25400886,-0.10787436,0.37104,0.24577859,-0.062398811,0.354662,0.24256196,-0.036940814,0.345108,0.24208557,-0.022150542,0.338284,0.27650094,-0.11268646,0.377253,0.27825832,-0.093608719,0.36051,0.27667898,-0.11132008,0.351944,0.28244384,-0.13170958,0.362423,0.3053716,-0.12453402,0.385869,0.29964312,-0.10886043,0.368847,0.29892961,-0.12280371,0.361026,0.3037597,-0.13244057,0.368419
0.27161238,-0.19130578,0.386472,0.26497109,-0.14222078,0.377792,0.24947208,-0.17900004,0.379659,0.21711608,-0.14770593,0.361775,0.18675272,-0.12309079,0.345128,0.17298954,-0.1069866,0.341008,0.22845715,-0.10597893,0.364474,0.21978479,-0.067633396,0.364659,0.21553887,-0.047751933,0.364751,0.21172995,-0.029208166,0.364834,0.25403018,-0.1076782,0.370637,0.24603339,-0.062272282,0.354364,0.2429695,-0.036852896,0.344871,0.24261404,-0.022099199,0.338091,0.27617298,-0.11241189,0.376422,0.27880347,-0.092752274,0.360928,0.27809357,-0.110227,0.353001,0.28474383,-0.13153881,0.363986,0.30454968,-0.12414066,0.384523,0.29892306,-0.10861587,0.367688,0.29820609,-0.12255046,0.359953,0.30325179,-0.13294707,0.367498
0.26883097,-0.18554835,0.377788,0.26382674,-0.1403179,0.374914,0.24956579,-0.17113127,0.3716,0.21390683,-0.14511947,0.356136,0.1850853,-0.12159519,0.34135,0.17265674,-0.10628098,0.339641,0.23390464,-0.10128903,0.365541,0.21691418,-0.066209729,0.36021,0.21273865,-0.045827616,0.357545,0.21338734,-0.028473758,0.355122,0.25706601,-0.10684652,0.372545,0.25772909,-0.059286174,0.361735,0.25890871,-0.033693216,0.35543,0.25990535,-0.014744127,0.350926,0.27872352,-0.11229926,0.378545,0.28372633,-0.066855025,0.368834,0.28479288,-0.044605997,0.363865,0.28850025,-0.025473638,0.359644,0.3065051,-0.12417128,0.386035,0.3051598,-0.11170066,0.37359,0.30477823,-0.12682002,0.367872,0.31061304,-0.13938262,0.376742
0.26944592,-0.18456764,0.37731,0.26457617,-0.13981682,0.374917,0.2497854,-0.17030965,0.371026,0.2139006,-0.14466753,0.355629,0.18525873,-0.12122219,0.340845,0.17275697,-0.10415507,0.336597,0.23469689,-0.10119556,0.365686,0.21741321,-0.065856565,0.360657,0.21368127,-0.045557102,0.358143,0.21402864,-0.027650912,0.355858,0.26078504,-0.10436952,0.372945,0.25922399,-0.059405183,0.362587,0.26071923,-0.033802961,0.356545,0.26195113,-0.014821208,0.352229,0.28145118,-0.11122244,0.379116,0.28539599,-0.067111583,0.369876,0.28675855,-0.044851261,0.365149,0.2905135,-0.025675872,0.360851,0.30777653,-0.12417024,0.386736,0.3095502,-0.11484148,0.37462,0.30605598,-0.12809398,0.369053,0.3115813,-0.14066165,0.377971
0.2710353,-0.17989424,0.373023,0.26511035,-0.13977064,0.374258,0.24916546,-0.16942073,0.368757,0.21566884,-0.14524634,0.356602,0.18712861,-0.12101963,0.340352,0.17390114,-0.10445716,0.336713,0.23826279,-0.10352489,0.369545,0.2301945,-0.075185964,0.371899,0.22856551,-0.055497519,0.373075,0.23283606,-0.043195441,0.374145,0.26356364,-0.10620345,0.375275,0.26392617,-0.061656262,0.368537,0.26594986,-0.038307826,0.367005,0.26692425,-0.019464794,0.365911,0.28462412,-0.11158237,0.37989,0.28891975,-0.069390975,0.374074,0.29583501,-0.051522791,0.376113,0.30185467,-0.031932975,0.377966,0.31106313,-0.12421076,0.385138,0.31185134,-0.11603718,0.376359,0.30976797,-0.13238637,0.372326,0.31564776,-0.14321097,0.382475
0.2681926,-0.17811639,0.368604,0.26568602,-0.13949062,0.373072,0.24783152,-0.16841705,0.36619,0.21586008,-0.14571056,0.357115,0.18678853,-0.12108752,0.340025,0.1742139,-0.10450673,0.336625,0.2420026,-0.10568514,0.372457,0.23711514,-0.075804771,0.378817,0.23590671,-0.05797925,0.381997,0.23823881,-0.040880526,0.384887,0.26783217,-0.10965529,0.376756,0.26795725,-0.066743246,0.37333,0.26898765,-0.040854054,0.371332,0.26981344,-0.022072569,0.369905,0.28808246,-0.11485357,0.379927,0.2923878,-0.074261342,0.376985,0.29614921,-0.052805722,0.375479,0.30165329,-0.033196664,0.376564,0.31198598,-0.12646593,0.382996,0.31401369,-0.11795608,0.377298,0.31279134,-0.13490046,0.37468,0.3188268,-0.14807495,0.385825
0.26728043,-0.17758463,0.366872,0.26627184,-0.13982296,0.373007,0.24794248,-0.16839702,0.365739,0.21734224,-0.1466534,0.358898,0.18763753,-0.12122644,0.339719,0.17450993,-0.10459088,0.336172,0.24530911,-0.10795016,0.374915,0.24203597,-0.075568292,0.381713,0.23872485,-0.058719913,0.385111,0.24076169,-0.041034093,0.388201,0.26929486,-0.11037478,0.378065,0.27034897,-0.0679647,0.376421,0.27228582,-0.042103814,0.375463,0.27374928,-0.023250363,0.374778,0.28871567,-0.11538397,0.380154,0.29570407,-0.075574428,0.380735,0.30125062,-0.05422148,0.381032,0.30688335,-0.034282418,0.381674,0.31125332,-0.12664389,0.3817,0.31555174,-0.12012812,0.377746,0.32996508,-0.14405426,0.39418,0.33324692,-0.15623403,0.401943
0.2653299,-0.17741922,0.364313,0.26877274,-0.1437967,0.371699,0.24874061,-0.16987873,0.36692,0.22141747,-0.15644197,0.364083,0.19254665,-0.12596414,0.343949,0.17656173,-0.1063508,0.337428,0.25067721,-0.11655328,0.379005,0.24526643,-0.081266681,0.382324,0.2407825,-0.061586088,0.383983,0.24015688,-0.042216582,0.385492,0.27208707,-0.11818153,0.377787,0.27442389,-0.076136627,0.378042,0.2758044,-0.051274469,0.378191,0.27706862,-0.027543177,0.378297,0.28882606,-0.12248739,0.376178,0.2952722,-0.082494434,0.376338,0.30052032,-0.061319182,0.376419,0.30576409,-0.041354718,0.376493,0.30728542,-0.13275497,0.373186,0.31007875,-0.12913395,0.371787,0.32453604,-0.15344294,0.388486,0.33562385,-0.16933565,0.403221
0.26873138,-0.18312622,0.369582,0.26831878,-0.15831082,0.372545,0.24823097,-0.17578448,0.369574,0.22308538,-0.16100638,0.362181,0.19333402,-0.13225234,0.344897,0.18135911,-0.11486908,0.340858,0.24796111,-0.12324984,0.374146,0.24370781,-0.089651337,0.380312,0.2415837,-0.07286293,0.383395,0.24270161,-0.055014715,0.386197,0.27044661,-0.12644988,0.374987,0.27230195,-0.08299675,0.3705,0.27349852,-0.05670377,0.367882,0.27630163,-0.039066535,0.366012,0.28836902,-0.13214701,0.375436,0.29099525,-0.091225029,0.371095,0.29528366,-0.07112573,0.368873,0.29998645,-0.053117917,0.366854,0.30875396,-0.14434059,0.375524,0.30904693,-0.13098211,0.369659,0.32355165,-0.15511673,0.386272,0.33428568,-0.17194623,0.400931
0.26596617,-0.19802687,0.369447,0.26672635,-0.16831905,0.372736,0.24750494,-0.19225164,0.369881,0.22390355,-0.1698619,0.3631,0.19590884,-0.14158751,0.346162,0.18411171,-0.1196392,0.341246,0.24683734,-0.13352472,0.375072,0.23995073,-0.095976844,0.375286,0.2365145,-0.077240772,0.375393,0.2366926,-0.059912344,0.375491,0.26906468,-0.13644294,0.375448,0.27006837,-0.093080524,0.371354,0.27070574,-0.067235261,0.368966,0.27515487,-0.044368874,0.367261,0.28671077,-0.14190502,0.375487,0.28962588,-0.10100933,0.371501,0.29402346,-0.081171379,0.369461,0.29881878,-0.063460505,0.367607,0.30667806,-0.15379838,0.375043,0.30845469,-0.14073404,0.369612,0.32332945,-0.16485785,0.386257,0.33430383,-0.17968298,0.400944
0.26510963,-0.21516055,0.36941,0.27105712,-0.18286255,0.372568,0.24846219,-0.20466474,0.370414,0.22850904,-0.18404853,0.364297,0.20011229,-0.15514385,0.347363,0.19153434,-0.13747597,0.34531,0.2532651,-0.14760969,0.375552,0.24801609,-0.10982661,0.375669,0.24540232,-0.09100917,0.375728,0.2461954,-0.074107472,0.375781,0.2748792,-0.15090058,0.375171,0.27754903,-0.10791532,0.371072,0.27973938,-0.082347512,0.368681,0.28322314,-0.0661411,0.366973,0.29184969,-0.15665586,0.374598,0.29637727,-0.1159855,0.370585,0.30142972,-0.096703805,0.368531,0.30677398,-0.079616442,0.366665,0.31074327,-0.16887635,0.373454,0.31264465,-0.15706579,0.368186,0.32697319,-0.18206003,0.384847,0.33715758,-0.20123246,0.399547
0.2669856,-0.23223504,0.355639,0.26965769,-0.19287445,0.359784,0.24966839,-0.21702604,0.346811,0.23475619,-0.18528121,0.330376,0.2114524,-0.15408869,0.309016,0.20474969,-0.13485879,0.303647,0.24920241,-0.15132999,0.350898,0.2425999,-0.11002429,0.345031,0.23929997,-0.089398159,0.342097,0.2467191,-0.073854821,0.33943,0.2718602,-0.16040056,0.363201,0.28224835,-0.11880248,0.359281,0.29021246,-0.094730926,0.356995,0.30206239,-0.081679064,0.355361,0.29002866,-0.17099628,0.372987,0.29960497,-0.13177962,0.372636,0.31330867,-0.11548533,0.372457,0.32792323,-0.10199713,0.372293,0.3107465,-0.18904271,0.38389,0.33485979,-0.18282266,0.378655,0.34746976,-0.20716665,0.392219,0.34801366,-0.22350825,0.404186
0.25457535,-0.23269341,0.350669,0.26511539,-0.20303053,0.360302,0.24196168,-0.21696078,0.342098,0.23101554,-0.18442816,0.327565,0.20799294,-0.17165116,0.329915,0.20093117,-0.17112072,0.344208,0.2654527,-0.16209462,0.354726,0.27513398,-0.12797268,0.361508,0.28067753,-0.11094969,0.364899,0.28817508,-0.095673544,0.367982,0.28106447,-0.17492612,0.368244,0.295787,-0.14002627,0.382223,0.30639062,-0.11880429,0.390377,0.31614914,-0.10342476,0.396202,0.29219161,-0.18809922,0.378579,0.33732042,-0.21271675,0.388767,0.34373428,-0.24240628,0.405062,0.34913391,-0.27055441,0.419875,0.30233021,-0.20823538,0.389311,0.3385424,-0.20015129,0.394001,0.35616504,-0.22283449,0.406756,0.36497518,-0.23904854,0.410051
0.31667151,-0.33062881,0.445501,0.30922705,-0.28273566,0.421604,0.30116773,-0.32245899,0.427805,0.30960719,-0.32531165,0.404272,0.30282372,-0.31619084,0.377823,0.29687567,-0.30435828,0.366899,0.28573464,-0.245998,0.386279,0.27218807,-0.19611654,0.362585,0.265335,-0.17186609,0.350737,0.27352488,-0.16084122,0.339967,0.30307861,-0.243296,0.401906,0.28589862,-0.19021985,0.374199,0.28241789,-0.16196206,0.358037,0.27978866,-0.14209953,0.346492,0.31790071,-0.24513731,0.41673,0.33640707,-0.21659978,0.390417,0.33371633,-0.22910296,0.379796,0.34518613,-0.24964524,0.386177,0.33642371,-0.25446031,0.437734,0.34407929,-0.2319209,0.416045,0.35307964,-0.23063804,0.40608,0.35366386,-0.23023634,0.394296
0.31114468,-0.32696213,0.435227,0.304377,-0.28397519,0.409641,0.29415325,-0.31793393,0.416284,0.29905326,-0.32293107,0.389472,0.29199653,-0.31325627,0.363415,0.28870917,-0.30282384,0.354901,0.27746028,-0.24722159,0.371823,0.26700558,-0.20049632,0.351049,0.26171792,-0.177527,0.340662,0.27066884,-0.1680877,0.331219,0.2972924,-0.24536851,0.388549,0.28275361,-0.19504769,0.363361,0.28062632,-0.16841654,0.348668,0.27903512,-0.14953867,0.338173,0.31429279,-0.24773577,0.404417,0.32811778,-0.2171023,0.374825,0.32873111,-0.23090812,0.367618,0.34318044,-0.25306979,0.376688,0.3355708,-0.25749565,0.426902,0.33922597,-0.23548288,0.402077,0.3458575,-0.23524195,0.39067,0.34792681,-0.2370922,0.380224
0.31795444,-0.33483066,0.443906,0.30999597,-0.28961956,0.417642,0.30129087,-0.32682603,0.425986,0.30801517,-0.33271962,0.40124,0.30110118,-0.32285764,0.374632,0.29631462,-0.31046293,0.364009,0.28343686,-0.25341687,0.380746,0.27025153,-0.20391539,0.356534,0.26357061,-0.17977361,0.344428,0.27140654,-0.16944225,0.333422,0.3024009,-0.25022385,0.395991,0.2850914,-0.19744565,0.367477,0.28137025,-0.16963851,0.350843,0.2785861,-0.15003646,0.338962,0.31869097,-0.25164309,0.410695,0.33194634,-0.21281747,0.384935,0.33418679,-0.2254654,0.375393,0.35123659,-0.24461416,0.381983,0.33919489,-0.2604607,0.431911,0.34372105,-0.23894934,0.408027,0.350831,-0.23947485,0.397054,0.35106973,-0.24083161,0.385299
0.31830597,-0.33815392,0.443974,0.30993063,-0.30013129,0.417582,0.30212823,-0.33340633,0.426244,0.30820099,-0.34338476,0.401835,0.3013168,-0.33254724,0.375185,0.29639838,-0.31924182,0.364256,0.28329935,-0.26427642,0.380856,0.26976132,-0.21426295,0.35609,0.26289906,-0.18988296,0.343707,0.27050368,-0.179395,0.33245,0.30224477,-0.26077732,0.395826,0.28455227,-0.20755078,0.366769,0.28057841,-0.17956682,0.349818,0.27760718,-0.15984615,0.337711,0.31852176,-0.26195683,0.410315,0.33044643,-0.22436787,0.384301,0.33435436,-0.23515167,0.374388,0.3488928,-0.25519476,0.380932,0.33901994,-0.27049731,0.431296,0.34350315,-0.24944113,0.407542,0.35041285,-0.25029561,0.396628,0.34955102,-0.25134641,0.384689
0.31668568,-0.36775287,0.442746,0.30745783,-0.32002504,0.416465,0.29932737,-0.36007153,0.424766,0.30512926,-0.36158421,0.399887,0.29837099,-0.34881794,0.373292,0.293861,-0.3347076,0.362774,0.28062422,-0.28413726,0.379482,0.26764311,-0.23423094,0.355429,0.26106732,-0.20984051,0.343402,0.26893832,-0.19930948,0.332469,0.29982044,-0.2807622,0.3948,0.2826861,-0.22759629,0.366435,0.27904425,-0.19963692,0.349889,0.27632332,-0.17989691,0.33807,0.31630751,-0.28202682,0.409565,0.32804678,-0.2438677,0.383362,0.33196883,-0.25433622,0.373936,0.34903187,-0.27409699,0.380751,0.3370502,-0.29065722,0.430855,0.34129719,-0.26976336,0.406878,0.34812527,-0.27008249,0.395861,0.34753364,-0.27043404,0.384167
0.31492773,-0.37348897,0.442351,0.30554214,-0.33177755,0.415457,0.29725349,-0.36561987,0.424416,0.29959275,-0.37424252,0.399414,0.29252472,-0.36148912,0.372783,0.29036586,-0.34897819,0.362209,0.27859872,-0.29536247,0.378199,0.26753691,-0.2451463,0.353785,0.2618764,-0.22062546,0.341579,0.26967595,-0.21094038,0.330482,0.29896744,-0.29250433,0.393287,0.28363221,-0.23891162,0.364501,0.28076973,-0.21121338,0.347709,0.27858468,-0.19165916,0.335715,0.31630058,-0.29419582,0.407914,0.32732678,-0.25544514,0.3815,0.33138528,-0.26597697,0.372163,0.3487123,-0.28644028,0.379099,0.33784346,-0.30332556,0.429133,0.341542,-0.28359055,0.4047,0.34757245,-0.28456933,0.393474,0.34636375,-0.28502291,0.381713
0.34029453,-0.3149531,0.381348,0.31707341,-0.26645946,0.37231,0.31273689,-0.30280063,0.370441,0.26961674,-0.29542808,0.35123,0.23224733,-0.28079795,0.325066,0.22042942,-0.26372077,0.307951,0.27176181,-0.22704428,0.353631,0.26888924,-0.19271218,0.357439,0.26821918,-0.17418275,0.359344,0.27020921,-0.15805411,0.361075,0.29876273,-0.22873583,0.364859,0.2961096,-0.18719144,0.358286,0.29461742,-0.16219964,0.354452,0.30071613,-0.15124545,0.351713,0.32288834,-0.23376945,0.374843,0.33182203,-0.2210255,0.355266,0.3527961,-0.25327954,0.371862,0.35702215,-0.27326347,0.386397,0.35493283,-0.24638547,0.38794,0.35588835,-0.23838076,0.369825,0.35063994,-0.24936429,0.361503,0.35089251,-0.25816529,0.36732
0.33452427,-0.31761872,0.378012,0.31130122,-0.27339044,0.367873,0.30863632,-0.30636022,0.368568,0.26623888,-0.30497687,0.350907,0.23364709,-0.29082147,0.324239,0.22623556,-0.27470047,0.306788,0.26942339,-0.23356451,0.350443,0.26525509,-0.1990074,0.349703,0.26494739,-0.18039631,0.349333,0.26185659,-0.1608048,0.348997,0.29501574,-0.2344922,0.359516,0.29337638,-0.19348215,0.354135,0.29247356,-0.16882471,0.350995,0.29956794,-0.15989969,0.348753,0.31765215,-0.23904968,0.367816,0.32574928,-0.2270593,0.347931,0.34689362,-0.25991267,0.365493,0.35218183,-0.27984542,0.380539,0.34739294,-0.25129873,0.379094,0.3454373,-0.24912082,0.360486,0.35624918,-0.27514271,0.374209,0.3607655,-0.28560522,0.386079
0.31717315,-0.32064087,0.369127,0.30188808,-0.27868347,0.365081,0.29652706,-0.31144679,0.365055,0.25675041,-0.28606122,0.351248,0.22690976,-0.26059383,0.337673,0.21434273,-0.24203363,0.331912,0.2738218,-0.23910934,0.357742,0.26699459,-0.20055823,0.352018,0.26548322,-0.18101824,0.349156,0.26074815,-0.16146476,0.346554,0.29525176,-0.24180157,0.361746,0.29466328,-0.20073256,0.354029,0.2944337,-0.17606392,0.349528,0.30164627,-0.17026522,0.346313,0.31416752,-0.24702657,0.365373,0.32906174,-0.242232,0.352801,0.3542489,-0.27775741,0.372848,0.35773147,-0.29613895,0.385934,0.33742319,-0.25955252,0.370246,0.3412469,-0.25914699,0.357654,0.35706317,-0.28749418,0.373486,0.36132435,-0.29813693,0.384055
0.30266597,-0.32245081,0.3599,0.30329887,-0.28681649,0.363596,0.28336507,-0.31105205,0.355602,0.25369858,-0.28910252,0.343939,0.22502007,-0.26419195,0.331272,0.21434275,-0.24758166,0.328048,0.28047073,-0.25005837,0.360183,0.26762678,-0.21070273,0.35308,0.26554656,-0.19099725,0.349528,0.26069433,-0.16679252,0.346299,0.30368493,-0.25399726,0.366644,0.31151514,-0.21266924,0.36261,0.31619246,-0.18818338,0.360257,0.31958568,-0.17051577,0.358577,0.32236917,-0.2604649,0.371658,0.3208842,-0.21541368,0.367521,0.32893541,-0.20222586,0.365405,0.35474349,-0.19913949,0.380028,0.34390199,-0.27374981,0.37701,0.35673206,-0.27918593,0.370093,0.36948131,-0.30906047,0.385842,0.36901492,-0.31950535,0.394383
0.29788084,-0.32443463,0.357176,0.29869337,-0.28807732,0.360376,0.27951591,-0.312788,0.353365,0.24639387,-0.29017904,0.341957,0.22336771,-0.26446308,0.331802,0.21346769,-0.24629472,0.330745,0.2777135,-0.25041781,0.357307,0.26642955,-0.20984578,0.350159,0.26602264,-0.19178428,0.346586,0.26558037,-0.17398449,0.343337,0.29998217,-0.25861975,0.363014,0.3079239,-0.2183904,0.358212,0.31277042,-0.19426291,0.355411,0.31633577,-0.17671138,0.353411,0.31804778,-0.26662786,0.367449,0.31973821,-0.22609199,0.366341,0.33088897,-0.21229551,0.365775,0.35803313,-0.21066921,0.381354,0.33842179,-0.28175833,0.372193,0.35142224,-0.28714848,0.36505,0.36568781,-0.31694289,0.380976,0.37134105,-0.33186773,0.395028
0.29187088,-0.33026069,0.354542,0.29379089,-0.29317864,0.357665,0.27522718,-0.3186585,0.351702,0.24236888,-0.29620325,0.341561,0.21736554,-0.26867106,0.328921,0.21146284,-0.25001972,0.329821,0.27635365,-0.25780576,0.355778,0.2671459,-0.2135881,0.349214,0.26728644,-0.19833165,0.345932,0.26806629,-0.18165187,0.342948,0.29840944,-0.26349165,0.360239,0.30543488,-0.21948436,0.355465,0.30990526,-0.19528875,0.35268,0.31317582,-0.17775367,0.350691,0.31560891,-0.27134183,0.363654,0.32347494,-0.23261741,0.358451,0.3276703,-0.21232402,0.355789,0.34834799,-0.20424702,0.370513,0.33452612,-0.28621189,0.36721,0.34701655,-0.2949428,0.36034,0.36227565,-0.32451468,0.376524,0.36938208,-0.34026727,0.390805
0.28826034,-0.33787087,0.356271,0.29331263,-0.29858317,0.358313,0.27008354,-0.32330878,0.352125,0.23956875,-0.29532891,0.340326,0.21666376,-0.27014059,0.32947,0.20829093,-0.25144244,0.328631,0.27416432,-0.2573898,0.35419,0.26413673,-0.21628761,0.346012,0.26191187,-0.19718114,0.341923,0.25732969,-0.18373835,0.338205,0.29895427,-0.26475769,0.359995,0.30377065,-0.22247391,0.354342,0.30665993,-0.19748711,0.351044,0.30987571,-0.17777667,0.348688,0.32114754,-0.27631783,0.364605,0.32607177,-0.23361494,0.359452,0.33032784,-0.21310679,0.356815,0.33530904,-0.19534786,0.354418,0.34554591,-0.29452575,0.369727,0.35345077,-0.25726263,0.367227,0.36056957,-0.24453948,0.366078,0.36711607,-0.2329285,0.365064
0.28840794,-0.33383063,0.354684,0.29007838,-0.29330005,0.354963,0.26826331,-0.32326705,0.352026,0.23878987,-0.29604431,0.340868,0.21364012,-0.26826636,0.325745,0.20374939,-0.250926,0.32291,0.26526679,-0.25342749,0.351759,0.26287143,-0.21552819,0.344858,0.26119249,-0.19655096,0.341407,0.26049677,-0.18173307,0.33827,0.29234196,-0.25933854,0.355193,0.29446214,-0.21540579,0.348736,0.29686171,-0.18992259,0.344969,0.29931461,-0.17220344,0.342279,0.31101643,-0.26688167,0.357997,0.32056951,-0.22790596,0.352585,0.32691518,-0.20731788,0.349816,0.33048247,-0.19033523,0.347299,0.33505428,-0.28287941,0.361255,0.3313593,-0.24201994,0.353747,0.33012584,-0.22404448,0.350298,0.3294804,-0.20887232,0.347254
0.29076357,-0.33791426,0.357562,0.29393218,-0.29932236,0.358207,0.26932166,-0.32516838,0.353109,0.23988102,-0.29670962,0.340817,0.21581062,-0.27257884,0.329297,0.20416411,-0.25212138,0.323276,0.27287951,-0.25726399,0.352936,0.26176142,-0.21711581,0.343585,0.25722561,-0.19869023,0.338909,0.25502658,-0.18244425,0.334659,0.29826577,-0.26452263,0.358739,0.30141994,-0.22149744,0.351614,0.30331587,-0.19616758,0.347458,0.30365987,-0.17667393,0.34449,0.32055772,-0.27536697,0.363463,0.32713127,-0.23179068,0.357214,0.32950858,-0.210613,0.354017,0.33433813,-0.19331849,0.351111,0.34575719,-0.29339307,0.368925,0.35216209,-0.25539313,0.365162,0.35860641,-0.24418356,0.363433,0.36461248,-0.23389761,0.361907
0.29107905,-0.33925276,0.357656,0.29389719,-0.29989394,0.357871,0.26985259,-0.32650424,0.353371,0.24047742,-0.30051755,0.341125,0.21576622,-0.27506059,0.328598,0.20366743,-0.25377215,0.322472,0.27121958,-0.25891527,0.352576,0.2607548,-0.217183,0.343223,0.25638663,-0.20167024,0.338547,0.25375157,-0.18491876,0.334296,0.29734981,-0.2647382,0.358048,0.30049508,-0.22174466,0.350828,0.30180242,-0.1970883,0.346616,0.3037789,-0.17817638,0.343607,0.31926549,-0.27483558,0.362534,0.3246269,-0.23112429,0.356148,0.32864663,-0.2101384,0.35288,0.33273216,-0.19486591,0.34991,0.3445558,-0.29214851,0.36778,0.35221716,-0.25482901,0.364464,0.35920318,-0.24471756,0.36294,0.3657451,-0.23539294,0.361596
0.28875682,-0.34233892,0.357007,0.29310642,-0.30049891,0.356974,0.26822718,-0.32833138,0.352694,0.23948802,-0.30111845,0.340246,0.21520221,-0.27572673,0.328019,0.20369981,-0.25474363,0.322485,0.27016297,-0.26068266,0.351506,0.25921183,-0.2194392,0.342074,0.25486214,-0.20112798,0.337358,0.25291015,-0.18359559,0.333071,0.29653141,-0.26710358,0.356946,0.29880948,-0.22398547,0.349348,0.30021675,-0.19849238,0.344916,0.30112221,-0.17914889,0.34175,0.3182435,-0.27544041,0.361427,0.32447781,-0.23465049,0.354887,0.32774123,-0.21205856,0.351541,0.33154348,-0.19478548,0.3485,0.34279241,-0.29460712,0.366703,0.35095898,-0.25525272,0.363234,0.35792201,-0.24461235,0.36164,0.36442052,-0.23482574,0.360233
0.28775127,-0.34226903,0.356122,0.29239491,-0.300626,0.356356,0.26830271,-0.32717155,0.351973,0.23848308,-0.3018396,0.340207,0.21092326,-0.27717969,0.326444,0.20147405,-0.25856746,0.322466,0.27016495,-0.25984248,0.351237,0.25947596,-0.21901144,0.342055,0.25480006,-0.19988726,0.337465,0.25217054,-0.18330158,0.333291,0.29626778,-0.26657157,0.356547,0.29816302,-0.2233503,0.34908,0.29921712,-0.19866496,0.344723,0.30020345,-0.17944976,0.341612,0.31758924,-0.27564297,0.360899,0.32395052,-0.23347328,0.354553,0.32758309,-0.21224404,0.351306,0.33139925,-0.19498964,0.348354,0.34168323,-0.29449967,0.365981,0.35082414,-0.2563078,0.36265,0.35780053,-0.24436644,0.361119,0.36440742,-0.23411336,0.359769
0.28628225,-0.3412634,0.35454,0.28983465,-0.29864977,0.354512,0.26725893,-0.32690698,0.351053,0.23708249,-0.30006084,0.339234,0.21211209,-0.27561625,0.326882,0.20219559,-0.25691937,0.323379,0.26532544,-0.26008959,0.350088,0.25515589,-0.21818764,0.341798,0.25073903,-0.19989999,0.337654,0.24792084,-0.18300709,0.333886,0.29098415,-0.26490695,0.35449,0.29318905,-0.22310993,0.347649,0.29430189,-0.19753367,0.343658,0.29839893,-0.17766959,0.340808,0.31207291,-0.27243361,0.358116,0.31711963,-0.2293567,0.35231,0.32321576,-0.20962326,0.34934,0.32923878,-0.19376477,0.34664,0.33659326,-0.28647521,0.362383,0.34831944,-0.25225926,0.360323,0.35610835,-0.24231648,0.359377,0.36317433,-0.23263578,0.358542
0.28285642,-0.33790454,0.351228,0.28311858,-0.29415059,0.351685,0.26464021,-0.3245123,0.348652,0.22720308,-0.29486485,0.338679,0.20041521,-0.26816481,0.325695,0.18848128,-0.24914235,0.320517,0.26147654,-0.2518453,0.348675,0.24847201,-0.20940723,0.340944,0.24455462,-0.18940428,0.337078,0.24098151,-0.17102399,0.333564,0.28609496,-0.25697695,0.35206,0.28374172,-0.21295783,0.345066,0.28499779,-0.18842305,0.340987,0.28962004,-0.17466681,0.338073,0.30603881,-0.26469645,0.354808,0.30918354,-0.22183224,0.348683,0.31343362,-0.2012849,0.34555,0.31739286,-0.18235073,0.342701,0.32898467,-0.28016474,0.35797,0.33226283,-0.24212584,0.353618,0.34046674,-0.23188883,0.351618,0.34722628,-0.22229073,0.349853
0.28117314,-0.33895108,0.351217,0.27736235,-0.29271448,0.350478,0.26143307,-0.32381158,0.346821,0.22237667,-0.29198308,0.334076,0.19776295,-0.26720749,0.323539,0.1867754,-0.24828163,0.31804,0.25499713,-0.25116783,0.344515,0.24086121,-0.21179897,0.33997,0.23958968,-0.19426902,0.337698,0.24047574,-0.1748975,0.335632,0.28042404,-0.25714454,0.349875,0.27834559,-0.21151492,0.341766,0.27899796,-0.18650503,0.337035,0.28032961,-0.16965577,0.333657,0.30096012,-0.26564059,0.354349,0.30650822,-0.22272409,0.347777,0.31008376,-0.20153857,0.344416,0.31406987,-0.18264094,0.341359,0.32153151,-0.28280703,0.359719,0.33463486,-0.24628879,0.355602,0.34127152,-0.23321796,0.35371,0.34735323,-0.22137012,0.352041
0.27508349,-0.33577136,0.349083,0.27037421,-0.28959488,0.34829,0.25325417,-0.31865039,0.34434,0.21447393,-0.28608488,0.331474,0.19066094,-0.26149937,0.322792,0.18027793,-0.24310398,0.319142,0.24478834,-0.2460421,0.34186,0.23043272,-0.2027022,0.333199,0.23073499,-0.18846187,0.328868,0.23462803,-0.17569071,0.324931,0.26988065,-0.2515777,0.347644,0.27110043,-0.20681472,0.340422,0.27179164,-0.18081988,0.336209,0.27441542,-0.16531757,0.333199,0.29006183,-0.25969272,0.352471,0.29614968,-0.21836556,0.345953,0.30014608,-0.19763045,0.342619,0.3038913,-0.1784722,0.339587,0.31318007,-0.27560916,0.358265,0.32517956,-0.24189856,0.354164,0.33140888,-0.22572734,0.352279,0.33429253,-0.21149601,0.350617
0.25319018,-0.32596962,0.34434,0.25134475,-0.28152182,0.344201,0.23344382,-0.31097469,0.338569,0.19817157,-0.27703812,0.324301,0.17585888,-0.25139882,0.314547,0.16646434,-0.23481803,0.313856,0.22998589,-0.23916275,0.336822,0.22388284,-0.20148757,0.3373,0.22417813,-0.18354283,0.337539,0.22445033,-0.16670694,0.337756,0.25587346,-0.24676438,0.344088,0.2586133,-0.20362984,0.337053,0.26083909,-0.17858278,0.332949,0.26653793,-0.1608402,0.330506,0.27663572,-0.25652661,0.35008,0.28361152,-0.21521377,0.343869,0.28832651,-0.19486241,0.340692,0.29274053,-0.17604209,0.337804,0.300205,-0.27434073,0.357145,0.31397803,-0.24112345,0.353998,0.32063575,-0.22582931,0.352552,0.32992656,-0.21174054,0.351277
0.23852732,-0.31931579,0.340815,0.23831236,-0.27281293,0.33964,0.21838206,-0.30341862,0.334225,0.18735623,-0.27053833,0.32509,0.16676512,-0.24659283,0.319642,0.15991788,-0.23238301,0.322411,0.2151897,-0.22991634,0.330667,0.2149851,-0.19483817,0.33606,0.21551728,-0.17708483,0.338756,0.21599188,-0.1607856,0.341208,0.2418721,-0.23753228,0.338682,0.24229237,-0.19343175,0.329822,0.24271983,-0.16754842,0.324654,0.24390673,-0.14964956,0.320962,0.26347172,-0.247382,0.345378,0.27030207,-0.20483576,0.338906,0.27375123,-0.18321188,0.335594,0.28091537,-0.16603825,0.337455,0.28828148,-0.26545598,0.353426,0.30324256,-0.23164302,0.350947,0.31160452,-0.21761613,0.349808,0.31914741,-0.20500556,0.348803
0.23794181,-0.31798855,0.343219,0.23387639,-0.26916367,0.337601,0.21786383,-0.30407777,0.337532,0.18772458,-0.27220637,0.326771,0.16474329,-0.24640005,0.317091,0.1562454,-0.23037991,0.316921,0.20285995,-0.22840697,0.327377,0.19223041,-0.18446695,0.317922,0.18886506,-0.16484564,0.313195,0.18852356,-0.15374278,0.308897,0.22873451,-0.23118126,0.333019,0.23068247,-0.18830347,0.330945,0.23219005,-0.16344542,0.329735,0.23392962,-0.14580769,0.32887,0.25007547,-0.23714961,0.338132,0.25222493,-0.19366467,0.327498,0.25375328,-0.17177526,0.322057,0.25518945,-0.15172426,0.317111,0.27534112,-0.25073417,0.344988,0.28767732,-0.21612588,0.33955,0.29569908,-0.20455414,0.337051,0.30313854,-0.19398945,0.334847
0.23334944,-0.31110363,0.342748,0.2312095,-0.25894225,0.340705,0.21390889,-0.29943736,0.339305,0.18070942,-0.26241838,0.326652,0.15535108,-0.23788345,0.315464,0.14388516,-0.2202776,0.31211,0.20569908,-0.21980288,0.335247,0.18930379,-0.17846664,0.325186,0.18127989,-0.15808285,0.320155,0.17673645,-0.14587945,0.315582,0.23079861,-0.22307286,0.339039,0.22496548,-0.17811119,0.329631,0.22191703,-0.15227461,0.324143,0.21974729,-0.13356652,0.320223,0.25149913,-0.2293929,0.342331,0.25230963,-0.18616096,0.337329,0.25446097,-0.16658636,0.334769,0.25655932,-0.14815932,0.332443,0.27602786,-0.24341442,0.346508,0.28106289,-0.20545683,0.340471,0.28484337,-0.1921021,0.337698,0.28841126,-0.17987117,0.335251
0.23052238,-0.30839541,0.34121,0.22794255,-0.25898893,0.338786,0.21129085,-0.29700036,0.338169,0.17563255,-0.26478406,0.32814,0.15094987,-0.24208821,0.320104,0.14195496,-0.22263726,0.31487,0.20320668,-0.22022877,0.33363,0.18700226,-0.1794108,0.325521,0.17972136,-0.16028797,0.321466,0.17080715,-0.1447083,0.31778,0.22795475,-0.22319456,0.336808,0.22577563,-0.18074265,0.333891,0.22437234,-0.15762332,0.335696,0.22484516,-0.14075898,0.336986,0.24820378,-0.22925793,0.339627,0.24326922,-0.18596589,0.330294,0.24244708,-0.16434544,0.325519,0.24509786,-0.14411176,0.321178,0.2719463,-0.24290497,0.343305,0.27146815,-0.20761861,0.334958,0.27203874,-0.19027422,0.331123,0.27258682,-0.17478809,0.327739
0.21514061,-0.30409786,0.340398,0.20818302,-0.25824045,0.335489,0.18750838,-0.29082095,0.338533,0.15855822,-0.26284883,0.32785,0.13240062,-0.23708374,0.313757,0.12062796,-0.21785147,0.307437,0.18709909,-0.21724447,0.330485,0.17479346,-0.17631449,0.323926,0.16740989,-0.1589179,0.320646,0.16042053,-0.14628445,0.317665,0.21021574,-0.22134498,0.331485,0.20844585,-0.17699339,0.326254,0.20675944,-0.15258881,0.323203,0.20555982,-0.13468711,0.321023,0.229157,-0.22848684,0.332718,0.22508867,-0.18525691,0.320922,0.22305133,-0.16275156,0.314886,0.22117532,-0.14237662,0.309399,0.25128962,-0.24376839,0.334907,0.2556758,-0.20486097,0.329999,0.25751647,-0.19175533,0.327745,0.25929092,-0.17969727,0.325755
0.21710107,-0.30077342,0.33862,0.2052802,-0.2547134,0.334356,0.19446721,-0.29060226,0.33764,0.15891086,-0.26456639,0.328916,0.13350305,-0.24776379,0.325159,0.12086768,-0.23182301,0.316812,0.17336727,-0.2178247,0.330823,0.15897587,-0.17791977,0.324989,0.15177078,-0.15793743,0.322072,0.145215,-0.13975367,0.31942,0.1963728,-0.21561981,0.330886,0.18892597,-0.17058727,0.3225,0.18457505,-0.14420854,0.317608,0.18146414,-0.12531428,0.314114,0.21591097,-0.21751792,0.331293,0.21809578,-0.17629791,0.330401,0.21913127,-0.15556618,0.329945,0.21999237,-0.13713289,0.32953,0.24010489,-0.2264323,0.332415,0.24164553,-0.18641053,0.324271,0.24189252,-0.17617774,0.320529,0.2422805,-0.16669817,0.317228
0.20833049,-0.305672,0.345931,0.18989868,-0.25063227,0.334191,0.18646222,-0.29224339,0.340949,0.14162042,-0.26234855,0.32509,0.11315715,-0.24035186,0.313772,0.097840126,-0.21892017,0.30118,0.15730495,-0.2093019,0.321573,0.14530961,-0.17361115,0.322138,0.13888041,-0.15613289,0.322421,0.13281208,-0.13966594,0.322679,0.18181249,-0.20987342,0.324637,0.17721381,-0.16776398,0.320563,0.17449655,-0.14261345,0.318186,0.17253969,-0.12436904,0.316489,0.20279771,-0.21443074,0.32814,0.20345746,-0.17313004,0.326096,0.20455832,-0.15446167,0.32505,0.20572284,-0.13727803,0.324099,0.22924848,-0.22723846,0.334028,0.21441102,-0.21916534,0.315727,0.21125138,-0.23013329,0.307319,0.21862837,-0.24832294,0.314595
0.16879668,-0.28553831,0.329887,0.17102971,-0.24053473,0.327578,0.15113374,-0.27327986,0.328906,0.12078668,-0.2504392,0.32203,0.094499537,-0.2298923,0.31487,0.084613588,-0.21562395,0.315627,0.15028389,-0.20247929,0.325097,0.13144514,-0.16387108,0.31613,0.1218614,-0.14419734,0.311647,0.11304512,-0.12607912,0.307571,0.17276522,-0.20498452,0.325705,0.16523883,-0.15894748,0.316131,0.15811333,-0.135629,0.310546,0.15288816,-0.11831352,0.306556,0.19133823,-0.2107346,0.3264,0.18696626,-0.16662052,0.317101,0.18473407,-0.1438784,0.312343,0.18264675,-0.12314011,0.308018,0.21323816,-0.22427282,0.327565,0.21606952,-0.18397401,0.31994,0.21514769,-0.16921443,0.316437,0.22396913,-0.16273674,0.327359
0.16485895,-0.28274886,0.324558,0.16500001,-0.23862116,0.323347,0.14688137,-0.27264658,0.324573,0.11674904,-0.24860234,0.317119,0.090937926,-0.22823326,0.309953,0.080208742,-0.2131673,0.309559,0.13618429,-0.20552436,0.322719,0.12121711,-0.16449904,0.315117,0.11383064,-0.14428586,0.311315,0.10537008,-0.13461296,0.30786,0.1591037,-0.20458855,0.322368,0.15104453,-0.15894794,0.313951,0.14637407,-0.13264157,0.309041,0.14138044,-0.11631486,0.305534,0.17811062,-0.20744027,0.32218,0.17345372,-0.16379549,0.313869,0.17107076,-0.14119647,0.309617,0.1689044,-0.12048248,0.305752,0.20086442,-0.21732556,0.322144,0.20232729,-0.17765662,0.315824,0.20183638,-0.16268506,0.31292,0.21043835,-0.15567984,0.324207
0.15964465,-0.27864673,0.319421,0.15620168,-0.23606325,0.318688,0.14135815,-0.26829505,0.318768,0.10434123,-0.24913378,0.312195,0.07845345,-0.22801304,0.304862,0.067078724,-0.21357206,0.304662,0.13173492,-0.20116312,0.317467,0.11704813,-0.16520143,0.319741,0.11102965,-0.14804251,0.321294,0.10558053,-0.13248377,0.322748,0.15501179,-0.20133889,0.318094,0.14724579,-0.15697103,0.31187,0.14254835,-0.13122532,0.30824,0.13821106,-0.11396407,0.305647,0.17432414,-0.20507174,0.318672,0.17157654,-0.16259705,0.314066,0.16817226,-0.1393579,0.31171,0.16849685,-0.12086466,0.309568,0.19734987,-0.21595476,0.319462,0.19809154,-0.17730974,0.313664,0.19863211,-0.16111409,0.311,0.19960646,-0.14787296,0.30865
0.15784732,-0.28119313,0.323002,0.14385068,-0.23286676,0.319628,0.1377759,-0.26874979,0.319512,0.093706715,-0.24092226,0.308191,0.067438067,-0.21973217,0.300114,0.055906092,-0.20413884,0.298536,0.11622076,-0.19505625,0.313403,0.10140234,-0.1589605,0.310151,0.093304842,-0.14354026,0.308525,0.085468854,-0.12860686,0.307046,0.14143358,-0.1966094,0.3169,0.13116707,-0.15175242,0.306452,0.12512548,-0.12629834,0.300357,0.12584852,-0.10784756,0.296004,0.16232783,-0.20159017,0.320062,0.15538553,-0.15835336,0.310084,0.15181242,-0.13581511,0.304979,0.14855041,-0.11505717,0.300338,0.18738833,-0.21412269,0.324287,0.18676989,-0.17581154,0.316859,0.18650354,-0.15804644,0.313446,0.18647527,-0.14385816,0.310435
0.15294241,-0.2775178,0.318324,0.13947004,-0.23156265,0.315939,0.13025318,-0.2677256,0.31618,0.091393675,-0.24098384,0.30601,0.065742075,-0.22071464,0.299567,0.054254277,-0.20527267,0.298281,0.10827539,-0.19804484,0.311949,0.096375742,-0.16441108,0.312438,0.087095536,-0.14859446,0.312683,0.078150701,-0.13334944,0.312906,0.13250686,-0.19719982,0.314011,0.12006628,-0.15196593,0.304188,0.11279614,-0.12551753,0.298458,0.10663456,-0.10820376,0.294365,0.15660183,-0.19955845,0.315909,0.14624546,-0.15479434,0.306701,0.14229388,-0.1325941,0.30199,0.13797887,-0.11409251,0.297708,0.18100927,-0.21028081,0.318499,0.17519646,-0.17011904,0.31094,0.17315082,-0.15525057,0.307466,0.17134308,-0.14161604,0.304402
0.14324141,-0.27413488,0.315802,0.13325457,-0.22972657,0.314743,0.11928847,-0.26373491,0.313139,0.083566129,-0.24022479,0.306605,0.056400576,-0.22195053,0.300223,0.042650065,-0.20605291,0.296887,0.10113844,-0.19337275,0.310802,0.085627111,-0.15802108,0.309083,0.075583158,-0.14102952,0.308223,0.066047428,-0.12489928,0.307441,0.126053,-0.19312971,0.31389,0.11288893,-0.14842387,0.305194,0.1051267,-0.12241657,0.300122,0.10003276,-0.10427245,0.297878,0.14694556,-0.19649413,0.31652,0.13823212,-0.15329859,0.308607,0.13372535,-0.13082692,0.304559,0.12942481,-0.11068662,0.300879,0.1722557,-0.20684339,0.31977,0.16748568,-0.16787016,0.313452,0.16529475,-0.14998292,0.310549,0.16349993,-0.14102895,0.307988
0.13745585,-0.27140962,0.314472,0.12671507,-0.22719661,0.313941,0.11733423,-0.26334378,0.313358,0.081759779,-0.24091458,0.306587,0.054675291,-0.22274979,0.300379,0.040582119,-0.20654623,0.296173,0.093549513,-0.19638177,0.312246,0.083157801,-0.15844,0.309862,0.074050075,-0.14050472,0.30867,0.065530152,-0.12372646,0.307586,0.11688429,-0.19408802,0.313513,0.1065823,-0.14944974,0.305909,0.103079,-0.12312781,0.301474,0.098034678,-0.10451795,0.298305,0.13684136,-0.19570103,0.314601,0.12990467,-0.15168612,0.30734,0.12624307,-0.12916248,0.303625,0.12600126,-0.10952228,0.300248,0.16155959,-0.20392137,0.315959,0.16404783,-0.16595386,0.3114,0.1621295,-0.1503179,0.309305,0.16043983,-0.13960635,0.307457
0.13532305,-0.27192319,0.315513,0.12124203,-0.22779206,0.314503,0.11053726,-0.26220975,0.314134,0.077245939,-0.23967959,0.30611,0.048744987,-0.2175506,0.299061,0.039044333,-0.20412082,0.295289,0.091793942,-0.19552386,0.312216,0.078764093,-0.1572049,0.308924,0.069859843,-0.13900457,0.307278,0.062922238,-0.12273798,0.305781,0.11543777,-0.19373649,0.313689,0.10472166,-0.14884727,0.305554,0.098449209,-0.12255218,0.300808,0.095785705,-0.10388163,0.297418,0.1355578,-0.19581808,0.314987,0.12797427,-0.15150955,0.307191,0.12384998,-0.12897775,0.303203,0.12008521,-0.10836718,0.299577,0.16034508,-0.2046799,0.316664,0.15910309,-0.16526892,0.311187,0.1569689,-0.14975816,0.30867,0.15460984,-0.13729112,0.30645
0.13372757,-0.27151796,0.315629,0.12073063,-0.22730831,0.314382,0.10924378,-0.26175816,0.314087,0.074741123,-0.23786275,0.30629,0.048602782,-0.21765215,0.299283,0.037953998,-0.20297972,0.294596,0.09148099,-0.19452061,0.311762,0.077826144,-0.15669077,0.308748,0.068514583,-0.13861999,0.307241,0.059809548,-0.121727,0.305871,0.11526093,-0.19308763,0.313376,0.10379934,-0.14806571,0.304881,0.097056605,-0.12176709,0.299926,0.092017021,-0.1029861,0.296387,0.13545538,-0.1954761,0.314809,0.12706332,-0.15098971,0.306699,0.12239875,-0.12852938,0.30255,0.11813565,-0.10795463,0.298778,0.16026491,-0.20472711,0.316682,0.15837352,-0.16530459,0.311216,0.15494764,-0.14809181,0.308705,0.15389275,-0.13676444,0.306489
0.13259297,-0.27123526,0.315719,0.12049223,-0.22709921,0.314367,0.10849171,-0.26154414,0.314127,0.074776409,-0.23779081,0.306363,0.048557952,-0.21769694,0.299372,0.037309993,-0.20235,0.29426,0.091352321,-0.19407789,0.31163,0.077376741,-0.15647288,0.308737,0.067857207,-0.1384582,0.30729,0.05895691,-0.12161665,0.305975,0.115194,-0.19279908,0.313278,0.10336812,-0.14771727,0.304631,0.096394079,-0.12141597,0.299586,0.09120051,-0.10263554,0.295983,0.13541579,-0.19532181,0.314747,0.12662342,-0.15074744,0.306488,0.12169019,-0.12832212,0.302263,0.11717857,-0.10776412,0.298422,0.16021822,-0.20474232,0.316678,0.15804216,-0.16535938,0.3113,0.15508763,-0.14798824,0.308829,0.15360544,-0.13656423,0.306648
0.13153696,-0.27074761,0.315105,0.12213158,-0.22690111,0.313846,0.10959596,-0.26207212,0.313541,0.075734469,-0.23872832,0.306107,0.049063677,-0.21918165,0.298971,0.036598853,-0.20255774,0.294097,0.091799001,-0.19373409,0.311193,0.079073219,-0.15679479,0.3088,0.068152159,-0.13871286,0.307604,0.060266293,-0.12241127,0.306516,0.1156429,-0.19264058,0.312831,0.10339025,-0.14783605,0.304276,0.097618592,-0.12166982,0.299285,0.092114648,-0.10302201,0.295721,0.13582319,-0.19531414,0.314285,0.12680802,-0.15078864,0.306072,0.12173936,-0.12841243,0.30187,0.11709582,-0.10790108,0.29805,0.16050287,-0.20490652,0.316183,0.1591646,-0.16545975,0.310196,0.15660382,-0.14967961,0.307445,0.15454889,-0.13715529,0.305018
0.12765638,-0.26930224,0.315725,0.12030761,-0.22644618,0.314235,0.10753602,-0.26085507,0.314222,0.074167873,-0.2366158,0.305955,0.047653773,-0.21654381,0.298542,0.0343835,-0.20029495,0.293811,0.090960637,-0.1914191,0.311537,0.076112148,-0.15520274,0.30953,0.066200236,-0.13670836,0.308527,0.057443911,-0.12004949,0.307615,0.11448083,-0.19127792,0.313034,0.10196134,-0.14607323,0.304147,0.094592221,-0.11974607,0.298963,0.089208884,-0.10095009,0.29526,0.13503626,-0.19445051,0.314392,0.12652029,-0.15003007,0.30591,0.12030778,-0.12689667,0.30157,0.11654894,-0.1072453,0.297625,0.15967495,-0.20405659,0.316212,0.1582519,-0.1656021,0.312641,0.15598314,-0.14833677,0.311001,0.15416354,-0.13500334,0.309553
0.13088265,-0.26994113,0.315289,0.12168481,-0.22621299,0.313779,0.11051833,-0.26135424,0.313453,0.07846814,-0.23936752,0.3057,0.051532378,-0.22012954,0.298488,0.037036138,-0.20268636,0.294165,0.091341947,-0.19375292,0.31065,0.076713009,-0.15648372,0.308294,0.068899383,-0.13876125,0.307116,0.059922085,-0.12126525,0.306045,0.1151801,-0.19184265,0.312563,0.102826,-0.14684378,0.303806,0.09556661,-0.12055171,0.298698,0.091275365,-0.10202759,0.295049,0.13550164,-0.1945417,0.314265,0.12645662,-0.1499451,0.305924,0.12150636,-0.12744627,0.301656,0.11664931,-0.10711853,0.297777,0.16002411,-0.20369076,0.316492,0.15811167,-0.16531804,0.311616,0.15616664,-0.14794195,0.309376,0.15348065,-0.13393913,0.3074
0.12766683,-0.26709603,0.312021,0.1206932,-0.22466849,0.311325,0.10876494,-0.26093747,0.313225,0.07633066,-0.2398829,0.308123,0.048945639,-0.21898809,0.299008,0.036468574,-0.20247625,0.294747,0.094369487,-0.19457045,0.312482,0.078018167,-0.15651255,0.307722,0.069650881,-0.13793827,0.305343,0.059646692,-0.12056171,0.303179,0.11690527,-0.19140875,0.310764,0.10818735,-0.14750916,0.303008,0.099726917,-0.12267882,0.298484,0.092871048,-0.10431762,0.295252,0.13444743,-0.19274702,0.309409,0.12906095,-0.14996076,0.303592,0.12266453,-0.12776721,0.300616,0.1184831,-0.1074662,0.297911,0.15649507,-0.20438299,0.307922,0.15975508,-0.16486645,0.305421,0.15681267,-0.14902027,0.304272,0.15377366,-0.13630331,0.303259
0.12828894,-0.2684498,0.314109,0.12388139,-0.22663489,0.312057,0.10966215,-0.26241325,0.314646,0.085422496,-0.24360266,0.308478,0.057258702,-0.22351729,0.299165,0.041280394,-0.20662279,0.295589,0.099734943,-0.19641936,0.311646,0.081849382,-0.1578705,0.303756,0.073733188,-0.1374503,0.300107,0.063014356,-0.12173356,0.296789,0.11992602,-0.19247782,0.310403,0.11127587,-0.14738272,0.302038,0.10222551,-0.12293999,0.297159,0.093897035,-0.10438303,0.293674,0.13676089,-0.19489227,0.309552,0.13150025,-0.15050211,0.30201,0.12734885,-0.12798111,0.298152,0.12276737,-0.10734708,0.294645,0.15937383,-0.20366083,0.308863,0.15896556,-0.16353655,0.301434,0.15617479,-0.14681865,0.298021,0.15091716,-0.13502758,0.29501
0.12707944,-0.26634221,0.311163,0.12851426,-0.22676747,0.30948,0.1091262,-0.26087924,0.312595,0.085835263,-0.24472826,0.308565,0.056427702,-0.22232597,0.295921,0.041091646,-0.20498972,0.292016,0.10663126,-0.19277579,0.310401,0.086118842,-0.15670809,0.305398,0.081248301,-0.13626557,0.302896,0.065688903,-0.12549215,0.300622,0.12745742,-0.19048531,0.308124,0.11148178,-0.14708141,0.299679,0.10352837,-0.12125261,0.294752,0.096565229,-0.10266645,0.29177,0.1449965,-0.1922487,0.306391,0.13283148,-0.14979274,0.300382,0.12860356,-0.12753887,0.297307,0.1230297,-0.10730991,0.295754,0.16635515,-0.20096536,0.304609,0.1648623,-0.16031478,0.297143,0.15775509,-0.14560897,0.293713,0.15242853,-0.13800924,0.290686
0.13665083,-0.27007494,0.311597,0.14073065,-0.23057854,0.30928,0.11981696,-0.26316898,0.311136,0.094871279,-0.24390533,0.303267,0.067186807,-0.22165173,0.293201,0.053416967,-0.20492495,0.288723,0.11557887,-0.1962437,0.307464,0.094188289,-0.15758154,0.298884,0.083467289,-0.13820348,0.294594,0.071120044,-0.13146987,0.290694,0.13723569,-0.19492132,0.307412,0.12512521,-0.14947472,0.298456,0.11281258,-0.12793121,0.293231,0.10360584,-0.11177252,0.289499,0.15574177,-0.19750625,0.307564,0.14367848,-0.15229822,0.298286,0.13614806,-0.13030361,0.29354,0.12868882,-0.11049084,0.289225,0.17867427,-0.20734802,0.308093,0.17455675,-0.16696259,0.300834,0.16911775,-0.1519294,0.297499,0.15950267,-0.14273734,0.294557
0.13798713,-0.27029039,0.310623,0.14098044,-0.22885437,0.308031,0.1209389,-0.26236792,0.309422,0.094141308,-0.24138389,0.300733,0.066031509,-0.21881249,0.289638,0.052474016,-0.20229307,0.285696,0.11590957,-0.19381154,0.305129,0.098741286,-0.1534626,0.295873,0.089460143,-0.1335503,0.291245,0.077988351,-0.12733461,0.287037,0.13781839,-0.19307318,0.30594,0.13065164,-0.15330386,0.30799,0.1281355,-0.12900125,0.309185,0.12523637,-0.11225203,0.310039,0.15659396,-0.19614294,0.306826,0.15216433,-0.15074755,0.299771,0.14516963,-0.13118154,0.296161,0.13434439,-0.11243542,0.292879,0.17993451,-0.20661659,0.308258,0.1826437,-0.16558789,0.300884,0.17872949,-0.15192374,0.297495,0.17358189,-0.14476623,0.294505
0.14938069,-0.27452315,0.310359,0.15180831,-0.2310889,0.30856,0.1296005,-0.26403669,0.307973,0.10647984,-0.24293221,0.297386,0.07728657,-0.21875643,0.28273,0.06381964,-0.20318591,0.279681,0.12265763,-0.1970865,0.304577,0.10043037,-0.15501851,0.294936,0.090710173,-0.13515658,0.290115,0.07971354,-0.12519245,0.285733,0.14680204,-0.19664291,0.307109,0.13341955,-0.15236904,0.29777,0.12553702,-0.1262163,0.292322,0.11986968,-0.10737642,0.288431,0.1673287,-0.19985754,0.309344,0.15682378,-0.15592963,0.300278,0.15142071,-0.13326317,0.295639,0.14209171,-0.11247803,0.291422,0.19255628,-0.21014205,0.312242,0.19221083,-0.17044999,0.306014,0.19122111,-0.15808841,0.303152,0.18960234,-0.15401437,0.300627
0.15375979,-0.27525124,0.310545,0.15949091,-0.23144437,0.306455,0.14238546,-0.26721307,0.309484,0.1153106,-0.24610593,0.299147,0.084934263,-0.21950681,0.282105,0.071262805,-0.2027565,0.277841,0.1310224,-0.19706022,0.302933,0.11087752,-0.15638361,0.292666,0.10082401,-0.13638058,0.287532,0.090124273,-0.12365312,0.282864,0.15390527,-0.19548666,0.303157,0.14565981,-0.15507796,0.30383,0.14081464,-0.1313375,0.304223,0.13733737,-0.11430318,0.304503,0.17333468,-0.19790484,0.303685,0.16401216,-0.15513534,0.292743,0.15919319,-0.13267473,0.287146,0.15477891,-0.11187418,0.282057,0.19731898,-0.20746277,0.304922,0.19431732,-0.17196646,0.307191,0.194711,-0.15894301,0.308234,0.19367283,-0.14807392,0.309154
0.159751,-0.27477212,0.310646,0.16202769,-0.23102302,0.307463,0.14420062,-0.26536259,0.308602,0.11602175,-0.24435334,0.298835,0.086202665,-0.22022585,0.284208,0.069424392,-0.20363806,0.27988,0.13657635,-0.19424448,0.303179,0.11549155,-0.15632933,0.295509,0.10497023,-0.1385531,0.291674,0.094408492,-0.12473993,0.288188,0.16050148,-0.19483078,0.304898,0.14744295,-0.14944345,0.294383,0.13955946,-0.12322204,0.288249,0.1338871,-0.10429331,0.283868,0.17782151,-0.19938032,0.30658,0.17064461,-0.15334168,0.296433,0.16526258,-0.13091434,0.291241,0.15883085,-0.11196391,0.286522,0.20253144,-0.2103546,0.309037,0.20471185,-0.17328287,0.307909,0.20454678,-0.15650882,0.30739,0.20415496,-0.14765637,0.306933
0.17231295,-0.27519606,0.311445,0.17412307,-0.22986763,0.30735,0.15176074,-0.26518926,0.308779,0.12739537,-0.24202076,0.297721,0.097902033,-0.21999332,0.28491,0.083712072,-0.20428516,0.280885,0.14417157,-0.19455596,0.301792,0.12804637,-0.15978534,0.302183,0.11590171,-0.14320528,0.302379,0.1144776,-0.12885832,0.306892,0.16852927,-0.19431041,0.304048,0.15917547,-0.15206928,0.302009,0.15379601,-0.12753504,0.30095,0.14995635,-0.11002163,0.300195,0.18923342,-0.19780983,0.30625,0.18697142,-0.15807099,0.308377,0.18606321,-0.138028,0.309864,0.18523922,-0.11982499,0.311216,0.21469496,-0.20861544,0.309455,0.21439768,-0.1709691,0.307598,0.21425106,-0.1540198,0.306744,0.21475185,-0.14501838,0.305991
0.17769616,-0.27615855,0.314812,0.17720795,-0.22924361,0.308802,0.15964328,-0.26458536,0.311564,0.13101499,-0.2418436,0.299526,0.10138753,-0.2209161,0.286895,0.086496894,-0.20478938,0.281557,0.14599455,-0.19352393,0.301486,0.12920094,-0.15855439,0.301669,0.12079732,-0.14105528,0.301761,0.11324672,-0.12524152,0.302093,0.17049539,-0.19335902,0.303956,0.15947717,-0.1498321,0.29914,0.15326211,-0.12466949,0.296715,0.14882631,-0.10669223,0.294993,0.19145504,-0.1969661,0.306494,0.18300967,-0.15213245,0.298862,0.18039868,-0.12871828,0.294957,0.17635821,-0.11127864,0.291407,0.21742602,-0.20797564,0.310384,0.21529062,-0.16885697,0.305818,0.21429855,-0.15125191,0.30372,0.21418644,-0.14238426,0.301869
0.19183597,-0.27358944,0.317592,0.18867691,-0.22471037,0.310405,0.17015374,-0.26414616,0.313839,0.14445661,-0.23984503,0.301106,0.11438189,-0.2212952,0.290419,0.09410431,-0.2059188,0.284264,0.15403335,-0.19075381,0.301824,0.13618585,-0.15194281,0.296457,0.12682002,-0.13294627,0.293773,0.11785879,-0.11585163,0.291333,0.1786111,-0.18892303,0.304612,0.16881252,-0.14416143,0.298311,0.16302555,-0.11858865,0.294635,0.15880825,-0.10273392,0.29201,0.19996773,-0.19114916,0.30751,0.18120658,-0.15157572,0.300518,0.17009109,-0.128089,0.29694,0.16267868,-0.11166339,0.293688,0.2269941,-0.20051321,0.312,0.22568563,-0.16008288,0.304126,0.2250399,-0.14186165,0.300508,0.22579402,-0.13370239,0.297316
0.18962138,-0.29474074,0.333605,0.20109802,-0.25179765,0.323997,0.17360441,-0.27185418,0.319474,0.14250904,-0.23584449,0.294723,0.12173018,-0.21253411,0.288386,0.11743313,-0.19591172,0.287357,0.17942119,-0.19939027,0.300973,0.1765391,-0.16332069,0.304096,0.17726703,-0.14487668,0.305658,0.17849382,-0.12762473,0.307078,0.20549021,-0.21286018,0.316251,0.2239148,-0.22624004,0.304442,0.22733096,-0.26270528,0.320523,0.22934556,-0.28999078,0.332009,0.22657482,-0.22791814,0.329634,0.25051006,-0.24500093,0.323125,0.2562246,-0.27589951,0.337222,0.26119013,-0.3048732,0.350036,0.25080396,-0.25291528,0.346807,0.25568475,-0.25830152,0.328038,0.25838928,-0.26125379,0.319414,0.25335724,-0.27082968,0.311805
0.19654524,-0.28487035,0.325754,0.21399768,-0.24148667,0.322926,0.18200119,-0.2630778,0.314391,0.15822422,-0.22435685,0.295893,0.14081819,-0.20441403,0.296777,0.13817765,-0.18642437,0.295392,0.198184,-0.19244758,0.307017,0.20015436,-0.15695376,0.312083,0.20140874,-0.13902309,0.315057,0.20422188,-0.12228885,0.317761,0.22289955,-0.20696476,0.320646,0.245949,-0.22178147,0.314483,0.25029405,-0.26040712,0.333285,0.252721,-0.28965379,0.346715,0.24232107,-0.22242023,0.332102,0.27057668,-0.24068643,0.330442,0.27732891,-0.27385799,0.34684,0.28306016,-0.30531104,0.361748,0.26362776,-0.24702009,0.345988,0.272834,-0.25375327,0.332569,0.27760461,-0.2581918,0.326404,0.27349645,-0.27015622,0.320964
0.20692255,-0.27870791,0.320382,0.23184917,-0.24065501,0.320082,0.20178913,-0.26220162,0.30928,0.17696161,-0.22444963,0.294321,0.16142639,-0.20700144,0.298655,0.15927579,-0.1893327,0.29793,0.21683366,-0.19298931,0.30585,0.21971394,-0.15812209,0.311833,0.22134248,-0.14035473,0.315116,0.22461098,-0.12374332,0.318101,0.24172209,-0.20771706,0.319841,0.2684735,-0.22444181,0.316291,0.27383999,-0.26317622,0.334957,0.2769969,-0.29248647,0.348289,0.26119776,-0.22321182,0.331383,0.29335551,-0.24345966,0.332337,0.30075854,-0.27670752,0.34862,0.30707079,-0.30821511,0.363424,0.2823474,-0.24758322,0.344986,0.29432806,-0.25589206,0.333596,0.30052824,-0.26113637,0.328363,0.29708314,-0.27390183,0.323761
0.24596357,-0.26811793,0.331398,0.24433152,-0.21776441,0.321392,0.22305319,-0.25023744,0.322304,0.20619211,-0.2153205,0.310442,0.18630655,-0.19045041,0.30625,0.1810614,-0.17300114,0.306327,0.21518534,-0.17112675,0.304542,0.21608863,-0.13260009,0.301626,0.21665469,-0.1128036,0.300168,0.21722682,-0.094445398,0.298843,0.24275005,-0.17911251,0.313326,0.24478721,-0.17446856,0.295763,0.25477232,-0.21320214,0.316505,0.25796867,-0.22841137,0.33132,0.2658943,-0.18969129,0.321397,0.26497295,-0.18931884,0.301746,0.27159885,-0.22191737,0.319441,0.2742842,-0.23718757,0.335528,0.29391187,-0.209535,0.33239,0.28216574,-0.20565395,0.313999,0.26202914,-0.21155036,0.305549,0.25588846,-0.22180747,0.311943
0.25190551,-0.26861712,0.332015,0.25509832,-0.21789586,0.321586,0.22865136,-0.25044241,0.322568,0.21680898,-0.21509786,0.310121,0.19675687,-0.19027317,0.305965,0.19175633,-0.17310732,0.306515,0.22509521,-0.17085759,0.304063,0.22649994,-0.13256712,0.301551,0.22733216,-0.11285133,0.300295,0.22815389,-0.094543369,0.299153,0.25297458,-0.17902848,0.313179,0.25546892,-0.17414765,0.295219,0.265956,-0.21266056,0.315701,0.26896501,-0.22772955,0.330331,0.27646521,-0.18978573,0.321557,0.27580788,-0.18911932,0.301428,0.28281165,-0.22153806,0.318895,0.28527309,-0.23665386,0.334773,0.30503287,-0.20990441,0.332976,0.29357345,-0.20578363,0.314197,0.27317028,-0.21156421,0.305569,0.26672767,-0.22165602,0.31173
0.25751356,-0.26874656,0.332175,0.26582512,-0.21808505,0.322036,0.23978556,-0.25076503,0.32301,0.22790315,-0.2152658,0.310707,0.20760923,-0.19056875,0.306637,0.2028414,-0.17374135,0.307703,0.23568022,-0.17131936,0.305026,0.23765789,-0.13326115,0.303227,0.23878752,-0.11364285,0.302328,0.23988395,-0.095413971,0.30151,0.26340808,-0.17932976,0.313863,0.26722897,-0.17409785,0.296457,0.27876336,-0.21282857,0.317162,0.28184612,-0.22830978,0.331951,0.28677804,-0.18993601,0.321989,0.2873709,-0.18894454,0.302393,0.2952552,-0.22157237,0.32005,0.29780604,-0.23713794,0.336103,0.31523353,-0.209836,0.333066,0.30472296,-0.20532777,0.314562,0.2858914,-0.21099395,0.306061,0.27854048,-0.22340918,0.312399
0.26658351,-0.25582384,0.32332,0.27011358,-0.20341395,0.316042,0.24792765,-0.24292779,0.320124,0.24449147,-0.21189183,0.314368,0.21497962,-0.1866063,0.303758,0.20850676,-0.1694982,0.303586,0.24568166,-0.16330945,0.308119,0.25562004,-0.12776481,0.31132,0.26146305,-0.10960953,0.31292,0.26755634,-0.092710967,0.314375,0.26864449,-0.16688843,0.310175,0.25535045,-0.12065642,0.295683,0.26481722,-0.10105363,0.305287,0.2732289,-0.086021271,0.312148,0.28749064,-0.17354375,0.312478,0.28931003,-0.18007454,0.297872,0.30534225,-0.21518494,0.317826,0.31313352,-0.23385062,0.335966,0.30982756,-0.18804066,0.316283,0.29859444,-0.19078241,0.301781,0.28507929,-0.20129342,0.295117,0.28500112,-0.21905084,0.303826
0.27711826,-0.26224032,0.333918,0.28808709,-0.21094846,0.323938,0.25934614,-0.23993218,0.326101,0.25177763,-0.20443929,0.309918,0.23129776,-0.17822366,0.304507,0.23130462,-0.16123093,0.306509,0.26728263,-0.16268288,0.30872,0.2899936,-0.13165818,0.315193,0.30184324,-0.11574877,0.318429,0.31324695,-0.10091739,0.321372,0.29341057,-0.17436015,0.315893,0.30745372,-0.13645832,0.320105,0.31786702,-0.11380883,0.322562,0.3273571,-0.097586243,0.324317,0.31466904,-0.18785187,0.322636,0.31019432,-0.19387946,0.303633,0.3193695,-0.22735923,0.321988,0.32327119,-0.2435644,0.338674,0.33911559,-0.21087613,0.332064,0.32327642,-0.21058701,0.314036,0.30424395,-0.21783896,0.305753,0.29896541,-0.2325256,0.312633
0.31526003,-0.23572946,0.317577,0.29431058,-0.19452178,0.313675,0.29427794,-0.23155724,0.313908,0.27558621,-0.21058795,0.309715,0.2359204,-0.19729712,0.296562,0.22555288,-0.18525891,0.298416,0.25694619,-0.16710815,0.306947,0.24355473,-0.12856679,0.302281,0.23684467,-0.11087484,0.299948,0.23295189,-0.093346804,0.297827,0.2778242,-0.16220615,0.310528,0.26138064,-0.11988278,0.299049,0.25316116,-0.094855594,0.292352,0.2496968,-0.077323448,0.287569,0.29626552,-0.16161909,0.313804,0.31528994,-0.15857218,0.304912,0.33782446,-0.19169706,0.325212,0.34436911,-0.20961919,0.343666,0.3205359,-0.16683588,0.318242,0.32351092,-0.16454779,0.305931,0.33666192,-0.19029547,0.32179,0.3401635,-0.20064551,0.332272
0.31422846,-0.24123465,0.326787,0.29635053,-0.1971619,0.327006,0.28015903,-0.22885784,0.322082,0.25735092,-0.22774384,0.30945,0.22859938,-0.21981127,0.309282,0.21275339,-0.21237585,0.304445,0.26359626,-0.16293165,0.321159,0.26955014,-0.15911126,0.313467,0.27355087,-0.15720791,0.309621,0.29364531,-0.18117825,0.322115,0.29051338,-0.16440078,0.327183,0.28916963,-0.12202594,0.321403,0.28849766,-0.096148037,0.318032,0.29367241,-0.078585272,0.321759,0.31359367,-0.16999491,0.332123,0.32527497,-0.16612296,0.325687,0.34933916,-0.20026748,0.345666,0.36262313,-0.22065784,0.363829,0.34141995,-0.17883493,0.337893,0.34748968,-0.14666365,0.336719,0.35475529,-0.13587845,0.336179,0.37143739,-0.14558613,0.348229
0.30900917,-0.23628688,0.322025,0.30237783,-0.19574923,0.322313,0.28247245,-0.22416588,0.312826,0.25758568,-0.21615801,0.295527,0.23253795,-0.21238752,0.298287,0.21820223,-0.20679308,0.295558,0.26775324,-0.15366132,0.310806,0.25014758,-0.11390678,0.298526,0.24276245,-0.09423155,0.292386,0.2394546,-0.077228867,0.289319,0.29808061,-0.15875663,0.322546,0.29495203,-0.11538296,0.314808,0.29388259,-0.089544169,0.310293,0.293242,-0.070640774,0.307069,0.32395214,-0.16637757,0.332186,0.33204036,-0.125382,0.329558,0.33627861,-0.10403279,0.328213,0.34019374,-0.084395741,0.326991,0.35576453,-0.18173323,0.343467,0.35912825,-0.14513845,0.340285,0.36882866,-0.136364,0.338824,0.38705896,-0.14706195,0.348846
0.3148371,-0.23833474,0.325556,0.31580091,-0.19438509,0.325181,0.2933239,-0.22661006,0.317053,0.26747447,-0.21211938,0.300427,0.24201756,-0.20471579,0.303867,0.22875432,-0.19891729,0.301573,0.28107992,-0.156668,0.314204,0.26326999,-0.11649378,0.301725,0.25579636,-0.096629134,0.295485,0.2503675,-0.078807767,0.289813,0.31086083,-0.16087794,0.324879,0.30301982,-0.11643258,0.316459,0.30005999,-0.090493947,0.311547,0.29608384,-0.071244907,0.308038,0.33626544,-0.16781996,0.333698,0.33351362,-0.12479309,0.328031,0.33491542,-0.10277785,0.325131,0.33843176,-0.08341565,0.322495,0.36754464,-0.1824305,0.344114,0.36647534,-0.1459585,0.341375,0.37401083,-0.13197289,0.340117,0.3962365,-0.12817802,0.350635
0.31577237,-0.23631991,0.325275,0.31873612,-0.18700675,0.325842,0.29317827,-0.22025215,0.317138,0.26821707,-0.20259669,0.300997,0.24423457,-0.19367199,0.304853,0.23045144,-0.18583183,0.302944,0.2878537,-0.14764026,0.31583,0.27483236,-0.10689971,0.305522,0.27011516,-0.086706502,0.300368,0.26726754,-0.068479181,0.295682,0.31730373,-0.15382168,0.3263,0.31333387,-0.10974447,0.319594,0.31101724,-0.084028143,0.315681,0.31291665,-0.066026882,0.312887,0.3420068,-0.16238246,0.334871,0.34427048,-0.11960675,0.329403,0.34632553,-0.097482398,0.326606,0.34939406,-0.077204883,0.324063,0.37003693,-0.18083208,0.344854,0.37489906,-0.14464669,0.344131,0.38489031,-0.13138839,0.3438,0.40896692,-0.12772564,0.354892
0.32362761,-0.23552535,0.328684,0.32290023,-0.18509735,0.327957,0.30024031,-0.21702948,0.319455,0.27354476,-0.19372877,0.301458,0.24803034,-0.18527567,0.303359,0.23523716,-0.17389166,0.300306,0.29118696,-0.14217072,0.315871,0.28537487,-0.1058824,0.317538,0.28332498,-0.087069358,0.318372,0.28713891,-0.070933152,0.31913,0.32208291,-0.14841652,0.32737,0.31341865,-0.10411903,0.319269,0.31234095,-0.081792454,0.314543,0.3136762,-0.063749086,0.311167,0.34832406,-0.15708255,0.336897,0.35249572,-0.11448423,0.331775,0.35473984,-0.092226178,0.329155,0.35693002,-0.071702456,0.326772,0.38039335,-0.17385628,0.348199,0.3588967,-0.13348934,0.336695,0.3555671,-0.11650572,0.331409,0.36619573,-0.10507226,0.339267
0.31680491,-0.23244423,0.324964,0.32079969,-0.1838241,0.32672,0.29772674,-0.21080839,0.318218,0.27735306,-0.17353267,0.302994,0.25742786,-0.160316,0.307365,0.25128863,-0.142234,0.306327,0.29422718,-0.14271921,0.319102,0.28506841,-0.10415959,0.316364,0.28227509,-0.084503283,0.314994,0.2847854,-0.067710102,0.31375,0.32131679,-0.15120718,0.328135,0.32297457,-0.1062933,0.321786,0.32513104,-0.080684424,0.318083,0.326727,-0.062161415,0.315438,0.34468576,-0.15983447,0.335423,0.35028312,-0.1160344,0.33007,0.35283323,-0.094109078,0.327331,0.35566501,-0.074003913,0.324841,0.36955027,-0.17974489,0.34372,0.37639289,-0.1414254,0.339435,0.37966525,-0.12695492,0.337467,0.40235122,-0.12082652,0.348061
0.31820643,-0.2296425,0.324264,0.32023751,-0.18273754,0.326172,0.29642542,-0.20914491,0.317379,0.27444748,-0.1742271,0.302059,0.25498517,-0.16009894,0.306281,0.24860454,-0.1422699,0.305215,0.29416994,-0.14152225,0.31846,0.28478398,-0.1028729,0.315474,0.2824479,-0.083162711,0.313981,0.2847402,-0.066076812,0.312623,0.32238261,-0.14886364,0.327711,0.32385989,-0.10534331,0.321884,0.32554931,-0.079764647,0.318484,0.32679051,-0.061332107,0.316056,0.34479862,-0.1593524,0.335166,0.3510825,-0.11621237,0.330481,0.35438068,-0.094472042,0.328084,0.35836359,-0.074579024,0.325905,0.37125811,-0.17781061,0.343635,0.37564346,-0.14163982,0.340492,0.38301766,-0.12654755,0.339049,0.40705635,-0.11616429,0.349876
0.31918125,-0.22783592,0.326139,0.32245868,-0.18146706,0.327931,0.29932866,-0.21026732,0.320834,0.27779403,-0.1772108,0.307114,0.25137018,-0.15725635,0.301926,0.23948187,-0.13701353,0.294683,0.29883096,-0.14132382,0.322159,0.28643902,-0.10145256,0.31638,0.28444368,-0.081414887,0.31349,0.28377754,-0.064925743,0.310863,0.3252078,-0.14822953,0.329375,0.32610885,-0.10495331,0.323862,0.32733938,-0.079337988,0.320645,0.32824067,-0.060923366,0.318348,0.34676905,-0.1567742,0.335165,0.35224566,-0.11481675,0.330725,0.35598099,-0.093158,0.328453,0.36014548,-0.074324755,0.326388,0.37181178,-0.17292989,0.341695,0.37628899,-0.13810836,0.339038,0.38327249,-0.12361489,0.337817,0.40692043,-0.11671043,0.349264
0.32058538,-0.22797493,0.328072,0.32388329,-0.18182814,0.329846,0.30044682,-0.21047673,0.32264,0.27395632,-0.17807282,0.308945,0.24865004,-0.15539674,0.299012,0.23820833,-0.13619781,0.29325,0.30030534,-0.14150411,0.323903,0.28967996,-0.10210436,0.319802,0.28883629,-0.081610973,0.317751,0.28856375,-0.062971405,0.315886,0.32680175,-0.1484215,0.331276,0.32788651,-0.104078,0.325878,0.32890073,-0.078479939,0.32273,0.33033608,-0.060853567,0.320481,0.34839355,-0.15711982,0.337195,0.3539824,-0.11512855,0.332901,0.35822298,-0.093543944,0.330704,0.3629571,-0.074600407,0.328707,0.37336375,-0.17348165,0.343881,0.37791741,-0.1378481,0.342189,0.38629068,-0.12301927,0.341411,0.4107253,-0.11714416,0.353068
0.32160402,-0.22417067,0.329239,0.32558644,-0.18107553,0.331611,0.30115398,-0.210078,0.323959,0.27278165,-0.17670311,0.310796,0.24697762,-0.15244988,0.298113,0.23535079,-0.13422955,0.291732,0.30275916,-0.13977036,0.32618,0.29405774,-0.10110656,0.323853,0.29329609,-0.080281293,0.32269,0.29243123,-0.061676458,0.321633,0.3291478,-0.14678551,0.333523,0.3299994,-0.1030916,0.328422,0.3313216,-0.07749474,0.325446,0.3327702,-0.059741804,0.323321,0.35050849,-0.1565093,0.339369,0.35715729,-0.11434904,0.335788,0.36222364,-0.093033877,0.333956,0.36822989,-0.074355185,0.33229,0.37532488,-0.17276223,0.345878,0.37935848,-0.13845804,0.345141,0.38973916,-0.12443854,0.344803,0.41408139,-0.11765939,0.356694
0.32169907,-0.22733315,0.330028,0.32584644,-0.18208362,0.332445,0.30125491,-0.20991822,0.324533,0.27483382,-0.17770941,0.311063,0.24817321,-0.1540598,0.299261,0.23809562,-0.13563472,0.294774,0.30296034,-0.14046194,0.326764,0.29344245,-0.10160688,0.323568,0.29262313,-0.081798101,0.321969,0.29191637,-0.063229292,0.320517,0.32958041,-0.14849242,0.334393,0.33077856,-0.10414589,0.329388,0.33224098,-0.07858716,0.326469,0.33408264,-0.061084874,0.324384,0.35145271,-0.157963,0.34047,0.35775991,-0.11673709,0.336698,0.36222301,-0.095195293,0.334768,0.36689944,-0.075179354,0.333014,0.37655462,-0.1747318,0.347244,0.38104884,-0.1403756,0.346995,0.390583,-0.12619731,0.346881,0.41360688,-0.11748211,0.358829
0.32251171,-0.22606577,0.330812,0.32654961,-0.18263551,0.333624,0.30172695,-0.21021683,0.325685,0.27597427,-0.17853886,0.312742,0.24807909,-0.15374659,0.300106,0.23890316,-0.13590787,0.296072,0.30355546,-0.14138611,0.328622,0.29446342,-0.10250536,0.325112,0.2930546,-0.082430494,0.323357,0.2926057,-0.064027285,0.321762,0.33015737,-0.14937053,0.335892,0.33224928,-0.10531587,0.331135,0.33407341,-0.079757017,0.32836,0.33605942,-0.061878686,0.326378,0.35224872,-0.15832882,0.341639,0.35892603,-0.11748532,0.338095,0.36339344,-0.095924195,0.336282,0.36850355,-0.07620505,0.334633,0.37676304,-0.17669193,0.347967,0.38085776,-0.14239805,0.347592,0.39069949,-0.12720968,0.34742,0.41348438,-0.1183886,0.359408
0.32218197,-0.22469093,0.331553,0.32699163,-0.18300615,0.334434,0.30198325,-0.21037118,0.326476,0.27651806,-0.17895201,0.313617,0.24848958,-0.15389166,0.300854,0.2392869,-0.13598617,0.296771,0.3041205,-0.14205482,0.329529,0.29488083,-0.10301309,0.325851,0.29340625,-0.0830309,0.324012,0.29283673,-0.064509644,0.322341,0.33077062,-0.14994886,0.336756,0.33294279,-0.10600576,0.332014,0.33491464,-0.080447794,0.329247,0.3369214,-0.062360906,0.327271,0.35279908,-0.1589816,0.342463,0.35953286,-0.11795939,0.338891,0.3638876,-0.096370143,0.337063,0.3688308,-0.076615757,0.335402,0.37730873,-0.17719029,0.34873,0.38152511,-0.14295543,0.34826,0.39110854,-0.12792751,0.348045,0.41371582,-0.11901912,0.36002
0.32202213,-0.22408624,0.332426,0.32767524,-0.18344448,0.335498,0.30196159,-0.20950244,0.327314,0.27187504,-0.18231308,0.322036,0.25017055,-0.15445344,0.305251,0.23826099,-0.13558386,0.296779,0.30544242,-0.14263058,0.330653,0.29458581,-0.10533406,0.327879,0.29396053,-0.085984159,0.326493,0.29424787,-0.066729228,0.325232,0.33214502,-0.15046492,0.337975,0.33383856,-0.10651869,0.333247,0.33588476,-0.080921346,0.330488,0.33794012,-0.062719284,0.328518,0.35375418,-0.1596421,0.343745,0.36067147,-0.11791906,0.340424,0.3644438,-0.096602515,0.338725,0.36878177,-0.076962797,0.33718,0.37835424,-0.17650035,0.350059,0.3827354,-0.14323618,0.349677,0.39204576,-0.12894082,0.349501,0.41466345,-0.12005123,0.361458
0.32136727,-0.22412344,0.333281,0.3277111,-0.18350918,0.336347,0.3014603,-0.20923416,0.328099,0.27247698,-0.18271673,0.322749,0.25000125,-0.15481858,0.305974,0.23818581,-0.13561856,0.297095,0.30593074,-0.14294692,0.33141,0.29518844,-0.10604367,0.329316,0.29581078,-0.08620127,0.328268,0.29618847,-0.06683587,0.327316,0.33267163,-0.15048877,0.33882,0.33423348,-0.10681549,0.333896,0.33621063,-0.081180162,0.331024,0.33819564,-0.062902319,0.328972,0.35417505,-0.16004682,0.344661,0.36124843,-0.11832809,0.341206,0.3649394,-0.096991946,0.339438,0.36910634,-0.077352199,0.337831,0.37852216,-0.17734305,0.351059,0.38308701,-0.14383758,0.350494,0.39236986,-0.12955204,0.350234,0.41493103,-0.12067074,0.362129
0.32419409,-0.22524738,0.335949,0.32949772,-0.18393058,0.338583,0.30439221,-0.21062657,0.331008,0.27815395,-0.18636293,0.322587,0.2517484,-0.15650749,0.306434,0.23916613,-0.13644769,0.298098,0.30668073,-0.14486305,0.333723,0.29625642,-0.10711133,0.331021,0.29638383,-0.08767076,0.329669,0.29706064,-0.067744592,0.32844,0.33333745,-0.15153754,0.340709,0.33495359,-0.10768858,0.335629,0.33744028,-0.081869413,0.332665,0.33925177,-0.063278187,0.330548,0.35458329,-0.16087603,0.346237,0.36188156,-0.11896501,0.342528,0.36595425,-0.097442943,0.340629,0.37001431,-0.077734079,0.338904,0.37893753,-0.17767994,0.352334,0.38382712,-0.14384378,0.351368,0.39291669,-0.12946435,0.350924,0.41571092,-0.12084936,0.362815
0.32549436,-0.22564102,0.33723,0.33044655,-0.18451146,0.339565,0.30571015,-0.21121878,0.332366,0.27822811,-0.18641262,0.322673,0.2521399,-0.15748245,0.30724,0.24006059,-0.13700457,0.299238,0.30724356,-0.14552473,0.334642,0.29664177,-0.10773873,0.331818,0.2968518,-0.088271388,0.330406,0.29756517,-0.068411727,0.329122,0.33368523,-0.15197272,0.341448,0.33505673,-0.10805512,0.336248,0.33764881,-0.082234034,0.333215,0.33931906,-0.06363906,0.331049,0.354799,-0.16109551,0.346853,0.36212381,-0.11918108,0.342988,0.36615725,-0.097637898,0.34101,0.3701453,-0.077910476,0.339212,0.37912918,-0.17771046,0.352851,0.38404336,-0.14371356,0.351719,0.39304889,-0.12929935,0.351199,0.41601894,-0.12090138,0.363088
0.32711879,-0.2278704,0.33984,0.33207148,-0.18740569,0.342527,0.30625419,-0.21260649,0.333795,0.27792338,-0.18842234,0.324008,0.25309081,-0.16230422,0.310138,0.24205416,-0.14023783,0.300157,0.30736111,-0.14959688,0.336299,0.29947907,-0.11360659,0.332392,0.2968328,-0.088956069,0.330439,0.29663784,-0.069879594,0.328663,0.33473568,-0.1614561,0.344698,0.33632135,-0.11795093,0.339284,0.33908467,-0.092604309,0.336127,0.34181862,-0.067268035,0.333871,0.3562448,-0.17165527,0.351386,0.3641654,-0.13019085,0.346787,0.36837104,-0.10849877,0.344434,0.37304794,-0.088606199,0.342295,0.38052353,-0.18969966,0.358837,0.38887515,-0.15410136,0.356863,0.39707841,-0.13910898,0.355956,0.40562817,-0.11980012,0.355156
0.32719128,-0.2290367,0.3406,0.33220776,-0.18838303,0.34301,0.30638032,-0.21367722,0.334546,0.27760435,-0.18931788,0.324484,0.2532106,-0.16304465,0.310501,0.24295751,-0.14188758,0.301562,0.30780194,-0.15062909,0.336625,0.29989532,-0.11376449,0.332854,0.29727108,-0.08962428,0.330969,0.296736,-0.071156804,0.329255,0.33499011,-0.16157882,0.34496,0.33631442,-0.1179485,0.339277,0.33891822,-0.092558851,0.335962,0.34146455,-0.068221572,0.333594,0.35648102,-0.17176909,0.351619,0.36413075,-0.13017846,0.346754,0.36819029,-0.10844553,0.344265,0.37272861,-0.088530353,0.342002,0.38077804,-0.18982653,0.359077,0.38884028,-0.15408754,0.356831,0.39690328,-0.13904763,0.355799,0.40520246,-0.12034434,0.354888
0.32438256,-0.2291791,0.338558,0.32570102,-0.1941023,0.340577,0.30426597,-0.21430433,0.333178,0.27283565,-0.19131407,0.322153,0.24424878,-0.16885361,0.310935,0.24088707,-0.14563062,0.300221,0.29933437,-0.15693108,0.334837,0.29616998,-0.11973617,0.335026,0.29983555,-0.096808776,0.335121,0.30081385,-0.078729307,0.335207,0.32594182,-0.1643322,0.342211,0.33045056,-0.12125142,0.337529,0.33445847,-0.096032828,0.334799,0.33937049,-0.075273304,0.332848,0.34753117,-0.1737981,0.348111,0.35595187,-0.13240247,0.344143,0.36038024,-0.11084147,0.342113,0.36871889,-0.089055642,0.340267,0.37239768,-0.19106103,0.354737,0.38671525,-0.15482761,0.355005,0.39534135,-0.14012674,0.355128,0.40428697,-0.12719561,0.355236
0.32685095,-0.23131035,0.340735,0.33145375,-0.18887662,0.3425,0.30678732,-0.21678178,0.33564,0.27894649,-0.19521559,0.322532,0.25209687,-0.17028563,0.308031,0.24108216,-0.14710907,0.300369,0.30573345,-0.15520388,0.336987,0.29936787,-0.11662723,0.335209,0.29809677,-0.096903638,0.334321,0.29890396,-0.078973465,0.333513,0.33301601,-0.16096194,0.34393,0.33032255,-0.11918083,0.338178,0.32966899,-0.091256421,0.334823,0.33374129,-0.075197152,0.332427,0.35603653,-0.16612741,0.349497,0.36174393,-0.12867279,0.345236,0.36483611,-0.10805686,0.343055,0.36919048,-0.088088633,0.341073,0.38005098,-0.18194403,0.355771,0.38724868,-0.14778774,0.355377,0.39604423,-0.13155505,0.355196,0.40505681,-0.12197089,0.355036
0.32807297,-0.23262388,0.341586,0.33222503,-0.19122313,0.343359,0.30741653,-0.21785059,0.335962,0.2767331,-0.19219246,0.323047,0.25320416,-0.16498316,0.310271,0.24226449,-0.14568609,0.301596,0.30707791,-0.15465077,0.33718,0.29840876,-0.11661749,0.334797,0.2969498,-0.096872596,0.333605,0.2976117,-0.078951781,0.332522,0.33362201,-0.16153482,0.344795,0.3327679,-0.1184127,0.338516,0.33198503,-0.093245243,0.334854,0.33577768,-0.074414754,0.332237,0.35522938,-0.17057477,0.350915,0.35997412,-0.12945611,0.34498,0.36126853,-0.1073475,0.341944,0.36394917,-0.08694031,0.339184,0.38121407,-0.18638823,0.357836,0.38769015,-0.15011863,0.356139,0.39562976,-0.13681344,0.35536,0.40431276,-0.12241877,0.354672
0.32771538,-0.23333335,0.341051,0.32966272,-0.19536458,0.342898,0.30687256,-0.21858182,0.335248,0.27541117,-0.19387148,0.321363,0.25144021,-0.16879153,0.308567,0.24092567,-0.1477648,0.301205,0.30389327,-0.15664998,0.336533,0.29530789,-0.1189493,0.334729,0.295486,-0.1004145,0.333828,0.2973457,-0.08226922,0.333008,0.33219533,-0.16258113,0.344396,0.33032502,-0.11925623,0.338181,0.33099483,-0.093634245,0.334556,0.33230847,-0.075215743,0.331967,0.35411174,-0.17178037,0.350713,0.35761971,-0.12974069,0.344868,0.36062958,-0.10782367,0.341878,0.363489,-0.087480789,0.33916,0.38004667,-0.18902144,0.357855,0.38741795,-0.15486108,0.356641,0.39520894,-0.1398129,0.356083,0.40385794,-0.12476314,0.355591
0.3279693,-0.23449053,0.341067,0.32981479,-0.1957268,0.342949,0.30703606,-0.21983862,0.335259,0.27534432,-0.19418335,0.32138,0.25116138,-0.16914513,0.308677,0.24082284,-0.14830375,0.301532,0.30417334,-0.15694331,0.336595,0.29490883,-0.11954937,0.334888,0.29538799,-0.10125548,0.334034,0.2973125,-0.0831117,0.333258,0.33226551,-0.16292778,0.344474,0.33028685,-0.11957875,0.338292,0.33070788,-0.093952956,0.334686,0.33209394,-0.075562864,0.332111,0.35424103,-0.17210126,0.350801,0.35728233,-0.1299868,0.344942,0.36035851,-0.10814318,0.341945,0.3632917,-0.08782543,0.33922,0.38021046,-0.18935907,0.35795,0.38718087,-0.15501405,0.356782,0.39481758,-0.13987884,0.356245,0.4033474,-0.12551088,0.355772
0.32834911,-0.23566133,0.341416,0.32983133,-0.19588802,0.343253,0.30751951,-0.22132736,0.33588,0.27398757,-0.19376902,0.322692,0.24905285,-0.17013179,0.309492,0.23894833,-0.14985695,0.301227,0.30424623,-0.15715371,0.337224,0.29424823,-0.11931748,0.334706,0.29428266,-0.10021534,0.333447,0.29588074,-0.082662863,0.332303,0.3311801,-0.16352361,0.344745,0.3302936,-0.11957894,0.338756,0.32980554,-0.093543637,0.335262,0.33084821,-0.075172354,0.332766,0.35385971,-0.17195618,0.350781,0.35674991,-0.12912566,0.345149,0.36014325,-0.10800379,0.342267,0.36334653,-0.087741352,0.339647,0.37967275,-0.18805436,0.357596,0.38634037,-0.15396789,0.356647,0.39425128,-0.13890274,0.35621,0.40368924,-0.12438098,0.355825
0.3285855,-0.23647238,0.34214,0.33071298,-0.19391968,0.343163,0.30779466,-0.22226184,0.336728,0.27556252,-0.19406475,0.323266,0.24807401,-0.17028558,0.310032,0.23738693,-0.15051048,0.300601,0.30361685,-0.1548708,0.336855,0.28937087,-0.11688761,0.334018,0.29255636,-0.099861561,0.3326,0.29404823,-0.082634588,0.33131,0.33142573,-0.15703194,0.343993,0.3302863,-0.11312525,0.338125,0.3290501,-0.089056086,0.334701,0.33139977,-0.071273997,0.332256,0.3533019,-0.16467854,0.349784,0.35272786,-0.12438591,0.343631,0.35650689,-0.099168214,0.340483,0.36089806,-0.083519184,0.337622,0.37918532,-0.17986464,0.356433,0.38689022,-0.14593611,0.356419,0.39479332,-0.13402729,0.356413,0.40373386,-0.12423971,0.356408
0.32760719,-0.236788,0.341558,0.32966091,-0.19512457,0.3432,0.30678453,-0.22271662,0.336305,0.2753708,-0.19418248,0.323131,0.24792602,-0.17078551,0.310318,0.23730143,-0.15103304,0.300776,0.30372873,-0.15652685,0.337427,0.29210304,-0.11826615,0.33337,0.29096774,-0.099765996,0.331342,0.29179216,-0.081945416,0.329498,0.33049969,-0.16233791,0.344534,0.32990886,-0.11850017,0.338753,0.32964831,-0.092431788,0.335381,0.33049897,-0.074041604,0.332972,0.35339288,-0.17016854,0.350247,0.3556691,-0.12611599,0.344709,0.35910958,-0.10594538,0.341876,0.36263089,-0.086393422,0.339301,0.37865125,-0.18513151,0.356711,0.38601549,-0.15198134,0.356434,0.394221,-0.13724345,0.356307,0.40267941,-0.12466845,0.356195
0.32784302,-0.23660257,0.341195,0.32936193,-0.19501549,0.343001,0.30689823,-0.22287057,0.336203,0.27560377,-0.19488261,0.323356,0.24779297,-0.17112371,0.310488,0.23706574,-0.15131618,0.30069,0.30351013,-0.15665488,0.337645,0.29160521,-0.11804356,0.332898,0.29004302,-0.099363218,0.330524,0.29030303,-0.081485696,0.328366,0.33016111,-0.16219926,0.344467,0.32993824,-0.11849225,0.338952,0.32987789,-0.092482235,0.335735,0.33076359,-0.074078384,0.333438,0.352674,-0.16973364,0.349931,0.35523227,-0.12606493,0.34475,0.35914616,-0.10595455,0.342099,0.36299365,-0.086469404,0.339689,0.37818015,-0.18404628,0.356078,0.38542895,-0.15150121,0.35628,0.39379776,-0.13690831,0.356373,0.40241453,-0.12442768,0.356454
0.32828172,-0.23663777,0.340798,0.32919258,-0.19513589,0.342791,0.30727686,-0.22337907,0.336202,0.27637147,-0.1968618,0.323831,0.24768156,-0.17295468,0.311142,0.23727223,-0.1520539,0.300958,0.30308898,-0.15794547,0.338037,0.29123404,-0.11831268,0.332221,0.28858896,-0.099586895,0.329313,0.28836375,-0.081142298,0.326669,0.32994771,-0.1629305,0.344409,0.33010378,-0.11938233,0.339215,0.33017431,-0.093513137,0.336185,0.331073,-0.07443377,0.334021,0.35169224,-0.17059482,0.349487,0.35494938,-0.12797106,0.344762,0.35935053,-0.10747075,0.342345,0.36341587,-0.087676191,0.340147,0.37767082,-0.18430134,0.355152,0.3851562,-0.15167326,0.355823,0.39323626,-0.13784226,0.356131,0.40232546,-0.12489571,0.356403
0.32942042,-0.23645282,0.340871,0.32990893,-0.19505941,0.343016,0.30854836,-0.22371867,0.336755,0.2774397,-0.19788861,0.324988,0.24817967,-0.17371466,0.311559,0.23745838,-0.15310264,0.30138,0.30371719,-0.15858115,0.338948,0.29072939,-0.11858427,0.331985,0.28785443,-0.099446655,0.328504,0.28683985,-0.080873858,0.325339,0.33033591,-0.16289448,0.344755,0.33030119,-0.11939157,0.339801,0.33073917,-0.093828884,0.336911,0.33167537,-0.074798475,0.334846,0.35189978,-0.17001424,0.349354,0.35469618,-0.12793377,0.344817,0.35907752,-0.10717503,0.342495,0.36332971,-0.087515301,0.340385,0.3771673,-0.18384313,0.354432,0.38478397,-0.1514132,0.355331,0.39284302,-0.13703098,0.355744,0.40181084,-0.12412347,0.356109
0.32936906,-0.23695427,0.341509,0.32958645,-0.19539402,0.343507,0.30811624,-0.2239288,0.337093,0.27583996,-0.19674138,0.324859,0.24591241,-0.17254026,0.311087,0.2359687,-0.15299372,0.300849,0.30111187,-0.15855342,0.338979,0.28805072,-0.11692321,0.3321,0.28702527,-0.098813777,0.32866,0.28631029,-0.081818041,0.325533,0.32806168,-0.16278121,0.345126,0.32933654,-0.11949458,0.340493,0.33061639,-0.094463965,0.33779,0.33219459,-0.075286447,0.33586,0.34948604,-0.16939992,0.350018,0.35301147,-0.12743477,0.345808,0.35934504,-0.10789672,0.343655,0.36405061,-0.08753565,0.341697,0.37299665,-0.18525566,0.355461,0.38147928,-0.15312182,0.361995,0.38794168,-0.13816686,0.364997,0.39444721,-0.12465194,0.367646
0.32879322,-0.23684171,0.341368,0.32877867,-0.19535353,0.343448,0.30730232,-0.22379513,0.336827,0.27520295,-0.1965504,0.324475,0.24483739,-0.17232693,0.310511,0.2351894,-0.15274885,0.300358,0.30042786,-0.1583548,0.33881,0.28736705,-0.11699854,0.332005,0.2867144,-0.098906966,0.328603,0.28637011,-0.082052731,0.32551,0.32739688,-0.16277345,0.345137,0.32902583,-0.11958537,0.340649,0.33053638,-0.094522908,0.338031,0.33178495,-0.075491255,0.33616,0.34871684,-0.16960423,0.350171,0.35285975,-0.12767924,0.346127,0.35907472,-0.10815204,0.344058,0.36433132,-0.087966766,0.342177,0.37254497,-0.1852144,0.355769,0.38177119,-0.15323899,0.362272,0.38822121,-0.13826642,0.36526,0.39471543,-0.1247367,0.367896
0.32828231,-0.23678722,0.341044,0.32821288,-0.19600395,0.343262,0.30680995,-0.2237931,0.336496,0.27480544,-0.19800434,0.324365,0.24750111,-0.17374152,0.310749,0.23500148,-0.15347176,0.300522,0.30275025,-0.15900185,0.338686,0.28974044,-0.11893355,0.331129,0.28606173,-0.099121909,0.327351,0.28469349,-0.081586461,0.323917,0.32966561,-0.16366501,0.345061,0.32978669,-0.12005973,0.339826,0.32973888,-0.094515369,0.337238,0.33091885,-0.076211634,0.33539,0.3521628,-0.17183174,0.350123,0.35500221,-0.13061427,0.345375,0.35782488,-0.10796363,0.342947,0.36271036,-0.088683345,0.340739,0.37634498,-0.18853229,0.355732,0.38543658,-0.15329797,0.355925,0.3931713,-0.13780155,0.356014,0.40107908,-0.12422012,0.356092
0.32798461,-0.23688574,0.340941,0.32792765,-0.1961912,0.343237,0.30638556,-0.22383964,0.336239,0.27425538,-0.1980974,0.323956,0.24727702,-0.17396047,0.310499,0.23448115,-0.15397775,0.300261,0.30222414,-0.15922291,0.338507,0.28943102,-0.11890323,0.330886,0.2856446,-0.099022705,0.327076,0.28414933,-0.081444697,0.323612,0.32932373,-0.16392441,0.3451,0.32986396,-0.12038235,0.339991,0.33002084,-0.094816942,0.337549,0.33129692,-0.076519914,0.335804,0.35182808,-0.17220179,0.350333,0.35517673,-0.13129801,0.345758,0.35822505,-0.10827216,0.343417,0.36317565,-0.088998856,0.341289,0.37583953,-0.18905076,0.356133,0.38590514,-0.15361597,0.356014,0.39337865,-0.13798758,0.35596,0.40097466,-0.12430961,0.355912
0.32544604,-0.23603094,0.338311,0.32704663,-0.20075938,0.341971,0.30332909,-0.22235177,0.332817,0.2699966,-0.20060364,0.32214,0.24488147,-0.17394074,0.309252,0.23391004,-0.15408564,0.299501,0.30168856,-0.16078504,0.336969,0.28976681,-0.12121815,0.330951,0.28770442,-0.10166217,0.327943,0.28623676,-0.083327021,0.325207,0.32959085,-0.17267269,0.344941,0.33224497,-0.1294343,0.340507,0.33434265,-0.10433147,0.338185,0.33551258,-0.081970335,0.336527,0.35091918,-0.18287857,0.351194,0.35559407,-0.14064875,0.346628,0.35913947,-0.11901267,0.344292,0.36356976,-0.091566,0.342168,0.37558851,-0.20077062,0.357985,0.37549051,-0.1698202,0.359207,0.38833024,-0.1643668,0.359768,0.40051293,-0.15915757,0.360264
0.32408737,-0.23678434,0.33716,0.3263398,-0.20125859,0.341283,0.30190763,-0.22272237,0.33146,0.26914475,-0.20084898,0.321794,0.24469189,-0.17405261,0.309104,0.23386621,-0.15430367,0.299143,0.30132735,-0.16101177,0.336268,0.28972675,-0.12178699,0.330993,0.28832299,-0.10236139,0.328356,0.28717867,-0.084190516,0.325958,0.32929178,-0.172516,0.344628,0.33237377,-0.12948448,0.340639,0.33465506,-0.10442896,0.338501,0.33632577,-0.083175106,0.336974,0.35088621,-0.18286139,0.351161,0.35586797,-0.14075709,0.346895,0.35957863,-0.1191582,0.344713,0.36402251,-0.092669197,0.342729,0.37582457,-0.2008968,0.35821,0.37573407,-0.16993036,0.35944,0.38858606,-0.16447507,0.360005,0.40077975,-0.1592636,0.360504
0.3260324,-0.23879043,0.339234,0.32709265,-0.19795724,0.342284,0.30451017,-0.22506631,0.334205,0.27239088,-0.19737757,0.321711,0.24649089,-0.17526003,0.309955,0.23438056,-0.1546263,0.29975,0.3022231,-0.16084378,0.337542,0.28807386,-0.1202153,0.33082,0.28662784,-0.10105702,0.327459,0.28567376,-0.083366499,0.324403,0.32920098,-0.16472135,0.344758,0.32915558,-0.12094902,0.340207,0.33007212,-0.095498801,0.337553,0.33123387,-0.077187318,0.335657,0.3519849,-0.17296933,0.35044,0.35577793,-0.13099091,0.346572,0.35962688,-0.10937797,0.344594,0.36450186,-0.091976285,0.342795,0.37641541,-0.19053608,0.356652,0.38630949,-0.1572117,0.357305,0.39503909,-0.14270087,0.357605,0.4036401,-0.12769837,0.357869
0.32506895,-0.23866918,0.338282,0.32649475,-0.19807248,0.341611,0.30382168,-0.2249816,0.333337,0.27163668,-0.19733704,0.320984,0.24611812,-0.17501769,0.309147,0.23401057,-0.1543655,0.299226,0.30219283,-0.16108168,0.337127,0.28804779,-0.12065647,0.330964,0.28710391,-0.10162511,0.327882,0.28661975,-0.08402126,0.325081,0.32897496,-0.16529271,0.344311,0.32919304,-0.12148313,0.340175,0.33029206,-0.096125531,0.337763,0.33164566,-0.077872834,0.33604,0.3513609,-0.17296467,0.349944,0.35606234,-0.13125492,0.346564,0.36009532,-0.11005011,0.344835,0.36505307,-0.092498252,0.343263,0.37584905,-0.19011565,0.356056,0.38552001,-0.1572159,0.3572,0.39502094,-0.14316897,0.357726,0.40412576,-0.12858988,0.358189
0.32560962,-0.24053846,0.339645,0.3269329,-0.20103943,0.341547,0.30349392,-0.22584752,0.333375,0.27614037,-0.2042199,0.319068,0.24886959,-0.18125697,0.30892,0.23610505,-0.15717004,0.300607,0.30201949,-0.16374464,0.334617,0.2889202,-0.12531921,0.330515,0.28934545,-0.10633231,0.328465,0.28878227,-0.085749825,0.3266,0.32877618,-0.17182887,0.34309,0.32900099,-0.12821345,0.337338,0.32985756,-0.10297227,0.333983,0.33110282,-0.082456562,0.331586,0.35059769,-0.18182954,0.349904,0.35463423,-0.13958074,0.344194,0.36304881,-0.11856886,0.341272,0.3688021,-0.099259854,0.338616,0.37597403,-0.19968155,0.35762,0.38180956,-0.16218966,0.355999,0.39120997,-0.14482446,0.355254,0.40061746,-0.1394003,0.354597
0.32538983,-0.24215475,0.340371,0.32676365,-0.20536081,0.341957,0.30334171,-0.22714976,0.333768,0.27444681,-0.20532177,0.319108,0.24767696,-0.18340093,0.310266,0.23635738,-0.16387583,0.301127,0.30191201,-0.16448238,0.334438,0.28856124,-0.12626617,0.330513,0.28800319,-0.10950477,0.328551,0.28908117,-0.087989198,0.326767,0.32904048,-0.17242547,0.343244,0.32842188,-0.12862286,0.337189,0.32901155,-0.10331382,0.333656,0.33106324,-0.085349528,0.331133,0.35117731,-0.18235658,0.35036,0.35489661,-0.1399662,0.344051,0.36182027,-0.11940925,0.340824,0.36724245,-0.10006384,0.337889,0.37689681,-0.20019989,0.358478,0.38133505,-0.16378255,0.356951,0.3892156,-0.14904335,0.356249,0.39975154,-0.14045799,0.355631
