sluyters/QuantumLeap/backend/src/datasets/dynamic/HandGestureDataset_SHREC2017_csv/Gesture12/finger_2/subject_1_essai_2_skeletons_world.csv
Wrist_x,Wrist_y,Wrist_z,Palm_x,Palm_y,Palm_z,thumb_base_x,thumb_base_y,thumb_base_z,thumb_first_joint_x,thumb_first_joint_y,thumb_first_joint_z,thumb_second_joint_x,thumb_second_joint_y,thumb_second_joint_z,thumb_tip_x,thumb_tip_y,thumb_tip_z,index_base_x,index_base_y,index_base_z,index_first_joint_x,index_first_joint_y,index_first_joint_z,index_second_joint_x,index_second_joint_y,index_second_joint_z,index_tip_x,index_tip_y,index_tip_z,middle_base_x,middle_base_y,middle_base_z,middle_first_joint_x,middle_first_joint_y,middle_first_joint_z,middle_second_joint_x,middle_second_joint_y,middle_second_joint_z,middle_tip_x,middle_tip_y,middle_tip_z,ring_base_x,ring_base_y,ring_base_z,ring_first_joint_x,ring_first_joint_y,ring_first_joint_z,ring_second_joint_x,ring_second_joint_y,ring_second_joint_z,ring_tip_x,ring_tip_y,ring_tip_z,pinky_base_x,pinky_base_y,pinky_base_z,pinky_first_joint_x,pinky_first_joint_y,pinky_first_joint_z,pinky_second_joint_x,pinky_second_joint_y,pinky_second_joint_z,pinky_tip_x,pinky_tip_y,pinky_tip_z,
0.4900935,-0.27755759,0.583758,0.49035041,-0.23881432,0.58822,0.47399241,-0.2688761,0.588218,0.44988908,-0.24207019,0.586112,0.42544386,-0.21760445,0.577933,0.41574934,-0.19915126,0.575094,0.47094999,-0.20003553,0.596749,0.45674069,-0.16378733,0.595619,0.44942307,-0.14508953,0.595054,0.44422881,-0.12820241,0.596672,0.49038195,-0.19682451,0.592866,0.47885565,-0.15512423,0.590749,0.47199257,-0.13021464,0.589514,0.46807649,-0.11240079,0.589957,0.50645825,-0.19674315,0.589373,0.49775508,-0.15580965,0.587247,0.49412284,-0.13500343,0.587153,0.49080134,-0.11597262,0.587068,0.52584918,-0.20166835,0.584609,0.52380547,-0.16535231,0.582263,0.52286686,-0.14843117,0.581185,0.52203903,-0.13337457,0.580234
0.49126274,-0.27646466,0.584963,0.48819264,-0.23424239,0.585928,0.47318084,-0.26690453,0.587242,0.44753175,-0.23239618,0.581824,0.42444689,-0.20538491,0.572299,0.41633234,-0.18560334,0.568259,0.46404218,-0.19575145,0.589371,0.44455071,-0.1549817,0.584729,0.43568985,-0.13602294,0.582408,0.43092381,-0.1231589,0.580299,0.48257957,-0.18867133,0.586933,0.46728345,-0.14611208,0.581127,0.45828878,-0.12100809,0.57774,0.45547328,-0.10799292,0.575525,0.50000676,-0.18851437,0.584862,0.48710687,-0.14659527,0.579305,0.48049781,-0.12510281,0.576462,0.4869713,-0.11341595,0.584075,0.52172085,-0.19342773,0.582258,0.51531639,-0.15611993,0.576875,0.51236681,-0.13881594,0.574402,0.5114394,-0.12724477,0.57222
0.47209923,-0.24432229,0.574619,0.47241733,-0.20548594,0.578146,0.45389236,-0.23392761,0.576639,0.42898347,-0.20570208,0.571265,0.40568106,-0.17960198,0.562462,0.39765486,-0.1617256,0.561618,0.45101071,-0.16676613,0.583081,0.43799143,-0.12846272,0.580038,0.4313796,-0.10895357,0.578516,0.42530834,-0.091003987,0.577133,0.47280622,-0.16550794,0.581854,0.46291699,-0.12289367,0.578299,0.45712196,-0.097875553,0.576226,0.45375738,-0.080070687,0.575744,0.49085571,-0.16699305,0.580608,0.48262871,-0.12470041,0.577152,0.47841138,-0.10299733,0.575384,0.47545078,-0.089291637,0.573776,0.51266583,-0.17375347,0.578658,0.50922171,-0.13645215,0.575189,0.50763809,-0.11920478,0.573595,0.50624057,-0.10392856,0.572189
0.47337397,-0.2452853,0.576758,0.4719387,-0.20531654,0.578217,0.45453964,-0.23449784,0.57808,0.43021537,-0.20510288,0.571516,0.40577186,-0.17731651,0.559321,0.39789625,-0.15877893,0.557594,0.4486433,-0.16555545,0.580849,0.43420986,-0.12696327,0.576002,0.4269064,-0.10736639,0.573578,0.42021474,-0.089370424,0.571374,0.4704979,-0.16434563,0.579751,0.45894965,-0.12129067,0.574172,0.45220004,-0.096100304,0.570917,0.45112455,-0.078727336,0.57336,0.4887211,-0.1659281,0.57875,0.47885031,-0.12303013,0.573357,0.4731033,-0.099619955,0.570597,0.46974523,-0.088949826,0.568089,0.51099075,-0.17292344,0.577361,0.50560466,-0.13515713,0.572051,0.50312756,-0.11769154,0.569611,0.50094068,-0.1022199,0.567458
0.47248451,-0.24486101,0.575817,0.47096824,-0.20481689,0.577197,0.45371018,-0.23408408,0.577196,0.42995547,-0.20450417,0.57069,0.40537921,-0.17627898,0.557689,0.39768545,-0.15757595,0.555848,0.44767258,-0.16497527,0.579842,0.43320262,-0.12640241,0.574974,0.42587799,-0.10680487,0.57254,0.41916519,-0.08880192,0.570327,0.46944106,-0.1637415,0.578648,0.45783197,-0.12066725,0.57301,0.45104494,-0.095452364,0.569721,0.45006267,-0.078072651,0.572296,0.48759209,-0.16531145,0.577573,0.47728909,-0.12169947,0.572135,0.4721427,-0.099170498,0.569353,0.46877054,-0.088500183,0.566824,0.50977596,-0.17230351,0.576106,0.50420699,-0.13452926,0.570707,0.50164492,-0.11703588,0.568226,0.49938277,-0.10152662,0.566037
0.47141072,-0.24304194,0.574939,0.46901748,-0.20234017,0.5747,0.45062877,-0.23094975,0.573642,0.42477611,-0.19357842,0.56364,0.40306724,-0.16608557,0.554523,0.39631704,-0.14779426,0.553561,0.44417053,-0.15491532,0.572955,0.42964757,-0.11513644,0.565495,0.42252825,-0.095540504,0.561765,0.41619799,-0.078141348,0.558374,0.46649495,-0.15993083,0.574448,0.4570381,-0.11137539,0.566826,0.45051225,-0.085375716,0.56238,0.44774148,-0.073644353,0.567191,0.48657586,-0.16324761,0.575692,0.47852879,-0.11444624,0.567966,0.4735223,-0.091838747,0.564013,0.46709836,-0.08296374,0.560419,0.51130675,-0.17139986,0.577213,0.50376596,-0.13213346,0.569372,0.50031207,-0.11426344,0.56577,0.49726277,-0.098428021,0.562591
0.47046808,-0.24150911,0.57297,0.46783116,-0.20065144,0.572274,0.45021123,-0.22959149,0.572281,0.42675177,-0.19347803,0.562933,0.40619084,-0.16606588,0.554814,0.40076707,-0.14819318,0.555232,0.44406003,-0.15468577,0.570947,0.4292784,-0.11504986,0.563503,0.42204496,-0.095538086,0.559781,0.41562249,-0.078222621,0.556398,0.46733199,-0.15485293,0.571542,0.45561496,-0.11083616,0.563613,0.44877209,-0.084919109,0.558989,0.44641289,-0.069923218,0.562,0.48682612,-0.15764511,0.572078,0.47659151,-0.11364152,0.564181,0.47135407,-0.091121268,0.56014,0.46761563,-0.078010577,0.556467,0.50841498,-0.16931427,0.57281,0.50205527,-0.12927301,0.564873,0.50058322,-0.10966043,0.561227,0.49463879,-0.096606171,0.558009
0.46941742,-0.24069468,0.57143,0.46657455,-0.19963124,0.570331,0.45016782,-0.22919033,0.571961,0.42702527,-0.19733669,0.564045,0.40667187,-0.16721886,0.555649,0.40029508,-0.15221819,0.555654,0.44360532,-0.15477307,0.570203,0.42900491,-0.11523023,0.56318,0.42179045,-0.095587447,0.559668,0.41531801,-0.077949183,0.556476,0.46557593,-0.15446293,0.569175,0.45366979,-0.11045706,0.561131,0.44670414,-0.084558225,0.556439,0.44301111,-0.066085588,0.554715,0.48393114,-0.1568727,0.568403,0.47366172,-0.11300877,0.560555,0.46840502,-0.090534345,0.55654,0.46460598,-0.077647827,0.55289,0.5064558,-0.16502841,0.567622,0.49938052,-0.12683397,0.559878,0.49676116,-0.10911317,0.55632,0.49325813,-0.093197767,0.55318
0.43847244,-0.19865166,0.550361,0.43903772,-0.15721756,0.55033,0.42043593,-0.18600779,0.551471,0.39303918,-0.15956412,0.545754,0.36966863,-0.13642102,0.540209,0.36173855,-0.1210564,0.542061,0.41783532,-0.11348085,0.551655,0.40738542,-0.072572208,0.545376,0.40211085,-0.051775307,0.542236,0.39728638,-0.032661827,0.539382,0.43962477,-0.11408465,0.550296,0.43043136,-0.069753154,0.543332,0.42578303,-0.043857111,0.540188,0.42245443,-0.02525463,0.537943,0.45760198,-0.11729209,0.549181,0.45168045,-0.073996508,0.542139,0.45201823,-0.052369729,0.542578,0.45232584,-0.032506488,0.542978,0.47921519,-0.12646961,0.547849,0.48055972,-0.088712475,0.542154,0.48117081,-0.071112393,0.539537,0.48172879,-0.055473493,0.537228
0.43917568,-0.20141899,0.547061,0.44075714,-0.16416807,0.548376,0.42155726,-0.1898762,0.549192,0.39880774,-0.16798695,0.544872,0.37627293,-0.1442395,0.53943,0.36900359,-0.12847953,0.541924,0.41763775,-0.12217285,0.551892,0.40777132,-0.081567608,0.546869,0.40266989,-0.060844484,0.544357,0.3979694,-0.041592425,0.542077,0.43893431,-0.12087897,0.549762,0.43067035,-0.076483011,0.544096,0.42625501,-0.050305791,0.541342,0.42296456,-0.031161711,0.539375,0.45662533,-0.12256161,0.547922,0.45061452,-0.079096796,0.542091,0.44909774,-0.057030693,0.540986,0.44942479,-0.034416519,0.540793,0.47765474,-0.12794402,0.545548,0.48033496,-0.092181177,0.540929,0.4817687,-0.074483109,0.539191,0.4845764,-0.057294417,0.539871
0.44036456,-0.20627207,0.553034,0.4339866,-0.16794818,0.549857,0.42162201,-0.19320812,0.553298,0.39444678,-0.1679604,0.550244,0.37259731,-0.13969702,0.543562,0.36693322,-0.12563282,0.544235,0.41382524,-0.12050051,0.547936,0.40111665,-0.079403247,0.539135,0.39468074,-0.05866344,0.534734,0.38879934,-0.039615079,0.530733,0.43555831,-0.12115098,0.546509,0.42553505,-0.076118812,0.536588,0.42113728,-0.049983326,0.532636,0.41793495,-0.031060053,0.529813,0.45262527,-0.12706972,0.545547,0.44873457,-0.084121303,0.540989,0.44695338,-0.059461511,0.538656,0.44499756,-0.038737912,0.536536,0.47389475,-0.13863417,0.544812,0.47439556,-0.10058984,0.536432,0.47466147,-0.082946272,0.532582,0.47495445,-0.067327284,0.529185
0.44412952,-0.21792484,0.554783,0.43435678,-0.17612996,0.549256,0.42102614,-0.2002016,0.553921,0.38877339,-0.17866213,0.543666,0.3627342,-0.15431407,0.534529,0.35426934,-0.13920272,0.536208,0.40708123,-0.12976962,0.544328,0.39342311,-0.088449833,0.533215,0.38655629,-0.06751941,0.527658,0.38029141,-0.048325937,0.522607,0.42934917,-0.13040173,0.543458,0.41774201,-0.084880451,0.531177,0.41386719,-0.058801299,0.527702,0.41109094,-0.039980165,0.52522,0.44804953,-0.13383087,0.543114,0.44247391,-0.089864226,0.535583,0.4396215,-0.067357589,0.53173,0.43715031,-0.046540962,0.528227,0.47121078,-0.14364276,0.543428,0.47092923,-0.10539902,0.533522,0.47082987,-0.087688667,0.52897,0.47092312,-0.069507117,0.524954
0.45215815,-0.23175979,0.55532,0.43589329,-0.18818372,0.547925,0.42900419,-0.21704121,0.554729,0.39176262,-0.19276711,0.544608,0.36388076,-0.16776145,0.533496,0.3533288,-0.1506061,0.531749,0.40603589,-0.14285413,0.542044,0.38963036,-0.10135227,0.529684,0.3814167,-0.080539251,0.523505,0.37394211,-0.061580287,0.517887,0.4276453,-0.14221161,0.540208,0.41650856,-0.09704282,0.530071,0.41000473,-0.070590732,0.524158,0.40535521,-0.051647488,0.519934,0.44600894,-0.14461979,0.5392,0.44191956,-0.10151378,0.534549,0.43982572,-0.079386195,0.532169,0.43792226,-0.059225833,0.530006,0.4692119,-0.15325762,0.538966,0.46682278,-0.11466948,0.527393,0.46515831,-0.09857067,0.522075,0.46374951,-0.084073301,0.517383
0.43079044,-0.23882166,0.547425,0.42389338,-0.20241519,0.541995,0.40667003,-0.23238513,0.547436,0.38044235,-0.20357946,0.538285,0.3550944,-0.17751574,0.527302,0.34731337,-0.16046881,0.527564,0.40258923,-0.15441157,0.538237,0.38791355,-0.11374462,0.52783,0.38052428,-0.093132082,0.522626,0.37377549,-0.0742225,0.517895,0.42361374,-0.15655208,0.536359,0.4163345,-0.11183486,0.528253,0.41208621,-0.085630553,0.523525,0.40905067,-0.066857334,0.520148,0.44106607,-0.16134833,0.535185,0.43768939,-0.11856975,0.531118,0.43596159,-0.096643739,0.529037,0.43439071,-0.076687498,0.527145,0.4621619,-0.1730106,0.534501,0.46157508,-0.13464188,0.52422,0.46068042,-0.11739273,0.519496,0.45992705,-0.10199706,0.515328
0.4199067,-0.25340163,0.540969,0.42080734,-0.21895,0.537303,0.40287895,-0.24896843,0.541166,0.3814687,-0.22072526,0.53847,0.35837893,-0.19360421,0.52897,0.35081425,-0.17466588,0.526738,0.39944343,-0.17290704,0.535007,0.38535117,-0.13274065,0.525895,0.3781871,-0.11243861,0.521339,0.3716306,-0.093764114,0.517197,0.42085124,-0.17438154,0.533514,0.41015332,-0.12926829,0.523122,0.40359176,-0.10300731,0.51706,0.39889284,-0.08408357,0.51273,0.43863663,-0.17856605,0.532538,0.4317829,-0.13433294,0.52449,0.42823761,-0.11166682,0.520372,0.42475472,-0.090945409,0.516628,0.46016588,-0.18938366,0.53186,0.45975826,-0.15096453,0.52299,0.45926701,-0.13338945,0.518915,0.45851199,-0.1182011,0.515319
0.42072419,-0.26942464,0.538925,0.41964908,-0.23188173,0.533611,0.40220415,-0.25540565,0.538597,0.3753412,-0.23479391,0.530141,0.35000653,-0.21015958,0.521544,0.3419823,-0.19405705,0.522708,0.39506625,-0.18480046,0.529534,0.37846121,-0.14480275,0.519121,0.37008897,-0.12451563,0.513915,0.36243459,-0.10589559,0.509182,0.41684412,-0.18603773,0.528117,0.40436541,-0.14059985,0.516163,0.39706962,-0.11403591,0.509189,0.39185538,-0.095017672,0.504208,0.43503981,-0.19010145,0.527318,0.42386796,-0.1448958,0.51555,0.41810846,-0.12193807,0.50953,0.41286792,-0.10097352,0.504056,0.45731757,-0.2008902,0.527071,0.45620616,-0.16218251,0.516971,0.45539119,-0.14542069,0.51233,0.45454001,-0.13112224,0.508236
0.41973018,-0.28428534,0.534548,0.41676953,-0.2486673,0.529171,0.40120005,-0.28028452,0.534033,0.37161451,-0.25191981,0.524233,0.34712599,-0.2285219,0.51753,0.33840486,-0.21243265,0.518299,0.39086349,-0.20174896,0.524824,0.37339001,-0.16216904,0.514245,0.36457589,-0.14209137,0.508956,0.35651531,-0.12366198,0.504148,0.41284455,-0.20262051,0.523614,0.39940436,-0.15732362,0.511563,0.39154766,-0.13084024,0.504533,0.38593127,-0.11187472,0.499512,0.43128675,-0.20639652,0.522989,0.41913045,-0.16121259,0.511112,0.41288778,-0.13833729,0.505035,0.40720722,-0.11744407,0.499511,0.45400754,-0.21686782,0.522957,0.45209822,-0.17796977,0.512833,0.45099771,-0.1613491,0.508182,0.44992231,-0.14724338,0.504077
0.4185691,-0.32337984,0.530843,0.41189539,-0.27798299,0.525655,0.39877051,-0.31094969,0.530591,0.37355383,-0.28625794,0.528217,0.34812701,-0.26195067,0.520028,0.33715224,-0.24342442,0.516349,0.38364502,-0.2330069,0.521778,0.3688931,-0.19413438,0.510899,0.36144018,-0.17431231,0.505459,0.35461765,-0.15605304,0.500514,0.40508622,-0.23217706,0.52032,0.39336496,-0.18738388,0.508188,0.38651288,-0.16100095,0.501111,0.3816115,-0.14203437,0.496056,0.42340031,-0.23456167,0.519479,0.41314163,-0.18929453,0.507434,0.40789246,-0.16611871,0.501271,0.40408311,-0.14538649,0.496852,0.44650674,-0.24342531,0.519168,0.44758303,-0.20490949,0.509823,0.4480618,-0.18727442,0.50553,0.4482163,-0.17194336,0.501742
0.41947476,-0.33198704,0.530928,0.41236639,-0.29467284,0.52485,0.40069945,-0.32838494,0.531016,0.37389658,-0.30444723,0.527793,0.34671733,-0.28046556,0.518297,0.33317636,-0.26099035,0.509074,0.38342035,-0.2496706,0.520798,0.3660615,-0.21063272,0.509524,0.35730564,-0.19082993,0.503887,0.3492982,-0.17265199,0.498762,0.40428752,-0.24846767,0.518628,0.39069401,-0.20278172,0.505599,0.38271632,-0.17601272,0.497999,0.37700977,-0.15680265,0.49257,0.42219358,-0.25059666,0.517265,0.41219833,-0.20524041,0.504289,0.40708402,-0.18200488,0.497649,0.40243606,-0.1608639,0.491614,0.44493496,-0.2592329,0.516449,0.4441671,-0.21945185,0.505914,0.44354522,-0.20154202,0.501074,0.44136638,-0.18957446,0.496803
0.42169506,-0.34352995,0.531628,0.41346253,-0.29776655,0.525706,0.40300526,-0.33242319,0.533061,0.37218896,-0.31256913,0.526501,0.34179131,-0.290452,0.514087,0.32710873,-0.27298986,0.508821,0.38549782,-0.25693203,0.523424,0.3682801,-0.21835128,0.512274,0.35958317,-0.1987348,0.5067,0.35146413,-0.17717369,0.501631,0.4051313,-0.25176677,0.519676,0.39017757,-0.20973922,0.506876,0.38141675,-0.18342812,0.499409,0.37665147,-0.16092601,0.494075,0.42200983,-0.25310728,0.517007,0.41050944,-0.20775086,0.504074,0.40234318,-0.18716907,0.497458,0.39927771,-0.16349122,0.491442,0.44344405,-0.26077172,0.514619,0.44038164,-0.22524013,0.503854,0.43896505,-0.20763138,0.498908,0.43854803,-0.19035499,0.494544
0.41545422,-0.37171756,0.529993,0.40959874,-0.32584673,0.524159,0.39685568,-0.3594484,0.530858,0.36765165,-0.33405225,0.524091,0.34221854,-0.31183156,0.518283,0.33143964,-0.29496851,0.517004,0.38316744,-0.28042665,0.52125,0.36586515,-0.24104863,0.510605,0.35715245,-0.22114004,0.505283,0.34919332,-0.20290635,0.500444,0.40366226,-0.27976956,0.518227,0.38879295,-0.2347883,0.506064,0.38001884,-0.20863825,0.49897,0.37373759,-0.18986718,0.493902,0.42099989,-0.2823943,0.516148,0.40821208,-0.23697216,0.503914,0.40159158,-0.21397598,0.497655,0.39557033,-0.19303712,0.491965,0.44261383,-0.29164317,0.514453,0.43763228,-0.25274113,0.503642,0.43518518,-0.23541096,0.498675,0.43293377,-0.22042613,0.494292
0.4147801,-0.37789012,0.527956,0.4064797,-0.33983864,0.522526,0.39614967,-0.36668992,0.529351,0.3661363,-0.35111095,0.523547,0.33921804,-0.32983582,0.517037,0.32897408,-0.31484978,0.518059,0.37721301,-0.29679485,0.52055,0.36150276,-0.25748467,0.509578,0.35358705,-0.23757147,0.504092,0.34635384,-0.21930979,0.499105,0.39719114,-0.29410101,0.517017,0.38419026,-0.24824929,0.504536,0.37660902,-0.2215269,0.497256,0.37119483,-0.20245091,0.492056,0.41435446,-0.29503393,0.514493,0.40402106,-0.2500202,0.501988,0.39873429,-0.22701145,0.49559,0.39505854,-0.20669913,0.491179,0.43623076,-0.30223217,0.512211,0.4346099,-0.26365381,0.501934,0.43387572,-0.24587994,0.497212,0.43323415,-0.23017087,0.493046
0.41878975,-0.39332355,0.532482,0.4085971,-0.35128817,0.524925,0.39857832,-0.38174542,0.532456,0.36945884,-0.3621289,0.526791,0.34121119,-0.33798116,0.516275,0.32861406,-0.3199843,0.511841,0.37778119,-0.30639631,0.519775,0.36032455,-0.26694401,0.507283,0.35154141,-0.24700788,0.501037,0.34339219,-0.22964045,0.495359,0.39880301,-0.30475774,0.51727,0.38330049,-0.25906124,0.503269,0.37610861,-0.23357925,0.497554,0.37095426,-0.21523943,0.493472,0.41680453,-0.30662804,0.515742,0.40373434,-0.26083955,0.501643,0.39704163,-0.23752973,0.49443,0.39481873,-0.21849901,0.49269,0.43966651,-0.31504899,0.514937,0.43602142,-0.27968731,0.503208,0.43440074,-0.26320049,0.497819,0.43300099,-0.24851943,0.493064
0.41785906,-0.40439533,0.532436,0.40656352,-0.36470304,0.523517,0.3983802,-0.39303613,0.532974,0.37019642,-0.37587901,0.528527,0.34282758,-0.35217223,0.519745,0.33050163,-0.33431229,0.515945,0.37570858,-0.31950033,0.518143,0.35757562,-0.27702559,0.504825,0.34736029,-0.25870995,0.498167,0.33799546,-0.24185258,0.492113,0.39557522,-0.31796495,0.514491,0.38141654,-0.27243909,0.502844,0.37326081,-0.24596315,0.496185,0.36743468,-0.22705025,0.491428,0.41278795,-0.31995143,0.512113,0.40111506,-0.27402228,0.499601,0.39514603,-0.25058938,0.4932,0.39053697,-0.22980696,0.488401,0.43494194,-0.32859259,0.510478,0.43119503,-0.28639968,0.497268,0.42797247,-0.27162308,0.491198,0.42516393,-0.25839167,0.485842
0.41701016,-0.42290886,0.534972,0.40554837,-0.38495147,0.526131,0.39501503,-0.42004399,0.534855,0.36378916,-0.39435252,0.526575,0.33644617,-0.37174592,0.518324,0.3243311,-0.35435402,0.515767,0.37587253,-0.33801094,0.520021,0.35732214,-0.29933289,0.506468,0.34798012,-0.27976672,0.499691,0.33944666,-0.26183883,0.493531,0.39645195,-0.33730971,0.5172,0.38010387,-0.29167687,0.501984,0.37044112,-0.26541188,0.493108,0.36353065,-0.24659015,0.486768,0.41410159,-0.34003455,0.515501,0.40008828,-0.29388313,0.500197,0.39283988,-0.2706192,0.492368,0.38789843,-0.25052223,0.487322,0.43654151,-0.3496618,0.514664,0.43174123,-0.31055965,0.501581,0.4295453,-0.29254803,0.49557,0.42688323,-0.27976343,0.490267
0.41379179,-0.43707607,0.530854,0.40596305,-0.39549305,0.523353,0.39546668,-0.42528591,0.532156,0.36520631,-0.40681987,0.524342,0.33848059,-0.38639698,0.518854,0.32720085,-0.37067698,0.518728,0.37763275,-0.34982488,0.519884,0.35655937,-0.31769253,0.507611,0.34581129,-0.30121166,0.501474,0.33590731,-0.28596712,0.495896,0.39574772,-0.34727103,0.515776,0.37732227,-0.30372593,0.501838,0.36653218,-0.27813801,0.493708,0.35880467,-0.25977079,0.487901,0.41164877,-0.34849367,0.512923,0.39733743,-0.30282683,0.498519,0.39001601,-0.27947578,0.491149,0.38336161,-0.25825662,0.48445,0.43249416,-0.35647988,0.510529,0.43200132,-0.31550115,0.498378,0.43162853,-0.29693461,0.492796,0.42564517,-0.28962648,0.48787
0.41619586,-0.45251262,0.533801,0.40282772,-0.41067006,0.52515,0.39694963,-0.4397015,0.534011,0.36888514,-0.42224945,0.531902,0.34431367,-0.40004637,0.526519,0.3346255,-0.38292387,0.525943,0.37207662,-0.36468347,0.519567,0.35408345,-0.32868796,0.505583,0.34473585,-0.31105659,0.498591,0.33616082,-0.29480066,0.492235,0.39167763,-0.36373575,0.516407,0.3766899,-0.3174351,0.500836,0.36658284,-0.29321125,0.491754,0.35932915,-0.27571798,0.485266,0.40879821,-0.36622524,0.514413,0.3962425,-0.31862262,0.498752,0.38908395,-0.29577283,0.490739,0.38257331,-0.27494279,0.483454,0.43103302,-0.37555119,0.513198,0.42975652,-0.3342255,0.500584,0.42808192,-0.31753026,0.494788,0.42559834,-0.3052116,0.489674
0.41368776,-0.46645616,0.539527,0.40008671,-0.42249605,0.528752,0.39458704,-0.45296521,0.539468,0.36030685,-0.43034562,0.532186,0.33564489,-0.40977245,0.527711,0.32488506,-0.39221268,0.526067,0.3715971,-0.37367857,0.521417,0.35162947,-0.3375748,0.506113,0.3415428,-0.31923761,0.498461,0.33230767,-0.30238675,0.491504,0.39103916,-0.37446948,0.517879,0.37228956,-0.32683559,0.500969,0.36138706,-0.29925404,0.491105,0.35600373,-0.27736221,0.484059,0.40783989,-0.37848909,0.515725,0.39635745,-0.33151146,0.500796,0.39066691,-0.30766728,0.493391,0.38549261,-0.28600243,0.486658,0.42934497,-0.38980045,0.514605,0.42757285,-0.34737266,0.50096,0.42667818,-0.32814507,0.49469,0.42189098,-0.32129367,0.489158
0.41630749,-0.47416474,0.545925,0.40325936,-0.42852133,0.533222,0.39306025,-0.46194859,0.54414,0.3622548,-0.43754718,0.534897,0.33642955,-0.41525187,0.526766,0.32467294,-0.39431841,0.52429,0.37320454,-0.3812642,0.522498,0.35229814,-0.34449566,0.505778,0.34176028,-0.32587938,0.497418,0.33190684,-0.30984797,0.489818,0.39421297,-0.38332553,0.520441,0.3759973,-0.33597512,0.501794,0.36531785,-0.30867039,0.490917,0.3576947,-0.28920549,0.483148,0.41223754,-0.38838299,0.519645,0.39847238,-0.34260077,0.503684,0.39142951,-0.31916818,0.495518,0.38502646,-0.29785985,0.488094,0.43508454,-0.40088133,0.520411,0.42760723,-0.36049917,0.504311,0.4240368,-0.34256761,0.496913,0.42191803,-0.32441862,0.490386
0.41258567,-0.47969307,0.546493,0.40314898,-0.43312041,0.533347,0.3928426,-0.4643512,0.544628,0.35939103,-0.44317978,0.535784,0.33181302,-0.42222689,0.528186,0.3212489,-0.40577191,0.527717,0.37354431,-0.38287865,0.522263,0.35208129,-0.34620566,0.505418,0.34126269,-0.32764367,0.496996,0.33111973,-0.31204137,0.489339,0.39455342,-0.38508531,0.520178,0.37655127,-0.33751075,0.501171,0.36603011,-0.30999139,0.490083,0.35852103,-0.29038969,0.482163,0.41255899,-0.39030917,0.519396,0.39816553,-0.34441473,0.50347,0.390802,-0.32094215,0.495322,0.38388482,-0.30055198,0.487915,0.43535733,-0.40309013,0.520248,0.42743284,-0.36644706,0.503731,0.42361237,-0.34849606,0.496142,0.42016536,-0.32935511,0.489446
0.41494487,-0.48366497,0.547134,0.4053645,-0.43939141,0.534138,0.39576382,-0.47195541,0.546448,0.36714813,-0.45122933,0.535423,0.34092771,-0.42932497,0.528801,0.3304924,-0.41311515,0.528406,0.37375179,-0.39371456,0.524602,0.35521181,-0.35651165,0.506919,0.34588959,-0.337699,0.498078,0.3373818,-0.32046272,0.490041,0.39342022,-0.39279213,0.521121,0.37605188,-0.34522479,0.50166,0.36906693,-0.32032642,0.49451,0.36477361,-0.29947504,0.489402,0.41181609,-0.39392172,0.51918,0.39820159,-0.34837472,0.503991,0.39123468,-0.32505646,0.496219,0.38507231,-0.30270337,0.489154,0.4338348,-0.4031411,0.51863,0.42714494,-0.36585126,0.502308,0.42402276,-0.34785609,0.494809,0.42051355,-0.3297196,0.488192
0.41615015,-0.48517871,0.547275,0.40567315,-0.43985812,0.534205,0.39718243,-0.47344643,0.546734,0.36742433,-0.45082316,0.53588,0.34128985,-0.42991122,0.529723,0.33033095,-0.41357577,0.528838,0.37342164,-0.39291778,0.524816,0.35403876,-0.35633799,0.507187,0.34428287,-0.33782859,0.498372,0.3340404,-0.31899059,0.490358,0.39268213,-0.39210792,0.521145,0.3746476,-0.34482535,0.501653,0.36734895,-0.32015122,0.494605,0.36327992,-0.3004615,0.48957,0.41074741,-0.39404533,0.519057,0.39787379,-0.34838137,0.503667,0.3912879,-0.32501235,0.495794,0.38499061,-0.30326475,0.488636,0.43301048,-0.4034306,0.518345,0.42716126,-0.36307596,0.502039,0.42649697,-0.3457432,0.494547,0.42113326,-0.33402494,0.487936
0.41673914,-0.4859377,0.547087,0.40578293,-0.44004315,0.53418,0.39787948,-0.47415736,0.546694,0.36751618,-0.4506879,0.536032,0.34149657,-0.43021505,0.530164,0.33025577,-0.41370276,0.528948,0.37347816,-0.39282769,0.525121,0.35391518,-0.35654903,0.507659,0.34406368,-0.3381823,0.498928,0.33424731,-0.31992039,0.49099,0.39257564,-0.39201916,0.521338,0.37443267,-0.34492538,0.50199,0.36683919,-0.320148,0.494722,0.36244184,-0.30087922,0.489531,0.41033526,-0.39422442,0.51915,0.39774542,-0.34841577,0.50355,0.39130446,-0.32498203,0.495569,0.38493195,-0.30359394,0.488313,0.43262034,-0.40370304,0.5183,0.4276321,-0.36295648,0.502129,0.42700732,-0.34511435,0.494699,0.42135338,-0.33528516,0.488143
0.41672745,-0.48763323,0.547453,0.40589256,-0.44264898,0.534507,0.39812133,-0.47610827,0.547531,0.3675551,-0.45229198,0.537474,0.34118288,-0.43086769,0.530708,0.32993907,-0.41401608,0.529152,0.37393975,-0.39429921,0.526045,0.35459137,-0.35795244,0.508838,0.34484673,-0.33954779,0.500234,0.33585187,-0.32291728,0.492413,0.39265802,-0.39330835,0.521689,0.37518475,-0.34617492,0.502395,0.36608919,-0.32451505,0.49114,0.36138251,-0.30465362,0.486309,0.40917201,-0.39603147,0.519033,0.39723079,-0.35509512,0.502574,0.39146302,-0.33222011,0.494153,0.38538459,-0.30675862,0.487558,0.42985567,-0.4105533,0.517636,0.42706075,-0.36776936,0.501174,0.42511304,-0.34944107,0.49361,0.42024262,-0.34059999,0.486937
0.41598569,-0.49063288,0.547656,0.40190003,-0.44650324,0.534442,0.39724439,-0.4771836,0.547703,0.36265073,-0.45395398,0.537565,0.33719044,-0.43157842,0.530444,0.3277098,-0.41275712,0.528864,0.37365469,-0.39483861,0.525802,0.35429629,-0.35859537,0.508664,0.3445454,-0.3402403,0.500095,0.33556157,-0.32360369,0.492305,0.39189038,-0.39760737,0.521413,0.37627632,-0.3507462,0.502048,0.36649206,-0.32493232,0.490752,0.36203123,-0.30594318,0.48628,0.40813496,-0.40160043,0.518755,0.39642966,-0.35643034,0.502253,0.39044184,-0.33329356,0.49381,0.38499941,-0.31224383,0.486135,0.4291035,-0.41320397,0.517398,0.4245454,-0.37614342,0.500674,0.42268926,-0.35785489,0.49299,0.4199703,-0.3405126,0.48621
0.41471295,-0.49297967,0.546649,0.40050692,-0.44762415,0.533736,0.39655767,-0.48108248,0.54681,0.35962979,-0.45629467,0.53685,0.33469501,-0.43427766,0.530483,0.325197,-0.41557606,0.528013,0.37158284,-0.3995539,0.525435,0.3524562,-0.36371057,0.508388,0.34281802,-0.34554749,0.499864,0.33437513,-0.32746788,0.492115,0.39024483,-0.40032045,0.521004,0.37479542,-0.35441123,0.501651,0.36578256,-0.3276011,0.490362,0.35884348,-0.30785671,0.482299,0.40638422,-0.40451972,0.51829,0.39509873,-0.35933142,0.502409,0.38932573,-0.33616475,0.494283,0.38489904,-0.31393544,0.486897,0.42708151,-0.41635781,0.516825,0.42346779,-0.37738058,0.500352,0.42180527,-0.35947673,0.492783,0.41993361,-0.3443356,0.486104
0.41400147,-0.4943323,0.546498,0.39980525,-0.44849207,0.533269,0.3959022,-0.48248184,0.54688,0.35918628,-0.46039926,0.537192,0.33343949,-0.43836783,0.530927,0.32213993,-0.4204476,0.5285,0.3698977,-0.40165344,0.52503,0.34995206,-0.36604592,0.50751,0.33990066,-0.34801264,0.49875,0.33071285,-0.33147267,0.490786,0.38907774,-0.4003774,0.520224,0.37114087,-0.35603116,0.500414,0.36122883,-0.32945855,0.488858,0.35395875,-0.3108095,0.480604,0.40494774,-0.40417896,0.517224,0.39392511,-0.35917851,0.501888,0.38828756,-0.33609839,0.494042,0.38378879,-0.31459571,0.486909,0.42545711,-0.41564989,0.515463,0.42082187,-0.37653343,0.498637,0.4175734,-0.35968581,0.490905,0.41684334,-0.34328043,0.484084
0.41179924,-0.49391624,0.544591,0.39651142,-0.44898021,0.531265,0.39181144,-0.48443113,0.545257,0.35747298,-0.45995917,0.535948,0.33187525,-0.43786331,0.529743,0.32194028,-0.41872461,0.527939,0.36720524,-0.40080888,0.523313,0.34569021,-0.36524374,0.506096,0.33523216,-0.34704749,0.497488,0.32567241,-0.33036778,0.489663,0.38514479,-0.40008614,0.518126,0.36594916,-0.35564857,0.498554,0.35521583,-0.32950452,0.487136,0.3474444,-0.31095586,0.478981,0.40081992,-0.4031527,0.51482,0.38940049,-0.35802935,0.499114,0.38193737,-0.33545705,0.491078,0.37749699,-0.31521635,0.483773,0.42126083,-0.41384091,0.512707,0.41424071,-0.37506218,0.495658,0.41135707,-0.35720823,0.487825,0.40847051,-0.3420681,0.480914
0.40824892,-0.49208178,0.54136,0.39341169,-0.44710912,0.528527,0.38677499,-0.48355162,0.542178,0.35144925,-0.45823886,0.533113,0.32503977,-0.43406818,0.525196,0.31780759,-0.41781634,0.525209,0.36476087,-0.39889849,0.521086,0.3411544,-0.36268421,0.504926,0.33045337,-0.34423008,0.496846,0.32066949,-0.32731883,0.489501,0.38269181,-0.39821671,0.515874,0.36155499,-0.35364632,0.497481,0.34849547,-0.32516785,0.486751,0.34258901,-0.3087769,0.479087,0.39829083,-0.40129639,0.512511,0.38264722,-0.35602303,0.496996,0.37266783,-0.33185601,0.489058,0.36868572,-0.31305646,0.481842,0.41851927,-0.41196109,0.510263,0.40848283,-0.3736772,0.493725,0.40126652,-0.35617329,0.486127,0.39710309,-0.34051242,0.479423
0.38250278,-0.47470908,0.535099,0.37131121,-0.42596487,0.520327,0.36374248,-0.46020057,0.534234,0.33082431,-0.43330773,0.522742,0.3037433,-0.41193376,0.514579,0.2929823,-0.3943121,0.512708,0.34105362,-0.37662031,0.50953,0.31831262,-0.33846009,0.491784,0.30687582,-0.31922718,0.482911,0.29643718,-0.30164663,0.474845,0.36027303,-0.37814229,0.505751,0.34119096,-0.33077093,0.485406,0.32952508,-0.3042578,0.473538,0.32090232,-0.28585748,0.46506,0.37704464,-0.38292886,0.503711,0.36427271,-0.33342724,0.485301,0.35578603,-0.31211899,0.475882,0.34695694,-0.29547872,0.467319,0.39876264,-0.39537944,0.503307,0.39494678,-0.35151563,0.487114,0.39223288,-0.33338541,0.479674,0.38521195,-0.32977184,0.473109
0.38713033,-0.48102211,0.531383,0.36930378,-0.42557686,0.51841,0.36205794,-0.46120696,0.531703,0.33172203,-0.43610296,0.524266,0.30471426,-0.41378483,0.516218,0.29285387,-0.39551451,0.512959,0.33968835,-0.37802893,0.510234,0.3177985,-0.34037878,0.493576,0.30677408,-0.32136826,0.485246,0.29670275,-0.30397015,0.477674,0.35835318,-0.37786613,0.505582,0.33966134,-0.33127167,0.486513,0.32848696,-0.30464502,0.475389,0.32035933,-0.28589105,0.467444,0.37460026,-0.38122405,0.50269,0.35748783,-0.33450175,0.484529,0.34924059,-0.31182374,0.475237,0.34414224,-0.29313637,0.46679,0.39562519,-0.39189771,0.501025,0.38650948,-0.35168805,0.484371,0.38294133,-0.33393269,0.476719,0.37979906,-0.31823565,0.469967
0.37437329,-0.46772694,0.528493,0.35381282,-0.41119537,0.51558,0.35295386,-0.45085908,0.52773,0.31695211,-0.42192955,0.521172,0.29024988,-0.39907212,0.513206,0.276794,-0.38009279,0.507516,0.32129854,-0.36425232,0.50613,0.30042617,-0.32273008,0.489012,0.28999005,-0.30196921,0.480453,0.27856708,-0.29802564,0.472672,0.34142502,-0.36367557,0.502838,0.323827,-0.31613347,0.484526,0.3135821,-0.28854148,0.473843,0.30373866,-0.27801857,0.466213,0.35899528,-0.36669426,0.501066,0.34395484,-0.31819279,0.482484,0.33519661,-0.29617531,0.472976,0.32629247,-0.27912354,0.464333,0.3818068,-0.37695815,0.500732,0.37771729,-0.33594451,0.486279,0.37581133,-0.31722015,0.479639,0.37331344,-0.30293429,0.47378
0.35815895,-0.44993189,0.523337,0.3402836,-0.39591439,0.509079,0.33826573,-0.43793851,0.522684,0.30134296,-0.40650569,0.513821,0.27410767,-0.38485745,0.506265,0.25963039,-0.36632164,0.500021,0.30700001,-0.34984767,0.498876,0.28377504,-0.30937073,0.484175,0.27216383,-0.28913466,0.476825,0.26160811,-0.27073881,0.470142,0.32732373,-0.34821917,0.495009,0.30753267,-0.30275453,0.477999,0.29597832,-0.27619509,0.468077,0.28769731,-0.2572625,0.460989,0.34492097,-0.35036228,0.492861,0.32924632,-0.30570974,0.478611,0.32121735,-0.28280502,0.471321,0.31391164,-0.2619448,0.464693,0.36762486,-0.35951208,0.492264,0.3564104,-0.32202129,0.474755,0.35126489,-0.30469819,0.46671,0.34582167,-0.29456749,0.459612
0.34442133,-0.43547857,0.515791,0.32774251,-0.38313508,0.505048,0.32556201,-0.42452711,0.516538,0.28975501,-0.39697975,0.509798,0.26161706,-0.37644307,0.502556,0.24740183,-0.35881287,0.498282,0.29713078,-0.33770047,0.498891,0.27299499,-0.30137883,0.484044,0.2604123,-0.28384855,0.476621,0.24885683,-0.26773249,0.469873,0.31541678,-0.33529037,0.494459,0.29325468,-0.29088867,0.477552,0.28030351,-0.26491985,0.46769,0.26994114,-0.24818514,0.460645,0.33155087,-0.33681799,0.491593,0.31248371,-0.2915435,0.47443,0.30182411,-0.2698451,0.46565,0.29209211,-0.24998234,0.457667,0.35281033,-0.34539249,0.489661,0.34541739,-0.30476852,0.47886,0.34277948,-0.28687186,0.474951,0.34045112,-0.27109383,0.471501
0.31106124,-0.41579711,0.505238,0.30323013,-0.36695625,0.495341,0.29526363,-0.40277755,0.506965,0.26562919,-0.38080621,0.5038,0.23985705,-0.36279668,0.501008,0.22935237,-0.34705935,0.501262,0.27909395,-0.32040055,0.490963,0.25251394,-0.28720848,0.478526,0.238971,-0.27028733,0.472308,0.22603865,-0.25553695,0.466655,0.29556944,-0.31980749,0.485613,0.27509734,-0.27427461,0.470278,0.26171851,-0.24920341,0.461333,0.25015445,-0.23394797,0.454944,0.30993835,-0.32285795,0.481936,0.29195764,-0.27918711,0.472232,0.28278229,-0.25692047,0.467267,0.27218616,-0.23870793,0.462753,0.3284983,-0.33329813,0.478931,0.32575312,-0.29390837,0.472845,0.32447941,-0.27612094,0.470049,0.31717422,-0.26798751,0.467582
0.30628651,-0.40482541,0.497345,0.29515275,-0.35300804,0.491176,0.29216477,-0.39619751,0.502643,0.26196589,-0.37193206,0.500333,0.23673295,-0.35512965,0.499028,0.22707756,-0.34390804,0.500515,0.27038704,-0.31470372,0.493644,0.24351388,-0.28191798,0.484805,0.22968181,-0.26542346,0.480385,0.21693728,-0.25022469,0.476367,0.28435495,-0.30789305,0.485113,0.26012026,-0.26642223,0.473942,0.24591293,-0.24209439,0.467425,0.23573194,-0.22465289,0.462771,0.29674073,-0.30560544,0.478545,0.27790654,-0.26484106,0.471904,0.2682199,-0.24385963,0.468506,0.25938321,-0.22470947,0.465417,0.31323069,-0.30923536,0.471583,0.30066004,-0.27195071,0.459558,0.29485796,-0.25465433,0.454032,0.28972469,-0.23930138,0.449157
0.30469326,-0.39804333,0.501816,0.28614287,-0.34751966,0.493738,0.28821911,-0.39005281,0.505647,0.25281116,-0.36637217,0.503552,0.22617906,-0.34923253,0.500562,0.21210454,-0.33299385,0.497862,0.25571527,-0.30882013,0.493145,0.22939832,-0.27289681,0.48251,0.21612333,-0.25477114,0.477193,0.20398342,-0.23819241,0.472359,0.27214908,-0.30347427,0.485798,0.24991133,-0.25997189,0.471393,0.23633008,-0.2350556,0.46299,0.22899333,-0.22057702,0.456988,0.28671065,-0.30235312,0.480344,0.27008307,-0.25931524,0.470253,0.26154343,-0.23718367,0.46509,0.25397205,-0.22102803,0.460396,0.30601906,-0.30722174,0.474972,0.29310092,-0.27064553,0.461671,0.28713485,-0.25364521,0.455559,0.28185426,-0.23853602,0.450167
0.28999497,-0.39103405,0.499657,0.271023,-0.34440309,0.493162,0.27355094,-0.38290758,0.50359,0.23854118,-0.35954144,0.502759,0.2142401,-0.33807235,0.498843,0.20363459,-0.32092032,0.497711,0.24582349,-0.30397089,0.493737,0.22128585,-0.26834491,0.484363,0.20873253,-0.2504247,0.479676,0.19721155,-0.2339734,0.475415,0.26169057,-0.2992214,0.486779,0.24038459,-0.2556003,0.474993,0.22795842,-0.2301608,0.468117,0.22033789,-0.21320636,0.465857,0.27554567,-0.2986533,0.48153,0.25851177,-0.25518046,0.47127,0.24978276,-0.23289162,0.466021,0.24183848,-0.21259997,0.461249,0.29356587,-0.30436851,0.476182,0.28310162,-0.26455667,0.464524,0.27686617,-0.24747729,0.459167,0.27128097,-0.23237028,0.454441
0.27113003,-0.3818201,0.493247,0.25587985,-0.33197699,0.489085,0.25491059,-0.37315882,0.496622,0.22451115,-0.34744952,0.498339,0.20283782,-0.32813422,0.498228,0.193261,-0.31185238,0.49849,0.23001188,-0.29343909,0.490505,0.20744893,-0.25722715,0.481688,0.19600237,-0.23884395,0.47728,0.18376577,-0.22408711,0.473272,0.2469339,-0.28836026,0.484994,0.22843579,-0.24419162,0.474864,0.21336748,-0.22217382,0.468955,0.20240693,-0.20614033,0.464734,0.26166839,-0.28739779,0.480764,0.24275279,-0.24398627,0.470439,0.23251729,-0.22217877,0.465157,0.22319314,-0.20230615,0.460354,0.28073281,-0.29242973,0.476307,0.26732732,-0.25387013,0.466814,0.26117188,-0.23617033,0.462452,0.25574328,-0.22056247,0.458604
0.258654,-0.37390497,0.492131,0.24492048,-0.32641643,0.48821,0.24255911,-0.36564589,0.495819,0.21415235,-0.34114238,0.498374,0.19339172,-0.32168871,0.498876,0.18316933,-0.30466863,0.498013,0.2207767,-0.28749116,0.490174,0.19883327,-0.25132655,0.481695,0.18767907,-0.23293006,0.477456,0.17552974,-0.21814488,0.473602,0.23729389,-0.28296881,0.484357,0.21989876,-0.23886099,0.474547,0.20506969,-0.2168249,0.468825,0.1942677,-0.20075475,0.464738,0.25159894,-0.28246192,0.479857,0.23367779,-0.23913091,0.46982,0.2238838,-0.21731412,0.464684,0.21495145,-0.19740361,0.460016,0.26995329,-0.28802964,0.475045,0.25740466,-0.24965227,0.465758,0.25163501,-0.23200122,0.461491,0.24654196,-0.21641691,0.457726
0.25248954,-0.36341802,0.495496,0.23706338,-0.30891165,0.490406,0.2337508,-0.34702917,0.500171,0.20393883,-0.32855771,0.499371,0.17900529,-0.31200272,0.498196,0.16554087,-0.29654882,0.496716,0.20795265,-0.27301023,0.492817,0.1837297,-0.23653424,0.484548,0.17153819,-0.21817307,0.480414,0.15637933,-0.20975698,0.476656,0.22398293,-0.2659717,0.485403,0.20016944,-0.22391791,0.475048,0.18585291,-0.19961184,0.469007,0.175604,-0.18220881,0.464692,0.23816013,-0.2633641,0.479677,0.21843424,-0.21984612,0.468343,0.20784648,-0.19791473,0.462544,0.19821116,-0.17795206,0.457273,0.25693003,-0.26629748,0.473567,0.24112861,-0.2302768,0.463026,0.23378284,-0.21347093,0.458183,0.22642649,-0.19937682,0.45391
0.24911317,-0.35131429,0.502853,0.22657258,-0.30068502,0.494295,0.22747774,-0.33796274,0.507605,0.19759903,-0.32037084,0.507587,0.16997119,-0.30267439,0.503205,0.15296448,-0.28628659,0.497121,0.19433033,-0.26349909,0.494488,0.17304788,-0.22393865,0.484135,0.15745779,-0.2080126,0.478958,0.14305067,-0.19330367,0.474252,0.20915761,-0.2572064,0.485844,0.18832968,-0.21444648,0.476809,0.17622856,-0.18957302,0.471628,0.16758914,-0.17181629,0.467926,0.2226639,-0.25524928,0.479356,0.2056129,-0.21293121,0.472201,0.196972,-0.19138183,0.46871,0.18911895,-0.17179821,0.465536,0.24118994,-0.25902439,0.472816,0.2285739,-0.22075842,0.464349,0.22278217,-0.20319758,0.460458,0.21767478,-0.1877143,0.457025
0.24029536,-0.34878505,0.505756,0.22033924,-0.30605766,0.496762,0.22389085,-0.34128968,0.510197,0.18887389,-0.32371574,0.508018,0.16820759,-0.30350222,0.505151,0.15382984,-0.28682918,0.501299,0.19304231,-0.26540718,0.496286,0.17435682,-0.22507524,0.485942,0.15834132,-0.21024116,0.48077,0.14347887,-0.19648965,0.476069,0.20578879,-0.26158137,0.487881,0.1876138,-0.21643113,0.477881,0.17559884,-0.19119845,0.472047,0.16627336,-0.17351189,0.46788,0.21903018,-0.26094907,0.481621,0.20580344,-0.2154572,0.473592,0.19681976,-0.19374733,0.469484,0.18837906,-0.17407796,0.465749,0.23689336,-0.26645438,0.475414,0.22436358,-0.2272713,0.465232,0.21905471,-0.20976024,0.46146,0.21660295,-0.19152296,0.458811
0.23728901,-0.34904573,0.505263,0.21890125,-0.3053441,0.496747,0.22082758,-0.34153991,0.50971,0.18592421,-0.32224703,0.505971,0.1584371,-0.30381249,0.503288,0.15016195,-0.28723667,0.5031,0.18946966,-0.26597337,0.496593,0.1710852,-0.22539891,0.485919,0.15644053,-0.20962235,0.480582,0.14207626,-0.19521523,0.47573,0.2047184,-0.26081584,0.488337,0.18531087,-0.21708453,0.478302,0.17443622,-0.19122201,0.472448,0.16505783,-0.17353854,0.468267,0.21833818,-0.25986312,0.482166,0.19920797,-0.21616447,0.47431,0.18991332,-0.19454547,0.470291,0.18467628,-0.17576401,0.466637,0.23657495,-0.2649752,0.475997,0.22275036,-0.22610229,0.465753,0.21669905,-0.20858089,0.461665,0.21137734,-0.19313356,0.458099
0.23375984,-0.34677431,0.504006,0.21030885,-0.29752682,0.496513,0.21371066,-0.33938964,0.508051,0.17646582,-0.31490426,0.503828,0.15273756,-0.29773892,0.503408,0.13982072,-0.28187912,0.502086,0.18072591,-0.25916974,0.496541,0.15467029,-0.22265707,0.486677,0.14155306,-0.20427588,0.481746,0.12951246,-0.18752414,0.477262,0.1959848,-0.25334533,0.489114,0.17469376,-0.2110818,0.480368,0.16226116,-0.18640099,0.475266,0.15322696,-0.16880237,0.471621,0.20968277,-0.25180799,0.483551,0.18980131,-0.21034703,0.47623,0.17963222,-0.18914054,0.472485,0.17038897,-0.16986524,0.46908,0.22813257,-0.25619273,0.477964,0.21292885,-0.21671218,0.466459,0.20470567,-0.19933671,0.461173,0.19674355,-0.18442821,0.456509
0.22644001,-0.34176942,0.500566,0.20318521,-0.28814091,0.494374,0.20763323,-0.33326858,0.504845,0.17386376,-0.30874048,0.505276,0.14734899,-0.29051982,0.501426,0.13688635,-0.27814687,0.500651,0.17118015,-0.25366963,0.495549,0.14732197,-0.21577423,0.485124,0.13532126,-0.19671143,0.479911,0.12436804,-0.17931175,0.475172,0.18675215,-0.24522193,0.48826,0.16516,-0.20383173,0.480745,0.15206561,-0.17975792,0.476361,0.14267424,-0.16248918,0.473229,0.20081547,-0.24141444,0.482715,0.18128233,-0.20011308,0.475664,0.1712613,-0.17891967,0.472057,0.1621342,-0.15961454,0.468777,0.21996119,-0.242867,0.47697,0.2043091,-0.20420394,0.465411,0.19562658,-0.18743031,0.4601,0.18791076,-0.17250477,0.455415
0.22504923,-0.33948359,0.499785,0.20306657,-0.28816929,0.493343,0.20584666,-0.3310758,0.503461,0.17349932,-0.30794591,0.504134,0.1466724,-0.2886868,0.499311,0.13411844,-0.27270016,0.497947,0.16972773,-0.25319268,0.493609,0.14507876,-0.21586733,0.483794,0.13273229,-0.19717129,0.478886,0.12179648,-0.18060184,0.475601,0.18621401,-0.24524016,0.486981,0.16383091,-0.20378161,0.478868,0.15006659,-0.17982218,0.474136,0.14018372,-0.16264731,0.470756,0.2010507,-0.24184982,0.481997,0.18236118,-0.20101659,0.476259,0.17277951,-0.18007968,0.473323,0.16405715,-0.16101878,0.470654,0.22114643,-0.24380941,0.476955,0.20305307,-0.20599091,0.465928,0.18997515,-0.19264339,0.460862,0.17960489,-0.17931651,0.456391
0.22503628,-0.33893184,0.500701,0.20493248,-0.29017717,0.49325,0.20727375,-0.33170134,0.503503,0.17367219,-0.30743267,0.503249,0.14672499,-0.28790277,0.498139,0.13581392,-0.27414486,0.497752,0.16919266,-0.25248394,0.491775,0.14474054,-0.21618164,0.483811,0.1324497,-0.19793438,0.479829,0.12123697,-0.18128772,0.476208,0.18615194,-0.24496815,0.485891,0.16351712,-0.20364297,0.477804,0.14952541,-0.17979217,0.473086,0.13946899,-0.16268723,0.469716,0.20145003,-0.24196597,0.481594,0.1818858,-0.20098967,0.475115,0.17185832,-0.17998509,0.4718,0.16273188,-0.16086613,0.468787,0.222222,-0.24445772,0.477509,0.20278148,-0.20643914,0.465616,0.19018271,-0.19248253,0.460151,0.17965551,-0.17906188,0.455329
0.22453117,-0.33778979,0.500254,0.20472687,-0.28968536,0.492859,0.2065354,-0.33069534,0.502928,0.17374105,-0.3071452,0.502756,0.14674869,-0.28750554,0.497544,0.13583479,-0.27346788,0.497338,0.16906507,-0.25233839,0.491265,0.14448819,-0.21621502,0.483542,0.13213673,-0.19806086,0.479681,0.12087011,-0.18150131,0.476171,0.18620136,-0.24493799,0.485556,0.16336463,-0.20357912,0.477285,0.14922292,-0.17973877,0.47246,0.13905726,-0.16264383,0.469013,0.20165262,-0.24202742,0.481399,0.18162782,-0.20095387,0.47449,0.17136768,-0.17990637,0.470956,0.16203053,-0.16075152,0.467742,0.22261485,-0.24462196,0.477473,0.20271455,-0.2067331,0.465618,0.19035815,-0.19253642,0.460171,0.17982579,-0.17912996,0.455364
0.22428839,-0.33702488,0.500158,0.20468448,-0.28934999,0.492723,0.20609267,-0.32999874,0.502688,0.17393998,-0.30703686,0.502732,0.1468961,-0.28729069,0.497394,0.13531378,-0.27152252,0.496731,0.16903982,-0.25214939,0.490925,0.14492102,-0.21627711,0.483961,0.13279783,-0.19824617,0.480479,0.12173843,-0.18179734,0.477313,0.18629755,-0.24485018,0.485381,0.16329387,-0.20341772,0.476849,0.1488736,-0.17964661,0.471872,0.13842275,-0.16263543,0.468316,0.20185895,-0.24202229,0.481363,0.18157891,-0.20091696,0.474243,0.17118807,-0.1798538,0.4706,0.16173305,-0.16068612,0.467289,0.22296619,-0.24471562,0.477607,0.20268566,-0.20692676,0.465718,0.19040458,-0.19260859,0.460256,0.17982932,-0.17923944,0.455437
0.21975379,-0.33013,0.499722,0.19338614,-0.27596772,0.492453,0.19829278,-0.32228882,0.50269,0.16359408,-0.29439387,0.502509,0.1396034,-0.27775151,0.502684,0.12986976,-0.26287904,0.503355,0.15873355,-0.23964971,0.491305,0.14072199,-0.20507333,0.487346,0.12516897,-0.19056641,0.485366,0.11063871,-0.17702127,0.483566,0.17667097,-0.23253996,0.485276,0.15575406,-0.19098775,0.478059,0.14273155,-0.16695468,0.473849,0.1333976,-0.14972649,0.470842,0.19263543,-0.22989476,0.480846,0.17146021,-0.19020434,0.475272,0.15981081,-0.1700906,0.47242,0.14840008,-0.15192448,0.469828,0.21396175,-0.23280474,0.476577,0.1973156,-0.19379943,0.464641,0.18543869,-0.18407156,0.459157,0.17845088,-0.17809686,0.454318
0.20834981,-0.31665065,0.498186,0.19177571,-0.27346359,0.492233,0.1889919,-0.31076006,0.501035,0.16058532,-0.29198238,0.50113,0.13661797,-0.27621278,0.501814,0.12624043,-0.26202558,0.503221,0.15694369,-0.23758946,0.491806,0.13703751,-0.19993824,0.487791,0.12329042,-0.18358835,0.485783,0.11056909,-0.16846104,0.483958,0.17538763,-0.23075739,0.486354,0.15529544,-0.18681497,0.48019,0.14463277,-0.16271366,0.476595,0.13399236,-0.14857022,0.474026,0.19175569,-0.22829783,0.482304,0.17168358,-0.18486884,0.476038,0.16141764,-0.16399842,0.472833,0.14989399,-0.14852299,0.469919,0.21350302,-0.23134669,0.478305,0.19535866,-0.19419397,0.473769,0.18758973,-0.17818302,0.471685,0.18073617,-0.16405834,0.469847
0.20748546,-0.31617294,0.498417,0.19111139,-0.27301339,0.492598,0.18806121,-0.31021084,0.501207,0.15784265,-0.2905117,0.50143,0.13471624,-0.2756302,0.503111,0.12710622,-0.26290256,0.505508,0.15495466,-0.23552246,0.492187,0.1372953,-0.19946867,0.486998,0.12289165,-0.18359259,0.484404,0.1095441,-0.17179866,0.482046,0.17374826,-0.22882305,0.486851,0.15557756,-0.18714078,0.480735,0.14489097,-0.16302189,0.477167,0.13398658,-0.14823824,0.474619,0.19139575,-0.22793846,0.482886,0.17179021,-0.18774238,0.47758,0.16155221,-0.16550772,0.474865,0.15083264,-0.1488345,0.472397,0.21324719,-0.2310874,0.47897,0.19410091,-0.19464168,0.473398,0.18570544,-0.17854055,0.470838,0.17829329,-0.1643248,0.468579
0.21557302,-0.32450751,0.498461,0.19238562,-0.27317326,0.492915,0.18940243,-0.31024957,0.501434,0.16207125,-0.29231675,0.502034,0.13802623,-0.27679884,0.50302,0.12801904,-0.26278612,0.50513,0.15764765,-0.23745252,0.49291,0.13953658,-0.20136549,0.487107,0.12503388,-0.18689657,0.484206,0.11033988,-0.17186622,0.481568,0.17618683,-0.23065729,0.487439,0.15692612,-0.18883298,0.480642,0.14546938,-0.16463736,0.476677,0.13473023,-0.14816951,0.473845,0.19261015,-0.22821757,0.483342,0.1728255,-0.18810951,0.478053,0.16233278,-0.16772038,0.475348,0.15205118,-0.14926066,0.472888,0.21437717,-0.23126639,0.479232,0.19941995,-0.19559005,0.470698,0.19093017,-0.17847735,0.467898,0.18197742,-0.16374085,0.466879
0.21543595,-0.32366659,0.498415,0.19363971,-0.27354236,0.49333,0.19246325,-0.31298849,0.501753,0.1650582,-0.29339168,0.502865,0.14088427,-0.2777057,0.503716,0.12868784,-0.26279309,0.504809,0.16144152,-0.2393793,0.494078,0.14280941,-0.202938,0.487282,0.12703634,-0.1880662,0.483884,0.11118112,-0.17345026,0.480794,0.17971863,-0.23242006,0.488308,0.15962385,-0.19042494,0.480878,0.14769332,-0.16613037,0.476544,0.13559682,-0.148298,0.473448,0.19592349,-0.22982739,0.483933,0.17440032,-0.18872063,0.477972,0.16320339,-0.16833426,0.474922,0.15192802,-0.14956237,0.472149,0.2174167,-0.2326549,0.479427,0.19925465,-0.19564237,0.470232,0.19008477,-0.17860837,0.466008,0.18217883,-0.16378013,0.462281
0.21582259,-0.32239157,0.499215,0.19721433,-0.27403329,0.493665,0.19229543,-0.31029277,0.501939,0.1687129,-0.29236064,0.503159,0.14549083,-0.27738391,0.504758,0.13276707,-0.26323851,0.505352,0.16175558,-0.23870824,0.493351,0.14437746,-0.201621,0.487569,0.12951266,-0.18624035,0.484678,0.11627759,-0.17050069,0.48205,0.18018672,-0.23179731,0.488185,0.15834216,-0.18911627,0.480973,0.14653642,-0.16489533,0.476766,0.13588049,-0.14832234,0.473761,0.19747631,-0.22846734,0.484339,0.17400652,-0.18808826,0.477899,0.16267223,-0.16767488,0.474603,0.15163066,-0.14926188,0.471608,0.21948785,-0.23125712,0.480529,0.20541535,-0.1906275,0.471143,0.19618761,-0.17447595,0.46683,0.18429605,-0.16272087,0.463024
0.21323022,-0.31610884,0.500854,0.19713755,-0.27219803,0.494564,0.19265576,-0.30921783,0.50147,0.16648886,-0.28770599,0.499146,0.14239804,-0.27622503,0.502794,0.1322484,-0.26323574,0.505922,0.1589319,-0.23561236,0.491166,0.14334318,-0.19988201,0.486505,0.13034409,-0.18107019,0.484175,0.11859745,-0.16524588,0.482056,0.18060866,-0.22785729,0.488352,0.15800942,-0.18738278,0.481263,0.14628903,-0.1631715,0.477128,0.1365288,-0.14703896,0.474174,0.19842068,-0.22538764,0.486495,0.17818975,-0.18228181,0.480322,0.16546353,-0.16356677,0.477164,0.15579159,-0.14469264,0.474293,0.22217047,-0.22563208,0.485156,0.20806236,-0.18680958,0.474607,0.19823231,-0.17351742,0.46976,0.1899585,-0.15931411,0.465484
0.21568631,-0.31958994,0.499746,0.20899642,-0.28196458,0.497513,0.1996176,-0.31662654,0.504943,0.17931827,-0.30136707,0.507553,0.15730773,-0.2847441,0.508081,0.14789456,-0.27123194,0.511126,0.18078429,-0.24952101,0.502434,0.16034644,-0.21271951,0.496577,0.14755649,-0.19545309,0.493648,0.13577774,-0.17955153,0.490986,0.19580609,-0.240964,0.495309,0.17375191,-0.19967621,0.487566,0.16080362,-0.17542704,0.483049,0.15151551,-0.15802866,0.479822,0.20922212,-0.2369201,0.489609,0.19130039,-0.19414242,0.480538,0.18209922,-0.17216962,0.475896,0.16960447,-0.15457744,0.471677,0.22719396,-0.23784227,0.483134,0.22091093,-0.20559071,0.486479,0.21813569,-0.19090783,0.488241,0.21568999,-0.17796512,0.489796
0.23289208,-0.32368469,0.499291,0.22995909,-0.28183876,0.497291,0.22753182,-0.3195152,0.504821,0.20099893,-0.30201368,0.508642,0.17863442,-0.28509493,0.508707,0.16912979,-0.27144367,0.511525,0.20179896,-0.24969036,0.502775,0.18134035,-0.21285573,0.496895,0.16869053,-0.19557465,0.493955,0.15704268,-0.17965977,0.491282,0.21674747,-0.24096789,0.495317,0.19480966,-0.19969996,0.487624,0.18192959,-0.175459,0.483137,0.17269002,-0.15806456,0.479931,0.23008791,-0.23678364,0.489327,0.21219133,-0.19399011,0.480161,0.20300694,-0.17201623,0.475472,0.19079393,-0.15442407,0.471209,0.24794552,-0.23751686,0.482473,0.24205271,-0.20567143,0.48667,0.23940127,-0.19109082,0.488709,0.23706129,-0.17822382,0.490508
0.24921808,-0.32127761,0.499522,0.23864706,-0.27704041,0.496369,0.2302697,-0.31550269,0.501531,0.20417865,-0.2947223,0.499983,0.18003174,-0.28017938,0.501425,0.16972282,-0.26896633,0.506335,0.20301998,-0.24319256,0.496758,0.18351957,-0.21533787,0.501817,0.1745827,-0.20225671,0.504947,0.16610903,-0.1900229,0.507793,0.2226898,-0.23590102,0.493256,0.20877104,-0.1991157,0.496063,0.20066813,-0.17769897,0.4977,0.19488798,-0.16242003,0.49887,0.24006331,-0.23293954,0.490605,0.22813941,-0.18772993,0.479389,0.22207039,-0.16479666,0.47365,0.21217421,-0.15019713,0.468434,0.26299504,-0.23517392,0.487884,0.24757929,-0.19925564,0.482661,0.24063142,-0.18286087,0.480525,0.23551885,-0.17311649,0.484042
0.24762818,-0.32114961,0.496878,0.23910614,-0.28022215,0.497326,0.23079198,-0.31664756,0.501529,0.20676443,-0.29815245,0.504543,0.1832517,-0.28059864,0.503559,0.17445409,-0.26730434,0.506385,0.21577954,-0.25027396,0.503343,0.19632452,-0.21416457,0.498984,0.18646666,-0.1958581,0.496805,0.17214372,-0.19081598,0.494823,0.2314143,-0.24284346,0.497767,0.21676244,-0.20028477,0.491686,0.2082387,-0.17553723,0.488138,0.19469884,-0.16706124,0.485604,0.2450358,-0.23962423,0.493147,0.23089781,-0.20054126,0.492322,0.22366402,-0.18054503,0.491899,0.21708853,-0.16236724,0.491516,0.26265513,-0.24140095,0.487585,0.26226749,-0.21337302,0.49605,0.26211342,-0.20065274,0.499939,0.26316088,-0.19035494,0.505621
0.25944496,-0.32520835,0.504207,0.2588794,-0.282518,0.501093,0.2405067,-0.31851658,0.506162,0.22271662,-0.29809641,0.506875,0.19881663,-0.28038946,0.505868,0.18742492,-0.26509821,0.506052,0.22742296,-0.2448497,0.501443,0.20704389,-0.20669887,0.493713,0.19694461,-0.18780738,0.489848,0.18491401,-0.17903287,0.486334,0.24779297,-0.2404185,0.498018,0.23768537,-0.20120158,0.499479,0.23178651,-0.17831517,0.500331,0.22757157,-0.16196318,0.500939,0.26536432,-0.23989577,0.495428,0.26273965,-0.19470031,0.484142,0.25462152,-0.18098832,0.478367,0.24700125,-0.16797322,0.473118,0.28779392,-0.24517895,0.492775,0.28006044,-0.21393177,0.497271,0.27649654,-0.19954148,0.499336,0.27334717,-0.18682746,0.501159
0.27758504,-0.3279446,0.50886,0.27412672,-0.28299993,0.503747,0.25877262,-0.31922019,0.510652,0.23777244,-0.29538493,0.509116,0.21515948,-0.27448135,0.506145,0.20181029,-0.25499111,0.498764,0.24673111,-0.24227744,0.502576,0.23172726,-0.21060055,0.506875,0.22416237,-0.19463817,0.509024,0.21724932,-0.18005597,0.510978,0.26575678,-0.23907191,0.498699,0.2596791,-0.20005495,0.501626,0.25574239,-0.17712333,0.503333,0.25291634,-0.16067309,0.504553,0.28216321,-0.23966393,0.495882,0.26614245,-0.19582453,0.485082,0.25537735,-0.18324454,0.479557,0.24522074,-0.17131323,0.474533,0.30308606,-0.2465591,0.493236,0.290634,-0.20787126,0.482948,0.2849014,-0.19003367,0.478221,0.27983698,-0.17426063,0.47405
0.29164184,-0.32618909,0.505989,0.29462671,-0.28242971,0.502732,0.2848642,-0.31733034,0.508942,0.25898269,-0.29522306,0.508837,0.23642746,-0.27465055,0.506457,0.22292008,-0.25496197,0.498707,0.26847509,-0.24306611,0.504212,0.25302779,-0.21087103,0.507526,0.2452662,-0.19469897,0.509183,0.2381882,-0.17995414,0.510689,0.28718095,-0.23946261,0.499514,0.28071718,-0.20008806,0.501709,0.2765964,-0.17700228,0.502989,0.27364335,-0.1604661,0.503903,0.30320181,-0.23966635,0.495887,0.29072393,-0.19752374,0.48746,0.27839675,-0.18640793,0.483149,0.26669251,-0.17582479,0.479229,0.32343868,-0.24595074,0.492019,0.31206273,-0.20801761,0.483288,0.30681286,-0.1904529,0.479276,0.30216816,-0.1748804,0.475736
0.32849224,-0.33139673,0.504241,0.31767245,-0.28883787,0.502466,0.30808975,-0.32347539,0.504892,0.28376704,-0.30231693,0.507062,0.26248996,-0.28394205,0.507737,0.25358163,-0.2687372,0.509482,0.28589039,-0.25181132,0.502095,0.26835803,-0.21363162,0.494142,0.2594869,-0.19426633,0.490165,0.25135868,-0.17649394,0.48655,0.30711078,-0.24733575,0.500714,0.29810655,-0.2091045,0.504,0.29281507,-0.18666163,0.505917,0.28901775,-0.17056746,0.507286,0.32548958,-0.24668816,0.499706,0.32337719,-0.21200781,0.508359,0.32229011,-0.19423026,0.512787,0.32129708,-0.17804865,0.516811,0.349077,-0.25174272,0.498752,0.3409321,-0.21332966,0.491619,0.33719364,-0.1957203,0.488342,0.33390828,-0.18021003,0.485467
0.36176923,-0.33293069,0.514244,0.34651971,-0.28997015,0.509645,0.34148397,-0.32650663,0.515851,0.3152996,-0.30742682,0.517859,0.28876659,-0.28730897,0.512928,0.27871439,-0.27282114,0.514617,0.3115895,-0.25383602,0.508584,0.29516434,-0.21481898,0.501879,0.28694181,-0.1952823,0.498526,0.27946115,-0.17750514,0.495478,0.33149287,-0.24765424,0.505103,0.31837304,-0.20420806,0.498512,0.31072111,-0.17887109,0.494667,0.30466273,-0.16098127,0.491921,0.34899773,-0.24568966,0.502575,0.34180204,-0.20797415,0.506256,0.33811181,-0.18864331,0.508139,0.33475293,-0.17105032,0.509852,0.37197332,-0.24927415,0.500201,0.36326876,-0.21049951,0.490573,0.35926793,-0.19264199,0.48615,0.35573646,-0.17686211,0.482247
0.38069999,-0.34183096,0.512427,0.36452527,-0.30015296,0.50935,0.35663519,-0.33435357,0.509332,0.32710172,-0.31478932,0.507329,0.29753826,-0.29298616,0.4977,0.28445529,-0.27779506,0.496913,0.32432591,-0.26354745,0.50351,0.30808751,-0.22516494,0.498011,0.29995693,-0.20594122,0.495262,0.29255858,-0.18844575,0.492763,0.348583,-0.25908287,0.506311,0.33558244,-0.21670971,0.501798,0.32800596,-0.19201963,0.499166,0.32282678,-0.17434945,0.497285,0.3697393,-0.25843859,0.508841,0.35955092,-0.22263256,0.513749,0.35433273,-0.20429793,0.51626,0.34958527,-0.18762107,0.518542,0.39718934,-0.26341979,0.512278,0.3907384,-0.22539312,0.505763,0.38777308,-0.20789882,0.502769,0.38515674,-0.19245104,0.500128
0.39105224,-0.3403282,0.518399,0.38615451,-0.28997428,0.512411,0.37385506,-0.32366182,0.51491,0.34467732,-0.2982987,0.509191,0.32292539,-0.2806442,0.510292,0.31057593,-0.26169032,0.505133,0.35084517,-0.24682452,0.504163,0.33702174,-0.21009689,0.50225,0.33022921,-0.19161684,0.501294,0.32399955,-0.17465761,0.500424,0.37556268,-0.2458708,0.506498,0.35716649,-0.20074223,0.493355,0.34687034,-0.17500995,0.485688,0.33948588,-0.15648802,0.480211,0.39671676,-0.24833676,0.508857,0.37748588,-0.20448578,0.495744,0.36762648,-0.18196592,0.489035,0.35865161,-0.16144113,0.482937,0.42344562,-0.25744808,0.512492,0.42113877,-0.21962291,0.506956,0.42033628,-0.20236354,0.504413,0.41963151,-0.1870919,0.502169
0.4092447,-0.33728084,0.525265,0.40636248,-0.28850891,0.51705,0.38503035,-0.32429885,0.520002,0.36157593,-0.29584222,0.512788,0.33660118,-0.27467535,0.508139,0.32621387,-0.25889806,0.508529,0.37095916,-0.24193536,0.505149,0.36545854,-0.20726677,0.509219,0.36288164,-0.18946664,0.511254,0.36050015,-0.17310264,0.513105,0.3966453,-0.24303527,0.508938,0.3807707,-0.198276,0.493556,0.37148841,-0.17194794,0.484584,0.36484682,-0.15303563,0.478175,0.4185843,-0.2472804,0.512655,0.40296505,-0.20344935,0.49732,0.39495504,-0.18079569,0.489475,0.38765989,-0.16005592,0.482342,0.44622866,-0.25871162,0.518215,0.45179699,-0.22494749,0.520775,0.45435497,-0.20942763,0.52195,0.45661333,-0.19573098,0.522988
0.44809154,-0.33329937,0.536069,0.43472756,-0.285392,0.525792,0.42141173,-0.31853138,0.526883,0.38846503,-0.29264133,0.518362,0.36297389,-0.27217427,0.513912,0.35368495,-0.25931728,0.517379,0.39369907,-0.23688744,0.507701,0.37401534,-0.19792656,0.489863,0.36412941,-0.17821543,0.480944,0.35515457,-0.1601815,0.472836,0.4216436,-0.23906915,0.515643,0.40403668,-0.19272814,0.500221,0.39706182,-0.16779777,0.491224,0.3942257,-0.15229552,0.484798,0.4457313,-0.24425385,0.522928,0.42898127,-0.20072314,0.504687,0.42040286,-0.17821063,0.495354,0.41259864,-0.15759003,0.486869,0.47647612,-0.25692277,0.533021,0.48877571,-0.22493915,0.536626,0.49442742,-0.21026555,0.538282,0.49941183,-0.19733022,0.539744
0.45525974,-0.33849094,0.540267,0.45579689,-0.29486195,0.533477,0.43348001,-0.32485905,0.536636,0.41210215,-0.29480809,0.524408,0.39575069,-0.27816088,0.52984,0.39515961,-0.27005814,0.54017,0.42798599,-0.24661758,0.524524,0.41053718,-0.20987518,0.511359,0.40173395,-0.1911557,0.504777,0.39367497,-0.17388407,0.498793,0.45271679,-0.25012155,0.526771,0.44011677,-0.20701685,0.512892,0.43276401,-0.18149631,0.504796,0.42751885,-0.16319491,0.499013,0.47360995,-0.25633846,0.529116,0.46208656,-0.21166369,0.51538,0.45619394,-0.18868759,0.508353,0.4508378,-0.16772532,0.501964,0.49936245,-0.27017615,0.532846,0.49738333,-0.23110746,0.523419,0.49646107,-0.2132231,0.519088,0.49659588,-0.19785902,0.51626
0.48511687,-0.34035959,0.532967,0.47770859,-0.29692409,0.53128,0.46165227,-0.32794436,0.529931,0.43577912,-0.30251214,0.527718,0.41175357,-0.2776887,0.521196,0.402618,-0.25862559,0.518163,0.44493314,-0.25496724,0.526429,0.4358603,-0.21647573,0.518077,0.43130154,-0.19684777,0.513901,0.42714381,-0.17876953,0.510105,0.47058515,-0.25542453,0.529613,0.46294713,-0.21298807,0.520701,0.45849655,-0.18764734,0.515503,0.45531858,-0.16926363,0.511789,0.49246468,-0.25882628,0.532356,0.48495598,-0.2154805,0.523684,0.48111723,-0.19307004,0.519247,0.47762899,-0.1725529,0.515213,0.51994546,-0.26873428,0.535855,0.52245665,-0.23152989,0.530839,0.52359827,-0.21449647,0.528535,0.52459872,-0.1994988,0.526502
0.48603546,-0.33771202,0.539461,0.48470414,-0.28927663,0.538824,0.46643352,-0.32524964,0.539131,0.43895573,-0.29275809,0.530119,0.41608384,-0.27137398,0.527136,0.40900265,-0.25699676,0.530734,0.46486237,-0.24445582,0.537997,0.45582769,-0.21163813,0.530835,0.45128801,-0.19444308,0.527319,0.4450322,-0.18187233,0.526591,0.48814366,-0.24759392,0.538194,0.48197993,-0.20506169,0.530415,0.47843414,-0.17959297,0.525915,0.47594646,-0.16108821,0.522742,0.50722692,-0.25328966,0.538402,0.50137703,-0.21280479,0.530716,0.49864552,-0.19145448,0.527031,0.49336542,-0.17442239,0.526459,0.52965704,-0.26601371,0.538738,0.53372926,-0.22929233,0.533182,0.53620458,-0.21489405,0.530629,0.53851519,-0.20185428,0.528376
0.50548869,-0.34544929,0.548341,0.5086631,-0.29542222,0.543639,0.48945028,-0.32518442,0.544695,0.46041173,-0.29474956,0.535784,0.44152377,-0.27374197,0.536386,0.43605256,-0.26083963,0.54131,0.47997542,-0.24839414,0.536042,0.46803479,-0.21169175,0.524554,0.46203926,-0.19286167,0.51881,0.45657273,-0.17544272,0.513588,0.50561813,-0.25194262,0.538986,0.49586728,-0.2086836,0.526985,0.49046428,-0.18355485,0.519985,0.48714518,-0.16672882,0.514985,0.52724492,-0.25806315,0.54175,0.51774745,-0.21397953,0.529873,0.5131075,-0.19153,0.523796,0.50890109,-0.17094878,0.518272,0.55391517,-0.27155803,0.54569,0.55316073,-0.23285216,0.537087,0.55276677,-0.21527098,0.533134,0.55358368,-0.20394332,0.529646
0.52211139,-0.34160395,0.549837,0.52918748,-0.29815128,0.548625,0.51147418,-0.32856051,0.549367,0.48224381,-0.3013085,0.543303,0.45836961,-0.27906609,0.539416,0.4504469,-0.25964086,0.530745,0.50431022,-0.25453239,0.547245,0.49666665,-0.21394606,0.539616,0.49313027,-0.19371633,0.535801,0.48991545,-0.17522087,0.532333,0.52737786,-0.25612719,0.547425,0.52089589,-0.21153767,0.539109,0.51900534,-0.18660884,0.534258,0.51789623,-0.16872705,0.530792,0.54647247,-0.26050377,0.547662,0.54543792,-0.2174658,0.539487,0.54495164,-0.19520717,0.535304,0.54604606,-0.1764872,0.531501,0.56951022,-0.27154419,0.548112,0.57224795,-0.23450272,0.541916,0.57574773,-0.2206153,0.53907,0.57899962,-0.20804085,0.536558
0.53848211,-0.34529024,0.553437,0.54002648,-0.30262688,0.55058,0.51647135,-0.33065328,0.550358,0.4936463,-0.30367478,0.543792,0.4705028,-0.28041964,0.53957,0.46158169,-0.26014837,0.530772,0.51189142,-0.25655739,0.5449,0.50608671,-0.21861792,0.535453,0.50322879,-0.19916913,0.53073,0.5007607,-0.18138513,0.526436,0.53763575,-0.2596572,0.547752,0.53019035,-0.21448645,0.537711,0.52688572,-0.18883349,0.531853,0.52488947,-0.17069895,0.527669,0.55920584,-0.26537352,0.550306,0.5567823,-0.22148825,0.540784,0.5557623,-0.19904301,0.535912,0.55578879,-0.17953577,0.531482,0.58555017,-0.27827412,0.553742,0.5910295,-0.2422148,0.54834,0.5951768,-0.22622357,0.545858,0.59892903,-0.21199194,0.543668
0.54422084,-0.34529118,0.554979,0.55518922,-0.30118936,0.554412,0.52886194,-0.33186796,0.553954,0.50962932,-0.30155612,0.54732,0.48496455,-0.2754704,0.537963,0.47761068,-0.25951976,0.539825,0.53381951,-0.25609739,0.552777,0.53065057,-0.21548948,0.545655,0.52907155,-0.19513056,0.542094,0.52800604,-0.17670735,0.538857,0.5578428,-0.25932863,0.553851,0.55454003,-0.21482664,0.546113,0.55325984,-0.18905013,0.541599,0.55236182,-0.17055887,0.538375,0.57746261,-0.26508211,0.554776,0.57491149,-0.22138842,0.547146,0.57372854,-0.19897494,0.543242,0.57386245,-0.17917862,0.539693,0.60049907,-0.27780855,0.555955,0.60541334,-0.24209429,0.551098,0.61052798,-0.22723989,0.548866,0.61518258,-0.21387426,0.546897
0.5703252,-0.3493718,0.563181,0.5748721,-0.30565565,0.560012,0.54872143,-0.33480487,0.560495,0.52922167,-0.30656866,0.55275,0.50460421,-0.28075862,0.545031,0.49734301,-0.26458167,0.546731,0.54434882,-0.26076003,0.554611,0.5366015,-0.22251069,0.544805,0.53275035,-0.20296555,0.539901,0.52926489,-0.18493778,0.535444,0.56979329,-0.26277633,0.556877,0.56290714,-0.21813723,0.546492,0.55988231,-0.19288245,0.540434,0.55850478,-0.17582642,0.536107,0.59131847,-0.26757337,0.558972,0.58239859,-0.2226122,0.548682,0.57977341,-0.20098877,0.543417,0.5753397,-0.18028198,0.538631,0.61803317,-0.27934171,0.561903,0.62084572,-0.2417932,0.554747,0.62214411,-0.2245173,0.551458,0.62329487,-0.20926176,0.548557
0.56363995,-0.35005376,0.560868,0.57277112,-0.307616,0.559736,0.54717094,-0.33445644,0.558163,0.52619903,-0.30433876,0.550339,0.50461531,-0.27842785,0.544632,0.50004591,-0.26409132,0.549163,0.54675372,-0.26190299,0.555661,0.54383633,-0.22215523,0.547453,0.54170249,-0.20180788,0.543349,0.5397718,-0.18322166,0.539618,0.57233048,-0.26585495,0.558616,0.57062856,-0.22395966,0.549988,0.5707369,-0.19883407,0.544955,0.5719329,-0.18159146,0.54136,0.59353004,-0.27572982,0.56113,0.58722376,-0.23155816,0.552241,0.5867314,-0.2103678,0.547694,0.58479156,-0.18708,0.54356,0.6177366,-0.29063387,0.564279,0.62394061,-0.2543458,0.558468,0.62681287,-0.23761504,0.555798,0.6293587,-0.22282159,0.553442
0.57163701,-0.35037946,0.563984,0.57773744,-0.30607214,0.561417,0.55319378,-0.33457202,0.559414,0.53622734,-0.30281868,0.552588,0.51385776,-0.27564498,0.543749,0.50900925,-0.25995527,0.547107,0.56001328,-0.25751372,0.554098,0.55142312,-0.21703579,0.547719,0.55007135,-0.19746317,0.544529,0.54532449,-0.18166602,0.54163,0.586002,-0.26402803,0.558878,0.58491145,-0.22029634,0.5534,0.58427577,-0.19478604,0.550205,0.58384531,-0.1765621,0.547923,0.60688196,-0.27248671,0.562997,0.59605417,-0.22711272,0.552292,0.59628178,-0.20716576,0.546814,0.5966367,-0.18860912,0.541835,0.63072284,-0.2884009,0.568256,0.63532185,-0.25153332,0.561245,0.63745037,-0.23454993,0.558023,0.63933837,-0.21954139,0.555181
0.57688025,-0.35011117,0.564119,0.58180499,-0.30565423,0.562193,0.55630981,-0.33478398,0.560632,0.53871159,-0.30422874,0.554357,0.51523381,-0.27699505,0.544827,0.5088682,-0.26011115,0.546,0.56132074,-0.25873238,0.55663,0.55264089,-0.21792325,0.549053,0.55263863,-0.19907964,0.545265,0.55668564,-0.18426558,0.541821,0.58643007,-0.26370507,0.560288,0.58612117,-0.22083769,0.556103,0.58711958,-0.19577111,0.553661,0.58931602,-0.17828894,0.551917,0.60670334,-0.27089635,0.563438,0.60150277,-0.22695491,0.556049,0.60296583,-0.20317848,0.552268,0.60370351,-0.18317401,0.548831,0.63009318,-0.28529813,0.567453,0.6361449,-0.24902018,0.561516,0.63895931,-0.23226207,0.558788,0.64146098,-0.21742733,0.556381
0.57514429,-0.35145923,0.565735,0.58103312,-0.30927348,0.564456,0.55588516,-0.33634235,0.563551,0.53378255,-0.30518179,0.554559,0.51538519,-0.27713869,0.54608,0.50958324,-0.25998385,0.547196,0.56489608,-0.26378526,0.560922,0.56083892,-0.22392333,0.552523,0.55840196,-0.2028684,0.548324,0.55885474,-0.1859217,0.544506,0.59003133,-0.26852959,0.563187,0.58973831,-0.22713827,0.555876,0.59109186,-0.20212755,0.551611,0.5921154,-0.1840403,0.548565,0.60943377,-0.27993036,0.565144,0.60550548,-0.23560563,0.55629,0.60486338,-0.21367157,0.55176,0.60391382,-0.19230307,0.547641,0.63224048,-0.29649037,0.567651,0.63535745,-0.25917664,0.561496,0.63703603,-0.24215456,0.558669,0.63968318,-0.22359066,0.556174
0.57476211,-0.35177051,0.565601,0.58133119,-0.3098752,0.564658,0.5559097,-0.33645587,0.563639,0.53398668,-0.30524549,0.555171,0.51546947,-0.27721514,0.546716,0.50981512,-0.25985618,0.547659,0.56560104,-0.26411445,0.561622,0.56188138,-0.22433955,0.55355,0.55989413,-0.20375075,0.549514,0.56003212,-0.18662701,0.545845,0.59043044,-0.26959913,0.563722,0.58920891,-0.22693438,0.555377,0.58991206,-0.20172411,0.55051,0.59046177,-0.18352632,0.547033,0.609836,-0.28011512,0.565517,0.60630333,-0.23591608,0.557023,0.60586973,-0.21402707,0.552678,0.60540299,-0.19323618,0.548727,0.63239084,-0.29656088,0.567786,0.6353484,-0.25917294,0.561488,0.63695051,-0.24212205,0.558594,0.63926456,-0.22475347,0.556041
0.57492636,-0.35227953,0.565944,0.58170334,-0.31038963,0.564957,0.55621129,-0.33671229,0.563992,0.53431501,-0.30540142,0.555752,0.51562016,-0.27731485,0.547204,0.51004567,-0.25982623,0.548035,0.56588504,-0.26424707,0.561904,0.56215138,-0.22444735,0.553816,0.56029829,-0.20406805,0.549773,0.56019218,-0.18683731,0.546097,0.59061388,-0.27012553,0.563974,0.5894317,-0.22702017,0.555587,0.5901103,-0.2017919,0.550695,0.59064311,-0.18358268,0.547201,0.6100851,-0.28022954,0.565748,0.60652103,-0.23600078,0.557223,0.60607144,-0.21409833,0.552862,0.60573568,-0.19357075,0.548897,0.63262693,-0.29667161,0.567998,0.63541516,-0.25920018,0.561547,0.63693911,-0.24211772,0.558584,0.63904908,-0.22533199,0.555969
0.57505026,-0.35267313,0.566207,0.58195129,-0.31075871,0.565151,0.55644724,-0.33691255,0.564268,0.53455671,-0.3055184,0.556163,0.51574842,-0.27739632,0.547559,0.51018484,-0.25979886,0.54827,0.56605222,-0.26432513,0.56207,0.56227116,-0.22449517,0.553934,0.56047727,-0.2042354,0.549866,0.56020591,-0.18693603,0.546168,0.59069764,-0.27042897,0.5641,0.58949217,-0.22704348,0.555644,0.59012744,-0.20179777,0.550711,0.59062908,-0.18357832,0.547188,0.61018971,-0.28027759,0.565845,0.60657436,-0.23602154,0.557272,0.60609775,-0.21410762,0.552886,0.60582476,-0.19373584,0.548899,0.63270605,-0.2967087,0.568069,0.63550229,-0.25923572,0.561624,0.63702919,-0.24215196,0.558663,0.63906259,-0.2257293,0.55605
0.577579,-0.35384072,0.566567,0.583108,-0.31331218,0.565223,0.55874796,-0.33783808,0.564327,0.54177894,-0.31315164,0.558981,0.51939057,-0.28187747,0.548496,0.51111817,-0.26216315,0.547087,0.56381532,-0.26899819,0.561579,0.56058594,-0.22494627,0.553295,0.5592553,-0.20550144,0.549152,0.55875962,-0.18764558,0.545387,0.58993248,-0.27173867,0.563884,0.58842359,-0.22725899,0.555256,0.58864146,-0.20186399,0.550223,0.58896658,-0.18361619,0.546628,0.60993081,-0.28029435,0.565875,0.60621674,-0.23600676,0.557124,0.604956,-0.21317552,0.552646,0.60510503,-0.19358582,0.548576,0.63301655,-0.29636358,0.568433,0.63563697,-0.25758909,0.56165,0.63728829,-0.2405186,0.558534,0.63902032,-0.22552765,0.555784
0.57819312,-0.35437147,0.566576,0.58358443,-0.31375687,0.565202,0.55930468,-0.33843725,0.564356,0.54252427,-0.31358245,0.55975,0.52000427,-0.28288523,0.549029,0.51218273,-0.26315808,0.547566,0.56380126,-0.26899148,0.561565,0.55989815,-0.22541853,0.553296,0.55871253,-0.20617095,0.549162,0.5583166,-0.18834844,0.545404,0.58964544,-0.27201002,0.563831,0.58792031,-0.2274838,0.555195,0.58792977,-0.2020035,0.550158,0.58818672,-0.18374356,0.546559,0.60964937,-0.28025548,0.565794,0.60601905,-0.23601292,0.557063,0.60472538,-0.21321309,0.552596,0.60480071,-0.19354564,0.548535,0.63282861,-0.2959489,0.568321,0.63565973,-0.25747267,0.561635,0.63744746,-0.24044906,0.558563,0.63928695,-0.22548827,0.555852
0.58007186,-0.35582609,0.568378,0.58471732,-0.31247204,0.565759,0.56067288,-0.33927701,0.56552,0.54756687,-0.31865529,0.57156,0.52375654,-0.29226712,0.564334,0.51699138,-0.26817052,0.553214,0.56359398,-0.26460738,0.560511,0.55923717,-0.22402187,0.551159,0.55722243,-0.20793671,0.546484,0.55496807,-0.1882051,0.542233,0.58885013,-0.26996207,0.563147,0.58561452,-0.22564282,0.553325,0.5820704,-0.19897082,0.547595,0.58661511,-0.18171864,0.546388,0.6092951,-0.27881831,0.565503,0.60368631,-0.23398532,0.555631,0.60099603,-0.21057969,0.55058,0.60158759,-0.19103066,0.545988,0.63291712,-0.29189717,0.568667,0.63609092,-0.25436699,0.561389,0.63812394,-0.23735045,0.558045,0.63903583,-0.22343479,0.555095
0.5814096,-0.35600879,0.568779,0.58501027,-0.31255246,0.565869,0.56201066,-0.3395407,0.566004,0.54765405,-0.31870602,0.571651,0.5245315,-0.29269956,0.565169,0.51731001,-0.26954162,0.554448,0.56336311,-0.26465008,0.56053,0.55895582,-0.22440349,0.551025,0.55700626,-0.20785605,0.546272,0.55485792,-0.18846776,0.541951,0.58850457,-0.26981669,0.562971,0.58506713,-0.22535645,0.552932,0.58166315,-0.19863911,0.547076,0.58630884,-0.18155245,0.546277,0.60889446,-0.2783646,0.565186,0.60306734,-0.23343573,0.555125,0.60026914,-0.20986396,0.549977,0.60064604,-0.1905443,0.545298,0.63277778,-0.29134405,0.568221,0.63580054,-0.25374484,0.560859,0.63780718,-0.23671344,0.557476,0.63860624,-0.22287721,0.554491
0.58078333,-0.35535404,0.566936,0.58414052,-0.3119891,0.564409,0.56170086,-0.33922656,0.564841,0.53957663,-0.30852656,0.559088,0.51898576,-0.28048014,0.550031,0.51265158,-0.26406361,0.550171,0.56322408,-0.26376881,0.560159,0.55876739,-0.2247623,0.551071,0.55618889,-0.20799536,0.546528,0.55383007,-0.19120502,0.542397,0.58761408,-0.26869672,0.561892,0.58405472,-0.2247271,0.552261,0.58149699,-0.19908377,0.546643,0.58572588,-0.18160884,0.545555,0.60772256,-0.27719486,0.563498,0.60211077,-0.23216838,0.553862,0.59911569,-0.20576183,0.548932,0.59813216,-0.18782944,0.54445,0.63288789,-0.28822908,0.565756,0.63444475,-0.24896523,0.558491,0.63619898,-0.23190302,0.555153,0.63724658,-0.21908421,0.552208
0.58045856,-0.35542153,0.566331,0.58384786,-0.31203332,0.563871,0.56150972,-0.33927189,0.564558,0.5388882,-0.30836531,0.558591,0.51827964,-0.28014513,0.549238,0.51263481,-0.26409702,0.550149,0.56322824,-0.26365036,0.56006,0.55859789,-0.22502069,0.551078,0.5557093,-0.20803837,0.546586,0.55347817,-0.19115871,0.542503,0.58738802,-0.26892927,0.56142,0.58401752,-0.22494566,0.55183,0.58114178,-0.19850881,0.546236,0.58458503,-0.18148286,0.544536,0.60718775,-0.27635621,0.562714,0.60158937,-0.23232649,0.553148,0.59840075,-0.20653218,0.548253,0.59697861,-0.18820842,0.543804,0.63229436,-0.28736201,0.564591,0.63352798,-0.249222,0.557107,0.63474101,-0.23204363,0.553669,0.635352,-0.21889523,0.550635
0.57806638,-0.35398211,0.564512,0.57828848,-0.31031962,0.562376,0.55873076,-0.33761701,0.562228,0.52740334,-0.30266693,0.556758,0.50807181,-0.27484879,0.545853,0.50838301,-0.2591131,0.546522,0.55888485,-0.26217426,0.558151,0.55125249,-0.21720019,0.549253,0.54999906,-0.19815383,0.544805,0.55240049,-0.18829539,0.54076,0.5837265,-0.26722788,0.560246,0.58211834,-0.22376365,0.550973,0.58057177,-0.19776047,0.545564,0.58311366,-0.18056068,0.543478,0.60408931,-0.27446117,0.562122,0.60048326,-0.22925636,0.552845,0.5981803,-0.20808122,0.548099,0.59796205,-0.18936264,0.543784,0.62390769,-0.29059349,0.564648,0.63166931,-0.25630129,0.558336,0.63376805,-0.23944707,0.555436,0.63687895,-0.22188002,0.552877
0.58041514,-0.35497015,0.566377,0.58292894,-0.31114841,0.56329,0.56045007,-0.33838428,0.563651,0.53378799,-0.30561124,0.556544,0.51284615,-0.27761667,0.547848,0.50645364,-0.2592183,0.545376,0.56035503,-0.26189687,0.557891,0.55432398,-0.22471835,0.548022,0.54966235,-0.20328687,0.543088,0.5492225,-0.1880041,0.538602,0.58547821,-0.26738645,0.560213,0.58107514,-0.22179706,0.549877,0.57870693,-0.19555046,0.543848,0.57998887,-0.17902195,0.542257,0.60581869,-0.27501794,0.562342,0.599699,-0.2301735,0.552037,0.59653199,-0.20602158,0.546764,0.59476148,-0.18704686,0.541971,0.63069358,-0.28945957,0.565301,0.63254017,-0.2514595,0.557547,0.63388514,-0.23428504,0.553985,0.63480093,-0.22045037,0.550841
0.58045884,-0.35454667,0.565991,0.58249229,-0.31057279,0.562735,0.56028204,-0.33801125,0.563175,0.5320415,-0.30525009,0.55511,0.51066403,-0.27778134,0.546467,0.50443191,-0.25927562,0.54413,0.55930493,-0.2612416,0.557115,0.5531127,-0.22383434,0.547086,0.54855939,-0.20267007,0.542072,0.54784122,-0.18743516,0.537513,0.58453474,-0.26654782,0.55949,0.57998232,-0.22128681,0.548998,0.57956203,-0.19575468,0.544878,0.57940909,-0.17862774,0.541936,0.60508989,-0.27450183,0.561677,0.59882003,-0.22966499,0.551221,0.59558657,-0.20564543,0.545871,0.59361914,-0.18647639,0.541008,0.63001149,-0.28906248,0.564726,0.63175621,-0.25104156,0.556884,0.63299258,-0.23384272,0.553281,0.63421739,-0.21954036,0.550102
0.58056722,-0.35416266,0.565668,0.58221714,-0.31008322,0.562336,0.56023739,-0.33771262,0.562823,0.53048126,-0.30499521,0.55387,0.50862245,-0.27802185,0.545236,0.50255245,-0.2594055,0.543037,0.55854584,-0.2607222,0.556629,0.55237662,-0.22325538,0.546545,0.54793375,-0.20229947,0.541503,0.5470325,-0.18708625,0.536919,0.58384928,-0.26582654,0.559014,0.5792952,-0.22095473,0.548464,0.57882283,-0.19544139,0.544353,0.57866483,-0.17822587,0.541417,0.60458119,-0.27412283,0.561214,0.59826659,-0.22931567,0.550706,0.59501791,-0.20541184,0.54533,0.59292965,-0.18609071,0.540442,0.62949263,-0.28875715,0.56429,0.63122705,-0.25074625,0.55644,0.63241047,-0.23353777,0.552833,0.63396646,-0.21874415,0.549651
0.57846917,-0.35253714,0.564238,0.5784484,-0.30789131,0.560695,0.55821358,-0.33609455,0.561445,0.52929904,-0.3040194,0.554106,0.50797961,-0.27739537,0.544565,0.50194914,-0.25906639,0.542828,0.55560775,-0.25815955,0.55491,0.54849317,-0.21899749,0.544772,0.54546076,-0.19946665,0.539702,0.54368617,-0.18494008,0.535094,0.58048843,-0.26381312,0.557163,0.57592309,-0.21899723,0.546476,0.57340953,-0.19299775,0.540959,0.57516279,-0.17599127,0.538476,0.60090791,-0.27159128,0.55927,0.5952305,-0.22724141,0.548701,0.59254645,-0.20433558,0.543294,0.59006535,-0.1839098,0.538378,0.62505417,-0.28688266,0.562262,0.62899118,-0.24853339,0.554601,0.63042835,-0.23154567,0.551081,0.63214435,-0.21754434,0.547975
0.5775282,-0.35161714,0.563936,0.57787118,-0.30748801,0.560393,0.55730921,-0.33515105,0.561192,0.52923156,-0.30387611,0.554,0.50777431,-0.27709986,0.544357,0.50168236,-0.25890794,0.542872,0.55485169,-0.25794057,0.554669,0.54810336,-0.21882619,0.544567,0.54517587,-0.19924797,0.539516,0.54338126,-0.18429428,0.534924,0.57969762,-0.26343195,0.556861,0.57519077,-0.21868943,0.546174,0.57207186,-0.19244461,0.540003,0.57379816,-0.17553024,0.537375,0.60010782,-0.27107603,0.558917,0.594617,-0.22679105,0.548369,0.59199518,-0.20396687,0.542972,0.58952882,-0.18352008,0.538066,0.62428783,-0.2862089,0.56185,0.62832117,-0.24811917,0.554202,0.62984381,-0.23117559,0.550687,0.63180818,-0.21685535,0.547587
0.57638596,-0.35176787,0.564142,0.57578294,-0.30710143,0.560091,0.55591602,-0.33493348,0.560975,0.52949156,-0.30439142,0.554327,0.50735967,-0.27700544,0.544093,0.50157039,-0.25900571,0.543102,0.5514773,-0.25776169,0.55351,0.54616083,-0.21923358,0.542908,0.54280075,-0.19946608,0.537607,0.54076326,-0.18345379,0.532788,0.57649221,-0.26354684,0.556053,0.571091,-0.21869588,0.544806,0.57135969,-0.19297194,0.539769,0.57131202,-0.17507263,0.536172,0.59659014,-0.27376909,0.558433,0.5928212,-0.22654593,0.547378,0.59028039,-0.20470862,0.541722,0.59120606,-0.18430022,0.53989,0.62005416,-0.28992626,0.561822,0.6235926,-0.25241368,0.553554,0.62520263,-0.23521896,0.549755,0.62950919,-0.2177907,0.546403
0.57485657,-0.35168232,0.563969,0.57509636,-0.3074235,0.559967,0.55458726,-0.33475471,0.560823,0.52925162,-0.30452856,0.554117,0.50707017,-0.27694634,0.543918,0.50147427,-0.25908058,0.543279,0.55104344,-0.25829567,0.553443,0.54569836,-0.21948123,0.542865,0.54237656,-0.19967909,0.537576,0.5403847,-0.18336325,0.532768,0.57604121,-0.26414586,0.555977,0.57074053,-0.21941701,0.54475,0.57076665,-0.19331973,0.539522,0.57058363,-0.17522334,0.535788,0.59600688,-0.27410627,0.558346,0.59234713,-0.22692749,0.547308,0.58980905,-0.20513557,0.541661,0.59052849,-0.18434752,0.539565,0.61969188,-0.29013399,0.561715,0.62293692,-0.25252277,0.553368,0.62441033,-0.23528587,0.549532,0.62876664,-0.21812943,0.546148
0.57321162,-0.35235289,0.564306,0.5711872,-0.3100402,0.560295,0.55192856,-0.33521371,0.561084,0.52666526,-0.30614265,0.552992,0.50718645,-0.27743891,0.544586,0.49996926,-0.25916123,0.543657,0.54903404,-0.2613462,0.553672,0.54260757,-0.22175428,0.543054,0.54165191,-0.20088939,0.537744,0.53992897,-0.18316312,0.532917,0.57412011,-0.2676109,0.556297,0.56933006,-0.2224673,0.544998,0.56705059,-0.19649405,0.538407,0.56651999,-0.17607602,0.533699,0.59469644,-0.27590574,0.558741,0.58869901,-0.23071021,0.547549,0.58669597,-0.2083185,0.541822,0.58535075,-0.18799184,0.53703,0.61901396,-0.29184781,0.562201,0.62153085,-0.2539192,0.553648,0.62287502,-0.23665551,0.549718,0.62570049,-0.22139659,0.54625
0.57103955,-0.35265962,0.56413,0.57073578,-0.31045035,0.560288,0.55128016,-0.33555062,0.561078,0.52576557,-0.30623369,0.552835,0.50570923,-0.27741005,0.54445,0.49968557,-0.25938321,0.543867,0.54895794,-0.26173009,0.553987,0.54255103,-0.22224551,0.543486,0.53938184,-0.20220286,0.538235,0.5393938,-0.18330273,0.533462,0.57390664,-0.26797514,0.556458,0.56928691,-0.22286865,0.545338,0.56723234,-0.19703676,0.538851,0.56675539,-0.17683894,0.534217,0.59435641,-0.27624714,0.558766,0.58829195,-0.23108802,0.547719,0.58637116,-0.20883552,0.542068,0.58465445,-0.18846107,0.53693,0.61849059,-0.29214568,0.562038,0.62101382,-0.25422518,0.553571,0.62244459,-0.23700448,0.54968,0.62516055,-0.22175338,0.546248
0.57071264,-0.35315078,0.563955,0.56990272,-0.31143678,0.560206,0.55090733,-0.33608724,0.56099,0.52520446,-0.30627559,0.552718,0.50527406,-0.27761276,0.544509,0.49939758,-0.2600976,0.544353,0.54881127,-0.26191219,0.554074,0.54243389,-0.22250632,0.543662,0.53928036,-0.20249524,0.538456,0.53919395,-0.18355606,0.533724,0.57368934,-0.26815191,0.556468,0.56915879,-0.22306933,0.545444,0.56723234,-0.19732478,0.539014,0.56674727,-0.17732915,0.534421,0.5940727,-0.27641485,0.558706,0.58796299,-0.2312813,0.547742,0.58608657,-0.20911419,0.542133,0.58441464,-0.18880065,0.537034,0.61811257,-0.29229413,0.561882,0.62054935,-0.25434524,0.553387,0.62199035,-0.23713901,0.549484,0.62386066,-0.22238841,0.54604
0.56943319,-0.353532,0.563791,0.56966317,-0.31150371,0.560139,0.54975877,-0.33645112,0.560894,0.52485149,-0.30631567,0.552662,0.50492706,-0.27775342,0.544531,0.499095,-0.26016294,0.54458,0.54873536,-0.26204396,0.554154,0.54240132,-0.22269892,0.543825,0.53927035,-0.20271195,0.538661,0.53870753,-0.18364497,0.533966,0.57356958,-0.26828147,0.556499,0.56913328,-0.22322651,0.545572,0.56731264,-0.19754484,0.539199,0.56681748,-0.17772076,0.534646,0.593907,-0.2765375,0.558688,0.58780126,-0.23143283,0.547811,0.58597196,-0.20932695,0.542246,0.5843455,-0.18905674,0.537187,0.6178782,-0.29240138,0.561794,0.62035608,-0.25447283,0.553368,0.62185018,-0.23729061,0.549497,0.62372595,-0.22252363,0.546081
