sluyters/QuantumLeap/backend/src/datasets/dynamic/HandGestureDataset_SHREC2017_csv/Gesture12/finger_2/subject_12_essai_2_skeletons_world.csv
Wrist_x,Wrist_y,Wrist_z,Palm_x,Palm_y,Palm_z,thumb_base_x,thumb_base_y,thumb_base_z,thumb_first_joint_x,thumb_first_joint_y,thumb_first_joint_z,thumb_second_joint_x,thumb_second_joint_y,thumb_second_joint_z,thumb_tip_x,thumb_tip_y,thumb_tip_z,index_base_x,index_base_y,index_base_z,index_first_joint_x,index_first_joint_y,index_first_joint_z,index_second_joint_x,index_second_joint_y,index_second_joint_z,index_tip_x,index_tip_y,index_tip_z,middle_base_x,middle_base_y,middle_base_z,middle_first_joint_x,middle_first_joint_y,middle_first_joint_z,middle_second_joint_x,middle_second_joint_y,middle_second_joint_z,middle_tip_x,middle_tip_y,middle_tip_z,ring_base_x,ring_base_y,ring_base_z,ring_first_joint_x,ring_first_joint_y,ring_first_joint_z,ring_second_joint_x,ring_second_joint_y,ring_second_joint_z,ring_tip_x,ring_tip_y,ring_tip_z,pinky_base_x,pinky_base_y,pinky_base_z,pinky_first_joint_x,pinky_first_joint_y,pinky_first_joint_z,pinky_second_joint_x,pinky_second_joint_y,pinky_second_joint_z,pinky_tip_x,pinky_tip_y,pinky_tip_z,
0.43998817,-0.35488629,0.450028,0.44340222,-0.30495912,0.456172,0.42082253,-0.33434192,0.454316,0.41022273,-0.3058566,0.452953,0.39722439,-0.27813086,0.446481,0.39646586,-0.2604763,0.44487,0.42948554,-0.27313467,0.465354,0.42668453,-0.23662228,0.465336,0.42521275,-0.21818934,0.465326,0.42364583,-0.20178028,0.465318,0.45000322,-0.27227114,0.461703,0.44697623,-0.23350099,0.46119,0.44512099,-0.21076075,0.460891,0.44376881,-0.19413363,0.460677,0.46652361,-0.27471596,0.458159,0.46576332,-0.23806909,0.458067,0.46536006,-0.21858728,0.458019,0.46498588,-0.20042464,0.457976,0.48530957,-0.28344982,0.453024,0.48072236,-0.249875,0.451624,0.47861435,-0.23444227,0.450981,0.47695869,-0.22091648,0.450607
0.4428522,-0.35638194,0.451803,0.44625202,-0.30481973,0.457646,0.42603849,-0.34325723,0.455661,0.41718493,-0.30886998,0.453736,0.39873799,-0.2799523,0.442668,0.39665037,-0.26175259,0.443253,0.42969613,-0.27276228,0.4661,0.42613377,-0.23577024,0.46551,0.42423777,-0.21726446,0.465215,0.4222772,-0.20110208,0.464947,0.45076108,-0.2713003,0.462906,0.44702783,-0.23215057,0.462018,0.44477133,-0.20937701,0.461499,0.44312965,-0.19271779,0.461129,0.46792871,-0.27333595,0.459765,0.46610106,-0.23239283,0.459027,0.46527677,-0.21230791,0.45865,0.46491605,-0.19716346,0.458306,0.48800355,-0.27868325,0.455151,0.48323468,-0.24819094,0.453416,0.48114665,-0.23274908,0.452619,0.47930848,-0.21909551,0.451916
0.44305291,-0.35476613,0.451943,0.44607601,-0.30435877,0.457451,0.42635652,-0.34175742,0.455814,0.41470633,-0.30815117,0.453827,0.39650446,-0.27850095,0.442542,0.39608922,-0.26187202,0.441849,0.42872063,-0.27228554,0.465716,0.42484266,-0.23512796,0.464867,0.42277283,-0.21659849,0.464443,0.42064709,-0.20051969,0.464057,0.44968877,-0.27046762,0.462409,0.44555077,-0.2311573,0.461223,0.44306091,-0.20836545,0.460531,0.4412502,-0.19169621,0.460036,0.46684062,-0.27224388,0.459204,0.46503346,-0.23429946,0.458194,0.46364707,-0.21236071,0.457678,0.46324139,-0.19592352,0.457208,0.48673537,-0.27836636,0.454568,0.4821708,-0.24687926,0.452635,0.48005005,-0.23144805,0.451747,0.47818407,-0.21779725,0.450963
0.44043307,-0.33977277,0.449327,0.44351656,-0.30100324,0.454761,0.42283465,-0.33118282,0.451788,0.41735097,-0.30882446,0.456033,0.39448316,-0.27689028,0.441975,0.39587839,-0.2617063,0.442534,0.42162257,-0.26403668,0.461197,0.4195035,-0.23021292,0.459731,0.41837917,-0.21004835,0.458999,0.41718695,-0.19528417,0.458333,0.44434094,-0.2619108,0.459653,0.44229763,-0.22149535,0.45801,0.44116597,-0.19805523,0.457051,0.44037117,-0.18122727,0.456366,0.46322839,-0.26347847,0.457906,0.46325671,-0.22420914,0.45628,0.46330247,-0.20385573,0.455448,0.46209885,-0.18874781,0.454691,0.48573477,-0.27143871,0.454995,0.48129026,-0.23815217,0.452513,0.47923403,-0.22261859,0.451372,0.47779263,-0.21350407,0.450366
0.43896058,-0.33681759,0.447864,0.44208808,-0.29312678,0.453745,0.42214203,-0.32892103,0.451158,0.41682878,-0.29807293,0.451383,0.39011748,-0.26699021,0.436388,0.3913509,-0.25563884,0.438486,0.42191929,-0.25815148,0.461508,0.41889102,-0.22059174,0.460775,0.41744531,-0.20202604,0.460408,0.41611666,-0.18490104,0.460075,0.44382066,-0.25898637,0.45904,0.44581805,-0.22082226,0.461813,0.44713684,-0.19828907,0.46343,0.44811715,-0.18195647,0.464586,0.46183556,-0.26047193,0.456493,0.4625639,-0.22189068,0.455525,0.46297803,-0.20173758,0.45503,0.4633674,-0.18311402,0.454579,0.48298419,-0.26825738,0.45257,0.47895488,-0.23537407,0.450553,0.47708769,-0.22000278,0.449626,0.47543281,-0.2062987,0.448809
0.43880414,-0.3357936,0.447643,0.44155156,-0.29266205,0.453246,0.42177555,-0.32779813,0.450765,0.41764063,-0.30097586,0.452637,0.39075664,-0.27051639,0.437763,0.39278377,-0.25549179,0.439673,0.42122993,-0.26033521,0.460622,0.41850981,-0.22284854,0.459596,0.41646581,-0.20243543,0.459084,0.4150317,-0.18531573,0.458618,0.44326968,-0.25836225,0.458291,0.44585365,-0.2205931,0.461755,0.4475477,-0.19821814,0.463776,0.44880282,-0.1819772,0.465219,0.46139973,-0.26005223,0.455881,0.46183393,-0.22140736,0.454622,0.4620989,-0.2012105,0.453978,0.46163965,-0.18488676,0.453393,0.48269979,-0.26810884,0.452164,0.47835294,-0.23506529,0.449889,0.47648364,-0.21988846,0.448843,0.47510298,-0.20981355,0.44792
0.43674315,-0.33226999,0.444874,0.44024671,-0.28880603,0.451747,0.42021783,-0.3249366,0.44853,0.4182295,-0.29793805,0.45175,0.3910011,-0.26765146,0.437508,0.39221522,-0.25495968,0.439919,0.42092225,-0.25775205,0.460574,0.41871726,-0.2204469,0.460272,0.41739806,-0.20231155,0.460121,0.41613683,-0.1855519,0.459984,0.44232312,-0.25395874,0.457935,0.44560482,-0.21818533,0.462351,0.44647861,-0.19505202,0.464928,0.44846338,-0.18002741,0.466768,0.45980973,-0.25213705,0.45516,0.46082974,-0.21289066,0.454563,0.46121524,-0.19275489,0.454257,0.46213814,-0.17764868,0.453979,0.48131618,-0.25813501,0.450813,0.47766857,-0.22462319,0.450189,0.47600245,-0.209327,0.449903,0.47453637,-0.19588246,0.44965
0.43724875,-0.33119453,0.444889,0.44044595,-0.28798722,0.451697,0.42042906,-0.32386234,0.448328,0.41856626,-0.29749532,0.451763,0.39082184,-0.26761155,0.437675,0.39192373,-0.25466193,0.440181,0.42042457,-0.25711937,0.46021,0.41835097,-0.21982098,0.459826,0.41695292,-0.20180612,0.459635,0.41559765,-0.18518183,0.459461,0.44205028,-0.25328803,0.457826,0.44527341,-0.2175507,0.462418,0.44600155,-0.19467231,0.465097,0.44780626,-0.17953282,0.46701,0.45991782,-0.25219632,0.455267,0.46087536,-0.21291174,0.454608,0.46122945,-0.19276083,0.454271,0.46187643,-0.17658602,0.453964,0.48171228,-0.25834744,0.451184,0.477989,-0.22477387,0.450491,0.47628705,-0.20945216,0.450172,0.47479071,-0.19598744,0.449891
0.43673034,-0.32981298,0.44403,0.44101488,-0.28787716,0.45205,0.42164786,-0.32392434,0.44934,0.41896138,-0.29724837,0.451825,0.39514231,-0.27031031,0.442431,0.39914148,-0.25897457,0.448395,0.42367221,-0.25875203,0.463671,0.42256056,-0.22150671,0.464031,0.42172536,-0.20352551,0.46421,0.42068562,-0.18707095,0.464374,0.44382905,-0.25478616,0.459269,0.44753928,-0.21814566,0.464607,0.44937681,-0.19626063,0.467721,0.45069195,-0.18020788,0.469945,0.46007974,-0.25356223,0.454944,0.46179069,-0.21320126,0.454822,0.46258193,-0.19312105,0.45476,0.46342905,-0.17774796,0.454703,0.47933804,-0.25732636,0.448593,0.47693029,-0.22462468,0.449155,0.47581939,-0.20955125,0.449413,0.47511963,-0.19837384,0.44964
0.43681028,-0.32908219,0.443846,0.4415358,-0.2878952,0.45243,0.42256431,-0.32392541,0.450086,0.41894535,-0.29688554,0.451565,0.39806927,-0.27213851,0.445653,0.40387657,-0.26176064,0.453796,0.42546951,-0.25961273,0.465575,0.42463516,-0.22224102,0.466026,0.42391306,-0.20422059,0.466251,0.42295442,-0.18774435,0.466456,0.44475869,-0.25500804,0.460158,0.44903415,-0.2185314,0.466049,0.45114776,-0.19671145,0.469486,0.45265319,-0.18066839,0.47194,0.46023368,-0.25340898,0.454948,0.46214125,-0.21329608,0.454821,0.46300974,-0.1931964,0.454756,0.46371726,-0.17733697,0.454697,0.47833186,-0.25691224,0.447468,0.47644195,-0.22457012,0.448525,0.47556317,-0.20959226,0.449011,0.47497836,-0.19800237,0.44944
0.44013799,-0.329452,0.446299,0.44085739,-0.28722308,0.451625,0.42327042,-0.3226723,0.450029,0.41564887,-0.29430062,0.44784,0.38965201,-0.26626247,0.436191,0.39229156,-0.25356555,0.440924,0.42005072,-0.25613909,0.459601,0.4172446,-0.21812481,0.457716,0.41551501,-0.1999388,0.456774,0.41364847,-0.1833944,0.455917,0.44119488,-0.25274347,0.456419,0.44379819,-0.21574096,0.460537,0.44490954,-0.19376378,0.462939,0.44569971,-0.17766491,0.464655,0.45870068,-0.25240644,0.453334,0.45852662,-0.21158779,0.451057,0.45831506,-0.19117595,0.449892,0.45794504,-0.17476102,0.448833,0.47994441,-0.25785418,0.448866,0.47502512,-0.22400765,0.447089,0.47276387,-0.20845079,0.446272,0.47091493,-0.19610094,0.445551
0.43859867,-0.32855801,0.444869,0.43924542,-0.29712609,0.449924,0.42320193,-0.32280609,0.450085,0.42024416,-0.30886273,0.449561,0.39293534,-0.2792343,0.438179,0.39728825,-0.26606597,0.442674,0.42185202,-0.2651733,0.459616,0.41925921,-0.22908382,0.458854,0.41857703,-0.21044575,0.458472,0.41596797,-0.19590699,0.458126,0.44117495,-0.2616527,0.454474,0.4424682,-0.22730997,0.45721,0.44512463,-0.20437744,0.458806,0.44285274,-0.18747997,0.459946,0.45891713,-0.26547155,0.449799,0.45560969,-0.22702454,0.44867,0.45499377,-0.2049852,0.448093,0.45502571,-0.18510595,0.447568,0.47720435,-0.27296512,0.443505,0.47179413,-0.24120828,0.441829,0.46926597,-0.22625568,0.441059,0.46701257,-0.21286573,0.44038
0.43847689,-0.32860418,0.444738,0.43937638,-0.2972138,0.449637,0.42288219,-0.32262467,0.449725,0.4196244,-0.30840723,0.448898,0.39292526,-0.28148447,0.438539,0.3973117,-0.26849058,0.443752,0.42179849,-0.26547174,0.458945,0.41943082,-0.22792154,0.457913,0.4178203,-0.21016349,0.457398,0.41613622,-0.19449332,0.456929,0.4413816,-0.26231487,0.454048,0.44511681,-0.22689209,0.457684,0.44609481,-0.2048229,0.459806,0.44605844,-0.18766198,0.461321,0.45870185,-0.26534702,0.449588,0.45643198,-0.2258231,0.4482,0.45522757,-0.20391408,0.44749,0.4549045,-0.18420862,0.446845,0.47727644,-0.27300636,0.443572,0.47164036,-0.24112966,0.441685,0.46900956,-0.22613205,0.440818,0.4666658,-0.21270767,0.440053
0.43652429,-0.32798304,0.442466,0.43962052,-0.29976078,0.448482,0.42049466,-0.3273812,0.448058,0.42016121,-0.30959033,0.44819,0.39371624,-0.2865663,0.437251,0.39640817,-0.26954698,0.442115,0.42371761,-0.26847346,0.459239,0.42496129,-0.23378485,0.458964,0.42375662,-0.21588147,0.458827,0.4194591,-0.19650717,0.458702,0.44297694,-0.26516236,0.453899,0.44544265,-0.2279171,0.456927,0.44601791,-0.2059398,0.458693,0.4460188,-0.19152826,0.459955,0.45863114,-0.2658081,0.448977,0.4584729,-0.22671095,0.448528,0.45829531,-0.20674475,0.448298,0.4581159,-0.18857845,0.448089,0.4766145,-0.27270235,0.442241,0.47284679,-0.24067799,0.441368,0.47486451,-0.22467633,0.440967,0.4739301,-0.21097302,0.440613
0.43618733,-0.32885319,0.44188,0.43879122,-0.29906695,0.447342,0.42076858,-0.32275754,0.44684,0.42332704,-0.3119944,0.45444,0.39597014,-0.28336927,0.442546,0.3993215,-0.27073562,0.44528,0.42208209,-0.26698009,0.45696,0.42320213,-0.23100637,0.455769,0.42184517,-0.21431922,0.455174,0.42167643,-0.20547747,0.454633,0.44191411,-0.26421512,0.45226,0.44432496,-0.2273233,0.455553,0.44496256,-0.2057292,0.457474,0.44509543,-0.19187343,0.458846,0.45809819,-0.26533909,0.447913,0.4607671,-0.22716531,0.446909,0.46146182,-0.20740026,0.446395,0.46211064,-0.18916101,0.445928,0.47678848,-0.27286156,0.441941,0.47552046,-0.23994586,0.440442,0.47451107,-0.22523425,0.439753,0.46968998,-0.21231564,0.439146
0.436947,-0.3406056,0.444116,0.43990716,-0.30079557,0.448452,0.42099986,-0.33253644,0.447977,0.41963632,-0.31365321,0.454931,0.39807739,-0.28545808,0.445355,0.39974629,-0.2711071,0.445887,0.42174087,-0.26707083,0.455989,0.42280327,-0.2312855,0.455117,0.4214819,-0.21479594,0.454681,0.42053827,-0.20601658,0.454284,0.4436533,-0.26664641,0.452356,0.44569947,-0.23000168,0.453396,0.44564182,-0.20904642,0.454003,0.44515611,-0.19596854,0.454436,0.460807,-0.26983414,0.448986,0.46301908,-0.23434538,0.447269,0.46323088,-0.21853851,0.446391,0.4634627,-0.203597,0.445592,0.48127883,-0.28215041,0.44434,0.4779712,-0.24735236,0.441595,0.47714088,-0.23658964,0.440333,0.47647976,-0.22775662,0.43922
0.43610502,-0.34176009,0.443097,0.44140614,-0.30873024,0.448904,0.41982472,-0.33332435,0.446562,0.41845309,-0.32000436,0.452186,0.39957293,-0.29059051,0.443424,0.39821082,-0.27041668,0.443545,0.42538636,-0.27827725,0.456839,0.42708529,-0.2440711,0.458854,0.42760067,-0.22984595,0.459862,0.42705792,-0.21142022,0.460779,0.44725431,-0.27777134,0.454132,0.45654284,-0.24449633,0.460647,0.46228646,-0.22438327,0.464448,0.46644815,-0.20935464,0.467163,0.46498023,-0.28072685,0.451395,0.46816356,-0.24202615,0.450449,0.46860035,-0.22174745,0.449964,0.46990405,-0.20550669,0.449524,0.48527625,-0.29038517,0.447262,0.48214517,-0.25614223,0.445271,0.48173148,-0.24071563,0.444356,0.48170707,-0.23136764,0.443549
0.4316096,-0.34938381,0.438613,0.44062757,-0.32286094,0.44687,0.41638645,-0.34498378,0.441807,0.41578674,-0.33033631,0.449442,0.39741007,-0.29859843,0.437232,0.39969009,-0.28331045,0.439208,0.42449661,-0.2896669,0.455958,0.42860058,-0.25331192,0.457065,0.43000375,-0.23716188,0.457618,0.43131077,-0.2218998,0.458121,0.44737132,-0.28968437,0.454303,0.45162146,-0.25112924,0.455447,0.45407569,-0.23035063,0.456114,0.45587897,-0.2149228,0.456591,0.46583895,-0.29295437,0.452218,0.47111414,-0.25499248,0.453266,0.47414933,-0.23625699,0.453803,0.47698518,-0.21906997,0.45429,0.48674924,-0.30278899,0.448463,0.48822804,-0.26971641,0.448628,0.48919967,-0.2546308,0.448704,0.4906226,-0.24264638,0.448771
0.43440206,-0.36601626,0.440781,0.44158718,-0.3310748,0.446202,0.41700724,-0.35521831,0.442644,0.41511511,-0.33712509,0.447937,0.3987331,-0.30671739,0.437748,0.39886048,-0.28629496,0.437781,0.42531988,-0.29408833,0.451873,0.43064336,-0.25890727,0.454996,0.43266106,-0.24259833,0.456557,0.43284502,-0.22452466,0.457976,0.44881366,-0.2963265,0.451083,0.4502543,-0.25566004,0.449372,0.45072408,-0.23442414,0.448373,0.45103638,-0.21926883,0.44766,0.46790473,-0.30161726,0.449958,0.47041326,-0.26172018,0.448301,0.47175347,-0.24177721,0.447454,0.47299595,-0.22350092,0.446683,0.48968279,-0.31423759,0.447779,0.48598989,-0.28023797,0.445027,0.48551977,-0.26878249,0.443763,0.4851988,-0.2592229,0.442648
0.44052897,-0.3739385,0.445862,0.44579647,-0.33961748,0.446941,0.42246296,-0.3657677,0.446609,0.42247663,-0.35037167,0.451047,0.40202917,-0.31928843,0.43805,0.40068802,-0.30293607,0.437799,0.42478647,-0.30024856,0.448546,0.42688722,-0.2637241,0.44941,0.42777168,-0.24994667,0.449842,0.42859821,-0.23676361,0.450235,0.44856081,-0.30231627,0.447913,0.44430726,-0.25990707,0.442081,0.44198087,-0.23599134,0.438679,0.43993345,-0.21617986,0.436249,0.46821223,-0.30770804,0.447298,0.46563004,-0.26597419,0.441662,0.46483382,-0.24696292,0.438778,0.46419305,-0.22945642,0.436157,0.49125004,-0.32082215,0.446404,0.48434934,-0.28361402,0.440476,0.48326494,-0.27433954,0.437752,0.48237588,-0.26588707,0.435348
0.44317438,-0.38322969,0.448241,0.44557892,-0.34313882,0.447483,0.42480215,-0.37105008,0.44889,0.42259867,-0.35395708,0.452258,0.40516511,-0.32455796,0.441941,0.40209449,-0.30686921,0.44036,0.4226575,-0.30577114,0.447841,0.4259639,-0.26888614,0.447013,0.42664334,-0.26157966,0.446599,0.42733096,-0.2544799,0.446223,0.44594985,-0.30762089,0.4468,0.44269627,-0.26470198,0.441549,0.44146689,-0.24503583,0.438486,0.44068763,-0.23268622,0.436298,0.46532061,-0.31293488,0.446009,0.46257064,-0.27030081,0.438766,0.46181738,-0.25322451,0.435061,0.46124326,-0.23726092,0.431692,0.48832774,-0.32615514,0.445199,0.47981556,-0.28842372,0.437729,0.47767804,-0.27813688,0.434296,0.47686067,-0.26607127,0.431268
0.44575388,-0.39212872,0.449841,0.44566682,-0.35599414,0.448157,0.42723342,-0.38009794,0.450419,0.42179291,-0.36621301,0.452276,0.40320644,-0.3351588,0.44025,0.4012419,-0.31847291,0.440409,0.4226486,-0.31486087,0.44786,0.4241558,-0.27580207,0.444534,0.4237249,-0.26125394,0.442871,0.42358192,-0.25212982,0.441359,0.44581083,-0.31656358,0.446641,0.43986599,-0.27197604,0.438337,0.43699954,-0.25301631,0.433493,0.43503641,-0.24166965,0.430033,0.46515369,-0.32182415,0.445785,0.466504,-0.28160112,0.443283,0.46840971,-0.26486507,0.442003,0.47030917,-0.25001697,0.440839,0.48830307,-0.33510694,0.445045,0.4791961,-0.29687414,0.436953,0.47678584,-0.2863737,0.433235,0.47473261,-0.27701902,0.429955
0.44021271,-0.39567848,0.444362,0.44469772,-0.36401031,0.446782,0.42331563,-0.38957984,0.44627,0.42155666,-0.37551681,0.451728,0.40406622,-0.3447686,0.438295,0.40297929,-0.32917269,0.439967,0.4252646,-0.32609719,0.450676,0.42694364,-0.28677528,0.447476,0.42747071,-0.27156387,0.445876,0.42702547,-0.25500125,0.444421,0.44811547,-0.32729604,0.448961,0.44880776,-0.28509078,0.444534,0.44950124,-0.2628727,0.441951,0.44767825,-0.24697054,0.440107,0.46683295,-0.33189688,0.447337,0.46870045,-0.291846,0.442967,0.47009177,-0.27412121,0.440731,0.47152,-0.25854803,0.438698,0.48852516,-0.34390754,0.445047,0.48268473,-0.30759252,0.440158,0.48194713,-0.29912109,0.437912,0.4813631,-0.29137779,0.43593
0.44447689,-0.40738478,0.448573,0.44462279,-0.3665928,0.446764,0.42562889,-0.39498998,0.448849,0.41988754,-0.37667709,0.450207,0.4013965,-0.34494742,0.435462,0.4003472,-0.32893065,0.43605,0.42114334,-0.32502808,0.446006,0.42572134,-0.2875316,0.44484,0.42765061,-0.27272993,0.444257,0.42948702,-0.25880289,0.443727,0.44460362,-0.32705689,0.445134,0.44563762,-0.28509527,0.440656,0.44648745,-0.26314063,0.438044,0.44716028,-0.24707494,0.436178,0.46425119,-0.33260663,0.444575,0.46412927,-0.2934817,0.436315,0.46247058,-0.27089768,0.432088,0.46221283,-0.25373826,0.428246,0.48783551,-0.34627907,0.444203,0.47919385,-0.30987501,0.435906,0.47621847,-0.29764517,0.432094,0.47416776,-0.28894746,0.428731
0.44343596,-0.40990368,0.447926,0.44364031,-0.37124306,0.446031,0.42435022,-0.40052582,0.447878,0.42664895,-0.38567889,0.450286,0.41094023,-0.3523463,0.435291,0.40918672,-0.33518951,0.435463,0.42058104,-0.32873997,0.444813,0.42160329,-0.29246132,0.439632,0.42065008,-0.27907351,0.437042,0.41984757,-0.26641089,0.434687,0.44445977,-0.33414313,0.444325,0.44207715,-0.29171465,0.435707,0.44057261,-0.26804894,0.430681,0.44219981,-0.2493931,0.429971,0.46425505,-0.3406627,0.444089,0.46291615,-0.30076443,0.435764,0.46206616,-0.28317008,0.431505,0.46110833,-0.2693666,0.427633,0.48803327,-0.35562627,0.444112,0.483711,-0.31733294,0.436084,0.48189346,-0.30088261,0.432395,0.48029296,-0.28634823,0.42914
0.43717877,-0.41707029,0.444921,0.43831033,-0.38132839,0.445379,0.42037535,-0.40488722,0.44665,0.41902299,-0.39105652,0.450027,0.40458843,-0.35821579,0.436997,0.40509939,-0.34225009,0.438884,0.42213085,-0.3398817,0.447848,0.42841276,-0.30067395,0.441895,0.42774517,-0.29104254,0.438918,0.42725274,-0.28189183,0.436211,0.44413328,-0.34344613,0.445791,0.44707925,-0.30142679,0.439618,0.44793282,-0.28147552,0.436017,0.44866293,-0.2667546,0.433444,0.46202441,-0.35013996,0.444058,0.46703512,-0.30928635,0.437826,0.46952892,-0.28954931,0.434637,0.47184442,-0.2716287,0.431738,0.48251436,-0.36493302,0.441948,0.48506762,-0.32962401,0.436244,0.4862532,-0.31354265,0.433623,0.48730397,-0.29935685,0.43131
0.43844287,-0.41502187,0.444371,0.44289042,-0.37884007,0.44638,0.4224229,-0.40712801,0.447657,0.42129685,-0.39176636,0.450548,0.40943766,-0.36368363,0.441962,0.41206915,-0.35024153,0.446837,0.427027,-0.34308512,0.451767,0.43446117,-0.30472462,0.448592,0.43584214,-0.29441425,0.447005,0.43725372,-0.28454611,0.445562,0.44795354,-0.34442084,0.448189,0.45032233,-0.30050067,0.443259,0.45195058,-0.28336055,0.440383,0.45304132,-0.26926382,0.438329,0.46494919,-0.34654979,0.445067,0.46989484,-0.30892927,0.439819,0.47260384,-0.28921705,0.437133,0.4752145,-0.27166537,0.434692,0.48534287,-0.3557114,0.441081,0.48678385,-0.32899032,0.436857,0.48840355,-0.31412331,0.435066,0.48990419,-0.30088852,0.433514
0.43913687,-0.41634569,0.444647,0.44469931,-0.38008348,0.447296,0.42402525,-0.40880918,0.448661,0.43645892,-0.39735581,0.452311,0.42447592,-0.36913851,0.444117,0.425232,-0.35591803,0.449489,0.43029205,-0.34472174,0.453998,0.43806408,-0.30704863,0.451982,0.43985448,-0.29663138,0.450974,0.44163391,-0.28662479,0.450057,0.45061417,-0.34543991,0.449682,0.45399114,-0.30363042,0.445623,0.45569157,-0.28501041,0.443255,0.4569887,-0.27157951,0.441564,0.46685595,-0.34959231,0.445897,0.47178397,-0.30921924,0.440807,0.47440934,-0.28938567,0.438202,0.47687659,-0.27266981,0.435835,0.48674943,-0.35929865,0.441031,0.48775808,-0.32882204,0.437369,0.48933401,-0.31402354,0.435907,0.49078849,-0.30083311,0.434641
0.4406666,-0.41829208,0.445815,0.44337091,-0.3788585,0.445397,0.4230514,-0.40801983,0.447101,0.43614725,-0.39748357,0.452154,0.41667909,-0.36360184,0.437547,0.40764497,-0.34473631,0.437569,0.42394012,-0.33937136,0.446771,0.42712606,-0.29959475,0.44079,0.42677625,-0.28773377,0.437799,0.42657498,-0.27650123,0.43508,0.44645807,-0.3419178,0.445021,0.44651627,-0.29868358,0.437967,0.446222,-0.27905537,0.433852,0.44605365,-0.26511323,0.430913,0.46502244,-0.34780016,0.443617,0.46728947,-0.30629742,0.43656,0.46851393,-0.28590064,0.432949,0.46960247,-0.26970278,0.429666,0.48812507,-0.36055746,0.442033,0.48578243,-0.32712246,0.435409,0.48536828,-0.3111773,0.432365,0.48501788,-0.29704583,0.429679
0.44126852,-0.41934074,0.445716,0.44390036,-0.38066802,0.445191,0.42376431,-0.40916341,0.447106,0.43401515,-0.39732396,0.451315,0.41059838,-0.36317126,0.437414,0.40826624,-0.34580035,0.438174,0.42380148,-0.34003565,0.446629,0.42700108,-0.30049553,0.441393,0.42688352,-0.28842356,0.438775,0.42688679,-0.27697986,0.436395,0.44619531,-0.34215044,0.444717,0.44563045,-0.29865731,0.437604,0.4450593,-0.2789035,0.433454,0.44468806,-0.26504528,0.43049,0.46470476,-0.34768665,0.44319,0.46623903,-0.30579139,0.43615,0.46658619,-0.28609512,0.432548,0.46532191,-0.27481466,0.429273,0.48758628,-0.36031723,0.441477,0.48507131,-0.32639762,0.434796,0.48448102,-0.31047893,0.431727,0.48398822,-0.29643534,0.429018
0.4401721,-0.41862086,0.44422,0.44326712,-0.37939852,0.444895,0.42282745,-0.40873182,0.445814,0.42648988,-0.39479512,0.449747,0.40661115,-0.36135997,0.436497,0.40629182,-0.34586666,0.43818,0.42232069,-0.34142213,0.447325,0.41909416,-0.30237971,0.443322,0.41877811,-0.29014256,0.441321,0.42228105,-0.27849703,0.439501,0.44488938,-0.34293256,0.445503,0.43848882,-0.29838581,0.43949,0.4372486,-0.27829449,0.435983,0.4402635,-0.26624564,0.433478,0.46351194,-0.34790102,0.443944,0.45880955,-0.30282695,0.438012,0.45874489,-0.28444445,0.434977,0.46370953,-0.27573683,0.432218,0.48615841,-0.35781557,0.442005,0.48043841,-0.32176193,0.436163,0.47882026,-0.30359549,0.433478,0.48114225,-0.2929349,0.431109
0.44117845,-0.41993422,0.445106,0.44255854,-0.37918658,0.444548,0.42288498,-0.4092833,0.44586,0.42389555,-0.39345991,0.448985,0.404003,-0.36010147,0.435423,0.40315318,-0.34476229,0.436832,0.41589299,-0.34065943,0.445163,0.41682255,-0.30125265,0.442074,0.41674549,-0.28955824,0.440529,0.41667795,-0.27917479,0.439125,0.44025331,-0.34131299,0.444047,0.43648821,-0.29767849,0.438899,0.43545134,-0.27755323,0.435897,0.43478302,-0.26338676,0.433752,0.45881199,-0.34494272,0.443176,0.4556178,-0.30184276,0.436029,0.45455394,-0.28224602,0.432373,0.45730488,-0.26850724,0.429049,0.48378278,-0.3558476,0.442241,0.47748155,-0.32089757,0.435266,0.47518892,-0.30469456,0.432061,0.4739664,-0.28990308,0.429233
0.44056721,-0.4211133,0.444507,0.44032381,-0.37752031,0.44318,0.42272513,-0.40951529,0.445786,0.42269758,-0.39312258,0.449177,0.40293547,-0.3602092,0.435928,0.40062756,-0.34556186,0.437159,0.41374411,-0.33935053,0.443989,0.4136215,-0.30027896,0.442004,0.41342948,-0.28952634,0.441012,0.41326187,-0.27951094,0.44011,0.43611311,-0.33881232,0.441986,0.43599333,-0.297575,0.439771,0.43643279,-0.27823121,0.438479,0.43680966,-0.26432685,0.437556,0.45501944,-0.34221226,0.440453,0.45058431,-0.29988896,0.432684,0.44899862,-0.27914416,0.428708,0.44777699,-0.2625972,0.425095,0.47713787,-0.3526855,0.438862,0.46976453,-0.31798277,0.431293,0.46508559,-0.3047513,0.427815,0.46235006,-0.29350809,0.424746
0.44025774,-0.42224927,0.444545,0.43777895,-0.37668793,0.442863,0.42250942,-0.41087884,0.44602,0.4115719,-0.38708429,0.447552,0.39276601,-0.35545919,0.435924,0.3939655,-0.34348761,0.438647,0.41189636,-0.3375638,0.443702,0.40492876,-0.29537613,0.43701,0.40184712,-0.27934435,0.433663,0.39904685,-0.26436105,0.430621,0.43391235,-0.33696441,0.441348,0.43414646,-0.29610828,0.43979,0.43476007,-0.27769476,0.438882,0.4367406,-0.26490581,0.438233,0.45250743,-0.34033737,0.439557,0.4488555,-0.29885326,0.431524,0.44707704,-0.27800318,0.427413,0.44566579,-0.26094138,0.423677,0.47523522,-0.35140584,0.437718,0.46621645,-0.31742273,0.430008,0.46280901,-0.30392746,0.426466,0.45995668,-0.29265108,0.42334
0.43906519,-0.42220037,0.44348,0.43672594,-0.37813942,0.442898,0.42151387,-0.41132457,0.445271,0.41246538,-0.39321422,0.447972,0.39317959,-0.36233073,0.437317,0.39303056,-0.34474599,0.439042,0.41212626,-0.3401582,0.44481,0.4080223,-0.29917053,0.439981,0.40594901,-0.28714713,0.437566,0.40375922,-0.27240975,0.435371,0.43406911,-0.33841362,0.442375,0.42834319,-0.29970926,0.438241,0.42865576,-0.27621703,0.43583,0.42961708,-0.26107824,0.434108,0.45255077,-0.34164305,0.440421,0.44755736,-0.30135359,0.433465,0.4428955,-0.28299785,0.429906,0.44413946,-0.26290095,0.426671,0.47500158,-0.35243098,0.438216,0.4662915,-0.31842034,0.431361,0.46288749,-0.30407599,0.428211,0.45574694,-0.28747014,0.425529
0.43902627,-0.42183803,0.443607,0.43294251,-0.37632543,0.443254,0.4203533,-0.41039664,0.444986,0.40291311,-0.38312292,0.445975,0.38954856,-0.35387224,0.433549,0.38848357,-0.34089171,0.436224,0.40997251,-0.33456164,0.444785,0.40362992,-0.29471066,0.43839,0.40032021,-0.28059832,0.435193,0.39787877,-0.26879085,0.432286,0.43328613,-0.33636145,0.442937,0.42637966,-0.29168557,0.438811,0.42566849,-0.27661799,0.436405,0.42428581,-0.26288556,0.434686,0.45187735,-0.34138412,0.441447,0.44380014,-0.29556517,0.43478,0.44305836,-0.28196791,0.431369,0.44115913,-0.26850222,0.428268,0.47474198,-0.3529885,0.439751,0.46658917,-0.31876503,0.432846,0.46175304,-0.30343215,0.429674,0.46006977,-0.29150691,0.426874
0.42876735,-0.41837125,0.442039,0.4236463,-0.37028193,0.440907,0.40967809,-0.40602115,0.444476,0.39775381,-0.38024679,0.447687,0.38469061,-0.35060316,0.438179,0.38292092,-0.33356845,0.438786,0.40044198,-0.3292501,0.443301,0.39342401,-0.2887495,0.436632,0.38896913,-0.27721814,0.433297,0.38849894,-0.26716134,0.430266,0.4211353,-0.32971303,0.439888,0.41669416,-0.28696024,0.434976,0.41345496,-0.27197767,0.432111,0.41478835,-0.26207822,0.430064,0.43829323,-0.33392136,0.437178,0.43299999,-0.29386629,0.430213,0.43020451,-0.27726916,0.42665,0.4276827,-0.26196226,0.423411,0.45872327,-0.34593402,0.434171,0.44940871,-0.31497684,0.427235,0.44510592,-0.30044675,0.424049,0.44134149,-0.28796128,0.421237
0.41757815,-0.41158496,0.438896,0.4150989,-0.3649059,0.437434,0.40090353,-0.40058912,0.441365,0.39049722,-0.37535629,0.444325,0.3754833,-0.3452465,0.433649,0.37814446,-0.33098752,0.436582,0.39347089,-0.32365425,0.439668,0.38547884,-0.28371445,0.432858,0.38029797,-0.27309906,0.429453,0.3784463,-0.26347175,0.426358,0.41401162,-0.32378957,0.436118,0.40918167,-0.28112055,0.431323,0.40526379,-0.26609742,0.428526,0.40506515,-0.25734298,0.426528,0.43113082,-0.32775435,0.433324,0.42469982,-0.2874041,0.426036,0.42114998,-0.27064031,0.422308,0.42054376,-0.25719508,0.418919,0.45166563,-0.33954209,0.430271,0.44129694,-0.30837209,0.423142,0.43649973,-0.29375257,0.419867,0.43459128,-0.28313063,0.416977
0.41106084,-0.41039192,0.438857,0.40585448,-0.36500833,0.43859,0.39431994,-0.39927066,0.441293,0.37985614,-0.37589413,0.442835,0.36298735,-0.34641053,0.433892,0.35938603,-0.33033463,0.435257,0.38594962,-0.32607436,0.441512,0.37860846,-0.28630103,0.435518,0.3740481,-0.27533141,0.432521,0.37413727,-0.26504436,0.429797,0.40684087,-0.32604263,0.438349,0.40233986,-0.2837969,0.434293,0.3990195,-0.26837647,0.431927,0.40120445,-0.25753677,0.430237,0.42417464,-0.32978143,0.43577,0.41844615,-0.28947223,0.429356,0.4154143,-0.27249725,0.426074,0.4173304,-0.25727818,0.423091,0.4448561,-0.34113578,0.43278,0.43527463,-0.30979841,0.426391,0.43083947,-0.29510914,0.423456,0.43159905,-0.283131,0.420866
0.40869131,-0.40958881,0.437967,0.40544191,-0.36469548,0.438049,0.39198927,-0.39860994,0.440471,0.37932805,-0.37546118,0.442149,0.36221688,-0.34575251,0.432911,0.35870695,-0.32977598,0.43438,0.38580298,-0.32599043,0.441271,0.37874329,-0.28641544,0.435602,0.37432318,-0.27554036,0.432768,0.37307451,-0.26527744,0.430192,0.40671867,-0.32597133,0.438123,0.40245686,-0.28387625,0.434327,0.39927753,-0.26853636,0.432112,0.39999246,-0.25769215,0.43053,0.42404481,-0.32969981,0.435526,0.4186457,-0.28960272,0.429449,0.41578574,-0.27272172,0.426341,0.41625875,-0.25741436,0.423514,0.44465883,-0.3410007,0.432459,0.43533801,-0.30984224,0.426324,0.43101956,-0.29522251,0.423504,0.43028805,-0.28305411,0.421017
0.40108121,-0.40694396,0.435569,0.39536882,-0.36260954,0.436173,0.38258137,-0.39710546,0.439181,0.36428729,-0.37117336,0.438946,0.34727609,-0.34200254,0.42924,0.34259855,-0.32327977,0.426767,0.37952865,-0.32445841,0.441114,0.37110103,-0.28529133,0.436764,0.36648349,-0.27612127,0.434589,0.36213484,-0.26736391,0.432611,0.39914453,-0.32450077,0.436716,0.39273481,-0.28232529,0.43113,0.38835266,-0.26275341,0.427871,0.3851845,-0.24829493,0.425544,0.41510366,-0.32820515,0.433042,0.40897956,-0.29015042,0.428142,0.40577757,-0.27327638,0.425634,0.40283992,-0.25741572,0.423355,0.43363901,-0.33934814,0.42863,0.42350673,-0.3112807,0.423334,0.41876929,-0.29797751,0.4209,0.41454425,-0.28601182,0.418753
0.39793381,-0.40831697,0.438493,0.39581225,-0.36154109,0.438288,0.38221479,-0.39766495,0.441838,0.35923733,-0.36382104,0.438027,0.34451123,-0.33873283,0.434846,0.34090799,-0.32358222,0.436789,0.3801453,-0.32302283,0.442397,0.36554101,-0.28679233,0.438141,0.35925521,-0.27689609,0.436012,0.35331082,-0.26746541,0.434077,0.39959843,-0.323241,0.438104,0.39149586,-0.28339059,0.431744,0.3862795,-0.26291703,0.428034,0.38250785,-0.24785662,0.425383,0.41550425,-0.32711058,0.434587,0.40742244,-0.29088422,0.429254,0.39975853,-0.27279639,0.426525,0.39929877,-0.25688821,0.424045,0.43412216,-0.33853753,0.430487,0.42022932,-0.30527198,0.424554,0.41445591,-0.29175473,0.421828,0.41225472,-0.28334384,0.419423
0.38962133,-0.4049407,0.439589,0.3934796,-0.35745363,0.439093,0.37458775,-0.39327409,0.442619,0.35206995,-0.36101464,0.438386,0.33402788,-0.33562846,0.431403,0.3332244,-0.31949676,0.431353,0.37981886,-0.31961899,0.442627,0.36434164,-0.29350369,0.437994,0.35762502,-0.27852662,0.435678,0.35079279,-0.26758115,0.433572,0.39876936,-0.32015725,0.438647,0.38780815,-0.28405308,0.431952,0.38117608,-0.26285724,0.428047,0.37637403,-0.24733425,0.425257,0.4142996,-0.3242176,0.435414,0.40351442,-0.29169675,0.430064,0.39517986,-0.27537689,0.427327,0.39261505,-0.25810052,0.424839,0.43248719,-0.33582961,0.431693,0.41888528,-0.30471419,0.425431,0.40981768,-0.28998876,0.422553,0.4067724,-0.27955447,0.420014
0.37194081,-0.39398104,0.427868,0.36894294,-0.35609446,0.429805,0.35663303,-0.38536149,0.433843,0.33700048,-0.36365032,0.433579,0.32224152,-0.33632846,0.42728,0.32375641,-0.31826686,0.427495,0.35910426,-0.32212702,0.438552,0.35502655,-0.28542142,0.436498,0.34743349,-0.27615729,0.435471,0.34017721,-0.26728604,0.434537,0.37496823,-0.31922878,0.431558,0.37062153,-0.27924842,0.427808,0.36482665,-0.25909237,0.42562,0.36058987,-0.24422362,0.424058,0.38779069,-0.32036272,0.425632,0.38400026,-0.28352282,0.422216,0.3819227,-0.26423263,0.420469,0.38002327,-0.246326,0.41888,0.40250452,-0.32831322,0.418358,0.39698002,-0.29478618,0.415059,0.39440619,-0.27926391,0.413543,0.39212859,-0.26548737,0.412205
0.36937797,-0.3952459,0.428331,0.36807438,-0.35484115,0.429335,0.35473558,-0.38695364,0.434549,0.33710662,-0.36432726,0.434406,0.32151935,-0.33735369,0.427576,0.3181366,-0.3197242,0.42622,0.35884832,-0.32044594,0.437816,0.35204575,-0.28386106,0.43548,0.34027673,-0.27638352,0.434313,0.33105502,-0.27007911,0.433251,0.37382496,-0.31739374,0.430243,0.3625411,-0.27914568,0.425765,0.35307638,-0.26092612,0.423154,0.34610073,-0.24742305,0.421288,0.38594474,-0.31846299,0.423922,0.37983992,-0.28115569,0.420204,0.37242867,-0.26139383,0.418302,0.36721284,-0.24463696,0.416572,0.3998755,-0.32645353,0.416331,0.39236616,-0.29295163,0.41259,0.38526061,-0.27822677,0.410871,0.38059272,-0.26569937,0.409355
0.36314367,-0.3949269,0.428005,0.36748382,-0.35365151,0.429291,0.34814561,-0.38763082,0.433715,0.33516594,-0.36218821,0.433003,0.31776695,-0.33457327,0.425892,0.31580873,-0.317697,0.425348,0.35881015,-0.31899654,0.437302,0.34525114,-0.28860696,0.43518,0.33884605,-0.27560133,0.434118,0.33064696,-0.26602555,0.433153,0.37439172,-0.31688271,0.430454,0.36535029,-0.27925462,0.426059,0.35500422,-0.26095294,0.423495,0.34865087,-0.24731664,0.421664,0.38693792,-0.31867263,0.424706,0.37777195,-0.28288117,0.421579,0.37079082,-0.2680382,0.41998,0.3669574,-0.24940854,0.418525,0.4012151,-0.32743079,0.417743,0.38697994,-0.29848826,0.413911,0.38032667,-0.28499662,0.41215,0.37438591,-0.27292104,0.410596
0.36348839,-0.39589756,0.430026,0.36779144,-0.35328762,0.430628,0.34859669,-0.38744583,0.435188,0.33217067,-0.35994767,0.433683,0.31509254,-0.3339638,0.427525,0.30966991,-0.31583168,0.4253,0.35816093,-0.31684218,0.437527,0.33954208,-0.29100509,0.434649,0.33093754,-0.27855849,0.43321,0.32629624,-0.26858341,0.431902,0.37395943,-0.31517355,0.431173,0.35647943,-0.27782894,0.42602,0.35019135,-0.25891325,0.423014,0.34327554,-0.2445176,0.420867,0.38582374,-0.31662349,0.42589,0.37228318,-0.28017497,0.421909,0.36599558,-0.26224028,0.419872,0.36438684,-0.24790838,0.41802,0.40060028,-0.32565731,0.419583,0.38346312,-0.29580119,0.415043,0.3761806,-0.28309266,0.412957,0.37227087,-0.27247269,0.411116
0.36240415,-0.39523882,0.429821,0.36743775,-0.35271939,0.43083,0.34827413,-0.38685164,0.435354,0.33209099,-0.3605046,0.434373,0.31453485,-0.33459356,0.427828,0.30878557,-0.31645388,0.425511,0.3583948,-0.31806158,0.438447,0.34266891,-0.2896867,0.435894,0.33457162,-0.27639159,0.434618,0.32668514,-0.26475661,0.433457,0.37404044,-0.31588539,0.431743,0.35728842,-0.27885927,0.427054,0.35034434,-0.25931888,0.424318,0.34368702,-0.24475929,0.422364,0.38614526,-0.31728112,0.426137,0.37297802,-0.28107045,0.42273,0.36697167,-0.26329666,0.420987,0.36454657,-0.24831383,0.419402,0.40072628,-0.32580178,0.419386,0.38522791,-0.29737454,0.415289,0.37825845,-0.28445956,0.413406,0.372018,-0.272862,0.411745
0.35942278,-0.39714713,0.43228,0.3568208,-0.34784965,0.433194,0.34454263,-0.38413922,0.436687,0.31897131,-0.35500452,0.434337,0.30051878,-0.32820054,0.42623,0.29372566,-0.3089003,0.421636,0.34753954,-0.31307518,0.439328,0.33293101,-0.28665995,0.435874,0.32523553,-0.27279409,0.434147,0.3214459,-0.26173483,0.432577,0.36454511,-0.31201548,0.434021,0.35157763,-0.27732934,0.428919,0.3437887,-0.25629541,0.425942,0.34153978,-0.2429502,0.423816,0.37823422,-0.31456915,0.429573,0.36603427,-0.28151524,0.426095,0.35958291,-0.26390333,0.424316,0.35358464,-0.24744883,0.422698,0.39382632,-0.32407527,0.424199,0.38088554,-0.29699171,0.419478,0.3783864,-0.28565898,0.417309,0.37215421,-0.2740792,0.415395
0.35851075,-0.39704712,0.433169,0.35665252,-0.34800609,0.433539,0.34293016,-0.38380573,0.437097,0.31944385,-0.35405339,0.434076,0.30218955,-0.32702319,0.426466,0.29639591,-0.30789118,0.422428,0.34588541,-0.3123525,0.438733,0.33147533,-0.28534642,0.434654,0.32387653,-0.27139626,0.432615,0.31900828,-0.25972743,0.430761,0.36350059,-0.31161973,0.433873,0.35083647,-0.27636664,0.428165,0.34292175,-0.25597218,0.424835,0.33959148,-0.24231474,0.422456,0.37776745,-0.3144901,0.42984,0.36536024,-0.28097492,0.425675,0.3588179,-0.26316659,0.423544,0.35274795,-0.24655398,0.421607,0.39419277,-0.32445415,0.42504,0.38066465,-0.29790287,0.419745,0.37428427,-0.28527353,0.417312,0.37096857,-0.27429902,0.415165
0.3574539,-0.3965609,0.433389,0.35655186,-0.34801485,0.4336,0.34168962,-0.38340086,0.437164,0.31955898,-0.35369034,0.433932,0.30269683,-0.32657902,0.426476,0.29726096,-0.30753089,0.422658,0.34530886,-0.31208902,0.438503,0.33100065,-0.28491767,0.434261,0.32344954,-0.27095216,0.432139,0.31805523,-0.25894009,0.430211,0.3631242,-0.31146361,0.43379,0.35057994,-0.27603846,0.427902,0.3426344,-0.2558658,0.424468,0.33872242,-0.24214809,0.422014,0.37757942,-0.31443672,0.429892,0.3651186,-0.28078179,0.425515,0.35855394,-0.26291465,0.423276,0.3524662,-0.24625404,0.42124,0.39427388,-0.32454667,0.425276,0.38056645,-0.29818755,0.419807,0.37410095,-0.28564678,0.417294,0.37030126,-0.27446417,0.415077
0.35657429,-0.39611914,0.433491,0.35649371,-0.3480116,0.433621,0.34078356,-0.3830903,0.437188,0.31960759,-0.35349914,0.433848,0.30293317,-0.32633875,0.426457,0.29768409,-0.30734147,0.42276,0.3450119,-0.31194944,0.438377,0.33075532,-0.28469641,0.434054,0.32323007,-0.27072511,0.431893,0.31751803,-0.25849589,0.429928,0.36292806,-0.31137877,0.433739,0.3504439,-0.27586827,0.427761,0.34248146,-0.25580569,0.424273,0.33819268,-0.24207307,0.421782,0.37747928,-0.31440491,0.429911,0.36499095,-0.28067999,0.425427,0.35841351,-0.2627825,0.423132,0.35231734,-0.24609857,0.421047,0.39430893,-0.32458835,0.425388,0.3805119,-0.29832567,0.419832,0.37400388,-0.28582939,0.417279,0.36986289,-0.27457946,0.415026
0.3548923,-0.39522266,0.434001,0.35606241,-0.34802113,0.433617,0.34008899,-0.38313564,0.437428,0.31949978,-0.35318539,0.433672,0.30326599,-0.32592202,0.426449,0.29847394,-0.3070082,0.422835,0.34382363,-0.3114346,0.437715,0.32926652,-0.28398677,0.43294,0.3215964,-0.26995446,0.430552,0.31435008,-0.2569753,0.428381,0.36193738,-0.31095609,0.433269,0.34906368,-0.27518693,0.426771,0.34086017,-0.25510383,0.422981,0.33466787,-0.24103831,0.420274,0.3767106,-0.31409571,0.429642,0.36375573,-0.28010394,0.424616,0.35694585,-0.26209523,0.422044,0.35064107,-0.24532455,0.419706,0.39391902,-0.3244913,0.425439,0.37969609,-0.29809655,0.419431,0.37299499,-0.28555143,0.41667,0.36857922,-0.2742031,0.414235
0.35052032,-0.3910166,0.429625,0.3534398,-0.34607535,0.431247,0.3370186,-0.38055152,0.434562,0.31899593,-0.35269153,0.432985,0.30326658,-0.32432325,0.425072,0.29846447,-0.30627396,0.422018,0.34011227,-0.31171147,0.438488,0.32703477,-0.2798711,0.436,0.32078095,-0.26410192,0.434756,0.31493424,-0.2493137,0.433624,0.35743126,-0.30982199,0.432715,0.34628892,-0.27396154,0.42838,0.33768148,-0.2496482,0.425851,0.33272225,-0.23348207,0.424045,0.37138446,-0.31169986,0.427822,0.36315905,-0.27951248,0.424802,0.35773842,-0.2621978,0.423257,0.35241638,-0.24581139,0.421853,0.38736545,-0.32035426,0.421813,0.37499318,-0.29647795,0.417799,0.36909673,-0.28499786,0.415956,0.36629922,-0.27425732,0.414329
0.34874293,-0.39005812,0.429665,0.35281728,-0.34590858,0.431078,0.33644046,-0.38060183,0.434687,0.31913311,-0.35288841,0.433169,0.30335458,-0.3242176,0.42488,0.29887429,-0.30617654,0.422023,0.33942102,-0.31154409,0.438298,0.326767,-0.27964194,0.435643,0.3204563,-0.26383463,0.434316,0.3145602,-0.2490176,0.433109,0.35658585,-0.30943389,0.432357,0.34527906,-0.27293959,0.427864,0.33720015,-0.24929235,0.425244,0.33219418,-0.23311151,0.423372,0.37043421,-0.31114581,0.427344,0.36222367,-0.27864718,0.424101,0.35688291,-0.26122811,0.422442,0.35163466,-0.24472687,0.420933,0.38633952,-0.31963134,0.421227,0.37391392,-0.29577067,0.417124,0.36799214,-0.28429789,0.415239,0.36507859,-0.27372107,0.413575
0.33989172,-0.3809878,0.420423,0.34916259,-0.34264844,0.427235,0.32589182,-0.37238016,0.426705,0.31530295,-0.34839337,0.427816,0.30238811,-0.32252383,0.423102,0.30106967,-0.30624378,0.423428,0.33810689,-0.31167479,0.43936,0.32991606,-0.28269503,0.441136,0.32520277,-0.26816817,0.442024,0.32070046,-0.25435163,0.442831,0.35551016,-0.30928771,0.433396,0.34823915,-0.27524566,0.434017,0.34357885,-0.25478611,0.43438,0.34011465,-0.23965223,0.434638,0.3691962,-0.31047016,0.427894,0.36462655,-0.27937135,0.429269,0.3621021,-0.26241847,0.429973,0.36434393,-0.25290846,0.436137,0.38417455,-0.31771808,0.420352,0.37621637,-0.2965257,0.420337,0.37230689,-0.28611586,0.420329,0.37904454,-0.28363931,0.429412
0.34327025,-0.38496159,0.425365,0.34983089,-0.34292927,0.428044,0.33027014,-0.37571111,0.430013,0.31619989,-0.34840644,0.428302,0.30087008,-0.3202224,0.420503,0.29985057,-0.30459421,0.421665,0.33468005,-0.3086435,0.435567,0.32596438,-0.27215548,0.432924,0.31801158,-0.26120596,0.431603,0.31208946,-0.24715657,0.430401,0.35145753,-0.30466086,0.430474,0.34314287,-0.26472041,0.42698,0.33729872,-0.24289218,0.424942,0.33179804,-0.23186252,0.423486,0.36650024,-0.30555331,0.42605,0.36036581,-0.26498553,0.422663,0.357098,-0.24498996,0.42093,0.35410422,-0.22656536,0.419355,0.38494855,-0.30958142,0.420425,0.37837897,-0.27523024,0.416917,0.37447052,-0.2608959,0.415305,0.3709842,-0.24804197,0.413883
0.34467653,-0.38519433,0.42672,0.35268857,-0.33846307,0.428318,0.32984563,-0.3747689,0.429635,0.32496632,-0.34493623,0.425688,0.30656867,-0.3158223,0.415481,0.30025275,-0.30217671,0.419329,0.33149939,-0.30511119,0.432985,0.32430496,-0.26789335,0.428727,0.31779119,-0.25574907,0.426598,0.30912561,-0.2442095,0.424662,0.35167584,-0.30119394,0.429766,0.34170995,-0.2623778,0.424871,0.33495751,-0.24132697,0.422015,0.32889224,-0.228367,0.419976,0.36855872,-0.30183658,0.426978,0.36036953,-0.26503806,0.422386,0.35610965,-0.24565237,0.420037,0.35219255,-0.22767898,0.417901,0.39084575,-0.30648938,0.423449,0.38026789,-0.27567078,0.418482,0.37563912,-0.26098,0.4162,0.3715199,-0.24783866,0.414186
0.34202621,-0.36569087,0.40968,0.34892076,-0.32727669,0.418018,0.32996237,-0.36293726,0.418064,0.32179867,-0.33684104,0.422062,0.30353878,-0.30803038,0.414382,0.30282235,-0.30065011,0.42098,0.34006765,-0.30241551,0.433743,0.3328958,-0.2703228,0.438838,0.33681624,-0.26027394,0.451335,0.34021782,-0.25061799,0.462697,0.35551786,-0.29418797,0.42558,0.34960112,-0.25807044,0.428216,0.34600398,-0.23632317,0.429753,0.34336832,-0.22047593,0.430852,0.36791014,-0.29035141,0.418137,0.36565538,-0.25472939,0.419805,0.3644333,-0.23583091,0.420658,0.36328125,-0.21823993,0.421434,0.38211125,-0.29124887,0.408075,0.37787295,-0.26016435,0.409804,0.37589651,-0.24571903,0.410599,0.37413656,-0.2328868,0.4113
0.33802822,-0.36037825,0.404824,0.35463946,-0.32725943,0.419279,0.32828674,-0.35899562,0.415119,0.32432169,-0.33478346,0.422911,0.33052738,-0.32314015,0.440604,0.33948558,-0.32086073,0.45409,0.35910116,-0.30861513,0.441178,0.35777687,-0.28310247,0.44981,0.35516876,-0.27111772,0.454126,0.35246251,-0.25937231,0.458076,0.37374931,-0.30264015,0.432386,0.37597554,-0.26859764,0.441181,0.37352184,-0.25169858,0.446311,0.37148444,-0.23879106,0.449976,0.38439724,-0.30007416,0.423895,0.39674773,-0.27275241,0.439873,0.40323926,-0.25883364,0.448243,0.40919383,-0.24617066,0.455914,0.39446199,-0.30145147,0.411639,0.40438937,-0.27964572,0.425434,0.40962514,-0.27021222,0.432468,0.41467422,-0.26219439,0.439125
0.38767818,-0.37350257,0.422304,0.38422488,-0.33156939,0.425503,0.37327503,-0.36970119,0.429052,0.35795518,-0.34735158,0.432699,0.3577368,-0.34960851,0.450156,0.35687376,-0.33943875,0.457318,0.36513471,-0.3030392,0.435998,0.35408095,-0.26802532,0.432517,0.34820112,-0.25049923,0.430776,0.34276463,-0.2342304,0.429193,0.38135091,-0.29535248,0.428403,0.36980976,-0.25671343,0.425265,0.36274546,-0.23421689,0.423435,0.35760722,-0.21795755,0.422127,0.39502595,-0.29241718,0.421874,0.3875409,-0.25409555,0.417387,0.38257354,-0.23662491,0.415092,0.37779591,-0.22072498,0.413004,0.4118958,-0.29517783,0.413693,0.40306675,-0.26430319,0.410978,0.39886161,-0.250077,0.40973,0.39454192,-0.24228163,0.40863
0.40021696,-0.3773574,0.42781,0.40158947,-0.33578064,0.431507,0.38036541,-0.36957025,0.429066,0.37549268,-0.3413042,0.424872,0.36543661,-0.33509996,0.437968,0.36574744,-0.32072842,0.441465,0.37358737,-0.30375739,0.435366,0.37983351,-0.27598299,0.449545,0.38287786,-0.26159733,0.456634,0.38560177,-0.24823925,0.463079,0.39651987,-0.30029569,0.434859,0.38956489,-0.26043608,0.431465,0.38563507,-0.23748452,0.429485,0.38353252,-0.22463946,0.428071,0.41604511,-0.30077923,0.43412,0.4120928,-0.26322302,0.430815,0.41005947,-0.24350724,0.429124,0.40820436,-0.22527431,0.427587,0.44026571,-0.30749137,0.432672,0.43487214,-0.27879753,0.428345,0.43237506,-0.26512097,0.426357,0.43056705,-0.25475124,0.424604
0.41614758,-0.38029464,0.434045,0.41478149,-0.3356059,0.435316,0.3928497,-0.36928554,0.431498,0.38444095,-0.33520382,0.422683,0.37054497,-0.32744417,0.432166,0.36847712,-0.31157382,0.433549,0.38458568,-0.29620361,0.432879,0.37492675,-0.25744125,0.426149,0.37202411,-0.24122346,0.422784,0.36938728,-0.22601619,0.419725,0.41125609,-0.2978015,0.436469,0.42523125,-0.27074512,0.454326,0.43336648,-0.25473642,0.464742,0.44024585,-0.24204714,0.472183,0.43378691,-0.302692,0.439313,0.42511036,-0.26322838,0.432368,0.42065258,-0.24269665,0.428814,0.41658985,-0.22382028,0.425584,0.46134874,-0.31506047,0.442459,0.45552653,-0.2811711,0.435129,0.45286626,-0.26538144,0.431762,0.45096159,-0.2519313,0.42879
0.41807417,-0.37732654,0.431323,0.42296238,-0.33413669,0.433284,0.40119485,-0.3668897,0.431123,0.39548122,-0.33730447,0.423805,0.38240127,-0.33075187,0.434523,0.38041635,-0.31540221,0.436483,0.39509285,-0.2977818,0.434235,0.38759514,-0.25836641,0.429266,0.38384991,-0.23870768,0.426781,0.38054541,-0.22091952,0.424522,0.41934763,-0.29692767,0.435062,0.41455522,-0.25790236,0.43523,0.41323336,-0.23585226,0.435328,0.41296441,-0.22043503,0.435398,0.43968261,-0.29974847,0.435572,0.43522113,-0.26267748,0.430398,0.43321044,-0.24342271,0.427751,0.43139825,-0.22548483,0.425344,0.46436691,-0.30948122,0.435864,0.45923507,-0.2803065,0.429822,0.45690102,-0.26644883,0.427046,0.45065277,-0.25168942,0.424597
0.4551486,-0.37572369,0.436163,0.44659689,-0.33284294,0.437244,0.43088598,-0.36479917,0.43239,0.41599013,-0.33147007,0.421185,0.39891736,-0.32404452,0.428529,0.39467202,-0.30771436,0.428804,0.41180488,-0.29442,0.433139,0.42168308,-0.26774167,0.448153,0.42767117,-0.2535292,0.455659,0.43454096,-0.24004887,0.462484,0.43914845,-0.29534574,0.438224,0.43527555,-0.26241342,0.445263,0.44032595,-0.24399571,0.44937,0.44753583,-0.23518603,0.452303,0.46251594,-0.29963473,0.442315,0.45518581,-0.26065299,0.435203,0.45173693,-0.24050926,0.431564,0.44860655,-0.221902,0.428255,0.49163629,-0.31117162,0.446958,0.48462635,-0.27969692,0.439115,0.48142645,-0.26489099,0.435511,0.47861502,-0.25163402,0.432331
0.46431978,-0.37735211,0.441117,0.46122145,-0.33232963,0.441422,0.43824359,-0.36453751,0.43461,0.42794575,-0.32978855,0.420595,0.4116096,-0.31785119,0.425076,0.40553662,-0.30125054,0.423996,0.42587637,-0.29150345,0.433385,0.41620933,-0.25306516,0.43019,0.41789626,-0.2373442,0.428593,0.4195514,-0.22249543,0.427141,0.45497591,-0.29441754,0.441698,0.44802231,-0.25800724,0.444999,0.45240575,-0.23768326,0.446926,0.46131545,-0.22904884,0.448301,0.47965069,-0.30041576,0.448514,0.47468739,-0.2591231,0.443777,0.47669684,-0.24000421,0.441354,0.47867443,-0.22227062,0.439151,0.5099676,-0.31406172,0.456484,0.50561207,-0.28272221,0.447374,0.50369187,-0.2679725,0.443188,0.50204402,-0.25476072,0.439495
0.47926084,-0.37606544,0.442092,0.48433007,-0.33512965,0.444104,0.46337317,-0.363065,0.434504,0.44823861,-0.32948069,0.419971,0.4312613,-0.31676582,0.423507,0.42522711,-0.30005513,0.422383,0.44888836,-0.29352401,0.435751,0.43847032,-0.25852196,0.437248,0.44226077,-0.24328472,0.437996,0.44681775,-0.22963474,0.438677,0.47990507,-0.29794655,0.445929,0.46875906,-0.25583617,0.441033,0.46719078,-0.2326927,0.438177,0.4687443,-0.21739595,0.436138,0.50606977,-0.30512578,0.454131,0.50768004,-0.2653554,0.452937,0.50864746,-0.2451576,0.452459,0.50952483,-0.22683181,0.452025,0.53790256,-0.32009214,0.463464,0.51675168,-0.28291125,0.455314,0.5194877,-0.27269699,0.451569,0.52637163,-0.27414585,0.448265
0.5199378,-0.37866029,0.454746,0.51139979,-0.33519943,0.453842,0.49343007,-0.36570894,0.447672,0.48036247,-0.33495565,0.432829,0.46178682,-0.32394707,0.436531,0.45644051,-0.30736725,0.434901,0.47325952,-0.29338872,0.444346,0.46516215,-0.25772549,0.445248,0.46541332,-0.24091618,0.445699,0.46566317,-0.22516574,0.446109,0.50378322,-0.2965006,0.453023,0.49006973,-0.2532878,0.444461,0.48732715,-0.23056651,0.439467,0.48618735,-0.21452611,0.4359,0.52988707,-0.30272795,0.460243,0.51520605,-0.26061955,0.450951,0.51114423,-0.24057845,0.446196,0.50747492,-0.22207634,0.441874,0.56229338,-0.31683153,0.468879,0.54215648,-0.28176202,0.458807,0.53930076,-0.2690867,0.454179,0.53684116,-0.25767917,0.450096
0.51964388,-0.37653549,0.451628,0.52089595,-0.3360453,0.454107,0.49311171,-0.36263185,0.443839,0.48606009,-0.33120444,0.42926,0.46817477,-0.31916291,0.432624,0.46397904,-0.30263145,0.431527,0.48710966,-0.29348436,0.445786,0.49241999,-0.26090025,0.454012,0.49506017,-0.24445319,0.458125,0.49745285,-0.22941432,0.461865,0.51907438,-0.2990269,0.456354,0.51309078,-0.2588788,0.456008,0.51157765,-0.23559632,0.455807,0.51508872,-0.22012639,0.455663,0.54581011,-0.30713374,0.464837,0.53246853,-0.26693761,0.461695,0.53493258,-0.2481206,0.460087,0.54153569,-0.23397756,0.458625,0.57788187,-0.32320797,0.474427,0.57370479,-0.28821377,0.472296,0.57179707,-0.2723752,0.471317,0.5716686,-0.25856162,0.470454
0.5241525,-0.37586662,0.451867,0.53006972,-0.33321974,0.454411,0.49979557,-0.36342389,0.446011,0.49731375,-0.33178071,0.433182,0.48065586,-0.32161883,0.438657,0.47474464,-0.30660616,0.438419,0.49796072,-0.29252858,0.448574,0.50198684,-0.25857274,0.454811,0.50409325,-0.24156083,0.45802,0.50601593,-0.22604805,0.460948,0.52777493,-0.29627475,0.456719,0.51869073,-0.25990208,0.459674,0.52103131,-0.23821251,0.461398,0.52708054,-0.22428478,0.46263,0.55267375,-0.3028907,0.463202,0.54184226,-0.26515742,0.463765,0.542657,-0.24923276,0.464053,0.54891256,-0.23449871,0.464315,0.58253836,-0.31713281,0.470428,0.57225371,-0.28663902,0.471232,0.57259467,-0.27245109,0.471602,0.57807351,-0.26292832,0.471928
0.53303138,-0.37776884,0.453805,0.5331973,-0.33601583,0.455792,0.50700172,-0.3639162,0.446324,0.49958809,-0.33472791,0.431876,0.48458455,-0.32179552,0.435527,0.48429471,-0.30582679,0.434444,0.49926838,-0.29639287,0.447557,0.49324517,-0.26123383,0.449916,0.49790052,-0.24518757,0.451095,0.50784232,-0.23643575,0.452167,0.52994709,-0.29882111,0.457593,0.52341323,-0.26219919,0.458681,0.52597602,-0.2401843,0.459316,0.52914432,-0.22443718,0.459769,0.55677992,-0.30623111,0.465682,0.54876336,-0.26743076,0.462979,0.54721776,-0.24716566,0.461596,0.55190966,-0.23145615,0.460338,0.58924314,-0.32151173,0.474884,0.57173876,-0.2859319,0.466737,0.57179877,-0.2711303,0.462993,0.56531018,-0.25654938,0.45969
0.53226238,-0.37932333,0.456567,0.53311489,-0.33637467,0.457245,0.50562065,-0.36504339,0.448605,0.50028507,-0.33509062,0.433379,0.48528714,-0.32153276,0.436334,0.48473004,-0.30545747,0.434714,0.497649,-0.29326379,0.447598,0.4935097,-0.25752778,0.449483,0.49676563,-0.24104181,0.450425,0.50777477,-0.23588958,0.451281,0.52976775,-0.29848507,0.45786,0.52222123,-0.26009146,0.459277,0.52743538,-0.23935682,0.460104,0.5334418,-0.22556374,0.460694,0.5568125,-0.30640448,0.466247,0.56716438,-0.27160111,0.47307,0.57311751,-0.25393762,0.476561,0.57853279,-0.23784688,0.479735,0.58956935,-0.3224193,0.476007,0.57275736,-0.28619565,0.466844,0.57080118,-0.27080496,0.462635,0.56523542,-0.25635298,0.45892
0.53214576,-0.37977276,0.457954,0.53199583,-0.33776336,0.459101,0.50564213,-0.36505205,0.449872,0.49999196,-0.33603235,0.43467,0.48618936,-0.32192255,0.43755,0.48590784,-0.30604554,0.435994,0.49878726,-0.29231305,0.449592,0.49905549,-0.25601275,0.451468,0.50798244,-0.24034596,0.452406,0.51954133,-0.23350877,0.453259,0.53206122,-0.29971974,0.460141,0.53784335,-0.26276306,0.46558,0.54648198,-0.241742,0.468753,0.5530889,-0.22644368,0.47102,0.5593224,-0.30831249,0.468724,0.56828794,-0.272794,0.473848,0.57342952,-0.25456144,0.476469,0.57810517,-0.23797559,0.478852,0.59173882,-0.32589369,0.47864,0.58599915,-0.29161289,0.472657,0.58440873,-0.27506091,0.469909,0.58300066,-0.26048109,0.467483
0.5316599,-0.37990579,0.458716,0.53041813,-0.33742338,0.45982,0.50564438,-0.36515649,0.450911,0.5002404,-0.33636036,0.435939,0.48605957,-0.3226278,0.439124,0.48520611,-0.30667835,0.437679,0.49952151,-0.29264375,0.450636,0.50110301,-0.25630535,0.45314,0.50958192,-0.24139522,0.454392,0.52136669,-0.23466889,0.45553,0.53244284,-0.30001233,0.460822,0.53817092,-0.26313525,0.466234,0.54677592,-0.24207173,0.46939,0.5533547,-0.22674255,0.471645,0.55935911,-0.30874377,0.469111,0.56804426,-0.27301392,0.473782,0.5730018,-0.25463202,0.476172,0.57750999,-0.23791279,0.478345,0.59109696,-0.32641914,0.478687,0.58483237,-0.29119277,0.472424,0.5836445,-0.27487042,0.469545,0.58207782,-0.26022774,0.467006
0.53238519,-0.3806797,0.460101,0.5325135,-0.33849232,0.46085,0.50636332,-0.3656777,0.45222,0.50083992,-0.33756582,0.437085,0.48801084,-0.32310517,0.44014,0.48772277,-0.3072169,0.438574,0.50002761,-0.29290255,0.451351,0.50145359,-0.25674583,0.453847,0.50981104,-0.24177795,0.455095,0.52149431,-0.23497009,0.45623,0.53295916,-0.30034354,0.46153,0.53854103,-0.26350343,0.466922,0.54699676,-0.24240032,0.470068,0.55346164,-0.22704503,0.472314,0.55992461,-0.30928802,0.469843,0.56782898,-0.27310297,0.473842,0.57265345,-0.25452646,0.475888,0.57723425,-0.23762796,0.477748,0.59169353,-0.32717074,0.479505,0.58536847,-0.29143701,0.47291,0.58368304,-0.27488409,0.469881,0.58186374,-0.2601549,0.467207
0.53263635,-0.38105792,0.460908,0.53276461,-0.33875045,0.461449,0.50664135,-0.36588005,0.452987,0.5011772,-0.33789724,0.437761,0.48841841,-0.32325867,0.440744,0.48800927,-0.30729074,0.439108,0.50030234,-0.29303838,0.451771,0.50159946,-0.25695108,0.454174,0.50984651,-0.24193186,0.455376,0.5214312,-0.23506351,0.456469,0.53321864,-0.30051851,0.461941,0.53875703,-0.26370274,0.467293,0.54711633,-0.24256875,0.470415,0.55351219,-0.22719507,0.472646,0.56020717,-0.30960973,0.470264,0.56765083,-0.27313274,0.473837,0.57237989,-0.25443446,0.475664,0.57699194,-0.23742534,0.477326,0.59199183,-0.32761716,0.47997,0.58568457,-0.29158074,0.473197,0.58374826,-0.2749126,0.470086,0.58179727,-0.26013661,0.46734
0.53235363,-0.38100526,0.461218,0.53163411,-0.33842959,0.46199,0.50678707,-0.36602441,0.453702,0.49992575,-0.33825687,0.438895,0.48904544,-0.32416081,0.442356,0.48841623,-0.30819201,0.440954,0.50053645,-0.29321575,0.452965,0.50280912,-0.25763572,0.45545,0.51146876,-0.24280951,0.456693,0.52279019,-0.23479964,0.457822,0.53265037,-0.30029602,0.46269,0.53682581,-0.26352466,0.467314,0.54632799,-0.24255691,0.470011,0.55299804,-0.22742725,0.471937,0.56008227,-0.30969237,0.470628,0.5671282,-0.27293878,0.473876,0.57181014,-0.25415277,0.475538,0.5764324,-0.23706039,0.477049,0.59171129,-0.32692179,0.479844,0.58490797,-0.29119239,0.473237,0.58341951,-0.27462625,0.470201,0.58170159,-0.25993743,0.467522
0.53358071,-0.38136771,0.462354,0.53198418,-0.33871748,0.46266,0.50782222,-0.36587979,0.454565,0.50016754,-0.33848859,0.439393,0.48890236,-0.32405558,0.442493,0.48804997,-0.30793815,0.440856,0.49997337,-0.29303613,0.453004,0.50311371,-0.25783496,0.455846,0.51220989,-0.24323302,0.457267,0.52350815,-0.23454095,0.458559,0.53241039,-0.30027226,0.462938,0.53607948,-0.26324654,0.467039,0.54544142,-0.24238864,0.469431,0.55227574,-0.22742679,0.47114,0.56019444,-0.30987238,0.471087,0.56686297,-0.27285219,0.473994,0.57144292,-0.25396924,0.475481,0.57601076,-0.23679064,0.476833,0.5923175,-0.32742433,0.480625,0.58504363,-0.29118807,0.473514,0.58316072,-0.27441669,0.470246,0.58128867,-0.25964846,0.467363
0.53482213,-0.38211509,0.464107,0.53286896,-0.33889304,0.463722,0.50904007,-0.36645506,0.456345,0.50155275,-0.33912687,0.441014,0.48980356,-0.32375414,0.444049,0.49008486,-0.30827644,0.44225,0.50008403,-0.29332843,0.453674,0.50402758,-0.25847898,0.456985,0.5135278,-0.24406361,0.458641,0.52489617,-0.23491006,0.460146,0.53234516,-0.30039733,0.463372,0.53518664,-0.2635305,0.46698,0.54458764,-0.24229011,0.469085,0.55090925,-0.2277787,0.470589,0.5600765,-0.30993736,0.471388,0.5659305,-0.27285375,0.474063,0.57091486,-0.25378459,0.475431,0.5754272,-0.23654648,0.476675,0.59161252,-0.32757339,0.480878,0.58365786,-0.29046399,0.472659,0.58062653,-0.27349466,0.468883,0.57782216,-0.25885278,0.465551
0.53510018,-0.38315559,0.465843,0.53277303,-0.33940415,0.46478,0.50891722,-0.36699837,0.457714,0.50177715,-0.33881561,0.441881,0.48905908,-0.32242754,0.444418,0.48980459,-0.30757221,0.442289,0.499792,-0.29333392,0.453852,0.50397038,-0.25858124,0.457166,0.5135672,-0.24423562,0.458824,0.52478947,-0.23467334,0.46033,0.53241533,-0.30056288,0.463815,0.53487103,-0.26343253,0.46701,0.54400275,-0.2422407,0.468873,0.55039319,-0.22772726,0.470204,0.56027264,-0.31045867,0.472109,0.56590191,-0.27286796,0.474302,0.57054138,-0.25365752,0.475423,0.57484171,-0.23630249,0.476443,0.59228182,-0.32863925,0.482031,0.58396978,-0.2905917,0.473125,0.5805404,-0.27340466,0.469033,0.57748565,-0.25860623,0.465422
0.53394038,-0.38314307,0.466668,0.53341516,-0.33988333,0.465569,0.50783145,-0.3667599,0.45856,0.50244634,-0.33894983,0.442736,0.48971381,-0.32245021,0.44529,0.49015995,-0.30714861,0.443161,0.50027458,-0.29375875,0.454645,0.50443775,-0.25892332,0.457771,0.51400829,-0.24456457,0.459333,0.52502721,-0.23463292,0.460754,0.53293308,-0.30095611,0.464572,0.53472309,-0.26296902,0.466987,0.54318482,-0.24204045,0.468395,0.54940108,-0.22744621,0.469401,0.56024769,-0.31064263,0.472838,0.56641556,-0.27285554,0.474662,0.57045662,-0.25365105,0.475595,0.57459729,-0.23619936,0.476443,0.59292713,-0.32900791,0.482734,0.58439839,-0.29076714,0.473707,0.58097516,-0.27356981,0.46956,0.57819929,-0.25856,0.4659
0.52783767,-0.37900642,0.462377,0.53397642,-0.34012635,0.466836,0.50795069,-0.36676407,0.459765,0.50195986,-0.33495749,0.459702,0.48586431,-0.30464957,0.449001,0.48244284,-0.28631754,0.446724,0.51062677,-0.29351754,0.466276,0.50089122,-0.25576764,0.463356,0.5074441,-0.2447887,0.461896,0.52270105,-0.23680133,0.460569,0.5391265,-0.30422013,0.470879,0.53574749,-0.26370716,0.47043,0.5449156,-0.24293062,0.470168,0.55036447,-0.22771629,0.46998,0.56139347,-0.31124101,0.474281,0.56434693,-0.27173696,0.474789,0.5678019,-0.25214137,0.475049,0.57150798,-0.2343176,0.475286,0.5860783,-0.32550339,0.477582,0.58340895,-0.29021565,0.473046,0.58227587,-0.27398532,0.470962,0.58220461,-0.26006141,0.469123
0.52733451,-0.37862567,0.462483,0.53276521,-0.3390448,0.467332,0.50739707,-0.36620803,0.459921,0.50044723,-0.33501028,0.459509,0.48436337,-0.30466991,0.448744,0.48161795,-0.28614161,0.445928,0.51034492,-0.29412345,0.467075,0.50148233,-0.25540745,0.463512,0.5070684,-0.24264968,0.461731,0.51412339,-0.23492386,0.460111,0.53822101,-0.30343924,0.471729,0.53434155,-0.26310845,0.47089,0.53911789,-0.24159967,0.4704,0.54950226,-0.22910207,0.47005,0.56167055,-0.3113329,0.475138,0.55071414,-0.26763596,0.471455,0.55359818,-0.24881371,0.46957,0.56080519,-0.23660722,0.467857,0.58644863,-0.32577303,0.478388,0.58249406,-0.28985101,0.473974,0.58186226,-0.27391417,0.471946,0.58276029,-0.26048693,0.470157
0.52733513,-0.37820852,0.462839,0.53327816,-0.33880749,0.46793,0.50726439,-0.36554364,0.460226,0.50011626,-0.33432618,0.459256,0.48330774,-0.30378708,0.447948,0.48079621,-0.28515919,0.444627,0.51135802,-0.29389471,0.467756,0.50269147,-0.25541979,0.464435,0.50795968,-0.24025185,0.462775,0.51957864,-0.23572872,0.461265,0.53871004,-0.30003059,0.472546,0.53446518,-0.2626971,0.471355,0.54148774,-0.2422191,0.47066,0.5494073,-0.22854828,0.470164,0.56138819,-0.31063798,0.476046,0.55598442,-0.2678014,0.472869,0.55839115,-0.2485257,0.471244,0.56349237,-0.23391757,0.469766,0.58723086,-0.32593671,0.479365,0.58317385,-0.29010505,0.47501,0.58172225,-0.27370949,0.473009,0.58292113,-0.26054233,0.471244
0.52650943,-0.37728091,0.462572,0.53321986,-0.33833201,0.467994,0.50648406,-0.36447191,0.460033,0.49990775,-0.33395569,0.45909,0.48278763,-0.30335086,0.447557,0.48031938,-0.28462929,0.443916,0.51188831,-0.29379321,0.468118,0.5034753,-0.25551681,0.465062,0.50877329,-0.2403564,0.463534,0.51848588,-0.23524618,0.462145,0.53924808,-0.29993847,0.47291,0.53432474,-0.2622913,0.471485,0.54113411,-0.24177204,0.470654,0.54906814,-0.22885732,0.47006,0.56175338,-0.31047587,0.476385,0.55610107,-0.2678268,0.473472,0.55895691,-0.24881243,0.471982,0.5647378,-0.23469196,0.470628,0.58712528,-0.32566028,0.479621,0.58330399,-0.29010443,0.475491,0.58159338,-0.27364165,0.473594,0.58268044,-0.2604274,0.47192
0.52568791,-0.37635617,0.462309,0.53309274,-0.33792065,0.468007,0.50571157,-0.3634279,0.459857,0.49971659,-0.33377706,0.458995,0.48232587,-0.3031167,0.447287,0.4798539,-0.28441101,0.443645,0.51214288,-0.29380439,0.468411,0.50392874,-0.25569678,0.465612,0.50921425,-0.24059294,0.464213,0.51705407,-0.23474362,0.462941,0.53948095,-0.29989808,0.473173,0.5332383,-0.2606185,0.472328,0.54031189,-0.24075143,0.471835,0.55037627,-0.22990091,0.471482,0.56191293,-0.3102868,0.476599,0.55424205,-0.26753106,0.47387,0.55767736,-0.24893183,0.472474,0.56484047,-0.23463698,0.471205,0.58679219,-0.32524717,0.479734,0.58334388,-0.29003253,0.475758,0.58261861,-0.27414763,0.473931,0.58264154,-0.26034056,0.472319
0.52522728,-0.37569845,0.462277,0.53288124,-0.33728643,0.468079,0.50522884,-0.36255493,0.459771,0.4995503,-0.33363204,0.458896,0.48199658,-0.30294707,0.447087,0.47951624,-0.28424928,0.443439,0.51217331,-0.2937319,0.468479,0.50407546,-0.25573781,0.465835,0.509361,-0.24067919,0.464513,0.51730193,-0.23476257,0.463312,0.53962669,-0.29986575,0.47334,0.53330217,-0.26057802,0.472487,0.54030356,-0.24064566,0.47199,0.54994182,-0.23002802,0.471635,0.56197772,-0.30992545,0.476838,0.55450884,-0.26757422,0.474169,0.55782327,-0.24888909,0.472804,0.56487648,-0.23458676,0.471563,0.58689293,-0.32511819,0.480042,0.5831648,-0.2898801,0.476068,0.58244768,-0.27403623,0.474243,0.58259099,-0.26033083,0.472632
0.52465795,-0.37532869,0.462391,0.53226624,-0.33671504,0.467986,0.50439569,-0.36174424,0.459569,0.49940808,-0.33372179,0.458773,0.48188791,-0.30299163,0.446902,0.47949702,-0.28428477,0.44322,0.51130001,-0.29348727,0.467859,0.50332866,-0.2557798,0.465615,0.50892741,-0.24169832,0.464493,0.51699465,-0.23519778,0.463474,0.53916878,-0.30156364,0.473059,0.53401931,-0.26191915,0.472047,0.54093134,-0.24149417,0.471457,0.54815405,-0.22935781,0.471036,0.5615679,-0.30963852,0.476854,0.55431777,-0.26767752,0.473886,0.55725846,-0.24878792,0.472367,0.56342421,-0.23387154,0.470986,0.58681927,-0.32529421,0.48044,0.58293574,-0.2899617,0.476276,0.58216868,-0.27409086,0.474364,0.58222568,-0.26034856,0.472676
0.52405968,-0.3749383,0.462445,0.5319572,-0.33630064,0.468082,0.50378451,-0.36106183,0.459519,0.4992864,-0.33377912,0.458667,0.48158182,-0.3028838,0.446555,0.47933791,-0.28422554,0.442922,0.51114355,-0.29358971,0.46785,0.50294936,-0.25590297,0.465617,0.50850708,-0.24178931,0.4645,0.51664076,-0.23546821,0.463485,0.53912172,-0.30118765,0.473194,0.53401818,-0.26187314,0.472613,0.54115093,-0.24159153,0.472274,0.54846286,-0.22947582,0.472032,0.56156097,-0.30953807,0.477103,0.55465314,-0.26797949,0.474087,0.55743198,-0.2489734,0.472544,0.56304059,-0.2336282,0.471142,0.58682832,-0.32551634,0.480817,0.5830794,-0.29020939,0.476665,0.58239637,-0.27435748,0.474758,0.58248856,-0.26061484,0.473075
0.52345141,-0.37454078,0.462491,0.53166072,-0.33589419,0.468189,0.5031772,-0.36038201,0.459473,0.49916938,-0.3338087,0.458564,0.48125946,-0.30274679,0.446207,0.47915638,-0.28414523,0.442637,0.51105906,-0.2936907,0.467877,0.50265383,-0.25599842,0.465618,0.50816226,-0.24185149,0.464489,0.51633041,-0.2356625,0.463462,0.53910576,-0.30082958,0.473356,0.5340672,-0.26185177,0.473223,0.54143312,-0.24171683,0.473146,0.54884291,-0.22962363,0.47309,0.56157674,-0.30945027,0.477371,0.55501393,-0.26825908,0.474331,0.55767912,-0.24916495,0.472776,0.56286025,-0.23348792,0.471362,0.58684492,-0.3257425,0.4812,0.58324641,-0.29046865,0.477073,0.58265358,-0.27463795,0.475176,0.58278714,-0.26089711,0.473503
0.52284332,-0.37414344,0.462538,0.53131321,-0.33545554,0.468251,0.50255077,-0.35968829,0.45941,0.49925368,-0.33395134,0.458645,0.48122951,-0.30278063,0.44614,0.47945288,-0.28434294,0.442817,0.5108958,-0.29371651,0.467811,0.50300458,-0.25637409,0.466163,0.50882547,-0.2423485,0.465339,0.51735875,-0.23640124,0.46459,0.53899218,-0.30041761,0.473432,0.53454389,-0.26204004,0.474212,0.54245646,-0.24217302,0.474667,0.55019979,-0.23018009,0.474992,0.56150224,-0.30931286,0.477562,0.55523997,-0.26845035,0.474474,0.55779773,-0.24928111,0.472894,0.56261932,-0.23333562,0.471457,0.58678977,-0.3259288,0.481524,0.58333158,-0.29068711,0.477414,0.58282739,-0.27487911,0.475526,0.58299711,-0.26113969,0.473859
0.52288302,-0.37444298,0.462946,0.5311504,-0.33556281,0.46841,0.5023623,-0.35978061,0.459567,0.49882818,-0.33382459,0.4584,0.48065284,-0.30256938,0.445713,0.47875422,-0.28392817,0.441973,0.51033178,-0.29350433,0.467499,0.50208906,-0.25603726,0.465598,0.50759058,-0.24161292,0.464647,0.51610234,-0.23599402,0.463783,0.5386441,-0.30037933,0.473365,0.53420246,-0.26207457,0.474229,0.54192669,-0.24194861,0.474732,0.54950135,-0.22974263,0.475092,0.56136264,-0.30943396,0.477719,0.55504589,-0.26842221,0.474268,0.55731879,-0.24911765,0.472502,0.56138259,-0.23323522,0.470897,0.58694349,-0.32627121,0.481983,0.58343023,-0.29087757,0.477681,0.58289855,-0.27500959,0.475704,0.58297137,-0.26119059,0.47396
0.5231779,-0.37507009,0.463689,0.53114258,-0.33595283,0.468892,0.50263058,-0.36042511,0.460385,0.49342666,-0.33586072,0.460126,0.48130113,-0.30327594,0.44662,0.47941589,-0.2845821,0.442804,0.50907541,-0.29456501,0.467915,0.50231373,-0.25637593,0.466077,0.50641031,-0.24310515,0.465159,0.51607506,-0.23595351,0.464323,0.53722503,-0.30141676,0.47361,0.53460646,-0.26226056,0.474572,0.54239956,-0.24214176,0.475133,0.54967561,-0.22945535,0.475534,0.55982735,-0.3104626,0.477846,0.55549784,-0.26940321,0.474232,0.55715938,-0.24902827,0.472383,0.56056496,-0.23251028,0.470702,0.58530864,-0.32731138,0.482012,0.58340738,-0.29099856,0.477916,0.58293152,-0.27512552,0.476034,0.58298032,-0.26127885,0.474374
0.52257808,-0.37538546,0.463751,0.53042539,-0.3362117,0.468887,0.50212436,-0.36085027,0.460626,0.49382558,-0.33613226,0.460498,0.48115599,-0.30364487,0.44685,0.4795069,-0.28507741,0.443267,0.50847792,-0.29480527,0.468095,0.50161311,-0.25635792,0.465719,0.50585482,-0.24303554,0.464531,0.51449443,-0.23540378,0.463451,0.53653487,-0.30147965,0.473544,0.53437866,-0.26243747,0.474533,0.5421085,-0.24225977,0.47511,0.54899219,-0.22899056,0.475522,0.55908355,-0.31038324,0.477583,0.55522028,-0.26938937,0.473953,0.55664195,-0.2490095,0.472096,0.55950401,-0.23196085,0.470407,0.58454028,-0.32707675,0.481528,0.58276747,-0.29102738,0.477502,0.58244521,-0.2751765,0.475652,0.58255423,-0.26133506,0.474019
0.52199727,-0.37571468,0.46383,0.5297391,-0.33648982,0.468909,0.50161804,-0.3612754,0.460867,0.4941666,-0.33636438,0.460816,0.48093114,-0.30396356,0.447006,0.47951214,-0.28552211,0.443651,0.50809348,-0.29502189,0.468288,0.50092094,-0.25634436,0.465369,0.50527488,-0.24290491,0.46391,0.51291928,-0.23485626,0.462583,0.53604081,-0.30153975,0.473515,0.53419239,-0.26263506,0.474531,0.54185839,-0.2423962,0.475123,0.54835178,-0.22854407,0.475546,0.5585156,-0.31031806,0.477377,0.55499022,-0.2693685,0.473725,0.5561796,-0.2490158,0.471856,0.55849859,-0.23143457,0.470158,0.58391182,-0.32687155,0.481122,0.58217877,-0.29108179,0.47713,0.58198949,-0.27524201,0.475295,0.58214403,-0.26139841,0.473677
0.5214737,-0.37608529,0.46396,0.52913282,-0.33679858,0.468969,0.50106615,-0.36164555,0.461056,0.49444005,-0.33655051,0.461071,0.48072128,-0.30423068,0.447124,0.47958403,-0.28590341,0.443936,0.50773066,-0.29515308,0.468379,0.50032914,-0.25631655,0.465017,0.50472466,-0.24275558,0.463336,0.5115749,-0.23434677,0.461808,0.53567888,-0.30159896,0.473512,0.53411843,-0.26284364,0.474538,0.54173203,-0.24254145,0.475137,0.54784011,-0.22810684,0.475565,0.5581736,-0.3103227,0.477302,0.5548539,-0.269373,0.473584,0.55601124,-0.24914961,0.471682,0.55789864,-0.23120205,0.469953,0.58362655,-0.32682598,0.480974,0.58184666,-0.29130307,0.477032,0.58160213,-0.2754058,0.475221,0.58155233,-0.26143993,0.473623
0.52062467,-0.37622943,0.463935,0.52829579,-0.33692961,0.468916,0.50006335,-0.36167764,0.460972,0.49774792,-0.33609624,0.46065,0.48031262,-0.30411002,0.446811,0.47965385,-0.28601698,0.443977,0.50712528,-0.29500647,0.468234,0.49952352,-0.25608755,0.464495,0.50401064,-0.24259955,0.462626,0.51017864,-0.2342224,0.460926,0.53524192,-0.30150522,0.473433,0.53417731,-0.26315543,0.474775,0.54191482,-0.24284862,0.475558,0.54776511,-0.22786844,0.476117,0.55789872,-0.31027763,0.47728,0.55471026,-0.26929481,0.473466,0.55582432,-0.24920494,0.471515,0.55726167,-0.23087966,0.469741,0.58357056,-0.32685409,0.481023,0.58165289,-0.29156105,0.477108,0.58132001,-0.27559216,0.47531,0.58103861,-0.26149735,0.473723
0.52015446,-0.37627818,0.464003,0.52779792,-0.33695846,0.468973,0.49958291,-0.36177143,0.461163,0.4974523,-0.33624809,0.460998,0.48021619,-0.30412675,0.4469,0.47975784,-0.2861377,0.444244,0.50660611,-0.29512829,0.46844,0.49956626,-0.25597974,0.464474,0.5039712,-0.24284233,0.462491,0.50975576,-0.23409418,0.460689,0.53471831,-0.30153086,0.47348,0.53411605,-0.26315745,0.4748,0.5417652,-0.24281358,0.47557,0.54752289,-0.22778928,0.47612,0.55739069,-0.3102277,0.477198,0.55466376,-0.26930908,0.473415,0.55572511,-0.24916405,0.47148,0.5571862,-0.2308358,0.469721,0.58310567,-0.32672652,0.480791,0.5811337,-0.29139759,0.476978,0.58070117,-0.27540284,0.475226,0.58033313,-0.26130206,0.47368
0.52021141,-0.37670888,0.464542,0.52739778,-0.33704981,0.469117,0.49915352,-0.36190212,0.461401,0.49688729,-0.33621767,0.461096,0.47994257,-0.30403122,0.446824,0.47945366,-0.28601497,0.444133,0.50534702,-0.29481795,0.46796,0.49861525,-0.25536275,0.463529,0.50279523,-0.24253758,0.461313,0.5080571,-0.2333801,0.459299,0.53389929,-0.30138961,0.473265,0.5335914,-0.26293114,0.474413,0.54104733,-0.2425238,0.475083,0.54663592,-0.22744184,0.475562,0.55702026,-0.31025449,0.477234,0.55418134,-0.26911178,0.472992,0.5548914,-0.24879389,0.470822,0.55609998,-0.23037322,0.468849,0.58339954,-0.32702439,0.481185,0.58088137,-0.29136793,0.477067,0.58012365,-0.27523297,0.475175,0.57946943,-0.2610351,0.473506
0.51918677,-0.37665125,0.464305,0.52516855,-0.33700035,0.468773,0.49822212,-0.36194918,0.461369,0.49494148,-0.33650239,0.461636,0.47907382,-0.30434308,0.447258,0.47917188,-0.28629767,0.444671,0.50279885,-0.29490731,0.467809,0.49858688,-0.25535438,0.463544,0.50292122,-0.2427646,0.461412,0.50798067,-0.23296138,0.459474,0.53147955,-0.30129677,0.472824,0.53171542,-0.26197339,0.472657,0.53936468,-0.24197943,0.47256,0.54450671,-0.22683369,0.47249,0.55478186,-0.31002518,0.476564,0.55360675,-0.26895081,0.472448,0.55434563,-0.24857774,0.470342,0.55557679,-0.23012224,0.468427,0.58148266,-0.32667932,0.480263,0.57989063,-0.29121475,0.476775,0.57940549,-0.27521156,0.475173,0.57899057,-0.2611328,0.473759
0.5182734,-0.37667487,0.464168,0.5246228,-0.33687127,0.468519,0.49720748,-0.36193585,0.46126,0.49454136,-0.33644916,0.461554,0.4786847,-0.3042371,0.447118,0.47871224,-0.28647472,0.445045,0.50224625,-0.29473505,0.467519,0.49816049,-0.2551422,0.463189,0.50251752,-0.24273624,0.461025,0.5072496,-0.23224222,0.459057,0.53084056,-0.30110093,0.472464,0.53065911,-0.26141966,0.47163,0.53825346,-0.24164981,0.471144,0.54334613,-0.2266854,0.470797,0.55407645,-0.30981484,0.476157,0.55309081,-0.26881858,0.471954,0.55373036,-0.24833043,0.469803,0.55486751,-0.22979415,0.467848,0.58071235,-0.32645992,0.479819,0.57949389,-0.29135962,0.476971,0.57928684,-0.27547454,0.475662,0.5791189,-0.26150398,0.474508
0.51739712,-0.37672626,0.464065,0.52417295,-0.33675956,0.468304,0.4962166,-0.36193978,0.461173,0.49419074,-0.33638589,0.46146,0.47832834,-0.30412373,0.446964,0.47814989,-0.28659055,0.445324,0.50176978,-0.29457706,0.467255,0.49773519,-0.25493055,0.462835,0.50210074,-0.24270172,0.460626,0.5064933,-0.23151181,0.458617,0.53029688,-0.30092578,0.472147,0.52972874,-0.26092798,0.470715,0.53716933,-0.24128376,0.469879,0.54239371,-0.22662471,0.469283,0.55348266,-0.30963002,0.475806,0.55262071,-0.26870888,0.471499,0.55315275,-0.24810007,0.469296,0.55418662,-0.22947787,0.467293,0.58007354,-0.32627159,0.479445,0.57913607,-0.29152404,0.477199,0.57918775,-0.27574679,0.476167,0.57924751,-0.26187516,0.475257
0.5165972,-0.37644999,0.463675,0.52351589,-0.33655258,0.467997,0.49549622,-0.36168621,0.460844,0.49361292,-0.33615102,0.461193,0.47787179,-0.30386677,0.446662,0.47769046,-0.28644216,0.445285,0.50129788,-0.29442763,0.467078,0.49754059,-0.25487523,0.462785,0.50202433,-0.24266398,0.460639,0.50652865,-0.2314879,0.458688,0.52977128,-0.30077428,0.471917,0.5288699,-0.26047686,0.469896,0.53638322,-0.24111178,0.468717,0.5416609,-0.22664809,0.467876,0.55289768,-0.30947168,0.475525,0.55245552,-0.26864467,0.47134,0.55308971,-0.24802578,0.469199,0.55413989,-0.22936243,0.467253,0.57939109,-0.32609391,0.47909,0.57890136,-0.29162044,0.477292,0.57925648,-0.27596787,0.476465,0.57958206,-0.26219962,0.475736
0.51614017,-0.37642379,0.463593,0.52297394,-0.33641966,0.467793,0.49501008,-0.36160373,0.460733,0.49324318,-0.33593113,0.460904,0.47762058,-0.30357891,0.446301,0.47744764,-0.28618038,0.445031,0.50067568,-0.29418995,0.466761,0.49699234,-0.25463873,0.462406,0.50153292,-0.24261054,0.460229,0.5061174,-0.23174274,0.458249,0.5291502,-0.30056862,0.471602,0.5269969,-0.25942746,0.468045,0.53528505,-0.24114984,0.46597,0.54094288,-0.22745489,0.464488,0.55228825,-0.30929968,0.475223,0.55204533,-0.26846132,0.470972,0.5526671,-0.24779027,0.468797,0.55362715,-0.2290542,0.46682,0.57881378,-0.32597545,0.478822,0.57857721,-0.29167158,0.477311,0.57921684,-0.27611668,0.476617,0.57983135,-0.26243518,0.476005
0.5147827,-0.37574069,0.462702,0.52211679,-0.33608394,0.467307,0.49395458,-0.36110524,0.460092,0.49300828,-0.33580309,0.460741,0.47748501,-0.3033645,0.446048,0.47776054,-0.28625161,0.445295,0.50047809,-0.29420183,0.46684,0.49743937,-0.25491218,0.462953,0.50233929,-0.24318511,0.46101,0.50728899,-0.23272347,0.459243,0.52874784,-0.30048721,0.471482,0.52752425,-0.25955979,0.468326,0.5361519,-0.24153139,0.466484,0.54207601,-0.22800703,0.465169,0.55165905,-0.30911658,0.474904,0.55224823,-0.26857616,0.471127,0.5531876,-0.24797759,0.469195,0.55436078,-0.22926167,0.467438,0.57781599,-0.32562006,0.478206,0.5780341,-0.29161206,0.477149,0.57904849,-0.27620406,0.476663,0.5800319,-0.26264872,0.476234
0.51481697,-0.3760735,0.463062,0.52170652,-0.33603588,0.467221,0.49367521,-0.36117422,0.460174,0.4924555,-0.33545857,0.460281,0.47692978,-0.30288347,0.445403,0.47700601,-0.28568317,0.444564,0.49943258,-0.29371524,0.466128,0.49599986,-0.25421877,0.461744,0.500706,-0.24257843,0.459552,0.5055024,-0.23234698,0.457559,0.52792947,-0.30016939,0.470991,0.52668447,-0.25901926,0.467393,0.53498043,-0.24099724,0.465293,0.54071656,-0.22748924,0.463794,0.55108676,-0.3089654,0.474634,0.55137745,-0.2681688,0.470366,0.55204458,-0.2474192,0.468182,0.55288978,-0.22855755,0.466197,0.57763491,-0.32572496,0.478266,0.57791039,-0.29176398,0.477333,0.57911837,-0.276405,0.476905,0.58030916,-0.26289707,0.476526
