sluyters/QuantumLeap/backend/src/datasets/gesture/HandGestureDataset_SHREC2017_csv/Gesture6/finger_2/subject_16_essai_2_skeletons_world.csv
Wrist_x,Wrist_y,Wrist_z,Palm_x,Palm_y,Palm_z,thumb_base_x,thumb_base_y,thumb_base_z,thumb_first_joint_x,thumb_first_joint_y,thumb_first_joint_z,thumb_second_joint_x,thumb_second_joint_y,thumb_second_joint_z,thumb_tip_x,thumb_tip_y,thumb_tip_z,index_base_x,index_base_y,index_base_z,index_first_joint_x,index_first_joint_y,index_first_joint_z,index_second_joint_x,index_second_joint_y,index_second_joint_z,index_tip_x,index_tip_y,index_tip_z,middle_base_x,middle_base_y,middle_base_z,middle_first_joint_x,middle_first_joint_y,middle_first_joint_z,middle_second_joint_x,middle_second_joint_y,middle_second_joint_z,middle_tip_x,middle_tip_y,middle_tip_z,ring_base_x,ring_base_y,ring_base_z,ring_first_joint_x,ring_first_joint_y,ring_first_joint_z,ring_second_joint_x,ring_second_joint_y,ring_second_joint_z,ring_tip_x,ring_tip_y,ring_tip_z,pinky_base_x,pinky_base_y,pinky_base_z,pinky_first_joint_x,pinky_first_joint_y,pinky_first_joint_z,pinky_second_joint_x,pinky_second_joint_y,pinky_second_joint_z,pinky_tip_x,pinky_tip_y,pinky_tip_z,
0.54374084,-0.37446006,0.590069,0.52626704,-0.32418875,0.569214,0.52059222,-0.36258397,0.586339,0.4873369,-0.34299017,0.56573,0.44917078,-0.31786123,0.536908,0.42830242,-0.29622886,0.524211,0.47911845,-0.27252535,0.550196,0.44497583,-0.23382837,0.523567,0.42808324,-0.21321779,0.510252,0.42840641,-0.20438269,0.517604,0.50226915,-0.27004079,0.549353,0.47113331,-0.23121401,0.5189,0.45281367,-0.20768925,0.501136,0.45739808,-0.19836964,0.508106,0.52429331,-0.27252513,0.550906,0.49781996,-0.23854391,0.524245,0.4841559,-0.2198336,0.510604,0.47172199,-0.20261474,0.498203,0.55540799,-0.28724468,0.556629,0.53850815,-0.26005031,0.532401,0.53039262,-0.24868021,0.521269,0.5229995,-0.23936916,0.511447
0.54470701,-0.37559885,0.590739,0.52604335,-0.32451153,0.569469,0.52103426,-0.3634168,0.586712,0.48741732,-0.3433011,0.565619,0.44829362,-0.31694558,0.537425,0.42679487,-0.29537974,0.522135,0.4786592,-0.27223897,0.549781,0.44437465,-0.23346244,0.522724,0.42729978,-0.21432692,0.509196,0.42621456,-0.20817543,0.516326,0.50216375,-0.27014713,0.549211,0.46990854,-0.22840066,0.518292,0.45166269,-0.20717802,0.500256,0.4562187,-0.19926874,0.507005,0.52446376,-0.27298531,0.551034,0.49741451,-0.23839663,0.523923,0.48347285,-0.21959606,0.510052,0.47078633,-0.20230641,0.497442,0.55596006,-0.28751506,0.557149,0.53856357,-0.2601163,0.53253,0.53026115,-0.24852572,0.521219,0.52273201,-0.23893292,0.511238
0.54487225,-0.37628427,0.590585,0.52585936,-0.32494166,0.569542,0.52246761,-0.3649291,0.586064,0.48686646,-0.34422129,0.564358,0.44776448,-0.31786766,0.535949,0.42580106,-0.29556747,0.521559,0.47830951,-0.27222037,0.549365,0.44482328,-0.23547854,0.521717,0.43316181,-0.21832808,0.507893,0.43252207,-0.20868957,0.514911,0.5025027,-0.27065936,0.549501,0.47057165,-0.22842916,0.518691,0.45253031,-0.20630735,0.500719,0.4572419,-0.19784092,0.50756,0.52537798,-0.27470415,0.551881,0.49886485,-0.23823798,0.524594,0.48884314,-0.21763434,0.510633,0.47285033,-0.2024162,0.497941,0.557481,-0.28866941,0.558599,0.54112041,-0.2624175,0.533938,0.53676254,-0.25432797,0.522608,0.52714461,-0.24377045,0.51261
0.54448724,-0.37658471,0.589895,0.52555447,-0.3252564,0.569357,0.52297023,-0.366897,0.585247,0.48603774,-0.34422817,0.563481,0.4466607,-0.31782352,0.535091,0.42483906,-0.29564765,0.520962,0.47840002,-0.27246667,0.549358,0.44887524,-0.23747154,0.521961,0.43392951,-0.21925073,0.508262,0.43698199,-0.21060399,0.515473,0.50290792,-0.27120583,0.549797,0.47172401,-0.2285821,0.519448,0.45526452,-0.20465506,0.501744,0.45922773,-0.19798639,0.50883,0.52612748,-0.27606808,0.552372,0.50036562,-0.23862796,0.525449,0.49041108,-0.21924046,0.511675,0.47600611,-0.20306138,0.499153,0.55824923,-0.28948336,0.559221,0.54441497,-0.26736741,0.534801,0.53808327,-0.25639962,0.52358,0.53260345,-0.24661085,0.51368
0.54627808,-0.37813672,0.590024,0.52578146,-0.32566618,0.569519,0.52297962,-0.36722295,0.58536,0.48637628,-0.34468734,0.56358,0.44680854,-0.31823904,0.535167,0.42479891,-0.29599556,0.520825,0.47878054,-0.27273441,0.549521,0.44976374,-0.23782256,0.522161,0.43491941,-0.21966442,0.508481,0.43809955,-0.21108607,0.51571,0.50342207,-0.27204273,0.54999,0.47308799,-0.22763915,0.519669,0.45648872,-0.20483592,0.501982,0.46107858,-0.19707472,0.509083,0.52666641,-0.27647382,0.552586,0.50353001,-0.23927638,0.525614,0.49213814,-0.22285985,0.511814,0.48044252,-0.20543747,0.499269,0.55881454,-0.28993238,0.559453,0.54540432,-0.26798606,0.535047,0.53917188,-0.25715568,0.523834,0.53378069,-0.24748927,0.513939
0.54834169,-0.37989654,0.590351,0.52550098,-0.32567509,0.569068,0.52359849,-0.36790244,0.586059,0.48751564,-0.34564933,0.564609,0.44803627,-0.31933464,0.536499,0.42566384,-0.29687501,0.521771,0.4785882,-0.27262596,0.549026,0.44935754,-0.23743653,0.521142,0.43433474,-0.21919935,0.507201,0.43728833,-0.21052011,0.514088,0.50263995,-0.27164966,0.548798,0.47198581,-0.22644386,0.517807,0.45509564,-0.20384924,0.499729,0.45887746,-0.1973122,0.506461,0.52541089,-0.27583649,0.550904,0.50256466,-0.24040409,0.523368,0.4911043,-0.22571368,0.50928,0.4800467,-0.21090639,0.496472,0.55708363,-0.28907612,0.557349,0.54143178,-0.26940932,0.532599,0.53179165,-0.26234788,0.521228,0.52427478,-0.25439353,0.511195
0.55091032,-0.38344636,0.592037,0.52576703,-0.32880153,0.569189,0.52498862,-0.36966109,0.587684,0.48898741,-0.34858971,0.565847,0.44995008,-0.32106332,0.538614,0.42733635,-0.29873884,0.523341,0.48176479,-0.27858272,0.548006,0.453641,-0.23446249,0.518505,0.44009001,-0.21959506,0.503755,0.44479539,-0.21557928,0.509751,0.50575122,-0.27852396,0.547429,0.47412061,-0.230952,0.514938,0.45658877,-0.21049792,0.495985,0.46231319,-0.2067235,0.501898,0.52813792,-0.28319697,0.549417,0.50363767,-0.25165328,0.52079,0.4911929,-0.23603949,0.506144,0.47991499,-0.22166645,0.492829,0.55950498,-0.29753267,0.556018,0.53652795,-0.28274413,0.530262,0.52601951,-0.27593262,0.518428,0.51677731,-0.26991289,0.507987
0.55095607,-0.38524175,0.593173,0.52577904,-0.32831793,0.569746,0.52525274,-0.37122675,0.588939,0.4897834,-0.34810955,0.567156,0.45073582,-0.32164874,0.539721,0.42785532,-0.2985873,0.524466,0.48000582,-0.27474906,0.548324,0.45253949,-0.2331801,0.518885,0.43582637,-0.218152,0.504165,0.43774364,-0.21071499,0.510011,0.50468694,-0.2750771,0.547434,0.47640588,-0.23870351,0.514425,0.45883349,-0.21604615,0.495169,0.46274566,-0.20699369,0.500772,0.52828451,-0.28263206,0.549225,0.5031691,-0.25096309,0.520178,0.49042442,-0.23526189,0.505317,0.47887,-0.22081685,0.491806,0.55937578,-0.29725266,0.555709,0.53473748,-0.28244762,0.529646,0.52318507,-0.27587874,0.517671,0.51300195,-0.27007934,0.507105
0.5488794,-0.38569044,0.592586,0.52672798,-0.33072114,0.570315,0.52329751,-0.37122853,0.58816,0.4887673,-0.34918349,0.566334,0.44936442,-0.32100161,0.538254,0.42663393,-0.29828251,0.522746,0.48188067,-0.27591949,0.549427,0.45496183,-0.2336085,0.520603,0.44329261,-0.22022343,0.506191,0.44869019,-0.216345,0.512548,0.50792318,-0.2788015,0.549104,0.48196862,-0.22396181,0.517141,0.46752484,-0.20810659,0.498497,0.47498889,-0.22028474,0.504712,0.53029492,-0.2842613,0.551237,0.50633243,-0.25290664,0.523214,0.49420964,-0.23737132,0.508877,0.48323325,-0.22309547,0.495843,0.56124164,-0.29949804,0.5579,0.53568779,-0.286483,0.532472,0.52305882,-0.28409059,0.520789,0.51300756,-0.27637203,0.51048
0.5509455,-0.38857593,0.595458,0.52814883,-0.33279646,0.571697,0.52458817,-0.37316789,0.590012,0.48856638,-0.34949444,0.566553,0.44904786,-0.32134764,0.538217,0.4261249,-0.29830031,0.522459,0.48360662,-0.27765167,0.54847,0.4569614,-0.2323363,0.518013,0.44723035,-0.21954089,0.502785,0.44996928,-0.21576671,0.508247,0.50860819,-0.27941899,0.549067,0.48567338,-0.22647589,0.515479,0.47169975,-0.21048611,0.495886,0.47534282,-0.22009948,0.501251,0.53172935,-0.28566468,0.55212,0.51023595,-0.25984922,0.522461,0.49862265,-0.24632935,0.507287,0.4882469,-0.23475398,0.493493,0.56361572,-0.30435119,0.560129,0.53754647,-0.296936,0.533353,0.52519833,-0.29291416,0.52105,0.51430332,-0.2894124,0.510194
0.55044857,-0.38982165,0.59564,0.52806549,-0.33589081,0.571745,0.52430335,-0.37408698,0.590179,0.48822618,-0.34967549,0.566676,0.44885342,-0.32182659,0.538377,0.42600282,-0.29861984,0.522646,0.48402115,-0.27767092,0.548408,0.46034049,-0.23312932,0.51764,0.4482245,-0.21880464,0.502256,0.45461156,-0.21479237,0.507589,0.50896313,-0.27973703,0.548988,0.48508578,-0.22865091,0.515271,0.47070112,-0.21185589,0.495603,0.47588598,-0.21880219,0.500894,0.532157,-0.28689173,0.55204,0.50999728,-0.26001809,0.522254,0.49828345,-0.24641719,0.507015,0.48780235,-0.23477232,0.49316,0.56381782,-0.30506491,0.560075,0.53703083,-0.29654406,0.53321,0.52460697,-0.2927192,0.520867,0.51364368,-0.28939358,0.509975
0.55091053,-0.39260594,0.597838,0.52836785,-0.33808339,0.573467,0.52448728,-0.37596694,0.59169,0.48509621,-0.35078356,0.567202,0.44820951,-0.32157668,0.538458,0.42571525,-0.2982292,0.522423,0.48479758,-0.27824092,0.54891,0.46113036,-0.23342288,0.517554,0.45067142,-0.22009852,0.501875,0.45968278,-0.22200411,0.506871,0.51171678,-0.28303271,0.550256,0.48692062,-0.23273325,0.515956,0.47580215,-0.21560315,0.495948,0.48045582,-0.21865819,0.500919,0.53479496,-0.29129327,0.55399,0.5114668,-0.2616187,0.523659,0.49984428,-0.24768087,0.508141,0.48947464,-0.23579148,0.494033,0.56392185,-0.31468275,0.562906,0.53325701,-0.31244221,0.535474,0.51913689,-0.31153929,0.52287,0.50665994,-0.31081746,0.511749
0.54989608,-0.39438276,0.598499,0.52759828,-0.33979315,0.574127,0.5236197,-0.37712924,0.592063,0.48458585,-0.35094749,0.567205,0.44831304,-0.32175304,0.538293,0.42600954,-0.29789564,0.522194,0.48562638,-0.27916421,0.549196,0.46195253,-0.23403037,0.517779,0.45265806,-0.22269025,0.50207,0.46041792,-0.22248262,0.50703,0.51231366,-0.2844219,0.550915,0.48939744,-0.23525652,0.516562,0.47680255,-0.2164423,0.496523,0.48377609,-0.2197501,0.501461,0.53486352,-0.29620772,0.554957,0.51302998,-0.26622974,0.52447,0.50314515,-0.25579116,0.508872,0.4928125,-0.24118,0.494692,0.56522275,-0.31652096,0.56423,0.53460645,-0.31393133,0.536687,0.52029851,-0.31344434,0.524032,0.50753363,-0.3134189,0.512866
0.54911348,-0.39601775,0.5994,0.5282695,-0.33918364,0.574032,0.52279672,-0.37801612,0.592458,0.48481116,-0.35014515,0.566771,0.448044,-0.31889055,0.538236,0.42947676,-0.29360162,0.522676,0.48446298,-0.27829265,0.547764,0.46173816,-0.23371982,0.515366,0.45129408,-0.22152913,0.499168,0.45856115,-0.22053187,0.503505,0.51162297,-0.28425802,0.549871,0.4910801,-0.24652625,0.514495,0.47856524,-0.22341715,0.49386,0.48472538,-0.21663086,0.498188,0.53476871,-0.29586319,0.55434,0.51195287,-0.26569098,0.522857,0.50072674,-0.25222058,0.506749,0.49075192,-0.24085669,0.492106,0.56572647,-0.31664699,0.564296,0.53404673,-0.31366227,0.53595,0.51920703,-0.31306616,0.522927,0.50591985,-0.31304698,0.511435
0.5478643,-0.39742405,0.599954,0.5281496,-0.33961711,0.574219,0.52176752,-0.37885635,0.592785,0.48466141,-0.34984768,0.566747,0.44845483,-0.31749928,0.538413,0.43012832,-0.29277996,0.523184,0.48445171,-0.27823838,0.547408,0.46241189,-0.23442621,0.514624,0.4518969,-0.22243306,0.498232,0.4581738,-0.22090808,0.502323,0.5116599,-0.28442482,0.54971,0.49056468,-0.2462675,0.513955,0.47782587,-0.22307198,0.493097,0.48466087,-0.21579887,0.497191,0.53505651,-0.29587639,0.554379,0.51186462,-0.26565524,0.522511,0.5010642,-0.25432879,0.506206,0.49108947,-0.24446248,0.491384,0.56628646,-0.31688233,0.564636,0.53416689,-0.31376269,0.535983,0.51910167,-0.31314232,0.522818,0.50559064,-0.31315552,0.511202
0.54663072,-0.39883803,0.600598,0.52816389,-0.34001473,0.574441,0.52073644,-0.37966575,0.593152,0.48457497,-0.34956825,0.566689,0.44880841,-0.3169705,0.538427,0.43074125,-0.29221713,0.523488,0.48564727,-0.27875126,0.546982,0.46299852,-0.23492214,0.513761,0.45160577,-0.22245091,0.49715,0.45769813,-0.22084992,0.500952,0.5117492,-0.28453284,0.54953,0.49038288,-0.24716574,0.513337,0.47845984,-0.22824437,0.492224,0.48442529,-0.21649247,0.496039,0.53542417,-0.29597278,0.554447,0.51187837,-0.26561805,0.522129,0.50090266,-0.25435875,0.505595,0.49078399,-0.244939,0.490563,0.56696742,-0.31725498,0.565072,0.53444173,-0.31394462,0.536062,0.51917519,-0.31325618,0.522733,0.50546932,-0.31323856,0.510972
0.54618333,-0.40026436,0.60194,0.52773911,-0.34149773,0.574984,0.52035344,-0.38042297,0.594147,0.48491101,-0.34971681,0.567118,0.44916809,-0.31756449,0.53872,0.43141826,-0.29216939,0.523931,0.48560415,-0.27865534,0.546532,0.46362758,-0.23549947,0.512566,0.45188515,-0.22280504,0.495583,0.4565914,-0.22008585,0.498868,0.51217099,-0.28582339,0.549312,0.49138021,-0.25056773,0.512327,0.47853869,-0.22959111,0.490752,0.48894082,-0.22870819,0.494055,0.53587766,-0.29629072,0.554507,0.51196176,-0.26624984,0.521438,0.50008289,-0.25422112,0.504519,0.48950499,-0.24495197,0.489138,0.56788032,-0.31795639,0.565604,0.53456089,-0.31418475,0.535989,0.51881083,-0.31425448,0.522382,0.50439804,-0.31508871,0.510377
0.54321167,-0.40007593,0.601153,0.52780979,-0.3417768,0.575439,0.51770729,-0.37953305,0.593087,0.4768666,-0.33880853,0.565927,0.445219,-0.30470801,0.539589,0.42956327,-0.27885619,0.524672,0.48767373,-0.27858428,0.547473,0.46571894,-0.23580977,0.514379,0.45414054,-0.21979414,0.497832,0.46096188,-0.21620326,0.501724,0.5140763,-0.28659352,0.550949,0.49549801,-0.24328206,0.515075,0.47997091,-0.22533679,0.494148,0.49085969,-0.22593517,0.498102,0.53814017,-0.29764698,0.556582,0.51502824,-0.26802178,0.524268,0.50364575,-0.2569464,0.507735,0.49369423,-0.25021628,0.492705,0.57049221,-0.32032473,0.567955,0.53726965,-0.31574049,0.538996,0.51440196,-0.32255652,0.525691,0.49902255,-0.32485827,0.513951
0.54126562,-0.40030014,0.600904,0.52706362,-0.34209519,0.575201,0.51606432,-0.37916671,0.592682,0.47659231,-0.33853628,0.565332,0.44504584,-0.30444789,0.538899,0.42948436,-0.27863808,0.524004,0.48766488,-0.2780277,0.547041,0.46567028,-0.23525781,0.513889,0.45414742,-0.22224554,0.497314,0.45952037,-0.22003975,0.501167,0.51414955,-0.28641478,0.550723,0.49558658,-0.2432654,0.514838,0.4803282,-0.2252502,0.493906,0.49064079,-0.22568485,0.497835,0.53826992,-0.29780169,0.556524,0.51519721,-0.26822053,0.524141,0.50380994,-0.25735027,0.507573,0.49376148,-0.25101271,0.492511,0.57060538,-0.32089337,0.56809,0.53720003,-0.31565674,0.539085,0.51481916,-0.32236785,0.525759,0.49869,-0.32578757,0.514
0.53912581,-0.40022812,0.600422,0.52603945,-0.34211232,0.57478,0.51431564,-0.37862747,0.592197,0.47620226,-0.33843397,0.564854,0.44448525,-0.30435569,0.538194,0.42890773,-0.27859836,0.523276,0.48759781,-0.2775764,0.546657,0.46561777,-0.23491739,0.513551,0.45407813,-0.22181868,0.496998,0.45956242,-0.21966592,0.500881,0.513825,-0.2857413,0.55036,0.49366615,-0.2445866,0.514532,0.4804188,-0.22526775,0.493633,0.49036721,-0.22571565,0.497595,0.53808199,-0.29774859,0.556172,0.51509996,-0.26832017,0.523831,0.50408825,-0.25811393,0.507285,0.49361912,-0.2516583,0.492243,0.57025008,-0.32105227,0.567738,0.53675342,-0.31541944,0.53877,0.51459715,-0.32229668,0.525461,0.49825049,-0.32605192,0.513717
0.53672632,-0.39970715,0.599705,0.52494038,-0.34194612,0.574367,0.51245398,-0.37782309,0.591634,0.47565382,-0.33793466,0.564536,0.4437285,-0.30378107,0.537608,0.42814459,-0.27806015,0.522675,0.48810754,-0.27723692,0.546651,0.46508901,-0.23416676,0.513849,0.4548446,-0.21955599,0.497448,0.46153225,-0.21556139,0.501535,0.51398854,-0.28591322,0.550236,0.49529489,-0.24308176,0.514714,0.48086756,-0.22531539,0.493993,0.49070011,-0.22579418,0.498152,0.53784978,-0.29756919,0.555918,0.51518323,-0.2683731,0.523876,0.50377601,-0.25747025,0.507482,0.49388541,-0.25216466,0.492579,0.56952614,-0.3205199,0.567277,0.53611757,-0.31486614,0.538548,0.51424494,-0.32189683,0.525348,0.49788645,-0.32589282,0.513701
0.52919741,-0.39445283,0.592432,0.52770666,-0.34361074,0.577644,0.50693286,-0.37353237,0.586101,0.4750574,-0.33676962,0.563592,0.44650262,-0.30452097,0.54059,0.43403838,-0.28050226,0.529326,0.50097727,-0.28139592,0.559358,0.48602765,-0.24342718,0.535553,0.47884577,-0.23062626,0.523651,0.49025557,-0.22814749,0.532797,0.52699557,-0.29270967,0.56356,0.5193667,-0.25397483,0.538625,0.5149034,-0.23780048,0.524079,0.52614236,-0.24169042,0.533505,0.55056468,-0.30458367,0.568615,0.53316862,-0.29915755,0.545538,0.51524749,-0.30793858,0.53373,0.49632519,-0.31958043,0.523632,0.57972612,-0.32678775,0.577262,0.55338154,-0.32501446,0.556051,0.53456286,-0.33463133,0.546306,0.52443495,-0.34336943,0.54137
0.52323215,-0.38955977,0.586994,0.5221894,-0.33669429,0.573761,0.50068819,-0.36716772,0.582928,0.47186282,-0.3242263,0.563703,0.44505858,-0.29326574,0.539575,0.4334364,-0.2721533,0.526485,0.50379459,-0.27321765,0.55948,0.48839262,-0.23312403,0.538471,0.48088068,-0.21805635,0.527966,0.49237815,-0.21189918,0.538388,0.52820337,-0.28380521,0.561158,0.52334595,-0.24964935,0.538166,0.51830916,-0.23413945,0.524753,0.52723768,-0.23856516,0.535155,0.54633774,-0.30059161,0.563967,0.53080287,-0.29530554,0.54331,0.51491132,-0.3008466,0.532741,0.51567615,-0.32779294,0.543124,0.57235377,-0.32241451,0.569714,0.54631458,-0.31844351,0.550398,0.52909704,-0.32817185,0.541523,0.53126031,-0.34723413,0.548687
0.5222998,-0.38827452,0.586581,0.521882,-0.33368314,0.573291,0.50213789,-0.36809141,0.582041,0.4718965,-0.32548535,0.562192,0.44443374,-0.29588823,0.537232,0.43027664,-0.27569344,0.524232,0.49628842,-0.27257484,0.558353,0.47945195,-0.23613303,0.536953,0.4714357,-0.21924354,0.526253,0.48239331,-0.21274781,0.536516,0.52214397,-0.28072304,0.560633,0.51696273,-0.24222157,0.537498,0.51238778,-0.22616888,0.524002,0.52655035,-0.23372521,0.534323,0.5440696,-0.29165931,0.563943,0.53015928,-0.29005317,0.542986,0.5160128,-0.29875,0.532264,0.51941967,-0.32248471,0.542514,0.57105358,-0.31251889,0.570283,0.54707939,-0.3120946,0.550747,0.53653303,-0.32381428,0.541772,0.53284647,-0.34139172,0.548842
0.51862554,-0.38472799,0.583022,0.51984832,-0.32910083,0.570651,0.49835877,-0.36389337,0.57886,0.47107819,-0.32674625,0.559748,0.4408789,-0.29905199,0.533218,0.43055436,-0.27574529,0.524354,0.49559262,-0.27089749,0.55683,0.47885636,-0.23613995,0.536399,0.47072047,-0.21928251,0.526184,0.48164862,-0.21412366,0.536874,0.52127376,-0.27896201,0.558869,0.51373403,-0.23424018,0.536738,0.50793498,-0.21550225,0.523828,0.50302887,-0.20625922,0.514607,0.54295739,-0.28978243,0.561882,0.52894695,-0.28896929,0.541865,0.5161851,-0.29802094,0.531623,0.5212635,-0.3221183,0.542297,0.56945109,-0.3104103,0.567705,0.54441876,-0.30698416,0.54895,0.52304588,-0.3154304,0.540334,0.52154769,-0.33208119,0.547729
0.51762252,-0.38299981,0.582433,0.51932711,-0.32785754,0.569806,0.49753547,-0.36194062,0.578464,0.47056455,-0.32481162,0.559529,0.44199921,-0.29503751,0.534127,0.42980163,-0.27508125,0.523436,0.49517785,-0.26966409,0.556062,0.47773498,-0.23519663,0.53558,0.46917554,-0.21822682,0.525339,0.47968235,-0.21336801,0.535997,0.52060581,-0.27756615,0.55778,0.51204156,-0.23261114,0.535422,0.50521519,-0.21568848,0.52238,0.4968277,-0.21234431,0.513064,0.54210865,-0.28826766,0.560556,0.52705799,-0.28621254,0.540436,0.51474634,-0.29645918,0.530142,0.52030623,-0.32051664,0.540769,0.56843749,-0.30878612,0.566151,0.54099348,-0.30382254,0.547292,0.52097789,-0.31348281,0.538628,0.51956268,-0.330125,0.545981
0.51880173,-0.38169144,0.583272,0.51587393,-0.32127466,0.564032,0.49795871,-0.36079114,0.577909,0.46925725,-0.32372265,0.5555,0.43585671,-0.29491151,0.527064,0.42363053,-0.27224862,0.516161,0.48378566,-0.26182119,0.543983,0.45250158,-0.22351391,0.517605,0.43789417,-0.20523052,0.504416,0.44339531,-0.20364798,0.512183,0.50747563,-0.26432901,0.545708,0.4830001,-0.21861521,0.516481,0.46865654,-0.19728249,0.499432,0.45840495,-0.18319688,0.487255,0.53062846,-0.27277257,0.549201,0.5227897,-0.22291466,0.52312,0.51001968,-0.21972625,0.509775,0.51081153,-0.24000667,0.51745,0.5612413,-0.29134058,0.556873,0.52735878,-0.28689848,0.533012,0.5079936,-0.29694119,0.522048,0.50431203,-0.31534911,0.527126
0.52464587,-0.37394117,0.582135,0.51809629,-0.31520154,0.562119,0.50172396,-0.3546714,0.576607,0.47505679,-0.32311764,0.553809,0.43686065,-0.29205967,0.525848,0.42361053,-0.27073161,0.515481,0.47774935,-0.2580524,0.541329,0.44374866,-0.2210529,0.514275,0.42819665,-0.20449047,0.500748,0.43599752,-0.20128591,0.508142,0.50373615,-0.26134571,0.543056,0.47780586,-0.21625707,0.513042,0.46281886,-0.19503193,0.495534,0.45224553,-0.18310001,0.483028,0.52640875,-0.26575576,0.546636,0.51317647,-0.21401504,0.51982,0.50087958,-0.21087035,0.506101,0.50523457,-0.23477142,0.513381,0.55898513,-0.2815837,0.554553,0.52646302,-0.27831273,0.530122,0.50905669,-0.2892184,0.518896,0.50670615,-0.30846095,0.523683
0.52117452,-0.36908603,0.576449,0.51310341,-0.31086372,0.556936,0.49665872,-0.35060956,0.570986,0.47371894,-0.32301272,0.548384,0.43334675,-0.29268696,0.51933,0.41821798,-0.2676089,0.509065,0.47122285,-0.25372334,0.536572,0.43859898,-0.21284154,0.509924,0.42460005,-0.20042252,0.4966,0.42899729,-0.19644996,0.504225,0.49734234,-0.25578801,0.538353,0.46934114,-0.20710614,0.508842,0.45430459,-0.18621977,0.491627,0.44532044,-0.17962964,0.47933,0.52113096,-0.26201044,0.541923,0.50846153,-0.21107831,0.515709,0.49572478,-0.21042746,0.502297,0.50014415,-0.23320272,0.509869,0.55336828,-0.27787346,0.549734,0.5237241,-0.26550322,0.525656,0.50169372,-0.27275896,0.514593,0.49648793,-0.28717088,0.519562
0.53207595,-0.36360579,0.579577,0.51307273,-0.30525307,0.558184,0.50706308,-0.34787617,0.574455,0.47766034,-0.32120529,0.551886,0.44211369,-0.29676102,0.522279,0.42442291,-0.27798481,0.508976,0.46847803,-0.25139184,0.536987,0.42847824,-0.21416457,0.509263,0.41182703,-0.20177621,0.495401,0.41403771,-0.20148267,0.502303,0.49169244,-0.25027711,0.53781,0.45890299,-0.20173782,0.50654,0.44023067,-0.17564064,0.4883,0.42849275,-0.16586174,0.47527,0.51522108,-0.25439857,0.540793,0.49941974,-0.20322894,0.51297,0.48922582,-0.20810182,0.498734,0.4930285,-0.22917618,0.505415,0.54751077,-0.26745976,0.548277,0.52076242,-0.26620643,0.523118,0.4994777,-0.27286598,0.511558,0.49400787,-0.28706221,0.515916
0.54441717,-0.35186054,0.586793,0.51567091,-0.29956581,0.560203,0.51925847,-0.34116097,0.582962,0.49487165,-0.32188478,0.561226,0.46068618,-0.30234092,0.534205,0.43556845,-0.28308861,0.518544,0.46528428,-0.25014834,0.537157,0.42427288,-0.21177718,0.506681,0.40652775,-0.20070388,0.491444,0.40658107,-0.20102696,0.495909,0.48799869,-0.2471416,0.534878,0.44776121,-0.19500889,0.499061,0.42618277,-0.17324052,0.478168,0.41445261,-0.16092667,0.463245,0.50903466,-0.24628477,0.535867,0.48832215,-0.19378061,0.5088,0.47769267,-0.19495248,0.494952,0.48344552,-0.21750853,0.501998,0.54116945,-0.2554907,0.542013,0.51196422,-0.25884255,0.514244,0.49795905,-0.25918936,0.501485,0.49952941,-0.27188831,0.503876
0.54508248,-0.34720136,0.586381,0.51497023,-0.29286148,0.558012,0.52047404,-0.33788068,0.583215,0.49632407,-0.32101479,0.562205,0.46346684,-0.30351581,0.536834,0.43885394,-0.28456192,0.520606,0.46271152,-0.24857156,0.534625,0.42044117,-0.20994411,0.502842,0.40192814,-0.19852755,0.48695,0.40049739,-0.19770506,0.490215,0.48345633,-0.24296936,0.530993,0.44251899,-0.19158726,0.493791,0.42009771,-0.16906401,0.472089,0.4044699,-0.15498794,0.456588,0.50450079,-0.24313389,0.53106,0.47532935,-0.19857365,0.497051,0.46182985,-0.18694016,0.479652,0.4672393,-0.18319872,0.482022,0.53558029,-0.25131281,0.536469,0.50449716,-0.24723433,0.508019,0.49021693,-0.24617609,0.494947,0.49189178,-0.25526134,0.496529
0.55291436,-0.34268793,0.590316,0.51611208,-0.29214981,0.558635,0.52627165,-0.33475827,0.585427,0.50320393,-0.31936427,0.561712,0.46455283,-0.30273189,0.536533,0.44188061,-0.28428512,0.520843,0.45823185,-0.24720473,0.530756,0.41044061,-0.21123251,0.495721,0.39062193,-0.19942355,0.478203,0.38883218,-0.19482972,0.479225,0.48052479,-0.24159271,0.528463,0.44251964,-0.19209777,0.49735,0.41977075,-0.17092849,0.4792,0.40910121,-0.15604847,0.466236,0.5027366,-0.2414244,0.529989,0.46935797,-0.19559188,0.493166,0.4547833,-0.18323109,0.474326,0.4583391,-0.17847355,0.474563,0.53450732,-0.2442439,0.537716,0.50458684,-0.24079752,0.506664,0.49084463,-0.23928054,0.492396,0.49027734,-0.2501696,0.492278
0.55458936,-0.34082259,0.590647,0.51752566,-0.289733,0.559511,0.52718668,-0.33345363,0.584917,0.50376879,-0.31743683,0.560076,0.46682872,-0.29943462,0.533782,0.44113174,-0.28280564,0.518723,0.45795444,-0.24756637,0.530907,0.4082812,-0.21240197,0.496331,0.38553527,-0.20325601,0.479043,0.38461314,-0.20585291,0.480558,0.4810907,-0.24151855,0.529858,0.43810881,-0.19306749,0.497661,0.41712058,-0.17178645,0.47888,0.4027055,-0.15773283,0.465465,0.50242636,-0.23808523,0.53235,0.46793167,-0.19563,0.496016,0.45034825,-0.18033924,0.477426,0.44028243,-0.17029181,0.460526,0.53532618,-0.23992661,0.541095,0.50331032,-0.23517782,0.509938,0.48859349,-0.23305086,0.495623,0.49730926,-0.2471728,0.495746
0.55695795,-0.33599139,0.590207,0.5184768,-0.28705457,0.559279,0.52831881,-0.33205286,0.584273,0.50799065,-0.31509204,0.559172,0.47054516,-0.29807457,0.532592,0.44252708,-0.28201523,0.517486,0.45727988,-0.24760761,0.53055,0.40358033,-0.21339102,0.495938,0.38387078,-0.20375208,0.478631,0.38321639,-0.20621093,0.480245,0.47890125,-0.23946047,0.529823,0.43385842,-0.19218583,0.497532,0.41217893,-0.17126502,0.478696,0.39814755,-0.1583766,0.465241,0.50039611,-0.23418867,0.532558,0.46484787,-0.19458949,0.496391,0.44909652,-0.17872333,0.477888,0.43615296,-0.1670334,0.461066,0.53296254,-0.23350394,0.541546,0.50391934,-0.22962428,0.510409,0.48982556,-0.23059406,0.496103,0.50042808,-0.24247384,0.496316
0.55644687,-0.3331256,0.588674,0.51701407,-0.286795,0.558321,0.5277618,-0.33008008,0.582307,0.51670263,-0.31180563,0.558905,0.48595051,-0.29680419,0.533148,0.45943882,-0.28039108,0.514912,0.45447557,-0.25429698,0.529419,0.40209229,-0.22115372,0.49438,0.38072943,-0.20620104,0.476861,0.36971658,-0.20124359,0.468658,0.47763189,-0.23972148,0.529414,0.42631704,-0.19614745,0.498719,0.4038089,-0.17540972,0.480814,0.39052556,-0.16345466,0.468025,0.49766204,-0.23308932,0.532681,0.45708475,-0.19369932,0.496934,0.44139197,-0.1778498,0.478645,0.43250247,-0.16589131,0.462019,0.53108214,-0.23308639,0.542178,0.49874426,-0.22518043,0.511167,0.48503309,-0.22191052,0.496918,0.49646331,-0.23174981,0.497374
0.56652259,-0.33049462,0.594239,0.52083968,-0.28539325,0.56126,0.53608988,-0.32776757,0.583897,0.5242903,-0.30866581,0.556852,0.49319962,-0.29315828,0.529512,0.46550428,-0.27794128,0.510629,0.45176932,-0.25504295,0.525396,0.40426038,-0.23101352,0.497069,0.38538059,-0.22059806,0.482905,0.3680921,-0.21106437,0.470029,0.47421931,-0.24221214,0.529851,0.42285283,-0.20360105,0.502748,0.39944414,-0.18348823,0.486938,0.38542367,-0.17063633,0.475645,0.49757296,-0.23533931,0.537073,0.45090276,-0.19414741,0.499109,0.43898928,-0.17849675,0.479686,0.43038823,-0.16687667,0.462028,0.52992158,-0.23127491,0.551656,0.50115382,-0.22144193,0.517811,0.48795628,-0.21694716,0.502261,0.4997512,-0.22307452,0.500648
0.56653194,-0.33161633,0.594403,0.52129946,-0.28662521,0.561724,0.53614192,-0.328679,0.583983,0.5240069,-0.30921699,0.556551,0.49263518,-0.2935414,0.528906,0.46502294,-0.27836709,0.510101,0.45300411,-0.25868858,0.525964,0.40449461,-0.23184283,0.497357,0.3854995,-0.22136779,0.483054,0.36811011,-0.21178244,0.470052,0.4745249,-0.24333728,0.530601,0.42288647,-0.20431173,0.502788,0.40007919,-0.18460816,0.486564,0.38705307,-0.17248233,0.474976,0.49754034,-0.23599954,0.537941,0.45176603,-0.19520535,0.500132,0.43656907,-0.17980047,0.480788,0.42837799,-0.16898499,0.463203,0.53083223,-0.23238179,0.552604,0.50220102,-0.2226194,0.518893,0.48906769,-0.21815875,0.503405,0.50102691,-0.22437304,0.501926
0.57018507,-0.32913034,0.595032,0.52106525,-0.28622472,0.561044,0.54133295,-0.32735213,0.583244,0.53086351,-0.30709637,0.553965,0.4924617,-0.29234332,0.525093,0.46384591,-0.27799388,0.507236,0.45045658,-0.26398179,0.522611,0.39854496,-0.23961683,0.494888,0.38194437,-0.23035193,0.481027,0.37092443,-0.22324828,0.468425,0.47036739,-0.24584816,0.528674,0.41645996,-0.21055078,0.497012,0.39243466,-0.19094475,0.478542,0.37798136,-0.1779235,0.46535,0.48907001,-0.23766034,0.537329,0.44212542,-0.19870599,0.501671,0.42794661,-0.1832774,0.483427,0.41969012,-0.17211167,0.466842,0.52293689,-0.23173364,0.553765,0.49162864,-0.21791992,0.519025,0.47725036,-0.2115763,0.503063,0.48886019,-0.21403955,0.500448
0.56904089,-0.33011916,0.594792,0.51927963,-0.28777389,0.56022,0.54088413,-0.32714525,0.581572,0.52699771,-0.30550046,0.548938,0.49888567,-0.29320158,0.520446,0.47101996,-0.2814073,0.500882,0.44638804,-0.26950055,0.519527,0.39422082,-0.24579854,0.488585,0.37856393,-0.2354149,0.473114,0.36869509,-0.22672281,0.45905,0.46220506,-0.25282995,0.527295,0.40970788,-0.21649042,0.493709,0.3863276,-0.19636259,0.474118,0.37319897,-0.17923433,0.460123,0.4805888,-0.24238801,0.537418,0.43419144,-0.20361605,0.500912,0.42127866,-0.18689783,0.482234,0.41638844,-0.17275797,0.465255,0.51184497,-0.23573961,0.555665,0.48545046,-0.21989436,0.520366,0.47581114,-0.21232148,0.504147,0.48722911,-0.2133182,0.500608
0.56251388,-0.32319481,0.585633,0.51089815,-0.28638117,0.553217,0.53623628,-0.32222725,0.57021,0.50934151,-0.30490425,0.535523,0.47667125,-0.28652988,0.504017,0.45155478,-0.27045782,0.483992,0.43518033,-0.26810139,0.511118,0.38103417,-0.24753894,0.479585,0.37284566,-0.23255716,0.463818,0.36489215,-0.22215176,0.449485,0.44907976,-0.25332233,0.522344,0.38900601,-0.22051452,0.489219,0.37337484,-0.19960191,0.469897,0.36580942,-0.18272559,0.456095,0.4661912,-0.2442292,0.535082,0.41898806,-0.20757163,0.497566,0.40917618,-0.18963386,0.478372,0.40712331,-0.17325446,0.460923,0.49649776,-0.2387056,0.55596,0.47718989,-0.21604807,0.52154,0.46838236,-0.20559356,0.505725,0.48128472,-0.20108758,0.502151
0.55896977,-0.32037863,0.580228,0.50848206,-0.2889659,0.550069,0.53705644,-0.32123187,0.563188,0.51401803,-0.30094942,0.526623,0.48274246,-0.28027556,0.494765,0.45727547,-0.26357057,0.474193,0.43831798,-0.27611484,0.507396,0.38311877,-0.25639164,0.474506,0.37517074,-0.23926879,0.458061,0.36579768,-0.22138863,0.443111,0.4495945,-0.26386724,0.521345,0.38816227,-0.23460243,0.48953,0.37114898,-0.21124907,0.47097,0.3589683,-0.1943843,0.457714,0.46455214,-0.25647493,0.536082,0.4153168,-0.219511,0.49979,0.40434439,-0.19852032,0.481222,0.39773314,-0.17972187,0.464341,0.49224849,-0.25222696,0.558857,0.47323621,-0.22375877,0.525709,0.46455692,-0.21060464,0.510479,0.48109426,-0.20267874,0.506858
0.55585537,-0.3189697,0.575628,0.50834839,-0.30129168,0.547481,0.54480451,-0.32803308,0.558609,0.51017429,-0.30892283,0.522685,0.47875282,-0.28812074,0.490676,0.4542772,-0.27063147,0.470333,0.4372874,-0.28544035,0.506203,0.3820756,-0.26558794,0.473214,0.37407158,-0.24850341,0.456719,0.36683608,-0.23291087,0.441723,0.44901671,-0.27352391,0.520675,0.38824236,-0.24455398,0.489631,0.37158399,-0.22150514,0.471522,0.35965296,-0.20484537,0.458587,0.46415612,-0.26629533,0.535625,0.41600901,-0.22986256,0.500623,0.40559972,-0.20913459,0.482716,0.39952762,-0.19052902,0.466436,0.49173057,-0.26208458,0.558269,0.47372591,-0.23421012,0.526253,0.4655252,-0.22131264,0.511543,0.47834488,-0.21354398,0.508871
0.56278432,-0.33198062,0.570633,0.50537708,-0.30965278,0.544424,0.53945628,-0.33505619,0.553191,0.50537757,-0.31524893,0.517295,0.47776793,-0.29180235,0.486432,0.45323134,-0.27051203,0.466707,0.43627312,-0.29314208,0.503911,0.38791948,-0.266262,0.471256,0.36374009,-0.25282111,0.454929,0.36323239,-0.23398287,0.440086,0.44842952,-0.28225396,0.519463,0.39448413,-0.24114674,0.485857,0.37964231,-0.21446921,0.466254,0.37618872,-0.19627183,0.452252,0.46368916,-0.27581339,0.535095,0.41648874,-0.23911627,0.500744,0.40563231,-0.21804714,0.483168,0.39795901,-0.19891139,0.467191,0.49097106,-0.27246965,0.558165,0.47521355,-0.2441074,0.527355,0.46806411,-0.23096974,0.513199,0.4812087,-0.22318401,0.510985
0.5616983,-0.3420071,0.569925,0.50519143,-0.31961227,0.544224,0.53891235,-0.34497062,0.552699,0.50468882,-0.32494171,0.51659,0.47720219,-0.30153482,0.485856,0.45471335,-0.28189819,0.465706,0.43664194,-0.30336656,0.504337,0.38802649,-0.27630824,0.471386,0.3637249,-0.26278115,0.45491,0.36085575,-0.24580353,0.439932,0.44867469,-0.29241221,0.519747,0.39412606,-0.2508231,0.485416,0.37893881,-0.2239955,0.46539,0.37521883,-0.20569735,0.451086,0.46378535,-0.28591692,0.535206,0.41679066,-0.24930033,0.501107,0.40753454,-0.22830657,0.483661,0.40213337,-0.20941373,0.467801,0.49081009,-0.28249938,0.557982,0.47531087,-0.25439204,0.527463,0.46828574,-0.24137249,0.513442,0.48178786,-0.23384615,0.5116
0.55884943,-0.34442602,0.56796,0.50189897,-0.32083359,0.541135,0.53612007,-0.34656777,0.549799,0.50296797,-0.32434885,0.513165,0.47764573,-0.30063435,0.483392,0.45575165,-0.28058852,0.463248,0.43398955,-0.30313014,0.499267,0.38920058,-0.27715613,0.465243,0.36592171,-0.26272504,0.44823,0.35918527,-0.24285509,0.432765,0.44585733,-0.2964283,0.515588,0.39300359,-0.25109692,0.481967,0.37867581,-0.22363876,0.462356,0.37504424,-0.20470393,0.448347,0.45933511,-0.29116127,0.531919,0.41441352,-0.25041372,0.497861,0.40568035,-0.22875223,0.480436,0.40067848,-0.20924109,0.464595,0.48429004,-0.28931591,0.555917,0.47203188,-0.2556353,0.524857,0.46539673,-0.24188355,0.510586,0.47757072,-0.23331689,0.507469
0.55774358,-0.34515946,0.566881,0.50042642,-0.32093626,0.539394,0.53557643,-0.34734148,0.548705,0.50285638,-0.32372554,0.511736,0.48087513,-0.30067457,0.482657,0.45681922,-0.28031324,0.462542,0.4342144,-0.30595372,0.497057,0.38721657,-0.27728908,0.461775,0.36373712,-0.26295904,0.444134,0.36028869,-0.24390646,0.428096,0.44381857,-0.2962888,0.513216,0.39236573,-0.25383682,0.479103,0.37768286,-0.22567293,0.459204,0.37229253,-0.20486947,0.444991,0.45696677,-0.29088652,0.529484,0.41417963,-0.25187569,0.494863,0.40208036,-0.22973508,0.477149,0.386063,-0.21049564,0.461046,0.48168027,-0.28877568,0.553535,0.46609999,-0.25787257,0.52209,0.45623903,-0.24459791,0.507642,0.47074305,-0.23388115,0.504225
0.5560681,-0.34347583,0.563696,0.49852802,-0.32023069,0.536339,0.53372345,-0.3454144,0.544855,0.50437193,-0.31508886,0.508005,0.47340068,-0.28851104,0.479614,0.44802904,-0.26733938,0.460032,0.43281254,-0.31194241,0.493223,0.37985822,-0.29515333,0.460247,0.36227992,-0.27982499,0.443758,0.35794589,-0.25994722,0.428769,0.44094572,-0.30337415,0.510285,0.38616914,-0.26259165,0.47397,0.36834154,-0.2340173,0.452786,0.35833273,-0.21327065,0.437654,0.45316043,-0.2983253,0.527283,0.41564829,-0.25727358,0.490992,0.40024477,-0.23491764,0.472424,0.38624077,-0.21462687,0.455544,0.4772966,-0.29559062,0.552156,0.46285539,-0.26031679,0.520993,0.45600858,-0.24547241,0.506675,0.46831012,-0.23381593,0.502586
0.54767001,-0.33308178,0.552523,0.49808977,-0.31747062,0.527606,0.53680006,-0.33773906,0.533454,0.50529756,-0.3051064,0.495937,0.47622211,-0.27760622,0.466496,0.4510054,-0.25490787,0.446355,0.43478332,-0.30890956,0.48585,0.37876549,-0.29722668,0.453935,0.36753322,-0.27677259,0.437977,0.35712599,-0.25656972,0.42347,0.44239697,-0.3018086,0.503876,0.38002822,-0.26768961,0.470354,0.367163,-0.23556635,0.450799,0.35818836,-0.21497949,0.436831,0.45109719,-0.29623349,0.521405,0.411378,-0.25744626,0.486528,0.38875193,-0.24081791,0.468684,0.36863666,-0.22338464,0.452461,0.47496557,-0.29362517,0.546436,0.45991853,-0.25884824,0.516801,0.45330031,-0.24388675,0.503184,0.46534948,-0.23236678,0.499865
0.55370374,-0.31903911,0.536478,0.49619232,-0.3121445,0.518863,0.53173423,-0.32390005,0.518084,0.49473396,-0.28018814,0.482753,0.44953885,-0.27121592,0.451211,0.41978352,-0.26910262,0.435867,0.42444675,-0.31760444,0.482944,0.37087416,-0.29140805,0.450818,0.36114304,-0.26918236,0.434755,0.35517933,-0.24778612,0.420152,0.43634882,-0.31089928,0.502086,0.38527706,-0.27277058,0.475043,0.37552664,-0.24528526,0.459268,0.36897084,-0.22544162,0.448,0.45139407,-0.30569115,0.519748,0.43604361,-0.25861248,0.490555,0.43985745,-0.23673075,0.475619,0.44342832,-0.22935707,0.46204,0.47855956,-0.29959818,0.54356,0.45853185,-0.26602093,0.51867,0.45071225,-0.24980356,0.507234,0.46881867,-0.2370032,0.506898
0.55348989,-0.31588637,0.532754,0.49731215,-0.31289133,0.516056,0.53120327,-0.32167265,0.514638,0.49340224,-0.27978109,0.479758,0.44844016,-0.27156378,0.448328,0.42063284,-0.27109312,0.434815,0.42854361,-0.32219568,0.481124,0.37373278,-0.30110579,0.44977,0.36431762,-0.27561623,0.434094,0.35464801,-0.25459883,0.419842,0.43954129,-0.31541291,0.500154,0.38904083,-0.28268669,0.473961,0.37784597,-0.25620363,0.458681,0.37062431,-0.23695051,0.447767,0.45370904,-0.3098789,0.517625,0.4375475,-0.26406297,0.490114,0.44074426,-0.23930156,0.476039,0.44512277,-0.23160936,0.463244,0.47796774,-0.3005612,0.541042,0.45522749,-0.27175853,0.516762,0.44532574,-0.25650169,0.505606,0.4582194,-0.24573526,0.505759
0.55615891,-0.31715404,0.533631,0.50029839,-0.31623479,0.515662,0.53389475,-0.3229842,0.515266,0.49961279,-0.28370168,0.479841,0.45905049,-0.27442915,0.449076,0.43157227,-0.26670812,0.433408,0.42991472,-0.3224795,0.47954,0.38043641,-0.30232926,0.447144,0.36647775,-0.28003469,0.430945,0.36541635,-0.25639862,0.41622,0.43986334,-0.31600669,0.498549,0.38790144,-0.28205422,0.471123,0.37388647,-0.25541892,0.455125,0.36594886,-0.23583796,0.443697,0.45323908,-0.31086097,0.516139,0.43676684,-0.26420948,0.487683,0.44039663,-0.241819,0.473125,0.44273639,-0.2342656,0.459889,0.47828685,-0.30461224,0.539934,0.45532175,-0.27198324,0.514782,0.44990986,-0.25670523,0.503225,0.463964,-0.24734163,0.502829
0.55424133,-0.32006487,0.535388,0.50085171,-0.3168112,0.515616,0.53706029,-0.32453935,0.517115,0.50010237,-0.28468763,0.481214,0.46086502,-0.2774926,0.450604,0.433142,-0.2647761,0.433899,0.43415508,-0.3232248,0.478392,0.38779715,-0.30100496,0.44463,0.36481524,-0.2879724,0.427749,0.35616957,-0.26531089,0.412402,0.44154142,-0.31672907,0.496786,0.38697834,-0.28300895,0.467456,0.37011221,-0.25618764,0.450347,0.36179487,-0.23472576,0.438126,0.45209582,-0.31039118,0.514064,0.43512754,-0.26424917,0.485571,0.43844161,-0.24149805,0.470993,0.43974445,-0.23193453,0.45774,0.47592529,-0.30434812,0.537836,0.45239976,-0.27066122,0.511386,0.44694057,-0.25446045,0.499234,0.46114319,-0.24600492,0.498447
0.55611764,-0.32056325,0.536263,0.50148211,-0.31732287,0.515958,0.53869334,-0.32528708,0.517886,0.50037568,-0.28507767,0.481776,0.46161736,-0.27859891,0.451258,0.43393065,-0.26430364,0.434332,0.43483433,-0.32317197,0.478235,0.38729216,-0.30061299,0.444051,0.36414147,-0.28744055,0.426959,0.35532234,-0.26467978,0.411421,0.44189029,-0.31669663,0.496619,0.38672947,-0.28330435,0.46679,0.36971971,-0.25639556,0.449389,0.3610534,-0.23502966,0.43696,0.45233385,-0.31071228,0.513947,0.43344463,-0.26545631,0.48386,0.43449386,-0.2406848,0.468467,0.43582633,-0.23190561,0.454473,0.47570923,-0.30483254,0.537877,0.44595089,-0.27267043,0.511078,0.4386069,-0.25419592,0.498765,0.45400426,-0.24443726,0.497727
0.55699568,-0.32072106,0.536558,0.50131404,-0.31738938,0.515841,0.53941701,-0.32565151,0.51818,0.50017202,-0.28516724,0.481958,0.46160542,-0.27896768,0.45141,0.43388319,-0.26461361,0.434373,0.43461074,-0.32282943,0.477836,0.38638444,-0.29993858,0.443344,0.3628015,-0.28707464,0.426098,0.3532827,-0.264618,0.410419,0.44031253,-0.31560875,0.49611,0.38518718,-0.28190061,0.465863,0.36878716,-0.25591526,0.448219,0.35997237,-0.23470246,0.435617,0.45182576,-0.31052981,0.513391,0.42389313,-0.26824707,0.481679,0.42375428,-0.24252617,0.465454,0.42685561,-0.22995696,0.450704,0.47448889,-0.30571317,0.537344,0.4495868,-0.27066222,0.510262,0.44183663,-0.2536572,0.497819,0.45527961,-0.24461945,0.496658
0.557588,-0.32089472,0.536962,0.50163686,-0.31765848,0.516457,0.54015514,-0.32604523,0.518812,0.50095453,-0.28630548,0.482781,0.46255028,-0.28099989,0.451731,0.43451346,-0.2646981,0.4341,0.43561632,-0.32303997,0.478893,0.38705235,-0.30057498,0.444604,0.36335867,-0.2880636,0.427459,0.35368668,-0.26576281,0.411873,0.44110705,-0.31589679,0.496929,0.3858991,-0.28272889,0.466803,0.3703586,-0.25537671,0.449229,0.36988921,-0.23432825,0.436677,0.45217405,-0.31074572,0.51399,0.43202297,-0.26317339,0.482448,0.43699965,-0.24230245,0.46631,0.44644989,-0.25082891,0.465596,0.47421067,-0.30567817,0.537648,0.44991459,-0.27078349,0.510666,0.44082887,-0.25398582,0.49827,0.45259863,-0.24419853,0.497386
0.55714219,-0.32051281,0.536615,0.49920684,-0.31572877,0.516161,0.53972934,-0.32576932,0.518582,0.50039158,-0.28645608,0.482637,0.46232766,-0.28118751,0.45161,0.43449037,-0.26451852,0.433841,0.43389583,-0.32219237,0.478786,0.38491958,-0.30026938,0.44456,0.36249755,-0.28788918,0.427448,0.35270819,-0.26568151,0.411891,0.44059351,-0.31541459,0.496682,0.3852986,-0.28260428,0.466563,0.37027202,-0.25507819,0.448993,0.36288027,-0.23469685,0.436443,0.45137683,-0.31025291,0.513623,0.43148068,-0.26258478,0.482126,0.4357281,-0.24201228,0.466011,0.44525367,-0.25017077,0.465467,0.47248266,-0.3049793,0.537132,0.44843723,-0.27017521,0.510166,0.43872371,-0.25348041,0.497776,0.4500722,-0.24293923,0.497015
0.55880404,-0.319207,0.536005,0.49847081,-0.31536884,0.515526,0.53903602,-0.32534308,0.518028,0.49963351,-0.28639629,0.482111,0.46180404,-0.28116114,0.451049,0.43419079,-0.26429618,0.433258,0.43335404,-0.32159501,0.478206,0.38427256,-0.29982127,0.443973,0.36155442,-0.28759207,0.426857,0.3516809,-0.26547067,0.411297,0.44040122,-0.31509727,0.496022,0.38478135,-0.28293601,0.465855,0.36991377,-0.25528202,0.448258,0.36358547,-0.23443443,0.435689,0.45042191,-0.30964622,0.512901,0.43071442,-0.26196207,0.481385,0.43511249,-0.24196108,0.46526,0.44439001,-0.24970254,0.464777,0.47125868,-0.30425457,0.536341,0.44755657,-0.26958667,0.509348,0.43775139,-0.2530015,0.496946,0.44911495,-0.24232734,0.496227
0.5588365,-0.31830111,0.535058,0.49815632,-0.31542226,0.514529,0.53915352,-0.32467702,0.517068,0.49853965,-0.2860226,0.48113,0.46093794,-0.28081961,0.450081,0.4336562,-0.26406668,0.432458,0.43337846,-0.32092065,0.477158,0.38326348,-0.29908855,0.442885,0.36033689,-0.28696381,0.425749,0.35038549,-0.26490387,0.41017,0.43929152,-0.31426308,0.494978,0.38366232,-0.282318,0.464765,0.36945086,-0.2545214,0.447141,0.36793967,-0.23268619,0.434553,0.44937898,-0.30922197,0.511864,0.42911457,-0.26167037,0.480308,0.43311489,-0.24138825,0.464163,0.44293932,-0.24877759,0.463645,0.47003472,-0.30349565,0.535324,0.44655414,-0.26891734,0.508298,0.43668941,-0.25241621,0.495881,0.44803041,-0.24163227,0.495136
0.55879308,-0.31881232,0.535325,0.49849552,-0.3159066,0.514531,0.53972756,-0.32511502,0.51734,0.49869086,-0.28630682,0.481334,0.46113946,-0.28108204,0.450186,0.43370393,-0.26417047,0.432298,0.43314515,-0.32067647,0.476987,0.38289339,-0.2988423,0.442518,0.35973298,-0.28673851,0.425283,0.34966313,-0.26466668,0.409616,0.43892725,-0.31397114,0.494728,0.3830627,-0.2820364,0.464245,0.36924861,-0.25403913,0.446464,0.36800772,-0.23225421,0.433763,0.44892873,-0.30891395,0.511578,0.42833467,-0.26127302,0.479811,0.43243547,-0.24120842,0.463558,0.44205071,-0.24821237,0.462947,0.46954077,-0.30320028,0.535044,0.44608612,-0.26858445,0.507836,0.43611554,-0.25210594,0.495335,0.44740078,-0.241214,0.494517
0.55831838,-0.31924804,0.535564,0.49821073,-0.31595328,0.514346,0.53976459,-0.32537143,0.517562,0.49859302,-0.28649923,0.481433,0.46098858,-0.28045997,0.450281,0.43352849,-0.26393274,0.432246,0.43262838,-0.32021471,0.476491,0.38211772,-0.29823398,0.441703,0.35870128,-0.28606518,0.424309,0.34845991,-0.26393352,0.408496,0.43828907,-0.31347405,0.494138,0.38206788,-0.28140033,0.463235,0.37017813,-0.25245148,0.445208,0.36856989,-0.23147331,0.432332,0.44822803,-0.3084242,0.510957,0.42417225,-0.26022142,0.478854,0.42917625,-0.24044556,0.462429,0.43977672,-0.24681436,0.461634,0.46885417,-0.30277605,0.534467,0.44511705,-0.26818991,0.506971,0.43511152,-0.25162114,0.494338,0.44618562,-0.24062584,0.493377
0.55720419,-0.31889239,0.535289,0.49727258,-0.31542608,0.513831,0.53902493,-0.3250038,0.517361,0.49753125,-0.2880623,0.481218,0.46059762,-0.28282704,0.449641,0.43316685,-0.26479726,0.430938,0.43166291,-0.31908477,0.475909,0.38197951,-0.29775126,0.44096,0.35692608,-0.28577128,0.423486,0.34745358,-0.26350561,0.4076,0.43683518,-0.31229812,0.493394,0.38094927,-0.28115827,0.462221,0.36835351,-0.2526584,0.444037,0.36728706,-0.23074113,0.431049,0.44636559,-0.30724491,0.510105,0.42201131,-0.26117307,0.477815,0.42599762,-0.24045029,0.461295,0.43817904,-0.24601456,0.460499,0.46691787,-0.30176858,0.533535,0.44359464,-0.26741513,0.505864,0.4333515,-0.25101073,0.49315,0.44494757,-0.23998286,0.492182
0.55543962,-0.31828266,0.534142,0.49581925,-0.31485463,0.512841,0.53744362,-0.32441016,0.516324,0.49571287,-0.29223684,0.480291,0.45830807,-0.28718736,0.448045,0.4304092,-0.27085056,0.428826,0.43114785,-0.31912607,0.475168,0.38099148,-0.29760495,0.440362,0.35631311,-0.28584451,0.422958,0.34573755,-0.26396467,0.407137,0.43627903,-0.31227172,0.492554,0.37951796,-0.28089044,0.461499,0.36822577,-0.25228687,0.443384,0.36787316,-0.23097212,0.430444,0.44538241,-0.30694214,0.509166,0.41941029,-0.26215361,0.477005,0.42466713,-0.2405756,0.460551,0.43726724,-0.24589643,0.459951,0.46579296,-0.30138833,0.532452,0.44261368,-0.26710153,0.504871,0.43250628,-0.2507466,0.492199,0.44427192,-0.23981007,0.491374
0.55496386,-0.31846124,0.534318,0.49512297,-0.31485785,0.512724,0.53700236,-0.32457683,0.516465,0.49544917,-0.29286906,0.480335,0.45913606,-0.28411376,0.448472,0.43087014,-0.26462288,0.429084,0.43035558,-0.31898352,0.474808,0.38009452,-0.29738184,0.439777,0.35575407,-0.28554578,0.422262,0.34517218,-0.2635751,0.406339,0.43539405,-0.31210471,0.492159,0.37812452,-0.28103288,0.460824,0.36757708,-0.25217641,0.442545,0.36715731,-0.23099442,0.429488,0.44482179,-0.30698172,0.508774,0.4185222,-0.26218038,0.476381,0.42216992,-0.24091226,0.459809,0.43597644,-0.24495247,0.459051,0.46487825,-0.30130044,0.532118,0.44215097,-0.26687348,0.504344,0.43186495,-0.25060571,0.491583,0.44331826,-0.23934762,0.490638
0.55419851,-0.31840211,0.534095,0.49429286,-0.31478422,0.512318,0.53636543,-0.32452606,0.516256,0.49509124,-0.29301235,0.480088,0.45876438,-0.28371556,0.44826,0.43082101,-0.26504112,0.428849,0.42963575,-0.31891171,0.474295,0.37933382,-0.29733162,0.439133,0.35501579,-0.28544604,0.421552,0.34445565,-0.26337668,0.405569,0.43426643,-0.31209955,0.491577,0.37632227,-0.28453934,0.460054,0.36807942,-0.25406782,0.441665,0.3689718,-0.23225444,0.42853,0.44355257,-0.3069454,0.508156,0.41815019,-0.26146908,0.475621,0.42402973,-0.24077089,0.458975,0.43590607,-0.24482817,0.458161,0.46384446,-0.30135646,0.531492,0.43981631,-0.26857006,0.503593,0.43065645,-0.25107698,0.490774,0.44237396,-0.23935531,0.489784
0.55336637,-0.31820375,0.533549,0.49345629,-0.31473276,0.51174,0.53562104,-0.32440265,0.515743,0.49456099,-0.29289792,0.479589,0.45727198,-0.28647929,0.447333,0.42907419,-0.26947949,0.427853,0.42891086,-0.31905303,0.47374,0.37876019,-0.29739045,0.438563,0.35451545,-0.28546178,0.420974,0.34400712,-0.26334244,0.404984,0.43367863,-0.31212307,0.49097,0.3757788,-0.28461758,0.459404,0.3680942,-0.25505475,0.44099,0.36880071,-0.23250201,0.427837,0.44289432,-0.30695675,0.50751,0.41789661,-0.2614316,0.474952,0.42344816,-0.24065019,0.458294,0.43501472,-0.24423426,0.457509,0.4630988,-0.30134093,0.530806,0.44024641,-0.26681281,0.502881,0.43028996,-0.2505401,0.49005,0.44183663,-0.23933303,0.489079
0.55272391,-0.31810646,0.53297,0.49291491,-0.3148379,0.511228,0.53501149,-0.32434107,0.515145,0.49393906,-0.29266245,0.478996,0.45670401,-0.2864664,0.446754,0.4286144,-0.26976495,0.427406,0.42847958,-0.31934203,0.473248,0.37853355,-0.29763589,0.438114,0.35438801,-0.2856845,0.420547,0.34395286,-0.2635319,0.404577,0.43322547,-0.31243475,0.49052,0.37546257,-0.28467153,0.459026,0.36753603,-0.25515586,0.440655,0.36691363,-0.23161996,0.427532,0.44241249,-0.30726595,0.507088,0.41780816,-0.26146262,0.47458,0.42316641,-0.24065301,0.457949,0.43463266,-0.24392334,0.457166,0.46256624,-0.30161004,0.530404,0.43995568,-0.26711218,0.502526,0.43022864,-0.25079515,0.489717,0.44188597,-0.23963331,0.48875
0.55245099,-0.31823027,0.532772,0.49251732,-0.31503043,0.510898,0.53472645,-0.32446892,0.51489,0.49359546,-0.29255373,0.47867,0.4564052,-0.28652383,0.446445,0.42839554,-0.27003736,0.427196,0.42800296,-0.31956638,0.472754,0.37810937,-0.29767086,0.437511,0.35407031,-0.28551856,0.419889,0.34377218,-0.26319143,0.403869,0.43273362,-0.31269944,0.490066,0.37601396,-0.28188141,0.458461,0.3673103,-0.25242883,0.440025,0.36704535,-0.23150188,0.426857,0.44191438,-0.30755686,0.506679,0.41697022,-0.26260329,0.474065,0.4211231,-0.24129295,0.45738,0.4335198,-0.24326745,0.456475,0.46207722,-0.30191924,0.530073,0.43957137,-0.26734778,0.502115,0.43000925,-0.25094255,0.489269,0.44167804,-0.23977865,0.488211
0.55224953,-0.31841737,0.532708,0.49221637,-0.31529668,0.510721,0.53453586,-0.32467127,0.514791,0.49343621,-0.29253052,0.478521,0.45627897,-0.28662819,0.446309,0.42830814,-0.27028995,0.427115,0.42766516,-0.31988961,0.472455,0.37783927,-0.29781623,0.43712,0.35391497,-0.28546989,0.419453,0.3437605,-0.2629732,0.403391,0.4323578,-0.31304691,0.489781,0.37587987,-0.28198411,0.458076,0.36717574,-0.25248545,0.439582,0.36682586,-0.23152049,0.426371,0.44151428,-0.30791912,0.506418,0.41626995,-0.26263362,0.473714,0.42035512,-0.24118798,0.456982,0.43271025,-0.24282968,0.455989,0.46166061,-0.30228563,0.529861,0.4392667,-0.26764862,0.501832,0.42987341,-0.25115934,0.488954,0.44157351,-0.24000697,0.48783
0.55204173,-0.3186011,0.532638,0.49190296,-0.31556126,0.510522,0.53435377,-0.32488821,0.514696,0.49331096,-0.29253793,0.478378,0.45620179,-0.28676178,0.446187,0.42827609,-0.27055532,0.42704,0.42724634,-0.32068967,0.472135,0.37758358,-0.29800649,0.4367,0.35377954,-0.28547836,0.418983,0.34377206,-0.26282041,0.402876,0.43183842,-0.31383968,0.489459,0.37573384,-0.28210545,0.457636,0.36702941,-0.25256968,0.439072,0.36659524,-0.23157195,0.425812,0.44108365,-0.30826584,0.506109,0.41565349,-0.26262237,0.473303,0.41965413,-0.24106714,0.456519,0.43186848,-0.24238663,0.455441,0.46119782,-0.30261733,0.529591,0.43892424,-0.26793591,0.501479,0.42970307,-0.25137175,0.488563,0.44143833,-0.24023442,0.487375
0.55209206,-0.31917916,0.532971,0.49164693,-0.31589807,0.510521,0.53440451,-0.32555789,0.515046,0.49360687,-0.29296789,0.478657,0.45658019,-0.28792845,0.446429,0.42883034,-0.27227612,0.427392,0.42689777,-0.32048999,0.471929,0.37726147,-0.29801213,0.436254,0.35361032,-0.28526531,0.418417,0.34383105,-0.2624811,0.402201,0.43145429,-0.31348999,0.489139,0.37677645,-0.28031222,0.456978,0.36755204,-0.25090826,0.438217,0.36610421,-0.23126031,0.424816,0.44053422,-0.30825267,0.505731,0.41516766,-0.26173886,0.472667,0.41904418,-0.24063,0.45575,0.43121104,-0.24186028,0.454555,0.4606539,-0.30251651,0.52921,0.43889111,-0.26764672,0.500872,0.4306744,-0.25137497,0.487852,0.44185745,-0.24002073,0.486571
0.55578302,-0.32158593,0.537288,0.49435494,-0.3177912,0.513821,0.53852779,-0.32815488,0.519578,0.50031483,-0.29483731,0.483092,0.47001967,-0.29770418,0.451955,0.44851216,-0.28700435,0.434426,0.42882034,-0.32039748,0.47482,0.37933227,-0.29910313,0.438466,0.35666387,-0.28464912,0.420289,0.34620369,-0.26276088,0.403764,0.43277006,-0.31295073,0.491471,0.38134477,-0.27743658,0.458232,0.37146815,-0.24769292,0.438843,0.36734698,-0.2281645,0.424994,0.44190373,-0.30942897,0.507711,0.41415248,-0.25871783,0.473877,0.41494254,-0.23482588,0.456566,0.43132077,-0.24028033,0.4552,0.46162047,-0.30358107,0.530973,0.44622415,-0.2612967,0.501935,0.44108918,-0.24326045,0.488592,0.45015969,-0.23108781,0.48716
0.55597667,-0.32184505,0.538373,0.4944989,-0.31788656,0.514593,0.53898099,-0.32838311,0.520714,0.50144684,-0.29814425,0.484192,0.47104881,-0.29987379,0.452967,0.44974645,-0.28815836,0.435451,0.42897932,-0.31968604,0.475447,0.37985012,-0.29881121,0.438883,0.35650811,-0.28439512,0.420602,0.34642982,-0.26237456,0.403982,0.43239357,-0.31236014,0.491947,0.38161694,-0.27701419,0.458387,0.37111269,-0.24695598,0.43881,0.36721817,-0.22704489,0.424827,0.44060331,-0.30702617,0.508096,0.41295658,-0.25702005,0.475275,0.41615283,-0.23581134,0.458482,0.43338445,-0.24065817,0.457416,0.45978753,-0.3014784,0.531312,0.44578865,-0.26136334,0.502063,0.44056988,-0.24327688,0.488625,0.4495855,-0.23107263,0.487128
0.55588927,-0.32187152,0.538995,0.49490776,-0.31798133,0.515508,0.53876004,-0.32810524,0.521073,0.50127508,-0.29838527,0.484444,0.47116718,-0.29943889,0.453363,0.4498223,-0.28654605,0.435855,0.42926204,-0.31696614,0.476217,0.38009491,-0.29426006,0.439798,0.35720881,-0.28056208,0.421588,0.34793557,-0.26020082,0.405033,0.43282612,-0.31166273,0.49314,0.38278148,-0.27710006,0.459959,0.37142836,-0.24585464,0.440603,0.3678296,-0.22335068,0.426778,0.44108411,-0.30677926,0.509606,0.41464297,-0.25769765,0.477441,0.41816958,-0.2366776,0.460984,0.43578345,-0.23682904,0.459863,0.46215219,-0.30453824,0.533134,0.44705543,-0.26241769,0.504114,0.44160157,-0.24442602,0.49078,0.45059775,-0.23207027,0.489156
0.55585383,-0.32238475,0.539663,0.49527971,-0.31800205,0.516533,0.53734122,-0.32757702,0.52048,0.49928634,-0.29697518,0.483279,0.46665102,-0.29762798,0.451806,0.44816682,-0.28628289,0.43564,0.42394872,-0.30996768,0.475841,0.37775386,-0.27597966,0.441617,0.35470214,-0.25901967,0.424505,0.34053732,-0.24855895,0.417232,0.43090577,-0.30460299,0.494504,0.3808609,-0.26823553,0.462268,0.37821669,-0.23719518,0.443463,0.37971211,-0.21628895,0.430031,0.44201205,-0.30128219,0.512366,0.43596476,-0.25298629,0.478836,0.43597227,-0.23045678,0.461681,0.45213098,-0.23016447,0.458395,0.46461883,-0.30286995,0.537446,0.45148121,-0.26384036,0.508982,0.44614935,-0.24593637,0.495904,0.45453715,-0.23313442,0.493113
0.55405837,-0.32219307,0.538839,0.49196576,-0.31438591,0.516969,0.53510386,-0.32684678,0.519453,0.49790841,-0.29685726,0.482473,0.46065786,-0.29267571,0.450474,0.43494503,-0.27785502,0.43223,0.42059965,-0.30345848,0.476869,0.37650717,-0.26708162,0.443593,0.35449975,-0.24893321,0.426955,0.3410548,-0.23700323,0.419876,0.42985094,-0.2983517,0.49614,0.38261071,-0.25918292,0.465263,0.38256802,-0.22947755,0.447252,0.38583761,-0.21003813,0.434387,0.44275842,-0.29551798,0.514366,0.43703547,-0.24783621,0.481838,0.43741456,-0.22573417,0.465196,0.45506359,-0.22914168,0.462113,0.46733039,-0.29426724,0.539633,0.45729765,-0.25625858,0.512076,0.45272984,-0.23872825,0.499416,0.46111342,-0.23019053,0.496803
0.55569342,-0.3238503,0.541574,0.49383948,-0.31507528,0.519598,0.5366106,-0.32813764,0.522191,0.50083803,-0.29821497,0.485186,0.46258707,-0.29807596,0.453222,0.44069288,-0.28469252,0.435492,0.42312755,-0.30333124,0.479429,0.3714322,-0.2712429,0.445845,0.35463523,-0.25018312,0.429052,0.35014038,-0.23225726,0.421612,0.4319142,-0.29848713,0.498668,0.38548194,-0.25381332,0.467686,0.38591382,-0.22409944,0.449612,0.38879698,-0.20821514,0.436703,0.44443622,-0.29589391,0.51688,0.43829272,-0.24740794,0.484269,0.43837883,-0.22486933,0.467585,0.45528158,-0.22504065,0.464461,0.46852817,-0.294966,0.542149,0.45858011,-0.25628401,0.514521,0.45403954,-0.23846197,0.501828,0.4645399,-0.22765092,0.499184
0.55840627,-0.32584387,0.545554,0.49428433,-0.31002084,0.524491,0.53930122,-0.3299494,0.526456,0.50153725,-0.29878527,0.489786,0.46240899,-0.29840294,0.45784,0.44182525,-0.28642979,0.440343,0.42438796,-0.29598589,0.485314,0.3728682,-0.26458219,0.452221,0.35517065,-0.24365134,0.435675,0.35328383,-0.22625433,0.428564,0.43462588,-0.29066322,0.50443,0.39017448,-0.24671687,0.474187,0.39231604,-0.21874501,0.456545,0.39673712,-0.20504593,0.443944,0.44826406,-0.28784629,0.522442,0.44426748,-0.24132143,0.490501,0.44532808,-0.21990527,0.474158,0.46215203,-0.22397633,0.471878,0.47354766,-0.28700019,0.547308,0.46525858,-0.24951263,0.520186,0.46149778,-0.23221638,0.507725,0.47147004,-0.22592552,0.505709
0.55475459,-0.32489876,0.543926,0.49450654,-0.30880663,0.528761,0.5346753,-0.32843051,0.526538,0.49041422,-0.29978747,0.492628,0.45047919,-0.2966271,0.462399,0.4293265,-0.28062591,0.445737,0.42589671,-0.29798457,0.495817,0.38343941,-0.26557989,0.469551,0.37075805,-0.24566854,0.456418,0.36872674,-0.2269719,0.445863,0.43849707,-0.29098977,0.514319,0.40414508,-0.24658536,0.490874,0.41349273,-0.22400767,0.477197,0.42096979,-0.21156502,0.467483,0.45353602,-0.28682793,0.531189,0.44910795,-0.24657844,0.509925,0.45775909,-0.22757045,0.499046,0.47855545,-0.22921025,0.502744,0.47953547,-0.28457088,0.553621,0.47579062,-0.25314661,0.530358,0.47435133,-0.23717895,0.519669,0.49008314,-0.22969961,0.520814
0.55187992,-0.31419154,0.565427,0.49451208,-0.30123206,0.540653,0.53563993,-0.31935369,0.548233,0.50113374,-0.3084353,0.511901,0.46981512,-0.3004762,0.479846,0.44483692,-0.28970814,0.460234,0.43187514,-0.29975838,0.501437,0.38270103,-0.26664262,0.471797,0.36847605,-0.24551191,0.456977,0.36623519,-0.22643013,0.445778,0.43875378,-0.29075063,0.517059,0.38626927,-0.25036399,0.483348,0.38748859,-0.22214699,0.463683,0.39924022,-0.20783421,0.449637,0.44495221,-0.28274948,0.532594,0.41677231,-0.24571329,0.50044,0.41298776,-0.22177002,0.483989,0.42863153,-0.20767828,0.483418,0.46394576,-0.27748966,0.555282,0.46712824,-0.24609002,0.525345,0.46747241,-0.23290368,0.51159,0.48323863,-0.22793525,0.51012
0.5654008,-0.32465446,0.584819,0.50605063,-0.30688786,0.553806,0.55086522,-0.32595394,0.56534,0.51500128,-0.30754654,0.528201,0.48503569,-0.2946459,0.495985,0.46144198,-0.28474096,0.476942,0.45271725,-0.28948082,0.507377,0.44846729,-0.23819138,0.48,0.44570525,-0.21375544,0.466312,0.44732939,-0.20483353,0.460188,0.45088133,-0.28685913,0.524269,0.39820094,-0.25446698,0.487315,0.3878178,-0.22173394,0.465759,0.38740794,-0.20130941,0.450361,0.4534908,-0.28708332,0.541522,0.42546872,-0.24030951,0.505454,0.41106962,-0.21625498,0.487001,0.41482526,-0.19574371,0.478049,0.46785064,-0.2896936,0.567378,0.47007983,-0.24997112,0.535153,0.47206796,-0.2338702,0.520347,0.48052388,-0.22569658,0.512786
0.56603957,-0.3225262,0.586641,0.50684173,-0.30443126,0.557442,0.55136226,-0.32376495,0.566941,0.51105033,-0.28374287,0.542726,0.46938745,-0.24811696,0.512502,0.44794035,-0.23130782,0.504857,0.44416867,-0.29249199,0.511957,0.43584795,-0.23958059,0.478097,0.43554604,-0.22043073,0.461167,0.43719265,-0.21965616,0.454257,0.44558431,-0.28770832,0.529634,0.39246514,-0.25432794,0.49254,0.39170284,-0.22302034,0.470902,0.39264962,-0.20368974,0.455447,0.45220768,-0.28532513,0.547337,0.44740734,-0.23350876,0.509937,0.44404867,-0.20811566,0.490802,0.45477827,-0.20354807,0.482583,0.46953905,-0.28493263,0.573375,0.46909022,-0.24431239,0.54189,0.47447568,-0.2324115,0.527425,0.48627878,-0.22705248,0.520934
0.56567276,-0.32004681,0.587407,0.5043675,-0.29889806,0.556148,0.55160014,-0.31702971,0.568062,0.50668425,-0.26165813,0.530508,0.47802461,-0.2274904,0.509228,0.44663759,-0.20476697,0.488982,0.4513328,-0.28309349,0.509728,0.43853797,-0.22769266,0.479707,0.43310165,-0.20946675,0.464696,0.42966907,-0.19503096,0.453495,0.44533982,-0.28465848,0.526378,0.40166983,-0.23662653,0.489719,0.40076514,-0.20796793,0.468335,0.39987002,-0.20690041,0.456071,0.45114885,-0.28567744,0.543458,0.40726496,-0.24973544,0.507745,0.39966307,-0.21976138,0.489473,0.39958382,-0.20413746,0.476337,0.46283134,-0.2899849,0.569159,0.46403086,-0.24453266,0.538795,0.46944306,-0.23219504,0.524844,0.47570586,-0.22281589,0.514557
0.56675837,-0.32071562,0.590571,0.50626167,-0.30073454,0.560241,0.55240614,-0.31791004,0.570773,0.50717362,-0.26921017,0.533556,0.47901155,-0.23275239,0.507906,0.45621435,-0.2096776,0.496679,0.4469586,-0.28748427,0.51386,0.43371225,-0.22790352,0.474732,0.42578879,-0.21063197,0.455168,0.42388739,-0.19438114,0.442443,0.44839042,-0.28631244,0.531355,0.41067421,-0.23401293,0.495039,0.4133566,-0.21054861,0.473855,0.40835665,-0.21133495,0.462862,0.45212369,-0.2847587,0.54903,0.4103827,-0.25025522,0.512416,0.40433366,-0.22075169,0.493683,0.40598008,-0.20588376,0.481451,0.46813395,-0.28542168,0.575247,0.46919175,-0.24704004,0.544845,0.47497868,-0.23546219,0.530877,0.48399412,-0.22783676,0.521472
0.56541377,-0.32015989,0.590839,0.50528221,-0.30077406,0.560652,0.55113498,-0.3176346,0.570959,0.50725155,-0.26971069,0.534548,0.47735184,-0.23235737,0.507044,0.45394675,-0.20905723,0.493881,0.44642174,-0.28770918,0.514262,0.43277862,-0.23056233,0.47492,0.42508884,-0.21066945,0.455249,0.4237764,-0.19506344,0.443072,0.44626487,-0.2860051,0.531903,0.41011496,-0.23419966,0.495434,0.4127921,-0.21068458,0.474161,0.40944302,-0.21218421,0.463738,0.45157285,-0.28461434,0.549683,0.41119435,-0.24634159,0.512885,0.40752334,-0.21800826,0.494058,0.40834158,-0.20559037,0.482381,0.46491468,-0.28535275,0.575996,0.46919265,-0.24716573,0.545385,0.47501319,-0.23595796,0.53132,0.48426028,-0.22868093,0.522318
0.56578391,-0.32093206,0.592869,0.50361285,-0.30167435,0.564597,0.54955428,-0.31692213,0.572563,0.50650788,-0.27070907,0.535491,0.47542031,-0.23303442,0.506088,0.45184828,-0.20872072,0.491396,0.4391059,-0.28670087,0.518953,0.43382238,-0.23292596,0.48024,0.42753251,-0.21469215,0.460883,0.42687314,-0.20285929,0.450244,0.44220815,-0.28223177,0.537671,0.4087878,-0.23261821,0.502531,0.41548923,-0.21289708,0.482033,0.41768451,-0.2156588,0.473323,0.45002747,-0.2803954,0.556132,0.41520161,-0.2391232,0.520151,0.41531612,-0.2134449,0.501742,0.42002627,-0.206438,0.491665,0.46846006,-0.28123878,0.582874,0.47575219,-0.24907519,0.552895,0.48177873,-0.23985221,0.539121,0.4909688,-0.23687324,0.531323
0.56541763,-0.3211587,0.593746,0.50326397,-0.3017628,0.565396,0.54895951,-0.31775784,0.57349,0.50635443,-0.27135372,0.536244,0.47528685,-0.23381455,0.506543,0.45203225,-0.20921374,0.491508,0.43974074,-0.28713488,0.519765,0.43334935,-0.23316334,0.480861,0.42557226,-0.21713885,0.461409,0.42502289,-0.20857137,0.451095,0.44276309,-0.28261006,0.538397,0.40913342,-0.23286058,0.503003,0.41565712,-0.21244854,0.482357,0.41808851,-0.21541246,0.473959,0.45052735,-0.28073583,0.556795,0.41553923,-0.23936141,0.520614,0.41557161,-0.2136374,0.502103,0.42078564,-0.20618391,0.492347,0.46891266,-0.28154674,0.58348,0.47574466,-0.24877147,0.553287,0.48187777,-0.24027892,0.539414,0.49121269,-0.23827438,0.531845
0.56468098,-0.32212747,0.594101,0.50196829,-0.30292624,0.566904,0.54367837,-0.32038593,0.573689,0.50306111,-0.2797409,0.536333,0.47316137,-0.24186501,0.507592,0.45503993,-0.21219538,0.49371,0.43248065,-0.28726732,0.521851,0.43219494,-0.2351776,0.483524,0.42768141,-0.21979615,0.46436,0.42870835,-0.21169571,0.45475,0.44317584,-0.28332052,0.541003,0.41190514,-0.23313929,0.506562,0.41950582,-0.21190595,0.486472,0.42364804,-0.21689388,0.478867,0.4522674,-0.28143415,0.559704,0.41771848,-0.23983968,0.52419,0.4193666,-0.21564206,0.50602,0.42513094,-0.2098727,0.497,0.47215278,-0.28237866,0.586524,0.47847893,-0.25021947,0.556883,0.48530223,-0.2437376,0.543264,0.49499117,-0.24568771,0.536254
0.56487677,-0.32337787,0.595271,0.50226429,-0.30403297,0.56821,0.54354546,-0.32222411,0.574829,0.50196463,-0.27969779,0.537503,0.47290496,-0.24190673,0.507577,0.45396356,-0.21248808,0.492477,0.43348017,-0.2879765,0.52321,0.43262779,-0.23633983,0.484987,0.42866443,-0.22117381,0.465876,0.43013485,-0.21314348,0.456254,0.44343071,-0.28374105,0.542438,0.4130864,-0.23322763,0.508157,0.42117137,-0.21241729,0.48816,0.42548105,-0.21711681,0.480556,0.45310925,-0.28180694,0.561188,0.41861271,-0.2400287,0.52579,0.42170718,-0.21712342,0.50768,0.42645021,-0.21204494,0.498652,0.47371739,-0.2828129,0.588038,0.48011249,-0.25097712,0.558506,0.48691847,-0.24513118,0.544937,0.49658524,-0.24747034,0.537926
0.56341672,-0.32594369,0.597241,0.50426302,-0.30723498,0.572988,0.53800845,-0.3322819,0.577384,0.5014034,-0.28958921,0.539811,0.47317882,-0.25156744,0.508176,0.45738292,-0.22418275,0.490985,0.43119951,-0.29031451,0.530658,0.43407472,-0.24736866,0.4936,0.43424537,-0.23624711,0.475071,0.44168377,-0.23352972,0.469353,0.44601868,-0.28536633,0.54989,0.4200398,-0.23504689,0.517069,0.43111294,-0.21844944,0.497924,0.43826017,-0.22371293,0.494274,0.46033219,-0.2791301,0.568342,0.42508741,-0.24099767,0.53416,0.43081103,-0.221129,0.516671,0.43939923,-0.22254167,0.51157,0.4882653,-0.27892808,0.594317,0.49517775,-0.25584235,0.565483,0.49990359,-0.25692615,0.552235,0.51004649,-0.26366955,0.548115
0.56098063,-0.33598341,0.598587,0.50860495,-0.31768639,0.575726,0.53912119,-0.33545215,0.578192,0.50645323,-0.29508871,0.540933,0.4755031,-0.25426849,0.509271,0.45936496,-0.2268344,0.491966,0.43739198,-0.29730827,0.533638,0.43884812,-0.25161124,0.497716,0.43974993,-0.2406567,0.479755,0.44685359,-0.23759605,0.473384,0.45178207,-0.29111763,0.553953,0.42545659,-0.23934086,0.522982,0.43913271,-0.22450988,0.504916,0.44993571,-0.22931355,0.500779,0.46874181,-0.28837854,0.573146,0.43085776,-0.24902767,0.540264,0.43656686,-0.2253865,0.52344,0.44588214,-0.2259987,0.517744,0.49779612,-0.28918206,0.59972,0.50458375,-0.26521793,0.572165,0.50976757,-0.2659592,0.559504,0.5180738,-0.26956283,0.554996
0.56359024,-0.34739822,0.60235,0.50830602,-0.32215026,0.578006,0.5389385,-0.34647022,0.581615,0.50856986,-0.30593915,0.544479,0.48653614,-0.26677998,0.51429,0.47440327,-0.24026914,0.499167,0.43764603,-0.29974342,0.534468,0.4398973,-0.25653106,0.497932,0.44067066,-0.24037643,0.479664,0.4524069,-0.23195833,0.471175,0.45206207,-0.29338534,0.554821,0.42506428,-0.24123512,0.523099,0.43801247,-0.22571655,0.504595,0.44630593,-0.22961067,0.498319,0.46903546,-0.29070166,0.574204,0.47924592,-0.25779658,0.540686,0.4839796,-0.24040655,0.523538,0.49474551,-0.24484705,0.515713,0.49807708,-0.2919263,0.601278,0.50562618,-0.26776604,0.573367,0.50940747,-0.27395746,0.560543,0.51518007,-0.28288073,0.55447
0.54519152,-0.37835631,0.597142,0.50662109,-0.33691945,0.573819,0.52123319,-0.37206151,0.576225,0.49783522,-0.32251486,0.539449,0.48478393,-0.28582338,0.515848,0.47807622,-0.26283811,0.507105,0.44874372,-0.29899384,0.53074,0.41175446,-0.25513204,0.509917,0.39775609,-0.23230266,0.499505,0.41058197,-0.22061365,0.497838,0.46802756,-0.2945857,0.551607,0.42608657,-0.24407304,0.521159,0.43702047,-0.22717098,0.503397,0.44706962,-0.23024249,0.49702,0.48764328,-0.2946299,0.571305,0.44365391,-0.25642375,0.54022,0.42113046,-0.23685452,0.524316,0.42200065,-0.21953553,0.509857,0.51719298,-0.30120532,0.598553,0.53183437,-0.29140793,0.57154,0.52417861,-0.30078155,0.559129,0.52173596,-0.3109047,0.55297
0.55154845,-0.37406017,0.594289,0.50852964,-0.33655063,0.573315,0.52617662,-0.36788727,0.57307,0.50303199,-0.31753192,0.539152,0.47622959,-0.27765015,0.510081,0.45965141,-0.25258292,0.496345,0.44215639,-0.30391206,0.531436,0.40869411,-0.25589292,0.507321,0.41722147,-0.24450046,0.495263,0.43098325,-0.24923396,0.490533,0.46083359,-0.30115549,0.553339,0.4283307,-0.24885979,0.526167,0.43267194,-0.22523539,0.510316,0.44604698,-0.22703538,0.503109,0.48076953,-0.30194224,0.573637,0.44748805,-0.25824372,0.543253,0.43245863,-0.23636833,0.527708,0.4386399,-0.2173602,0.513575,0.51228598,-0.30822257,0.601139,0.52580274,-0.28771278,0.576558,0.52366594,-0.29681299,0.565264,0.5239289,-0.30599737,0.55849
0.55027429,-0.37828509,0.595124,0.50667929,-0.34091268,0.573761,0.52049388,-0.37452056,0.574022,0.50041616,-0.3309113,0.543243,0.47989192,-0.2924434,0.516233,0.462359,-0.26643808,0.49975,0.44504136,-0.30522509,0.53177,0.40803592,-0.2600185,0.50837,0.4160493,-0.24471472,0.49667,0.43177465,-0.24852866,0.493213,0.46716971,-0.30333976,0.553415,0.42423851,-0.25042034,0.52516,0.42953128,-0.22574223,0.508679,0.44537965,-0.22632067,0.50263,0.48699706,-0.30445673,0.573541,0.45690466,-0.26179043,0.54266,0.44148241,-0.23983317,0.526851,0.44692277,-0.22420166,0.512479,0.5168593,-0.31215193,0.600918,0.5322441,-0.30028112,0.575421,0.52539983,-0.31085786,0.563706,0.52331563,-0.32199649,0.557772
0.55053276,-0.38052462,0.597171,0.50672267,-0.34212252,0.574791,0.52207901,-0.37623304,0.576096,0.50209466,-0.33251336,0.546658,0.48079238,-0.29343932,0.518554,0.46355152,-0.26741364,0.502183,0.44534314,-0.30573689,0.532145,0.40789375,-0.26110954,0.509467,0.41360029,-0.24498099,0.498128,0.43182154,-0.24865159,0.494851,0.46409115,-0.30236557,0.553476,0.42788011,-0.248543,0.524318,0.44323808,-0.23581102,0.507309,0.4521048,-0.24358412,0.500627,0.48366815,-0.3030446,0.573454,0.45242311,-0.25995052,0.541886,0.43923378,-0.23899341,0.525735,0.44445444,-0.22329957,0.511052,0.51394858,-0.30993093,0.600849,0.52978613,-0.29867818,0.574781,0.52318457,-0.30905133,0.562803,0.52092603,-0.31988628,0.556415
0.55233925,-0.38355897,0.599812,0.50758255,-0.34717305,0.577235,0.52426234,-0.37922324,0.578695,0.50284876,-0.3349756,0.548032,0.4796509,-0.29949563,0.518932,0.46501833,-0.27017146,0.503952,0.44148264,-0.31405941,0.5344,0.40909211,-0.26496511,0.511998,0.41542029,-0.24781006,0.500797,0.43361752,-0.25042365,0.497604,0.46146488,-0.30990468,0.555732,0.43369871,-0.25743659,0.526932,0.44600377,-0.23983069,0.510131,0.45503577,-0.24617399,0.502325,0.48208569,-0.30991309,0.575732,0.4698343,-0.26834931,0.544491,0.47802623,-0.26247655,0.528507,0.47363568,-0.26843383,0.519049,0.51582521,-0.31338258,0.60319,0.52673946,-0.30347411,0.577523,0.52653196,-0.30987968,0.565729,0.53086178,-0.31983054,0.55853
0.55258058,-0.38474178,0.600576,0.50734824,-0.34789364,0.577793,0.52473801,-0.38029409,0.579476,0.50350405,-0.33604625,0.549048,0.48026441,-0.29745205,0.519618,0.46582679,-0.27129974,0.504943,0.44081427,-0.31400869,0.534842,0.40867198,-0.2646976,0.510592,0.4189432,-0.25203878,0.498466,0.43463908,-0.25365719,0.494647,0.46082335,-0.30974744,0.556095,0.43330412,-0.25724541,0.527163,0.44608564,-0.24286138,0.510287,0.45519989,-0.24693291,0.502264,0.48151767,-0.30967029,0.576052,0.4697989,-0.26823902,0.544723,0.4778268,-0.26256716,0.528694,0.47327624,-0.26834382,0.519028,0.51394186,-0.3140946,0.6035,0.52631166,-0.30295243,0.577769,0.52691049,-0.31057967,0.565947,0.52621213,-0.32050224,0.558592
0.54967674,-0.38676655,0.601081,0.50501148,-0.34674543,0.576239,0.52460304,-0.380814,0.580194,0.50293656,-0.33574478,0.548667,0.48091735,-0.29689515,0.519438,0.46469831,-0.27077114,0.503253,0.43778116,-0.31181486,0.532167,0.40698593,-0.26374232,0.508636,0.41467549,-0.25014683,0.496871,0.43066919,-0.24983381,0.493141,0.45713221,-0.30694844,0.552581,0.42612589,-0.25195135,0.521278,0.43936835,-0.24002696,0.503017,0.44829848,-0.24408318,0.494777,0.47793463,-0.30515074,0.572068,0.45150972,-0.26066841,0.538924,0.45129697,-0.24407767,0.521966,0.46341301,-0.24055509,0.512176,0.5098877,-0.31056109,0.599358,0.52026994,-0.29916888,0.571974,0.52078619,-0.30611627,0.559393,0.52172426,-0.31572921,0.551895
0.55170572,-0.38528288,0.6014,0.50426636,-0.346232,0.576164,0.52434304,-0.38079921,0.580562,0.50245116,-0.3351744,0.548338,0.48109497,-0.29688287,0.519583,0.46463643,-0.27054544,0.502916,0.43633765,-0.31028225,0.531889,0.4065126,-0.26236765,0.507827,0.41411684,-0.24960681,0.495796,0.43028904,-0.25035201,0.491837,0.45667431,-0.30394918,0.55213,0.42493348,-0.25002357,0.520418,0.43818417,-0.23937625,0.501919,0.44708327,-0.24363433,0.493559,0.47666227,-0.30350542,0.571518,0.45035534,-0.26037375,0.538069,0.45033784,-0.24270245,0.520956,0.46230072,-0.23915004,0.511066,0.50875773,-0.30901452,0.598766,0.51842808,-0.29712895,0.571112,0.51860122,-0.3042236,0.558406,0.51990684,-0.31450224,0.550825
0.55424122,-0.3873506,0.604669,0.50755498,-0.34845623,0.580348,0.52692592,-0.38284554,0.583867,0.50559183,-0.33717116,0.551833,0.48359755,-0.29828783,0.522064,0.46774181,-0.27216492,0.505872,0.44086448,-0.3131877,0.536741,0.41495804,-0.26175107,0.508231,0.4246243,-0.25652961,0.493976,0.42849598,-0.26700128,0.487491,0.46102231,-0.30724917,0.557186,0.43082286,-0.25313227,0.525656,0.44305084,-0.24185057,0.507263,0.45370252,-0.24728743,0.500662,0.48179486,-0.30574467,0.576643,0.49437015,-0.27954413,0.543269,0.48746707,-0.28802617,0.526194,0.46923064,-0.29554876,0.518036,0.51301453,-0.3113882,0.603799,0.52357844,-0.29993434,0.576054,0.52393477,-0.30696396,0.563306,0.52550509,-0.31765929,0.556993
