sluyters/QuantumLeap/backend/src/datasets/gesture/HandGestureDataset_SHREC2017_csv/Gesture6/finger_2/subject_13_essai_1_skeletons_world.csv
Wrist_x,Wrist_y,Wrist_z,Palm_x,Palm_y,Palm_z,thumb_base_x,thumb_base_y,thumb_base_z,thumb_first_joint_x,thumb_first_joint_y,thumb_first_joint_z,thumb_second_joint_x,thumb_second_joint_y,thumb_second_joint_z,thumb_tip_x,thumb_tip_y,thumb_tip_z,index_base_x,index_base_y,index_base_z,index_first_joint_x,index_first_joint_y,index_first_joint_z,index_second_joint_x,index_second_joint_y,index_second_joint_z,index_tip_x,index_tip_y,index_tip_z,middle_base_x,middle_base_y,middle_base_z,middle_first_joint_x,middle_first_joint_y,middle_first_joint_z,middle_second_joint_x,middle_second_joint_y,middle_second_joint_z,middle_tip_x,middle_tip_y,middle_tip_z,ring_base_x,ring_base_y,ring_base_z,ring_first_joint_x,ring_first_joint_y,ring_first_joint_z,ring_second_joint_x,ring_second_joint_y,ring_second_joint_z,ring_tip_x,ring_tip_y,ring_tip_z,pinky_base_x,pinky_base_y,pinky_base_z,pinky_first_joint_x,pinky_first_joint_y,pinky_first_joint_z,pinky_second_joint_x,pinky_second_joint_y,pinky_second_joint_z,pinky_tip_x,pinky_tip_y,pinky_tip_z,
0.50244955,-0.30554333,0.529156,0.49919177,-0.2660112,0.529352,0.48560607,-0.29846389,0.535395,0.45838139,-0.27352726,0.534251,0.42483609,-0.2387681,0.515595,0.4073546,-0.21642613,0.505976,0.47747138,-0.22821186,0.53724,0.46648793,-0.18879246,0.534296,0.46241921,-0.17248421,0.532825,0.45717148,-0.1567305,0.531487,0.49566626,-0.22307258,0.52958,0.48446417,-0.178463,0.523646,0.48157007,-0.15718205,0.520184,0.47730463,-0.14869277,0.517711,0.51084335,-0.22184759,0.52326,0.50441579,-0.18169283,0.517032,0.50312657,-0.16663446,0.513845,0.499851,-0.1640971,0.510948,0.52940099,-0.22694307,0.515729,0.51820705,-0.20806793,0.510462,0.51204489,-0.19789189,0.508041,0.50645148,-0.18852293,0.505906
0.5022351,-0.30618643,0.529809,0.49897155,-0.26638509,0.529527,0.48511926,-0.29862418,0.535699,0.45833324,-0.27308772,0.534,0.42666893,-0.23738682,0.515888,0.41010509,-0.21500304,0.50669,0.47693773,-0.22790456,0.536596,0.46549631,-0.18840562,0.532881,0.46269617,-0.17253967,0.531024,0.45880669,-0.15917996,0.529335,0.49541494,-0.2232456,0.5292,0.48390051,-0.17850049,0.522706,0.4801122,-0.15749837,0.518918,0.47606493,-0.14882903,0.516213,0.51072805,-0.22272372,0.523139,0.50431031,-0.18204132,0.516549,0.50240761,-0.16895543,0.513177,0.49875093,-0.17535474,0.510112,0.52987224,-0.22830372,0.515989,0.51784186,-0.20892544,0.510195,0.51153927,-0.19879154,0.507532,0.50582774,-0.18947041,0.505183
0.50193493,-0.30656517,0.530104,0.4985301,-0.26652205,0.529414,0.4842304,-0.29846919,0.535319,0.45774699,-0.27056757,0.532636,0.42739131,-0.23555751,0.514789,0.41164058,-0.21306867,0.506479,0.47569211,-0.22736661,0.535313,0.46363739,-0.18758377,0.530885,0.46071749,-0.17190539,0.528671,0.45630385,-0.15768164,0.526658,0.4947954,-0.22318941,0.528612,0.48379053,-0.17759761,0.521524,0.47830785,-0.15828463,0.51739,0.47528339,-0.15083149,0.514437,0.51078159,-0.22277968,0.523157,0.50402183,-0.18191057,0.516024,0.50172938,-0.16778167,0.512375,0.49834007,-0.16326838,0.509058,0.53057872,-0.22802035,0.516791,0.51848131,-0.20444985,0.510341,0.51284332,-0.19164953,0.507378,0.50764127,-0.18077237,0.504763
0.50090356,-0.30666696,0.529552,0.4979478,-0.26671864,0.529035,0.48319327,-0.29836994,0.53467,0.45691929,-0.27092862,0.53189,0.42632416,-0.23590108,0.514271,0.41187342,-0.21269153,0.505875,0.47542948,-0.22738949,0.534955,0.46378224,-0.18761193,0.530514,0.46041175,-0.17213963,0.528293,0.45662631,-0.16063217,0.526274,0.49471022,-0.22346874,0.528434,0.48366432,-0.17791816,0.521481,0.47831006,-0.15835956,0.517425,0.47533128,-0.15021813,0.514527,0.51081435,-0.2232645,0.523111,0.50431714,-0.18191022,0.51616,0.50215221,-0.16518087,0.512603,0.49830414,-0.15854406,0.50937,0.5307459,-0.22912237,0.516876,0.51894089,-0.20616448,0.510496,0.51318517,-0.19217221,0.507565,0.50775695,-0.18249382,0.504979
0.5011083,-0.30696997,0.529864,0.49741763,-0.26651854,0.528565,0.48101487,-0.29721742,0.532363,0.45266148,-0.26735261,0.526013,0.42297323,-0.23413919,0.508422,0.40922511,-0.21040981,0.499474,0.47146834,-0.22553088,0.530606,0.45409205,-0.18362852,0.524046,0.44657543,-0.16872647,0.520766,0.43954398,-0.15459436,0.517785,0.49333427,-0.22281552,0.527056,0.4740633,-0.17510694,0.51864,0.46567316,-0.16061246,0.513731,0.45962053,-0.15021912,0.510225,0.51137491,-0.2230421,0.524244,0.4967616,-0.17777094,0.516676,0.48958799,-0.15509207,0.512805,0.48385939,-0.14461055,0.509285,0.5343008,-0.22878547,0.521111,0.52037153,-0.19970171,0.512847,0.51590009,-0.18687693,0.50905,0.50976867,-0.17704061,0.505699
0.49741272,-0.30450715,0.525738,0.49419717,-0.26475805,0.52531,0.47776165,-0.29521173,0.528666,0.45207402,-0.26616735,0.52303,0.42088447,-0.23481651,0.502731,0.40524846,-0.21145895,0.496194,0.46574244,-0.22449057,0.528588,0.4471395,-0.18454037,0.522867,0.44354217,-0.1695936,0.520006,0.43758716,-0.15663876,0.517406,0.48731878,-0.21973068,0.524811,0.46652024,-0.17539416,0.517335,0.46263806,-0.16066236,0.512974,0.45759053,-0.15032723,0.509859,0.50578717,-0.21884639,0.52174,0.49310967,-0.17700364,0.514952,0.48645986,-0.15454958,0.511479,0.48194273,-0.14410754,0.508321,0.52923283,-0.22359594,0.518163,0.51871924,-0.1952947,0.510728,0.5134899,-0.18214393,0.507312,0.50911901,-0.17422238,0.504298
0.49718973,-0.3040865,0.525137,0.49370067,-0.26445105,0.524894,0.47711918,-0.29478505,0.52773,0.45149997,-0.26585371,0.521701,0.41951385,-0.23446895,0.500774,0.40254636,-0.21166602,0.491561,0.4621357,-0.22509313,0.527908,0.44556866,-0.18459922,0.522096,0.43944931,-0.17082284,0.51919,0.43558017,-0.1573853,0.516548,0.4841488,-0.21987678,0.524612,0.46546376,-0.17551571,0.517231,0.45917392,-0.16114401,0.512925,0.45625279,-0.15056301,0.50985,0.50478633,-0.21878318,0.52192,0.4919617,-0.17700308,0.515111,0.48382878,-0.155232,0.511628,0.48140844,-0.14618775,0.508461,0.52879799,-0.22340671,0.518764,0.51842607,-0.19511819,0.511302,0.51328197,-0.18197402,0.507873,0.50883701,-0.1723442,0.504848
0.49784275,-0.30417507,0.525482,0.49362945,-0.26433113,0.525049,0.47723689,-0.29483436,0.527673,0.4506938,-0.26550058,0.521098,0.41858171,-0.23442636,0.500077,0.40172757,-0.21147713,0.490592,0.46089312,-0.22496165,0.527411,0.44396307,-0.18444862,0.52125,0.43774594,-0.17094091,0.51817,0.43233353,-0.15937084,0.51537,0.48326743,-0.21987093,0.524545,0.46422964,-0.17544983,0.516883,0.4577387,-0.16105343,0.512414,0.45454706,-0.15049672,0.509222,0.50255012,-0.21868695,0.522223,0.48933013,-0.17687532,0.515068,0.48267265,-0.15542549,0.511408,0.48021481,-0.14710062,0.50808,0.52727466,-0.22302024,0.519536,0.51826214,-0.19467723,0.511747,0.51315627,-0.18127768,0.508169,0.50834238,-0.16958545,0.505011
0.49923058,-0.30421186,0.525913,0.4937349,-0.26409813,0.525149,0.47778825,-0.29486945,0.527458,0.45441208,-0.26714492,0.520003,0.4186058,-0.23522131,0.49908,0.40251964,-0.21152213,0.488659,0.4595565,-0.22454804,0.526441,0.44096006,-0.18428005,0.519611,0.43416008,-0.17103666,0.516197,0.42913518,-0.15884573,0.513092,0.48242595,-0.21928758,0.524261,0.46286152,-0.17475755,0.516129,0.45486711,-0.16048895,0.511386,0.45088869,-0.1501428,0.507998,0.50226151,-0.21798249,0.522531,0.48829507,-0.17620974,0.514819,0.48046541,-0.15583379,0.510873,0.47675412,-0.1492862,0.507286,0.52724908,-0.22169116,0.520598,0.51611657,-0.19094599,0.512271,0.51111299,-0.17672189,0.508444,0.50651091,-0.16413263,0.505068
0.50298516,-0.3058247,0.52909,0.49470226,-0.26448334,0.526483,0.48018389,-0.29622379,0.529548,0.45367738,-0.26716339,0.520377,0.42209879,-0.23755021,0.498617,0.40459229,-0.2123101,0.487789,0.45761294,-0.22390584,0.524931,0.43626564,-0.18325159,0.516086,0.4282624,-0.17009554,0.511663,0.42093763,-0.15806669,0.507642,0.48031636,-0.21846945,0.523452,0.45788129,-0.17315362,0.513306,0.44866199,-0.16032843,0.507388,0.44217442,-0.15559746,0.50316,0.50010407,-0.21644807,0.522454,0.48342169,-0.17441876,0.5126,0.47528916,-0.15483061,0.507558,0.47003145,-0.14736243,0.502974,0.52674258,-0.21871665,0.521681,0.51419714,-0.18691063,0.511532,0.50837525,-0.17160364,0.506869,0.50314054,-0.15793817,0.502755
0.50672663,-0.30683068,0.531276,0.49531628,-0.26442065,0.526887,0.48222068,-0.29699401,0.530316,0.4571601,-0.27011433,0.519058,0.42325673,-0.24175604,0.493597,0.40627689,-0.21871785,0.479777,0.45342839,-0.22276868,0.52213,0.42476654,-0.18384741,0.511344,0.4139143,-0.16797237,0.505951,0.40425579,-0.15371147,0.501049,0.47758376,-0.21702979,0.521785,0.44837971,-0.17179897,0.509635,0.43824185,-0.15506578,0.502548,0.4352838,-0.1460489,0.497486,0.49857963,-0.21446833,0.52187,0.47693847,-0.17198553,0.509813,0.4673824,-0.15315418,0.503644,0.46030127,-0.14175869,0.498036,0.52739931,-0.21826307,0.522662,0.51315314,-0.18610784,0.510616,0.5065597,-0.17070403,0.505082,0.50066974,-0.15690715,0.500198
0.50629899,-0.30513841,0.529235,0.49405052,-0.26325025,0.525522,0.48125768,-0.29578106,0.527954,0.45894796,-0.26915322,0.516438,0.42554272,-0.23452033,0.491709,0.40551926,-0.21414641,0.482339,0.45020209,-0.22222635,0.520917,0.41755356,-0.18421262,0.510361,0.41184634,-0.17007067,0.505083,0.40576219,-0.16366236,0.500285,0.47475138,-0.21584267,0.521205,0.4469352,-0.1715583,0.509642,0.43798881,-0.15476641,0.502897,0.43495765,-0.14568467,0.498079,0.49666245,-0.2137752,0.521756,0.4731232,-0.17135067,0.510104,0.46436397,-0.15322022,0.504143,0.46000635,-0.14168139,0.498724,0.52670445,-0.21794673,0.522994,0.51325843,-0.18630469,0.511299,0.50704037,-0.17111559,0.505926,0.50195161,-0.15903895,0.501185
0.50902664,-0.3050536,0.530366,0.49447061,-0.26240222,0.525972,0.48146779,-0.29512171,0.526758,0.45939395,-0.26611194,0.512354,0.42080384,-0.23610133,0.487041,0.40324247,-0.21384485,0.475215,0.4439249,-0.22017174,0.517931,0.41065581,-0.18261471,0.505338,0.4027551,-0.17071271,0.499042,0.39780597,-0.16043224,0.493318,0.47046071,-0.21403985,0.520864,0.44196537,-0.16994482,0.508249,0.43514352,-0.15441284,0.50089,0.4301002,-0.14454358,0.495634,0.49430163,-0.21216785,0.523647,0.46393265,-0.16565535,0.51017,0.45659337,-0.15004416,0.503275,0.45487914,-0.13835865,0.497006,0.52459033,-0.21358687,0.527642,0.51037526,-0.18116016,0.51454,0.50381669,-0.16564224,0.50852,0.50185178,-0.15470816,0.503208
0.51148061,-0.30471383,0.53121,0.49449952,-0.26218082,0.526096,0.48290289,-0.29512597,0.5269,0.45911823,-0.26632256,0.511537,0.42288033,-0.23666364,0.484367,0.40250265,-0.21470963,0.471708,0.44223851,-0.21971376,0.5166,0.40880103,-0.18230449,0.503057,0.40157121,-0.17133097,0.496285,0.39784516,-0.16261092,0.490129,0.46919266,-0.21367293,0.52015,0.43986296,-0.16949467,0.506735,0.43291359,-0.15419103,0.498909,0.42772966,-0.14415295,0.493319,0.49349597,-0.21188127,0.523503,0.46393515,-0.16640189,0.509076,0.46103067,-0.15294525,0.501696,0.45599165,-0.14104761,0.494986,0.5263915,-0.21588384,0.528286,0.51024986,-0.18168079,0.5144,0.50339299,-0.1660409,0.50802,0.5005548,-0.15487175,0.502391
0.51220728,-0.30383118,0.53059,0.49367301,-0.26135845,0.525293,0.48298433,-0.29456206,0.525835,0.45825257,-0.26636592,0.509924,0.42346255,-0.2380157,0.481918,0.40373073,-0.21478739,0.465987,0.44090653,-0.21900555,0.515096,0.40755895,-0.18161174,0.50114,0.40026554,-0.17068326,0.494161,0.39418227,-0.16108842,0.487818,0.46822508,-0.21308767,0.519135,0.43884337,-0.16900689,0.505481,0.43176967,-0.15458381,0.497517,0.42782891,-0.14562886,0.491828,0.49288319,-0.21139357,0.522905,0.46514567,-0.16734769,0.508135,0.45985432,-0.15276547,0.500578,0.45596629,-0.14144187,0.493708,0.52628892,-0.21552144,0.528212,0.51042288,-0.18167037,0.514034,0.50485927,-0.16689572,0.50752,0.49974131,-0.15427509,0.501772
0.51573804,-0.30395947,0.533157,0.49284886,-0.25748441,0.525649,0.48141121,-0.29235292,0.523191,0.45463819,-0.25420307,0.501185,0.41749278,-0.22359204,0.474035,0.39882414,-0.19979475,0.458401,0.42700456,-0.21313035,0.507201,0.40257602,-0.17925267,0.488614,0.39485289,-0.16461305,0.479321,0.38907316,-0.15182588,0.470872,0.45781988,-0.2088051,0.516921,0.43170944,-0.16616759,0.500678,0.42601214,-0.15287302,0.491203,0.42147624,-0.1424108,0.484435,0.48596965,-0.20817534,0.525551,0.45715907,-0.16675323,0.506389,0.45201331,-0.15086273,0.496585,0.44703363,-0.1372279,0.487673,0.52472835,-0.21316249,0.536975,0.51355944,-0.18295143,0.519615,0.50645546,-0.1672542,0.511638,0.50055348,-0.15344806,0.5046
0.51717692,-0.30284497,0.533556,0.49196644,-0.25616542,0.525083,0.48199881,-0.29137643,0.52287,0.45430666,-0.25485483,0.499916,0.41700209,-0.22493619,0.471928,0.40233307,-0.20391338,0.454436,0.42566329,-0.21125149,0.504959,0.40084541,-0.17735725,0.485305,0.39292355,-0.16282223,0.475478,0.38696233,-0.15017313,0.466545,0.45698586,-0.20726477,0.515232,0.4278157,-0.16258267,0.498018,0.42550713,-0.15167265,0.487976,0.42297664,-0.14274859,0.480803,0.48564163,-0.20696892,0.5244,0.45431415,-0.1646108,0.504121,0.44551728,-0.14652121,0.493746,0.44016511,-0.13237551,0.484314,0.5251476,-0.2124788,0.536614,0.50982036,-0.17895819,0.51836,0.50422612,-0.159813,0.509973,0.49775886,-0.14955571,0.502572
0.51588315,-0.30013622,0.530773,0.48777755,-0.25406458,0.521145,0.48024314,-0.28919734,0.519606,0.45102847,-0.25417136,0.495907,0.41526688,-0.22602238,0.467651,0.39900656,-0.20241837,0.450502,0.41699474,-0.21375811,0.499485,0.39924218,-0.17623887,0.481099,0.39053231,-0.16060278,0.471906,0.38453135,-0.14684401,0.463549,0.44736591,-0.20769474,0.509952,0.41924066,-0.16627176,0.49159,0.40261958,-0.14150348,0.480878,0.40313134,-0.13572401,0.473227,0.47551821,-0.20570799,0.519376,0.44159915,-0.15915702,0.498852,0.43762402,-0.14371681,0.488351,0.43428321,-0.13083017,0.478804,0.51491831,-0.20923486,0.532076,0.49820174,-0.17034611,0.512848,0.49054097,-0.15214174,0.504013,0.49070864,-0.14837604,0.496218
0.51932998,-0.30079786,0.533514,0.48935754,-0.25605665,0.522611,0.48327154,-0.29033674,0.522171,0.46672078,-0.26098839,0.498015,0.4155565,-0.23329656,0.471177,0.40025218,-0.20753403,0.453575,0.41771126,-0.21415165,0.499696,0.38793537,-0.17827271,0.477999,0.3788334,-0.16482049,0.46715,0.37751916,-0.16029027,0.457287,0.44811133,-0.20801392,0.509935,0.41659303,-0.16553617,0.490316,0.40528228,-0.14730405,0.478872,0.40200487,-0.13737572,0.470698,0.47639251,-0.20601252,0.519279,0.44423946,-0.15934906,0.498034,0.43840887,-0.14504675,0.487164,0.43684774,-0.13452435,0.477282,0.51615325,-0.20962605,0.532084,0.49865288,-0.16911722,0.512683,0.49085112,-0.1505785,0.50377,0.48892094,-0.14313509,0.495905
0.52201481,-0.30016919,0.534355,0.48949969,-0.25579291,0.522181,0.48444404,-0.28976665,0.521574,0.46909725,-0.25456039,0.495736,0.41824636,-0.22994743,0.470397,0.40080878,-0.20540672,0.452075,0.41604119,-0.21875294,0.496452,0.38523199,-0.18471043,0.473132,0.37826283,-0.17261864,0.461471,0.37974102,-0.16871725,0.450871,0.44632976,-0.20857438,0.508028,0.40857096,-0.16913403,0.487169,0.39997883,-0.15210291,0.475001,0.40102997,-0.14737623,0.466309,0.47535725,-0.20645923,0.518578,0.44305278,-0.15907578,0.497154,0.43616224,-0.14384204,0.486193,0.43463525,-0.13312106,0.476228,0.51650824,-0.20982796,0.533016,0.49661373,-0.16830382,0.512403,0.48776549,-0.15154564,0.502932,0.48480743,-0.14246137,0.494576
0.5237671,-0.29915223,0.534666,0.48957668,-0.25532184,0.522297,0.4863894,-0.28975806,0.522178,0.47048391,-0.25703574,0.496578,0.42429938,-0.23530656,0.470731,0.40241725,-0.20871517,0.452147,0.41693673,-0.21941125,0.496771,0.38521106,-0.18508673,0.473463,0.37696119,-0.17259779,0.461809,0.37818939,-0.16957106,0.451215,0.44642048,-0.20923265,0.507916,0.40930399,-0.16888279,0.486862,0.40065811,-0.15250257,0.474579,0.40111387,-0.14806285,0.465807,0.4749612,-0.20647632,0.51813,0.44260773,-0.15874242,0.496733,0.43647593,-0.14400842,0.485786,0.43413432,-0.13397534,0.475834,0.51565333,-0.20900031,0.532198,0.49500312,-0.16788915,0.511204,0.4862879,-0.15170675,0.501559,0.48241687,-0.14157169,0.493048
0.52517367,-0.29792803,0.534571,0.48881535,-0.25425249,0.52127,0.48730846,-0.28904231,0.521533,0.4703191,-0.25672013,0.495206,0.43201739,-0.22869358,0.465561,0.40509531,-0.20950146,0.451647,0.41537993,-0.21790409,0.494304,0.38199923,-0.18273867,0.470077,0.37357675,-0.17028114,0.457963,0.37479938,-0.16768917,0.446951,0.44484242,-0.2084303,0.505805,0.41754003,-0.17181416,0.483848,0.40072444,-0.14957491,0.47104,0.39930753,-0.14650302,0.461892,0.47350102,-0.20557158,0.516388,0.43869294,-0.1573336,0.493841,0.43325774,-0.14357523,0.482305,0.43028905,-0.13323627,0.471817,0.51453189,-0.20798535,0.531043,0.49296327,-0.1669554,0.509241,0.48435811,-0.15099314,0.499223,0.47975196,-0.14026577,0.490385
0.52619906,-0.29695415,0.534179,0.4882336,-0.25352174,0.520284,0.48764581,-0.28830917,0.520344,0.47017663,-0.2572452,0.493137,0.43685516,-0.22875905,0.462798,0.41245788,-0.20816653,0.450353,0.4136788,-0.21653017,0.49185,0.3797664,-0.18111885,0.466823,0.37407782,-0.17018657,0.45431,0.37968918,-0.17249924,0.442934,0.44364016,-0.20771851,0.504131,0.41605999,-0.17088059,0.48162,0.39910447,-0.14864319,0.46849,0.39909029,-0.14557209,0.45911,0.47278992,-0.20496891,0.515406,0.436644,-0.15678376,0.491908,0.4304341,-0.14272864,0.479885,0.42738872,-0.13209897,0.468956,0.51457589,-0.20751489,0.530975,0.49203988,-0.16636143,0.508204,0.48396273,-0.15067639,0.497742,0.47811634,-0.13933279,0.488511
0.52586839,-0.29510329,0.532413,0.48763002,-0.25266249,0.519267,0.48757222,-0.28722118,0.518719,0.4693918,-0.25674718,0.491806,0.43562614,-0.22811548,0.461496,0.41257527,-0.20784122,0.44905,0.41370032,-0.2162516,0.491617,0.38030025,-0.18104089,0.467174,0.37517461,-0.17051049,0.454953,0.38046753,-0.17285285,0.443842,0.44370433,-0.20764219,0.503984,0.41543723,-0.17037265,0.482199,0.39594632,-0.14865038,0.469492,0.39665075,-0.143054,0.460415,0.47279808,-0.20476191,0.515267,0.43682324,-0.15676295,0.492101,0.43105128,-0.14301629,0.480249,0.42794097,-0.13226155,0.469474,0.51441518,-0.20710073,0.530728,0.49109768,-0.16518247,0.508395,0.48400522,-0.1495464,0.498134,0.4780108,-0.1375554,0.48908
0.5295807,-0.2954509,0.534702,0.48917734,-0.25262529,0.519919,0.49089372,-0.28805932,0.520613,0.47064444,-0.25721049,0.492983,0.43675032,-0.22807145,0.462913,0.4110257,-0.20629945,0.446761,0.41322838,-0.21563153,0.490447,0.37869362,-0.17994184,0.464688,0.37324504,-0.16937897,0.451809,0.37780721,-0.1713687,0.440101,0.44300081,-0.20710042,0.502731,0.40712001,-0.16660782,0.479367,0.39613153,-0.14865429,0.465738,0.39616795,-0.14500746,0.456003,0.47204943,-0.20414769,0.514085,0.43194076,-0.16487987,0.487212,0.42110318,-0.14965129,0.473462,0.41646232,-0.13880989,0.460963,0.51385873,-0.20648616,0.529887,0.48732184,-0.1634608,0.507245,0.47488247,-0.147322,0.496843,0.47405395,-0.13644109,0.487664
0.53066229,-0.2951401,0.534378,0.48994896,-0.2527474,0.51976,0.49225512,-0.28836107,0.52043,0.4707152,-0.2569474,0.492967,0.43662155,-0.22746027,0.462889,0.41135054,-0.20582645,0.446754,0.41372266,-0.21549927,0.490598,0.37926375,-0.17984957,0.465021,0.37193306,-0.16859322,0.452232,0.37402139,-0.16799134,0.440606,0.44334322,-0.20699784,0.502766,0.40754437,-0.16542354,0.479557,0.39651237,-0.14860045,0.466018,0.39703602,-0.14532486,0.456347,0.47224139,-0.20390625,0.514009,0.43203828,-0.16446652,0.487322,0.42128729,-0.14925804,0.473669,0.41672703,-0.13843075,0.461256,0.51383411,-0.20607142,0.529654,0.48383253,-0.16213934,0.507766,0.47494234,-0.14645129,0.497709,0.47115082,-0.13315372,0.488835
0.53327116,-0.29556701,0.535516,0.49056549,-0.25289631,0.519444,0.49397556,-0.28887258,0.520508,0.46964935,-0.25590217,0.491774,0.43898837,-0.22099066,0.461463,0.41773749,-0.19812468,0.445383,0.41246352,-0.21393973,0.487786,0.37702575,-0.177703,0.461773,0.37091594,-0.16712059,0.448766,0.37122423,-0.16637309,0.436942,0.44298647,-0.20605574,0.500758,0.41364793,-0.16959141,0.476195,0.3962767,-0.14768343,0.461867,0.39681643,-0.14498306,0.451633,0.47215259,-0.2024963,0.512785,0.4349708,-0.16679224,0.484538,0.41717581,-0.14828838,0.470085,0.41237585,-0.13777504,0.456947,0.51392261,-0.2049298,0.52959,0.4727437,-0.16148228,0.50649,0.46423951,-0.14752881,0.495877,0.4567615,-0.13501867,0.486512
0.53436261,-0.29504513,0.535319,0.49078284,-0.2527766,0.519388,0.4952899,-0.28882523,0.520381,0.46975486,-0.25570335,0.491739,0.43962311,-0.22193172,0.461395,0.4192183,-0.19847162,0.444429,0.41280091,-0.21412368,0.487932,0.377645,-0.17754468,0.462351,0.37174482,-0.16703243,0.449561,0.37229867,-0.1665909,0.437933,0.44323623,-0.20609681,0.500867,0.41360035,-0.16978361,0.476436,0.39727569,-0.14827152,0.462185,0.39793355,-0.14548805,0.452005,0.47204698,-0.20273466,0.512852,0.42930212,-0.16408733,0.484743,0.40547215,-0.1461517,0.470362,0.39813147,-0.13454331,0.457289,0.51400104,-0.20465325,0.529584,0.47263274,-0.16156399,0.50647,0.46502614,-0.14844426,0.49585,0.46165174,-0.13631584,0.48648
0.53630405,-0.2944992,0.53554,0.49093512,-0.25218716,0.518354,0.49700338,-0.28863931,0.520134,0.47027208,-0.25500668,0.49082,0.44192957,-0.22275093,0.460423,0.42000862,-0.19862657,0.443359,0.41210262,-0.21429174,0.485298,0.37628145,-0.1762441,0.459717,0.37010682,-0.16581692,0.446926,0.37015224,-0.1653091,0.435298,0.44141235,-0.20529816,0.498373,0.41253708,-0.17005156,0.472765,0.39515903,-0.14861743,0.457827,0.39739821,-0.146052,0.447157,0.47043048,-0.20145841,0.510581,0.42827022,-0.16537143,0.481287,0.40370183,-0.14651689,0.4663,0.40049661,-0.13595027,0.452675,0.51235901,-0.2032854,0.527774,0.46947611,-0.16111339,0.504235,0.46172181,-0.14789591,0.493419,0.45544405,-0.13653621,0.483876
0.53507433,-0.29203185,0.532998,0.48836729,-0.25001967,0.514618,0.4978195,-0.2877544,0.519302,0.4738322,-0.25559876,0.491371,0.44732199,-0.22931953,0.461103,0.42465848,-0.20329012,0.442685,0.4115003,-0.21816181,0.482709,0.36142294,-0.19083616,0.454743,0.35180541,-0.18108187,0.44076,0.3573417,-0.18051962,0.428048,0.43740325,-0.20453282,0.493249,0.40142091,-0.17466539,0.466442,0.38034141,-0.155181,0.450805,0.38184335,-0.15171617,0.439636,0.46363726,-0.19854088,0.50347,0.40563033,-0.16676812,0.473798,0.38419375,-0.1515192,0.458617,0.37458193,-0.14074341,0.444816,0.50132941,-0.19603144,0.518493,0.45463411,-0.16082665,0.492394,0.44108439,-0.14784773,0.480403,0.42989847,-0.13662647,0.469822
0.53565844,-0.29093283,0.532485,0.48861006,-0.24956254,0.514029,0.49886578,-0.28730352,0.518955,0.47570086,-0.25746431,0.491173,0.44589921,-0.23133533,0.460836,0.42360665,-0.20942938,0.442092,0.41167156,-0.22098367,0.482264,0.36109787,-0.1914077,0.454334,0.35149412,-0.18167447,0.44037,0.35702948,-0.18110931,0.427674,0.43665358,-0.20677092,0.492572,0.40077718,-0.17516312,0.465694,0.37967489,-0.15569761,0.450015,0.38113114,-0.15223154,0.438816,0.46255426,-0.19858868,0.502609,0.40489492,-0.1672304,0.472939,0.38347582,-0.15200739,0.45776,0.37386109,-0.14125618,0.44396,0.49995458,-0.19552656,0.517425,0.4536314,-0.16125155,0.491308,0.4400781,-0.14829634,0.479307,0.4288892,-0.13709822,0.468719
0.53674791,-0.29012547,0.53239,0.48906448,-0.24933823,0.513684,0.50010294,-0.28703844,0.518783,0.47586674,-0.25921607,0.490884,0.44534275,-0.23208224,0.460526,0.42308111,-0.21057708,0.442139,0.41111622,-0.22112473,0.481622,0.36144857,-0.19174916,0.453489,0.35615217,-0.18442304,0.439423,0.35823968,-0.18194205,0.426636,0.43601939,-0.2070418,0.491937,0.40002625,-0.17531486,0.464825,0.37884801,-0.15587493,0.44901,0.38024171,-0.15239335,0.437713,0.46111884,-0.1992824,0.502001,0.40411871,-0.16737228,0.472103,0.38264036,-0.15217085,0.456806,0.3729724,-0.14143443,0.442899,0.49918195,-0.19530883,0.516889,0.45286256,-0.16137968,0.490582,0.43925689,-0.14844115,0.478495,0.42802206,-0.13726012,0.46783
0.53866512,-0.29013514,0.533153,0.48987596,-0.24971405,0.513787,0.50196145,-0.28750951,0.519287,0.47672194,-0.26186144,0.491027,0.44688091,-0.23987756,0.460692,0.42285545,-0.21486716,0.442421,0.41035772,-0.22279381,0.480866,0.36223644,-0.19469264,0.452171,0.35462972,-0.18586495,0.437824,0.3606428,-0.18572217,0.42478,0.43510161,-0.209543,0.491272,0.39870732,-0.17694834,0.463544,0.37723876,-0.15751655,0.447369,0.3784479,-0.15306723,0.435815,0.45997605,-0.20118811,0.501465,0.40397611,-0.16998207,0.470942,0.38495911,-0.15744689,0.455325,0.3741874,-0.14466122,0.441128,0.49861792,-0.19593641,0.516611,0.45110329,-0.16198192,0.489906,0.4373201,-0.14892447,0.477637,0.42625604,-0.13780803,0.46681
0.54048412,-0.29113023,0.533818,0.49305484,-0.26358427,0.514054,0.50782951,-0.28967108,0.519658,0.47753626,-0.27556358,0.491049,0.44698276,-0.25018822,0.460797,0.42392306,-0.22918434,0.441724,0.40978029,-0.23518912,0.480446,0.36155384,-0.20623499,0.451593,0.35108593,-0.19631897,0.437166,0.35541542,-0.19448572,0.424051,0.43456057,-0.22210503,0.491076,0.39779238,-0.18978665,0.46298,0.37611275,-0.17055258,0.446591,0.3772057,-0.16705192,0.434885,0.45951875,-0.21388969,0.501488,0.40460785,-0.1819687,0.470539,0.38443408,-0.16730378,0.454704,0.37620912,-0.15739687,0.440309,0.49776339,-0.20923015,0.516956,0.44849845,-0.17474206,0.490745,0.4327801,-0.16070865,0.478702,0.41966626,-0.14855434,0.468076
0.54066995,-0.29184978,0.533356,0.4908899,-0.26426127,0.512509,0.50595303,-0.29521539,0.518619,0.4764179,-0.27582246,0.489287,0.44675916,-0.25021989,0.458963,0.42390423,-0.22914829,0.43977,0.40777792,-0.23493429,0.477305,0.35705788,-0.20571459,0.447214,0.34645083,-0.19520489,0.432169,0.34982203,-0.19182209,0.418491,0.43234471,-0.22203497,0.488272,0.39687621,-0.18798632,0.459182,0.37966464,-0.1666,0.442213,0.37395466,-0.15700617,0.430092,0.45708144,-0.21407342,0.499053,0.41813898,-0.1654024,0.471255,0.40962903,-0.14995745,0.457033,0.40347387,-0.13669201,0.444104,0.4949691,-0.20986691,0.515128,0.44441154,-0.17533887,0.487833,0.42887287,-0.16109349,0.475292,0.41582736,-0.14870168,0.464227
0.53903307,-0.2912285,0.531013,0.48917776,-0.26273398,0.510541,0.50207887,-0.2895956,0.51579,0.47302413,-0.27447022,0.486061,0.44429906,-0.24934045,0.455675,0.42210878,-0.22864696,0.436587,0.40724658,-0.23433783,0.475041,0.35583595,-0.20501231,0.444954,0.3465276,-0.19461648,0.429911,0.34938491,-0.19058997,0.416235,0.43191557,-0.221482,0.48674,0.39600221,-0.18606142,0.458015,0.3732621,-0.15972038,0.441258,0.37364689,-0.15540656,0.429289,0.45654556,-0.21317489,0.498092,0.39971248,-0.17918448,0.466201,0.38174388,-0.16457777,0.449886,0.37095874,-0.1504358,0.435053,0.49468483,-0.20902978,0.514786,0.44464862,-0.17470317,0.487429,0.4283351,-0.16026145,0.47486,0.41520521,-0.14784461,0.46377
0.52916312,-0.2864549,0.521283,0.47607491,-0.25465799,0.508834,0.49127469,-0.28613866,0.511491,0.45014313,-0.26011964,0.49273,0.41915376,-0.23929493,0.483765,0.39672847,-0.22647667,0.480185,0.39989543,-0.22738794,0.486584,0.36901091,-0.20212701,0.464695,0.3713437,-0.19615695,0.45375,0.3784545,-0.19364485,0.443801,0.42424568,-0.21419377,0.494361,0.40691023,-0.18654877,0.473304,0.39379369,-0.1707187,0.461345,0.39646494,-0.16869872,0.452803,0.4482182,-0.20597826,0.501809,0.41013395,-0.15887885,0.482088,0.4101667,-0.15168667,0.471998,0.40975778,-0.14425045,0.463115,0.48420298,-0.20129615,0.512608,0.43987435,-0.17232003,0.491649,0.42343523,-0.15940805,0.482019,0.40998886,-0.14811051,0.473522
0.52542311,-0.28477481,0.517069,0.47568005,-0.25454127,0.506671,0.49306035,-0.28990232,0.507429,0.45926036,-0.25612137,0.485116,0.42509114,-0.23913411,0.474164,0.40197335,-0.23084387,0.472078,0.40068323,-0.22918918,0.486274,0.37101694,-0.20407735,0.465861,0.37333481,-0.19753141,0.455655,0.38101772,-0.19470891,0.446376,0.42513518,-0.21603799,0.494581,0.39397358,-0.18379823,0.475511,0.39344255,-0.17264108,0.464386,0.40072853,-0.17478842,0.456441,0.4491071,-0.20771244,0.502292,0.41153489,-0.16157261,0.484464,0.41274064,-0.15464834,0.475342,0.41428895,-0.15182729,0.46767,0.4849152,-0.20264328,0.513081,0.44128971,-0.17442578,0.493649,0.42482623,-0.16163808,0.484721,0.41156517,-0.15040971,0.476844
0.52470847,-0.28502992,0.516278,0.47547749,-0.25442878,0.505929,0.49177359,-0.29061399,0.506255,0.45812287,-0.25425848,0.483555,0.42241107,-0.24638815,0.477159,0.40219219,-0.24681049,0.480258,0.39996747,-0.22943418,0.485099,0.38427067,-0.2102259,0.464504,0.37548908,-0.19879684,0.456652,0.38350832,-0.19862902,0.449514,0.42461511,-0.2163014,0.493897,0.39299932,-0.18148278,0.474857,0.39256844,-0.16966939,0.46375,0.39976019,-0.17321522,0.455817,0.44879608,-0.20794164,0.502009,0.40798608,-0.16473606,0.484617,0.4046214,-0.15826302,0.475718,0.40950512,-0.15041857,0.467629,0.48492722,-0.20276445,0.513264,0.43451017,-0.17861498,0.494637,0.41807141,-0.16689821,0.486078,0.41146548,-0.15297034,0.478527
0.52373687,-0.28603639,0.515735,0.47575434,-0.25457487,0.50596,0.49017153,-0.28984279,0.504972,0.45732223,-0.25357793,0.481643,0.42182369,-0.24233882,0.472796,0.40073092,-0.24362196,0.4758,0.39974776,-0.22963612,0.484679,0.39040368,-0.21211132,0.464073,0.38625517,-0.20265709,0.454299,0.39486815,-0.19961406,0.445414,0.42524844,-0.2168892,0.494594,0.39229053,-0.17932895,0.476091,0.39083275,-0.16812156,0.465298,0.40007951,-0.1716649,0.457588,0.45016781,-0.20876501,0.503576,0.40874378,-0.16585668,0.486727,0.40665336,-0.1590578,0.478107,0.41019887,-0.15147736,0.47027,0.48721847,-0.20378108,0.515775,0.43699331,-0.1801196,0.498614,0.42022722,-0.16841244,0.490729,0.41211609,-0.15690138,0.483771
0.52314522,-0.28689308,0.515522,0.47426479,-0.25375645,0.50441,0.49067517,-0.28876068,0.505262,0.4577593,-0.25410108,0.482159,0.42203176,-0.24477218,0.473913,0.40093826,-0.24298872,0.475747,0.39807287,-0.23024337,0.482667,0.3870933,-0.21291492,0.461417,0.38265427,-0.20390699,0.451118,0.39012826,-0.20046143,0.441755,0.42212502,-0.21588796,0.491491,0.3792877,-0.18470109,0.471699,0.37382393,-0.17361521,0.460154,0.38378363,-0.17718043,0.451907,0.44614872,-0.20725502,0.499689,0.39919842,-0.1710286,0.477357,0.39614859,-0.16203147,0.465931,0.39981611,-0.15874449,0.455544,0.4822937,-0.20168378,0.511167,0.43154881,-0.17837604,0.493294,0.41542257,-0.16741983,0.485082,0.40388161,-0.15734612,0.477836
0.52033112,-0.28646722,0.513122,0.47290168,-0.25289029,0.502983,0.48792612,-0.28848975,0.503106,0.45611268,-0.25320554,0.480458,0.42100279,-0.24247308,0.472025,0.40024154,-0.23910414,0.473651,0.39750309,-0.23024935,0.482332,0.38712665,-0.21355743,0.461885,0.38312062,-0.20495401,0.452021,0.39077403,-0.20162754,0.443054,0.42156667,-0.21587886,0.491195,0.38190464,-0.18521752,0.47236,0.38219574,-0.17644114,0.461373,0.39258406,-0.17719153,0.453763,0.44547523,-0.20705846,0.499342,0.39836143,-0.17068652,0.478206,0.38859581,-0.15752969,0.467391,0.38848167,-0.1509484,0.45756,0.48138306,-0.20115556,0.510607,0.43117889,-0.17843317,0.493768,0.4134736,-0.16761293,0.486032,0.40157964,-0.15811285,0.479205
0.51688319,-0.28548332,0.510365,0.47090495,-0.25192286,0.501258,0.48399955,-0.28745501,0.500686,0.45457308,-0.25282042,0.47861,0.42005356,-0.24333876,0.46982,0.39915694,-0.2392437,0.470991,0.39656389,-0.23015304,0.481865,0.385883,-0.21305213,0.462319,0.38291724,-0.20560373,0.452658,0.39062242,-0.20233081,0.443875,0.42049329,-0.21629337,0.490671,0.38227011,-0.18560366,0.472859,0.37984794,-0.17618296,0.462469,0.39196191,-0.17935406,0.455048,0.44394682,-0.20662205,0.498683,0.39738276,-0.17072583,0.478546,0.38815466,-0.15804453,0.468243,0.38587753,-0.14959173,0.458877,0.47908819,-0.20031668,0.509627,0.43025832,-0.17832509,0.493389,0.41258804,-0.16774744,0.485928,0.39892891,-0.15900776,0.479345
0.52176269,-0.28812453,0.515771,0.47296443,-0.25339621,0.503735,0.48814589,-0.290004,0.505125,0.45741909,-0.25544672,0.481435,0.42066375,-0.24461295,0.469552,0.39730043,-0.23835506,0.468072,0.39393803,-0.23150477,0.480763,0.38193156,-0.21498692,0.458668,0.37812868,-0.20776957,0.447621,0.3864832,-0.20494464,0.437578,0.41743987,-0.21704046,0.489743,0.37926564,-0.18443649,0.469041,0.37781413,-0.17607764,0.456964,0.38764925,-0.18138381,0.448338,0.4410199,-0.20734313,0.498146,0.43212345,-0.19344952,0.474882,0.43781628,-0.19590664,0.462979,0.44348589,-0.19835896,0.452158,0.47709689,-0.20019482,0.510014,0.42640871,-0.17811973,0.491874,0.40895613,-0.16751686,0.48354,0.39318007,-0.15797493,0.476187
0.51926175,-0.28631875,0.513616,0.47227739,-0.25355609,0.503375,0.48538699,-0.28834987,0.502993,0.45536475,-0.25601965,0.479704,0.42022486,-0.24702937,0.468355,0.39865966,-0.24173687,0.470578,0.39301546,-0.2364581,0.48189,0.38181959,-0.22060605,0.461038,0.37917965,-0.21318004,0.450612,0.39038328,-0.21156818,0.441133,0.4162167,-0.22156054,0.491469,0.3816792,-0.1865082,0.472513,0.38126258,-0.18140262,0.461455,0.39169576,-0.18505457,0.453557,0.43951033,-0.21131728,0.500213,0.4371012,-0.2017879,0.478459,0.44190428,-0.20043466,0.467328,0.44840846,-0.20408852,0.457211,0.47512234,-0.20322804,0.512203,0.42309323,-0.18033642,0.492641,0.406964,-0.16891357,0.483653,0.39436285,-0.15873981,0.475722
0.5182078,-0.28576664,0.512984,0.47102667,-0.25330655,0.502339,0.48303139,-0.28734447,0.501399,0.45278572,-0.25509313,0.477059,0.41786835,-0.24829164,0.467128,0.39683392,-0.24416828,0.469288,0.39070412,-0.23559005,0.479334,0.37879014,-0.21940092,0.457687,0.37576103,-0.21180547,0.446864,0.40215058,-0.21845516,0.454727,0.4146545,-0.22123235,0.489963,0.38094041,-0.18851001,0.470595,0.38655504,-0.18682921,0.459298,0.39745678,-0.19521078,0.452248,0.43864489,-0.21137371,0.499606,0.43588251,-0.20122529,0.477125,0.44104426,-0.2038203,0.465623,0.46704948,-0.2190242,0.474828,0.47523016,-0.203687,0.512726,0.42239431,-0.18065601,0.492647,0.40630182,-0.16926777,0.483422,0.39372243,-0.15903066,0.475282
0.51594756,-0.28436703,0.510595,0.46886624,-0.25273373,0.500322,0.48143864,-0.28654504,0.499481,0.4510898,-0.25406267,0.475692,0.41610808,-0.24974232,0.467877,0.39634806,-0.24646836,0.471143,0.38940729,-0.23527915,0.478204,0.37010872,-0.2184691,0.457065,0.36375306,-0.21006319,0.446496,0.38855823,-0.21583572,0.45469,0.41288428,-0.22077073,0.488379,0.37788651,-0.18602315,0.469382,0.37721367,-0.17917022,0.4583,0.40204689,-0.19262451,0.467489,0.43642547,-0.21078427,0.497618,0.43386939,-0.20059521,0.475637,0.43938175,-0.20367293,0.464392,0.46579946,-0.2195882,0.473951,0.47236391,-0.20291278,0.510198,0.42070962,-0.18027393,0.4905,0.40538367,-0.17061258,0.481449,0.39474846,-0.16065242,0.473463
0.51364449,-0.28315765,0.508679,0.4675655,-0.25270333,0.499634,0.48000718,-0.28601912,0.498258,0.45035954,-0.25507893,0.475438,0.41572373,-0.25025742,0.468661,0.39535803,-0.24833377,0.470676,0.38998089,-0.23632354,0.479372,0.37113418,-0.22022807,0.45946,0.36499764,-0.21196774,0.449504,0.39023391,-0.21782056,0.458303,0.4130242,-0.22156001,0.489118,0.36998259,-0.18895325,0.471342,0.36497971,-0.17880435,0.460973,0.38857226,-0.19061162,0.470733,0.43610491,-0.21132635,0.4979,0.43437095,-0.20141983,0.47724,0.44058481,-0.20488346,0.46667,0.46776499,-0.22132727,0.4769,0.47129531,-0.20307514,0.509746,0.42088731,-0.18105616,0.491122,0.40633981,-0.17167084,0.482565,0.39616275,-0.16200215,0.475014
0.51436126,-0.28455983,0.510568,0.46596592,-0.25533407,0.501134,0.48059282,-0.28743194,0.500044,0.44710734,-0.25683039,0.477032,0.41230976,-0.25025441,0.46955,0.39198334,-0.24774919,0.469891,0.3900702,-0.23641888,0.480427,0.37102256,-0.21920573,0.460188,0.36496804,-0.21084882,0.450068,0.39002723,-0.21706991,0.458739,0.41336189,-0.22185838,0.490166,0.3728756,-0.18390955,0.472005,0.37183726,-0.1739914,0.461411,0.39347635,-0.1874702,0.471034,0.43664748,-0.21185402,0.498975,0.43462353,-0.20179423,0.477942,0.44042016,-0.20653835,0.467181,0.46733,-0.22460983,0.477263,0.47208304,-0.20398462,0.510913,0.42379641,-0.18023627,0.491974,0.40906956,-0.1700052,0.483273,0.39859857,-0.16244711,0.475595
0.51188121,-0.28425817,0.509401,0.46502183,-0.25555005,0.501116,0.47909322,-0.28766088,0.499773,0.44552267,-0.25761456,0.477932,0.41162719,-0.25008799,0.469935,0.391596,-0.2483709,0.47242,0.38880892,-0.23622168,0.482453,0.37056064,-0.21738478,0.463507,0.36482545,-0.20891319,0.454034,0.39107026,-0.21748335,0.463379,0.41391648,-0.22233076,0.491484,0.3728996,-0.18427905,0.474482,0.36517527,-0.17149397,0.464565,0.39121728,-0.18576727,0.474792,0.43674193,-0.21218587,0.499612,0.4360265,-0.20260574,0.479928,0.44254446,-0.20803465,0.469857,0.47004997,-0.22696943,0.480674,0.47135369,-0.2041846,0.510563,0.42401255,-0.18100245,0.4927,0.4115672,-0.1718605,0.484492,0.40225012,-0.16330819,0.47725
0.51093781,-0.284797,0.509898,0.46429757,-0.25607372,0.501932,0.47835854,-0.28824126,0.500409,0.4440581,-0.25738714,0.478784,0.4096363,-0.24884544,0.471031,0.39038526,-0.24669411,0.472498,0.38773045,-0.23523402,0.483702,0.37095388,-0.21706879,0.465056,0.36356127,-0.20728743,0.455733,0.39059528,-0.21532466,0.465207,0.41145759,-0.22140602,0.49267,0.37136845,-0.18313103,0.475989,0.36589074,-0.17078858,0.466259,0.38863934,-0.18232412,0.476613,0.43660172,-0.21267092,0.500721,0.43703962,-0.20193872,0.481367,0.4437525,-0.20861985,0.471465,0.47129147,-0.22811977,0.482428,0.47113306,-0.20483652,0.51153,0.42509951,-0.18132292,0.493941,0.41572893,-0.17226297,0.485859,0.40881904,-0.1639855,0.478728
0.50581098,-0.29084663,0.515428,0.45281864,-0.25718654,0.506514,0.47155126,-0.29217858,0.504579,0.4208455,-0.25582711,0.48136,0.38904225,-0.2283582,0.465786,0.3704277,-0.20930966,0.459347,0.37827289,-0.23182099,0.485829,0.374999,-0.22223659,0.465779,0.3705061,-0.21632676,0.455754,0.39208989,-0.23769444,0.464351,0.40431434,-0.21938994,0.496151,0.3708634,-0.18186703,0.478498,0.37073528,-0.17674312,0.4682,0.39222891,-0.18710641,0.477833,0.42964456,-0.2114559,0.505396,0.42914877,-0.19990146,0.484675,0.44391004,-0.20991797,0.474074,0.47032415,-0.23032086,0.484106,0.46708798,-0.20665681,0.51777,0.41765024,-0.1818429,0.499148,0.40064087,-0.17030974,0.490591,0.39728359,-0.16220196,0.483042
0.50355396,-0.29083656,0.515297,0.4519871,-0.25730307,0.506422,0.46914701,-0.29199737,0.504408,0.41998418,-0.25594551,0.481158,0.38839655,-0.2287636,0.465953,0.369919,-0.20989881,0.459788,0.37739164,-0.23219051,0.485717,0.37426887,-0.22256707,0.465673,0.37022271,-0.21717668,0.45565,0.39121101,-0.23797505,0.464233,0.40337754,-0.21971215,0.496103,0.36959005,-0.18180822,0.478487,0.36909934,-0.17688653,0.46821,0.39034176,-0.18671582,0.477837,0.42867018,-0.21171889,0.505396,0.42814876,-0.20013222,0.484693,0.44169937,-0.20889501,0.4741,0.46953777,-0.22964689,0.484118,0.46608786,-0.2068171,0.517823,0.41659056,-0.1821748,0.49922,0.39954422,-0.17070104,0.490673,0.39480886,-0.16219654,0.483131
0.5003734,-0.28895004,0.518235,0.44863349,-0.24799057,0.509138,0.46540857,-0.29163567,0.51127,0.42556883,-0.25129523,0.492101,0.39764037,-0.22409216,0.478589,0.38457522,-0.20536166,0.476228,0.37754622,-0.22904463,0.493113,0.36677486,-0.22726112,0.475176,0.36150268,-0.22662083,0.466207,0.38381963,-0.24524672,0.476517,0.39843692,-0.21277962,0.498562,0.37776246,-0.20059887,0.480965,0.37548167,-0.20210523,0.4707,0.3997458,-0.22060874,0.481427,0.41968364,-0.20138786,0.503811,0.41242364,-0.19532387,0.484668,0.42643183,-0.20193321,0.474874,0.45846159,-0.21707788,0.486604,0.45263907,-0.19195453,0.511473,0.40184167,-0.17298912,0.497007,0.39637975,-0.16949492,0.490361,0.39184648,-0.16293564,0.484496
0.49969771,-0.28749897,0.518914,0.44891042,-0.24819651,0.509532,0.46530633,-0.29013531,0.512038,0.42620765,-0.25171338,0.492913,0.39771904,-0.22604768,0.480797,0.38433835,-0.20832621,0.479452,0.3777384,-0.22919489,0.493387,0.36685863,-0.22734408,0.475312,0.36153199,-0.22666866,0.466275,0.38380848,-0.24526599,0.476551,0.39845399,-0.21284581,0.498624,0.3755843,-0.19879993,0.480762,0.36858317,-0.19628734,0.470343,0.39202747,-0.21415912,0.481004,0.41956245,-0.20140497,0.503723,0.41212729,-0.19526512,0.484389,0.4260137,-0.20181649,0.474498,0.45795328,-0.21692179,0.486176,0.45237101,-0.19193615,0.511252,0.40165572,-0.17300025,0.496823,0.39563746,-0.1690029,0.490194,0.39107166,-0.16317422,0.484344
0.49537647,-0.28543116,0.519376,0.44834332,-0.24752469,0.510391,0.46416772,-0.28887931,0.512865,0.425833,-0.2511702,0.494225,0.39816567,-0.22658252,0.484965,0.38488085,-0.20799116,0.48171,0.3765166,-0.22262841,0.495022,0.36596779,-0.22191874,0.477444,0.36080158,-0.22183988,0.468655,0.38463701,-0.24489894,0.479155,0.39844175,-0.20734658,0.499946,0.37693626,-0.19254044,0.482509,0.36783317,-0.18911245,0.472337,0.38902733,-0.20689662,0.483189,0.42039999,-0.20021875,0.504755,0.41349925,-0.19473548,0.485931,0.42734772,-0.20202069,0.4763,0.45923643,-0.21779153,0.48822,0.45318432,-0.19123485,0.511876,0.40426106,-0.16766288,0.497335,0.39645714,-0.16245005,0.490654,0.39112309,-0.16223915,0.484759
0.49552697,-0.28523493,0.520812,0.44832491,-0.2473429,0.511128,0.46400705,-0.28841885,0.514074,0.42581299,-0.2509557,0.495044,0.39813876,-0.22591444,0.485354,0.3851206,-0.20728291,0.482189,0.376404,-0.22260049,0.494907,0.36549898,-0.2214837,0.476715,0.36015596,-0.22118927,0.467619,0.38306616,-0.24330351,0.477871,0.39835943,-0.20733562,0.499868,0.37578847,-0.19185568,0.481732,0.36569364,-0.1869918,0.471153,0.38557696,-0.2034905,0.48175,0.42038768,-0.19943622,0.504766,0.41300667,-0.19383061,0.485252,0.42634292,-0.20123345,0.475268,0.45775066,-0.21710022,0.486904,0.45350068,-0.190866,0.512103,0.40423324,-0.16766191,0.4973,0.39638421,-0.16235568,0.490499,0.39075687,-0.16140462,0.484498
0.50688313,-0.28958463,0.529648,0.45613862,-0.24967563,0.515696,0.47127179,-0.28818367,0.523099,0.44260924,-0.25519793,0.503538,0.41190027,-0.25974955,0.50655,0.39576065,-0.24632164,0.506288,0.38547245,-0.22747152,0.496242,0.36516324,-0.22109166,0.475364,0.35926216,-0.22253866,0.464925,0.37971243,-0.24092095,0.474085,0.40420029,-0.21005901,0.499476,0.37156499,-0.19190602,0.47734,0.36004333,-0.18523496,0.464428,0.37765356,-0.19986286,0.473644,0.42075694,-0.19695231,0.503313,0.40882245,-0.19197502,0.480457,0.420334,-0.19856057,0.468764,0.45012973,-0.21370888,0.479054,0.45332553,-0.18839278,0.510062,0.40266438,-0.1669207,0.494003,0.39249119,-0.16368275,0.486624,0.38689195,-0.15984194,0.480114
0.50763143,-0.28871642,0.53013,0.46036184,-0.24638689,0.516058,0.47314567,-0.28786533,0.523858,0.44370668,-0.25512836,0.504599,0.4130865,-0.25937037,0.507851,0.39676767,-0.24547407,0.507162,0.3864583,-0.22656084,0.49685,0.36628478,-0.22088725,0.476077,0.35941911,-0.22009181,0.465691,0.38021164,-0.24061592,0.474895,0.40516674,-0.20915903,0.499699,0.3726399,-0.19066859,0.477493,0.36034976,-0.1850491,0.464539,0.37739875,-0.19913587,0.473749,0.42490901,-0.19704993,0.503229,0.40902943,-0.1917168,0.480426,0.42045338,-0.19841715,0.46876,0.45018577,-0.21367305,0.479081,0.45663231,-0.18710058,0.509633,0.40571104,-0.16648925,0.493352,0.39309119,-0.1610569,0.485872,0.38631161,-0.15919915,0.479272
0.47802043,-0.27077191,0.498982,0.44087082,-0.23529497,0.494084,0.45047461,-0.272902,0.497866,0.42769089,-0.24509537,0.486322,0.4045837,-0.25008506,0.496985,0.39114205,-0.23590037,0.497621,0.38031734,-0.22201824,0.48872,0.36772613,-0.22076077,0.477483,0.36442875,-0.22214097,0.471864,0.38709907,-0.24275182,0.484817,0.39626304,-0.20365551,0.488389,0.37171931,-0.18947645,0.475721,0.36376351,-0.18512904,0.468332,0.38195671,-0.19978832,0.481048,0.41281581,-0.1905975,0.48853,0.400322,-0.18294366,0.476,0.41456336,-0.19145045,0.46959,0.44661238,-0.2081202,0.484062,0.43891237,-0.17911345,0.489467,0.39330589,-0.16044033,0.47772,0.38249875,-0.15605005,0.472323,0.37732418,-0.15380481,0.467561
0.49006094,-0.25090313,0.515084,0.44462779,-0.22469365,0.508703,0.45897904,-0.25743331,0.507416,0.42516528,-0.22772749,0.488059,0.39628283,-0.19805068,0.466931,0.3774691,-0.17461769,0.453562,0.37366946,-0.21265033,0.494017,0.36575493,-0.20610219,0.477521,0.37556626,-0.21633878,0.469273,0.3930441,-0.23040751,0.479882,0.39421913,-0.19563807,0.501284,0.38439526,-0.18377386,0.486271,0.37879419,-0.17646248,0.477514,0.39982806,-0.1911728,0.488816,0.41509656,-0.1832337,0.507802,0.4083478,-0.17508935,0.490601,0.41753095,-0.18658253,0.4818,0.44433989,-0.20585239,0.493975,0.44744886,-0.17178927,0.516541,0.39646073,-0.15364012,0.50063,0.39746573,-0.14870449,0.49332,0.39859452,-0.14425362,0.48687
0.49030548,-0.25128756,0.515828,0.44460792,-0.22487956,0.509125,0.45901463,-0.25768489,0.507915,0.42403189,-0.22884435,0.488225,0.39607292,-0.19849176,0.465931,0.37749497,-0.17442007,0.451366,0.3731912,-0.21252678,0.493874,0.3652811,-0.20600905,0.47701,0.37484982,-0.21601212,0.468578,0.39284385,-0.23053377,0.47902,0.39388416,-0.19559245,0.501332,0.3841175,-0.18380735,0.485984,0.3785679,-0.17655933,0.477031,0.40100621,-0.19087661,0.488184,0.41491142,-0.18325864,0.508034,0.40816811,-0.17519436,0.490447,0.41723599,-0.18668279,0.481449,0.44391147,-0.20593643,0.493441,0.44749991,-0.17192111,0.517042,0.39632616,-0.15364326,0.500821,0.39733971,-0.14874841,0.493367,0.39847685,-0.14433842,0.486791
0.49723463,-0.25928022,0.521401,0.44840377,-0.22626635,0.512398,0.46301568,-0.25957034,0.511761,0.42802012,-0.22998658,0.489747,0.39964779,-0.201218,0.466782,0.38211272,-0.17693334,0.451566,0.37386111,-0.21133071,0.493136,0.36588605,-0.19426723,0.473683,0.37431341,-0.20452995,0.463957,0.38833122,-0.22331179,0.473155,0.39572709,-0.19515996,0.50193,0.38104037,-0.17249258,0.484222,0.37067942,-0.1592227,0.473892,0.39468862,-0.16665216,0.48393,0.41788798,-0.18356188,0.509925,0.41553911,-0.16846381,0.489627,0.42335878,-0.1765145,0.479242,0.44936824,-0.19260225,0.489877,0.45213059,-0.17333063,0.52083,0.40683441,-0.15198013,0.502428,0.41126731,-0.147906,0.493973,0.41546223,-0.14427317,0.486513
0.49862227,-0.27030612,0.523422,0.45194286,-0.22911736,0.512344,0.46769953,-0.26949615,0.514133,0.43485522,-0.23979853,0.492053,0.40572609,-0.21340018,0.469465,0.38735738,-0.19099359,0.455105,0.37728383,-0.21090538,0.491833,0.3631343,-0.19462583,0.471161,0.37135541,-0.20408344,0.460825,0.38592461,-0.22069454,0.469737,0.40138946,-0.19699676,0.499466,0.37714001,-0.17206617,0.47976,0.36575184,-0.15901872,0.468265,0.38799501,-0.16734361,0.477836,0.42374404,-0.18610563,0.50668,0.38849748,-0.16321173,0.484803,0.36990008,-0.15100358,0.473611,0.39161807,-0.15465268,0.483853,0.45804868,-0.17744942,0.516985,0.41202989,-0.15014501,0.502282,0.40928151,-0.14432889,0.495527,0.40696445,-0.13904925,0.489566
0.49897051,-0.26848021,0.523622,0.45232604,-0.22993245,0.51202,0.46777742,-0.26922504,0.514184,0.4352121,-0.24005993,0.491841,0.40638667,-0.21394121,0.469192,0.38864729,-0.19057613,0.453384,0.37725765,-0.2110828,0.490898,0.36193419,-0.19451181,0.469784,0.3700732,-0.20370535,0.459227,0.38465448,-0.22063804,0.467952,0.40073617,-0.19651655,0.498532,0.37601734,-0.17188604,0.478312,0.36441179,-0.15895793,0.466516,0.38610238,-0.16759718,0.475891,0.42312822,-0.18564243,0.505792,0.38761248,-0.16264304,0.483415,0.36889262,-0.15039274,0.471966,0.39049593,-0.15401813,0.481992,0.45754987,-0.17703599,0.516234,0.40973722,-0.14892552,0.499295,0.40768354,-0.14460507,0.491512,0.40518059,-0.13851859,0.485362
0.49863056,-0.26619247,0.522403,0.45244454,-0.23209394,0.51087,0.46689031,-0.26868533,0.513163,0.43394051,-0.24595219,0.491045,0.40458282,-0.22361411,0.468712,0.38746842,-0.20123059,0.452435,0.37780447,-0.21285206,0.490049,0.36022481,-0.19867007,0.469098,0.36867048,-0.20661168,0.458622,0.38439893,-0.22033662,0.46745,0.39967312,-0.19693486,0.497462,0.37439972,-0.17195115,0.477321,0.36182738,-0.15968655,0.465572,0.38249681,-0.16873487,0.475023,0.42180881,-0.18596427,0.504534,0.38650573,-0.16309801,0.482303,0.36789381,-0.15091603,0.47093,0.38962068,-0.15455362,0.481062,0.45589369,-0.17722386,0.514741,0.40675877,-0.14952643,0.497666,0.40600536,-0.14447215,0.489821,0.40335575,-0.13887441,0.482994
0.49979523,-0.26458953,0.522512,0.45293761,-0.23240591,0.510823,0.46703917,-0.26861545,0.513036,0.43473284,-0.24573476,0.490635,0.40541239,-0.22340736,0.468339,0.38732331,-0.20185474,0.452831,0.37789547,-0.2130722,0.489582,0.36036898,-0.19733157,0.468387,0.36930817,-0.20427024,0.457789,0.38401486,-0.21982242,0.466476,0.39991607,-0.19722408,0.497233,0.37402278,-0.17201731,0.476925,0.36172405,-0.15879198,0.465079,0.38272475,-0.16726975,0.474416,0.42220458,-0.18629884,0.504514,0.38674805,-0.16336355,0.482047,0.36806458,-0.15115176,0.470553,0.38974044,-0.15472646,0.480536,0.45652473,-0.17760225,0.514995,0.40809805,-0.1494225,0.497397,0.40585763,-0.14447983,0.489312,0.40498239,-0.13985095,0.482178
0.49672153,-0.26212498,0.519422,0.45228296,-0.23349737,0.509029,0.46497755,-0.26654423,0.510839,0.43418531,-0.2437001,0.489647,0.40471905,-0.22234182,0.466997,0.3864924,-0.20099197,0.451875,0.37874244,-0.21313796,0.489946,0.36288276,-0.1959371,0.470151,0.37171816,-0.20520697,0.460253,0.38734404,-0.22122339,0.469627,0.400412,-0.19713594,0.496945,0.3610645,-0.16136767,0.477949,0.3574886,-0.15419192,0.466868,0.38053388,-0.1676572,0.476832,0.42226508,-0.1861086,0.503579,0.39379413,-0.15774074,0.482591,0.37702339,-0.14219433,0.471853,0.39812628,-0.14721981,0.482589,0.45577976,-0.17730771,0.513089,0.4309889,-0.13842082,0.499218,0.43041561,-0.13323818,0.492845,0.43010736,-0.12852853,0.487222
0.49746842,-0.26157238,0.520307,0.45256449,-0.23220827,0.509433,0.46528675,-0.26577899,0.511205,0.43364432,-0.24249189,0.489363,0.40402056,-0.21819401,0.466586,0.38521414,-0.19780359,0.452032,0.3786399,-0.21264036,0.489317,0.36195842,-0.19376085,0.468891,0.37019877,-0.20266447,0.458678,0.39076137,-0.21809108,0.467719,0.40078326,-0.19692252,0.49679,0.36058061,-0.16060718,0.477292,0.35677822,-0.15331904,0.465918,0.37958293,-0.16665302,0.475601,0.42307447,-0.18613912,0.503855,0.39353747,-0.15705877,0.48223,0.37650683,-0.14140067,0.471167,0.39731281,-0.14627827,0.481548,0.45719876,-0.17766685,0.513951,0.43124826,-0.13792979,0.499455,0.43043197,-0.13265262,0.492795,0.42990411,-0.12786172,0.486918
0.4953788,-0.26022756,0.518333,0.45261366,-0.23246131,0.508955,0.46236297,-0.26367623,0.50809,0.43017656,-0.24057078,0.485376,0.40044155,-0.21275995,0.462612,0.38263516,-0.19057428,0.448275,0.38115115,-0.21122951,0.488642,0.3651224,-0.1829253,0.468595,0.37126069,-0.19082175,0.458571,0.39030942,-0.21321655,0.467396,0.40568099,-0.19712776,0.498051,0.37563794,-0.15860641,0.479953,0.36888139,-0.14431524,0.469395,0.39040592,-0.15506901,0.479132,0.42979099,-0.18775089,0.506584,0.3862227,-0.14737072,0.48697,0.38302467,-0.1376523,0.476934,0.40767053,-0.15167892,0.487556,0.46646289,-0.18201952,0.518188,0.44538217,-0.14061253,0.503849,0.44684923,-0.13659865,0.49726,0.44841864,-0.13297542,0.491447
0.49685375,-0.26499425,0.518887,0.45388048,-0.23401431,0.508928,0.46333757,-0.26562548,0.508909,0.42771568,-0.24495532,0.486341,0.39419101,-0.22308854,0.467562,0.3755444,-0.20223933,0.455436,0.3844543,-0.20927425,0.488472,0.36594815,-0.18251673,0.468172,0.3717913,-0.19024106,0.458021,0.39055989,-0.21170187,0.46686,0.40994631,-0.19660209,0.497349,0.37591079,-0.1588677,0.478692,0.36802571,-0.14440091,0.467808,0.38940623,-0.1546698,0.477482,0.43458594,-0.18876739,0.505493,0.40052535,-0.14339393,0.488066,0.39761825,-0.13300284,0.47915,0.41657242,-0.13872154,0.490536,0.47389731,-0.18622125,0.516725,0.45359529,-0.14277672,0.502626,0.45449955,-0.13844822,0.496148,0.4519661,-0.13374712,0.490913
0.49885639,-0.2673618,0.521199,0.45197008,-0.23292527,0.506015,0.46267666,-0.26650426,0.508018,0.4220543,-0.24120931,0.48117,0.38227761,-0.21124664,0.456764,0.36239872,-0.18925658,0.443287,0.38100364,-0.19585603,0.477342,0.34943811,-0.15413519,0.453942,0.3369939,-0.13581599,0.442241,0.3477998,-0.13591372,0.448855,0.4102966,-0.18749546,0.488362,0.37604802,-0.14725889,0.464587,0.36502454,-0.12952849,0.450718,0.38302732,-0.13664632,0.457705,0.43815961,-0.18365546,0.498708,0.40207266,-0.13465512,0.475734,0.39934504,-0.12730548,0.463979,0.41373281,-0.12549234,0.472216,0.47831887,-0.18510063,0.513378,0.46266171,-0.14217517,0.498211,0.46305359,-0.13606231,0.491242,0.4636486,-0.13051895,0.485093
0.4924737,-0.26553059,0.514843,0.45515644,-0.23493196,0.505176,0.45845291,-0.26570446,0.503574,0.41996029,-0.24013331,0.479766,0.38211169,-0.21191028,0.457936,0.36321982,-0.19118246,0.446922,0.39441922,-0.19424986,0.483357,0.36333715,-0.15442004,0.462558,0.34973919,-0.1360653,0.452158,0.35708298,-0.13573274,0.460385,0.42576514,-0.18800832,0.493937,0.39331264,-0.1440642,0.478133,0.38764927,-0.12978038,0.468914,0.39766227,-0.12343471,0.479172,0.45463938,-0.1860585,0.503456,0.42029494,-0.1395256,0.483995,0.4163412,-0.12960876,0.474038,0.43011171,-0.12524861,0.484286,0.4944981,-0.19010363,0.516276,0.47037285,-0.14728367,0.499767,0.4688495,-0.14056576,0.492182,0.46586243,-0.13255144,0.485489
0.48914194,-0.26653781,0.510974,0.4643878,-0.23669526,0.506539,0.46010169,-0.26743908,0.505195,0.423933,-0.242953,0.488329,0.38919065,-0.21732304,0.472179,0.3690937,-0.19574266,0.458584,0.4129628,-0.19744694,0.495776,0.38483574,-0.15652044,0.482972,0.37790563,-0.14106539,0.47657,0.38566929,-0.1312827,0.488664,0.44095264,-0.19037379,0.501384,0.41220152,-0.14824091,0.490779,0.40186015,-0.12431769,0.484593,0.41046041,-0.11235184,0.497568,0.46616992,-0.18781089,0.506372,0.43514708,-0.14415435,0.49288,0.43019662,-0.12768895,0.485977,0.44351528,-0.1166692,0.499714,0.50011665,-0.19101337,0.51299,0.47719577,-0.14927492,0.500208,0.47382059,-0.13534562,0.494336,0.47030274,-0.12927123,0.489154
0.493437,-0.27436502,0.515931,0.47075615,-0.23860299,0.508805,0.46458736,-0.27105942,0.510275,0.42610846,-0.24394797,0.492967,0.39429462,-0.21869212,0.479191,0.3779274,-0.19825719,0.471457,0.41928642,-0.1947309,0.496004,0.39254688,-0.15192491,0.481278,0.3847378,-0.14016562,0.473915,0.39229,-0.13409298,0.485451,0.44772114,-0.18965451,0.500519,0.41731661,-0.14392057,0.484975,0.40522246,-0.12393537,0.475907,0.41556292,-0.12048558,0.487463,0.47331942,-0.18892836,0.504834,0.44384319,-0.14129444,0.488867,0.43531514,-0.12460483,0.480697,0.44203801,-0.1143805,0.493697,0.50770522,-0.19477576,0.511077,0.49174633,-0.15192456,0.49957,0.48713419,-0.13326676,0.497023,0.48306315,-0.11679652,0.494775
0.49183211,-0.27317613,0.5145,0.46761922,-0.23761986,0.507707,0.46408777,-0.27157833,0.510251,0.43069621,-0.24688072,0.50275,0.39682643,-0.21826173,0.484487,0.37992843,-0.19791259,0.474102,0.41976274,-0.19363023,0.49691,0.4028736,-0.15161484,0.48928,0.39805164,-0.1380659,0.485465,0.40787878,-0.12965034,0.499507,0.44693595,-0.18831865,0.499808,0.42097381,-0.14034444,0.484787,0.41237422,-0.12326075,0.476025,0.42186183,-0.11474764,0.487888,0.471297,-0.18743977,0.502768,0.44458163,-0.13940512,0.487387,0.43694876,-0.12296514,0.479517,0.44889661,-0.11268641,0.492868,0.50389993,-0.19311171,0.507356,0.4883704,-0.15015795,0.494573,0.48357436,-0.13008694,0.4887,0.47980783,-0.11585162,0.483517
0.47786764,-0.27823916,0.506259,0.46652743,-0.23915712,0.508571,0.45592637,-0.27172026,0.506305,0.42544714,-0.24392031,0.501822,0.39537549,-0.20903804,0.483911,0.38468305,-0.18767792,0.479508,0.43556282,-0.19818312,0.510508,0.42409537,-0.15764275,0.505395,0.41942353,-0.13928346,0.502838,0.42931473,-0.12610999,0.517677,0.46201311,-0.19736959,0.511258,0.44931827,-0.15354048,0.505836,0.44448982,-0.13096361,0.502673,0.45595744,-0.11789523,0.517428,0.4842156,-0.20006216,0.511679,0.47533023,-0.15395752,0.506261,0.47082536,-0.13085048,0.503489,0.48006154,-0.11326463,0.515252,0.5112665,-0.20966131,0.511812,0.50653084,-0.16804725,0.506081,0.50525988,-0.14986381,0.503448,0.50501783,-0.13875361,0.501125
0.49219068,-0.27477024,0.514777,0.47730238,-0.24014506,0.514536,0.46628984,-0.27339104,0.513097,0.43093321,-0.23731273,0.501831,0.39857844,-0.20873456,0.486852,0.3859886,-0.18807433,0.482276,0.44143659,-0.20044935,0.512257,0.42591936,-0.15767916,0.504435,0.42336988,-0.1411534,0.500524,0.43002058,-0.12745531,0.514539,0.46808087,-0.1963135,0.514256,0.45202507,-0.15197539,0.506016,0.44563348,-0.12826037,0.50121,0.4564168,-0.11447286,0.515178,0.49134932,-0.19576451,0.515922,0.48089081,-0.14853521,0.507621,0.47551348,-0.12392994,0.503373,0.47308543,-0.1135499,0.499512,0.52162445,-0.20061895,0.517937,0.51617554,-0.15867181,0.510573,0.51395563,-0.14074414,0.50719,0.51207059,-0.13091814,0.504205
0.49415554,-0.27740496,0.516354,0.48658416,-0.23920594,0.516824,0.46980214,-0.27528937,0.516545,0.43887609,-0.2445497,0.507681,0.40633006,-0.21773661,0.494154,0.38781469,-0.19361109,0.48403,0.45224454,-0.2014094,0.517443,0.43626374,-0.15988975,0.510792,0.43191217,-0.13925892,0.507467,0.44061321,-0.12470025,0.521862,0.47722437,-0.19660828,0.517369,0.46347308,-0.15083437,0.51016,0.4570574,-0.12765876,0.505954,0.46568954,-0.11339912,0.520253,0.49889714,-0.19568885,0.517269,0.48488678,-0.1493923,0.510086,0.48006569,-0.1267759,0.50641,0.47700666,-0.11214401,0.503069,0.52680357,-0.20039593,0.517075,0.51968861,-0.15923629,0.510776,0.5213134,-0.1406399,0.507881,0.51985818,-0.12487012,0.505327
0.48916372,-0.27515175,0.509761,0.48935988,-0.23962426,0.51425,0.46632709,-0.27246973,0.511507,0.43872508,-0.24433314,0.50546,0.40835734,-0.21966221,0.496304,0.39567402,-0.20091123,0.493638,0.4588446,-0.20835908,0.520063,0.45109417,-0.16711511,0.517346,0.4472143,-0.14777165,0.515988,0.45799023,-0.13376098,0.531455,0.48345629,-0.20273225,0.519461,0.47272914,-0.15927291,0.516526,0.46754459,-0.13461621,0.514815,0.4787195,-0.12008989,0.530182,0.50456594,-0.20075493,0.518583,0.49805782,-0.15637752,0.51562,0.4954805,-0.135352,0.514103,0.49309133,-0.11536465,0.512725,0.52896069,-0.20188314,0.516831,0.53413019,-0.16364573,0.514982,0.53540135,-0.14526478,0.514133,0.53543805,-0.13450864,0.513383
0.48798002,-0.27492913,0.50718,0.49403084,-0.24241885,0.515556,0.47094799,-0.27183915,0.512089,0.45120142,-0.25648878,0.517666,0.42009391,-0.2345194,0.510006,0.40299265,-0.21086926,0.50379,0.47011334,-0.20874311,0.528446,0.46437347,-0.16957959,0.529641,0.4607261,-0.15237297,0.530238,0.47200668,-0.1392406,0.5465,0.49078844,-0.20397179,0.525282,0.48765144,-0.16052698,0.526317,0.4848328,-0.13481258,0.526921,0.48336486,-0.11611499,0.528016,0.50968415,-0.20158067,0.52197,0.50989259,-0.15745884,0.522481,0.50907904,-0.13523391,0.522742,0.50850045,-0.11398236,0.52298,0.53276164,-0.20391956,0.516716,0.5388129,-0.1652196,0.518071,0.54165334,-0.14734141,0.518693,0.5436688,-0.13403412,0.519243
0.48843871,-0.27643144,0.507478,0.49253036,-0.2436614,0.517584,0.47002348,-0.27338034,0.513611,0.44645512,-0.25358244,0.518928,0.4184928,-0.22982328,0.512576,0.4036098,-0.21095557,0.505749,0.47509533,-0.20994932,0.533403,0.47227095,-0.17095624,0.536398,0.47302849,-0.1505316,0.537895,0.48515527,-0.13572137,0.554463,0.49714998,-0.20515967,0.529334,0.49506987,-0.16315861,0.532451,0.49610342,-0.13864724,0.534269,0.49555701,-0.12009139,0.535568,0.51512758,-0.20414055,0.525131,0.51651099,-0.16131145,0.527863,0.51722035,-0.13880671,0.52926,0.51794921,-0.11743661,0.530531,0.53611052,-0.21170889,0.518549,0.54547515,-0.17448606,0.521302,0.54982323,-0.1569117,0.522567,0.55354397,-0.14197472,0.523684
0.49109657,-0.27868312,0.509469,0.49538648,-0.24764369,0.51914,0.47318082,-0.27485475,0.516,0.45078068,-0.25755607,0.521185,0.42108644,-0.23386238,0.51351,0.40874413,-0.21616372,0.512522,0.4772261,-0.21166722,0.535099,0.47426231,-0.17274517,0.53783,0.47422942,-0.15307516,0.539196,0.48639647,-0.13885122,0.555689,0.49944992,-0.20807235,0.53038,0.49813979,-0.16580968,0.533071,0.4973499,-0.14054944,0.53464,0.49679346,-0.12193046,0.535762,0.51687324,-0.20795233,0.525679,0.51883776,-0.16473456,0.52774,0.51999819,-0.141681,0.528795,0.52105601,-0.12015132,0.529754,0.53686423,-0.21334795,0.518573,0.54575178,-0.17558822,0.520754,0.54993818,-0.15782234,0.521756,0.5536203,-0.14232005,0.522641
