sluyters/QuantumLeap/backend/src/datasets/dynamic/HandGestureDataset_SHREC2017_csv/Gesture11/finger_2/subject_10_essai_2_skeletons_world.csv
Wrist_x,Wrist_y,Wrist_z,Palm_x,Palm_y,Palm_z,thumb_base_x,thumb_base_y,thumb_base_z,thumb_first_joint_x,thumb_first_joint_y,thumb_first_joint_z,thumb_second_joint_x,thumb_second_joint_y,thumb_second_joint_z,thumb_tip_x,thumb_tip_y,thumb_tip_z,index_base_x,index_base_y,index_base_z,index_first_joint_x,index_first_joint_y,index_first_joint_z,index_second_joint_x,index_second_joint_y,index_second_joint_z,index_tip_x,index_tip_y,index_tip_z,middle_base_x,middle_base_y,middle_base_z,middle_first_joint_x,middle_first_joint_y,middle_first_joint_z,middle_second_joint_x,middle_second_joint_y,middle_second_joint_z,middle_tip_x,middle_tip_y,middle_tip_z,ring_base_x,ring_base_y,ring_base_z,ring_first_joint_x,ring_first_joint_y,ring_first_joint_z,ring_second_joint_x,ring_second_joint_y,ring_second_joint_z,ring_tip_x,ring_tip_y,ring_tip_z,pinky_base_x,pinky_base_y,pinky_base_z,pinky_first_joint_x,pinky_first_joint_y,pinky_first_joint_z,pinky_second_joint_x,pinky_second_joint_y,pinky_second_joint_z,pinky_tip_x,pinky_tip_y,pinky_tip_z,
0.4551234,-0.30023373,0.569068,0.439809,-0.26029685,0.574461,0.43278136,-0.29715155,0.569336,0.39168269,-0.28884091,0.569495,0.35846548,-0.28310385,0.56671,0.34339947,-0.27841707,0.572533,0.40371129,-0.2304403,0.578473,0.39407137,-0.20243272,0.589662,0.38913639,-0.18800326,0.595257,0.38462856,-0.17484554,0.600343,0.42861536,-0.22371059,0.579598,0.4149158,-0.18963516,0.586037,0.40688143,-0.16877276,0.589793,0.40109185,-0.15376615,0.592476,0.45005209,-0.22146823,0.579942,0.44797677,-0.19152471,0.592997,0.44703047,-0.17623057,0.599842,0.44616229,-0.16230554,0.606064,0.47697765,-0.22479834,0.579329,0.47877642,-0.19311445,0.584551,0.47960077,-0.17853133,0.58695,0.48032733,-0.16565077,0.589067
0.45326223,-0.29678766,0.566783,0.43655093,-0.25701244,0.571133,0.43172689,-0.29499006,0.568231,0.39200704,-0.28622957,0.567496,0.35920595,-0.28059002,0.565218,0.34387573,-0.27526355,0.570772,0.39632496,-0.23165261,0.575973,0.39071481,-0.20245242,0.588069,0.38641009,-0.18813979,0.594117,0.38247116,-0.17507822,0.599615,0.41857135,-0.22076175,0.575276,0.40674616,-0.18657668,0.582921,0.40252871,-0.16734484,0.58738,0.39722014,-0.15210604,0.590565,0.43837847,-0.21489911,0.574234,0.43850045,-0.18553784,0.588371,0.43855587,-0.17049266,0.595604,0.44063593,-0.15756042,0.60218,0.4644538,-0.2136126,0.572206,0.46958229,-0.18349112,0.579505,0.47193888,-0.16964656,0.582859,0.47799616,-0.16181616,0.588458
0.446989,-0.28940205,0.566737,0.42601769,-0.2456418,0.570879,0.42175753,-0.28610472,0.56727,0.38009204,-0.2790652,0.567915,0.34242408,-0.27070836,0.557493,0.32293482,-0.26400383,0.558378,0.38928226,-0.21741527,0.574385,0.37305443,-0.18741788,0.57941,0.3650424,-0.17258513,0.581922,0.35990469,-0.15874872,0.584205,0.41354757,-0.20992016,0.574824,0.39929741,-0.17795956,0.579399,0.39096115,-0.15868662,0.582068,0.38757904,-0.14703834,0.583975,0.43461597,-0.20720453,0.574738,0.42557784,-0.17535708,0.578295,0.42130647,-0.1576993,0.580115,0.41734942,-0.14140783,0.581769,0.46134448,-0.21017336,0.573861,0.45536773,-0.17959634,0.571998,0.45260153,-0.16541341,0.571142,0.45023533,-0.15280517,0.570387
0.43090427,-0.27629331,0.559895,0.41544872,-0.23693444,0.564853,0.4103687,-0.27495703,0.562412,0.36959312,-0.27018085,0.561305,0.33082124,-0.26296814,0.5501,0.31915396,-0.26210453,0.557848,0.38059104,-0.21092295,0.571499,0.36207155,-0.17869544,0.569133,0.35178696,-0.16127004,0.567951,0.34701113,-0.15413687,0.566876,0.40298862,-0.20147878,0.569575,0.38925044,-0.17025177,0.57518,0.38116702,-0.15188559,0.578449,0.3753855,-0.13875247,0.580784,0.42253804,-0.19713465,0.567457,0.41672179,-0.16782723,0.573701,0.41311374,-0.15065884,0.576895,0.41284862,-0.13786095,0.579799,0.44749497,-0.19817115,0.564066,0.45024749,-0.17166637,0.568801,0.45148651,-0.15903197,0.570977,0.452399,-0.15064796,0.572897
0.42941686,-0.27490192,0.558553,0.41652722,-0.23874534,0.563544,0.40902964,-0.27397876,0.561272,0.36985676,-0.26989065,0.56048,0.33047309,-0.262098,0.548424,0.31766063,-0.26067461,0.556493,0.37937678,-0.21147395,0.570476,0.35947139,-0.17886166,0.568348,0.34858652,-0.16172102,0.567285,0.33573874,-0.148114,0.566317,0.40142119,-0.20152944,0.568298,0.38572842,-0.16964184,0.572303,0.37653894,-0.15096564,0.574639,0.36997059,-0.13761806,0.576307,0.42074363,-0.19676357,0.565967,0.41066194,-0.16589443,0.567886,0.4049028,-0.14837268,0.568868,0.39684269,-0.13304214,0.569761,0.44553627,-0.19729103,0.562322,0.44834132,-0.17079336,0.567734,0.44961541,-0.15837138,0.570221,0.45110131,-0.14935998,0.572415
0.42923958,-0.27456868,0.558619,0.41571609,-0.23821442,0.563129,0.40866556,-0.27369424,0.561121,0.36968048,-0.26960088,0.559804,0.33044993,-0.26188191,0.54802,0.31685667,-0.25991268,0.555715,0.37851734,-0.21140376,0.569451,0.35779654,-0.17851687,0.566813,0.34655211,-0.16142485,0.565494,0.33454,-0.14758516,0.564295,0.4005828,-0.2013876,0.567425,0.38384273,-0.16912512,0.570287,0.37472014,-0.15054808,0.572947,0.36818712,-0.13724786,0.574848,0.41999655,-0.1965702,0.56527,0.40922914,-0.16548641,0.566755,0.40311337,-0.14795587,0.567514,0.39575892,-0.1326788,0.568205,0.44502696,-0.19706125,0.561922,0.44766279,-0.17048578,0.567325,0.44886371,-0.15810611,0.569808,0.45031485,-0.14867142,0.571998
0.42638744,-0.27251619,0.555338,0.40745637,-0.23265652,0.554229,0.40469125,-0.27089871,0.556341,0.36158026,-0.26585528,0.551786,0.32083932,-0.25752971,0.537907,0.29971289,-0.24998834,0.536565,0.36725431,-0.20267789,0.554782,0.35139866,-0.17563232,0.559215,0.34205899,-0.15959996,0.561431,0.33372424,-0.14547661,0.563446,0.38988955,-0.19330317,0.553173,0.37782223,-0.16514901,0.56352,0.36940331,-0.14184074,0.569556,0.36397652,-0.12823461,0.573867,0.41012733,-0.18921417,0.551968,0.4022594,-0.16019726,0.558539,0.39768081,-0.14582781,0.5619,0.39386008,-0.13124062,0.564957,0.43689956,-0.19088805,0.550777,0.44230251,-0.16743273,0.562139,0.44509805,-0.15582349,0.567359,0.44863417,-0.14602063,0.571965
0.43319026,-0.27745305,0.557485,0.40743358,-0.23292871,0.551492,0.40948398,-0.27499987,0.556045,0.36685269,-0.26783293,0.544289,0.32655979,-0.2595035,0.531465,0.30620227,-0.25190784,0.530982,0.36106853,-0.21031689,0.545548,0.35038514,-0.18033842,0.55282,0.34437157,-0.16368594,0.556456,0.33626477,-0.14818204,0.559761,0.38340106,-0.19866832,0.545785,0.36809154,-0.16294439,0.551873,0.35911589,-0.14201845,0.555424,0.36132342,-0.13201718,0.568682,0.40437095,-0.19264059,0.546626,0.39868905,-0.16030501,0.553107,0.39519872,-0.14434554,0.556423,0.39092917,-0.1298297,0.559438,0.43453554,-0.19103784,0.548728,0.43581161,-0.16286554,0.55455,0.43702872,-0.15014104,0.55803,0.43809871,-0.13888226,0.5611
0.43392883,-0.27914868,0.555686,0.41425509,-0.24286557,0.550528,0.4115591,-0.2775226,0.555525,0.36862558,-0.27172263,0.546488,0.32724312,-0.26166706,0.531663,0.30525216,-0.25229381,0.528228,0.37044144,-0.21256365,0.546815,0.34866848,-0.1763941,0.5431,0.33786955,-0.15846754,0.541242,0.32863754,-0.14390315,0.539553,0.39303929,-0.20279388,0.545615,0.36648333,-0.16476517,0.536432,0.35115695,-0.14250224,0.531076,0.35148167,-0.13070172,0.544823,0.41372856,-0.19852714,0.545183,0.40343838,-0.163477,0.549722,0.39539256,-0.14387657,0.552044,0.3882418,-0.12787336,0.554155,0.44190102,-0.20030281,0.54565,0.43429367,-0.16632678,0.542348,0.43096817,-0.15020419,0.54083,0.42805173,-0.13588235,0.539491
0.43791177,-0.28301081,0.556261,0.4130952,-0.24792429,0.543576,0.41053029,-0.28041696,0.55095,0.36322743,-0.27409053,0.534593,0.32339012,-0.26521875,0.522084,0.30743007,-0.25806578,0.528556,0.36192503,-0.21170657,0.528046,0.35387532,-0.18261853,0.541075,0.34968838,-0.16774646,0.54759,0.34579031,-0.15404074,0.553513,0.38768183,-0.20563208,0.531496,0.37283412,-0.17045613,0.534961,0.36424613,-0.14920436,0.536982,0.35930846,-0.13418109,0.540324,0.41150711,-0.20458457,0.535704,0.40840008,-0.17097655,0.547335,0.40673787,-0.15355195,0.553286,0.40518515,-0.13757987,0.558696,0.44447172,-0.21046711,0.542972,0.4257959,-0.18834222,0.523578,0.42561294,-0.19813068,0.514667,0.43790495,-0.21267218,0.521769
0.42283429,-0.27849036,0.531841,0.41221579,-0.25036703,0.53324,0.40026638,-0.28124786,0.53038,0.36187298,-0.27847128,0.524746,0.32902952,-0.27463119,0.522616,0.32047755,-0.27582811,0.536924,0.37194392,-0.21948673,0.532289,0.3560101,-0.18911044,0.534934,0.34887411,-0.1720647,0.536257,0.34211562,-0.15597675,0.537459,0.3975275,-0.21278409,0.534574,0.38364411,-0.17889378,0.539513,0.37553577,-0.1591037,0.542395,0.37193878,-0.14582078,0.547692,0.42001847,-0.21077469,0.536304,0.40430516,-0.1700491,0.533321,0.39630549,-0.14932977,0.531795,0.39006823,-0.12996774,0.530408,0.44903115,-0.21475199,0.53805,0.44876954,-0.18496842,0.541785,0.44867074,-0.17148292,0.543501,0.45858005,-0.16323933,0.557147
0.42612208,-0.28877782,0.531535,0.41769879,-0.2572355,0.532922,0.40503455,-0.28839086,0.529979,0.36943216,-0.28718259,0.528841,0.33287931,-0.27940839,0.520994,0.31778979,-0.2743548,0.53018,0.37926323,-0.22423643,0.531838,0.35802481,-0.19021052,0.530158,0.34952203,-0.17299201,0.529318,0.33895621,-0.15505371,0.528555,0.4052198,-0.21859978,0.534244,0.38726769,-0.18082816,0.532392,0.37702892,-0.15849064,0.531312,0.37285926,-0.14371062,0.535079,0.42777988,-0.21766134,0.536075,0.40852248,-0.1792745,0.529859,0.40095915,-0.16016589,0.526679,0.39396582,-0.14237989,0.523788,0.45634349,-0.2231956,0.53794,0.44935559,-0.18379009,0.534331,0.44614225,-0.16565778,0.532673,0.44366839,-0.14951396,0.53121
0.43337544,-0.302436,0.530889,0.4238634,-0.26851696,0.531364,0.41144674,-0.29860415,0.531347,0.37462172,-0.29733376,0.526635,0.33353928,-0.28436968,0.510759,0.31464507,-0.27613478,0.511389,0.38695708,-0.23606254,0.532283,0.36977474,-0.20093888,0.532747,0.361237,-0.18348487,0.532979,0.35343164,-0.1669924,0.53319,0.4110768,-0.2292046,0.531816,0.39059838,-0.19221496,0.524092,0.37928472,-0.17082678,0.519586,0.37664691,-0.15794236,0.52352,0.43212216,-0.22731841,0.531381,0.42795751,-0.19675809,0.538651,0.42666806,-0.18150132,0.543433,0.42548425,-0.16758878,0.547782,0.45899021,-0.23183602,0.530786,0.4513423,-0.19978417,0.525229,0.44782828,-0.18505456,0.522676,0.44472721,-0.17205605,0.520423
0.43552725,-0.31171774,0.526467,0.42615384,-0.27606525,0.526287,0.41124146,-0.30536836,0.523701,0.37437083,-0.30344249,0.520634,0.34052486,-0.29712145,0.517082,0.33145714,-0.29643734,0.530037,0.38770872,-0.23938324,0.522562,0.37362881,-0.20738055,0.527731,0.36678021,-0.19064123,0.530315,0.36050921,-0.17533057,0.532665,0.41482516,-0.23583979,0.526116,0.40119504,-0.20240668,0.526247,0.39336163,-0.18318964,0.526324,0.40043227,-0.17510553,0.5435,0.43824572,-0.23676595,0.529061,0.42263663,-0.1988227,0.522261,0.41602663,-0.18008004,0.520473,0.41000226,-0.16298924,0.518847,0.46768402,-0.24473793,0.532514,0.4684908,-0.21642756,0.533694,0.47024324,-0.20287821,0.534236,0.47180065,-0.19081053,0.534715
0.45126722,-0.32523338,0.519499,0.43679485,-0.28599842,0.520852,0.42729752,-0.32000534,0.517548,0.38407826,-0.31097446,0.509939,0.34961946,-0.30446661,0.505754,0.33367103,-0.29908608,0.510919,0.39712073,-0.2530412,0.51923,0.38192452,-0.22194165,0.523904,0.376258,-0.20462569,0.526241,0.37094529,-0.18848395,0.528365,0.422865,-0.24825389,0.522142,0.4042489,-0.20980269,0.514907,0.39341144,-0.18743405,0.510686,0.39985606,-0.17770523,0.526178,0.44523194,-0.24787698,0.524393,0.45419772,-0.22457824,0.542876,0.45873875,-0.21243964,0.552332,0.46284101,-0.20128247,0.560928,0.47374709,-0.25376501,0.526752,0.46839563,-0.22332702,0.52116,0.46593307,-0.20899356,0.518591,0.46452934,-0.19701681,0.516324
0.45915772,-0.32928864,0.51924,0.44974571,-0.29536296,0.520622,0.43917481,-0.32517314,0.510396,0.39287914,-0.31195451,0.497264,0.36639207,-0.31443332,0.504026,0.3507074,-0.31096688,0.509863,0.40250761,-0.25918078,0.510042,0.3910151,-0.22703186,0.517056,0.38518774,-0.21078727,0.520563,0.37984371,-0.19592232,0.523751,0.43274933,-0.25834037,0.521939,0.41287221,-0.21979876,0.514201,0.40131668,-0.19741654,0.509688,0.40775862,-0.1871847,0.523064,0.45933516,-0.26111774,0.531587,0.44738923,-0.22416171,0.526286,0.44125337,-0.20514529,0.523573,0.43566246,-0.18779272,0.521108,0.4934735,-0.27060756,0.542525,0.51045483,-0.25002775,0.555836,0.51825916,-0.24056133,0.561952,0.52514587,-0.23220294,0.567348
0.46702846,-0.35450963,0.519116,0.45488367,-0.31313484,0.519025,0.44358755,-0.34835537,0.517826,0.40303351,-0.33851093,0.512947,0.36817718,-0.3291424,0.50699,0.35117162,-0.32131583,0.509667,0.41726599,-0.27764612,0.517282,0.39458844,-0.23808344,0.509244,0.38565124,-0.22081497,0.505225,0.37737508,-0.20471682,0.501571,0.4430963,-0.27297459,0.518938,0.42183143,-0.23088981,0.510248,0.41059771,-0.20700823,0.505178,0.41764124,-0.19698629,0.520364,0.46554987,-0.27290636,0.520312,0.46899858,-0.24257002,0.530876,0.47075245,-0.22698505,0.536281,0.47234026,-0.21278026,0.541194,0.49405678,-0.27964871,0.521924,0.48572025,-0.24144493,0.516231,0.48280979,-0.22444442,0.513616,0.48023835,-0.20931366,0.511309
0.46767197,-0.35778626,0.518537,0.45576808,-0.31592715,0.51791,0.44639824,-0.35284713,0.519763,0.40843939,-0.34588535,0.515239,0.37113531,-0.33388596,0.506527,0.35336471,-0.32362018,0.509957,0.42349669,-0.28450701,0.519081,0.40332993,-0.24432521,0.510908,0.39326969,-0.22429644,0.506821,0.38727401,-0.21626779,0.503106,0.44677995,-0.27863084,0.517313,0.42581528,-0.23628377,0.508457,0.41427809,-0.21336311,0.503292,0.42214699,-0.20660307,0.518425,0.46707313,-0.27762946,0.515924,0.46959181,-0.24758952,0.526929,0.47085673,-0.23210376,0.53256,0.47204814,-0.21531284,0.539303,0.49296751,-0.28341333,0.51443,0.48372836,-0.24520025,0.507826,0.47948213,-0.22763641,0.504791,0.47637931,-0.21002253,0.505001
0.47653275,-0.36682133,0.520683,0.46848283,-0.32881355,0.518855,0.45187416,-0.35938895,0.517627,0.41995964,-0.35630423,0.51541,0.37876596,-0.34117228,0.500579,0.36174315,-0.33318815,0.502596,0.4284168,-0.29209155,0.513634,0.41102311,-0.254088,0.510871,0.40243656,-0.23535326,0.509489,0.39464673,-0.21899981,0.508233,0.45505928,-0.28788184,0.517114,0.44337885,-0.24998852,0.518215,0.43665505,-0.22816007,0.518856,0.44596435,-0.21962053,0.536234,0.47825739,-0.28831603,0.520177,0.46360923,-0.24827059,0.511089,0.45703103,-0.22821267,0.50644,0.45103433,-0.20985799,0.502213,0.50775884,-0.29578429,0.524076,0.51196065,-0.26180133,0.526926,0.51395753,-0.24616563,0.528235,0.51571988,-0.23235962,0.52939
0.47966599,-0.37322643,0.511154,0.47308554,-0.3413239,0.511644,0.46072157,-0.37517124,0.507755,0.4219361,-0.3651289,0.505651,0.38643656,-0.35303086,0.499276,0.37310672,-0.3473475,0.506076,0.43282254,-0.30427118,0.507549,0.42699472,-0.27171308,0.515431,0.42406897,-0.25540086,0.519371,0.42481017,-0.24141243,0.522954,0.46059571,-0.30151816,0.51211,0.4412535,-0.25938927,0.504064,0.43259859,-0.23613935,0.499371,0.44222878,-0.22744595,0.514477,0.48474064,-0.30295991,0.515813,0.49589956,-0.27683171,0.531855,0.50159474,-0.26334025,0.540062,0.50676463,-0.25100651,0.547523,0.51541674,-0.31136342,0.520019,0.51517092,-0.27439871,0.517372,0.51526966,-0.2575365,0.516369,0.51535701,-0.24265483,0.515484
0.50248348,-0.40802927,0.536549,0.48150213,-0.36279437,0.522735,0.47193058,-0.39326244,0.524785,0.41744276,-0.37268369,0.501643,0.38830942,-0.36395685,0.502734,0.37876655,-0.35914534,0.512937,0.43793083,-0.30972069,0.498032,0.43225803,-0.27551911,0.503419,0.42931511,-0.25803279,0.506113,0.42657657,-0.24191112,0.508561,0.4685458,-0.31420591,0.509578,0.4679398,-0.27972928,0.517962,0.46745739,-0.25900208,0.522853,0.46705395,-0.24391843,0.526346,0.49528648,-0.32259939,0.520575,0.48978769,-0.28564723,0.516771,0.4869574,-0.26644183,0.514824,0.48437545,-0.24880063,0.513055,0.52932216,-0.34084683,0.535936,0.52477966,-0.34370272,0.513977,0.52293184,-0.34524952,0.503888,0.53026948,-0.36359559,0.508719
0.49855416,-0.40070191,0.507856,0.48971925,-0.36021889,0.510935,0.47496904,-0.39285476,0.506165,0.43269131,-0.38037061,0.500318,0.40096189,-0.37211477,0.498746,0.38019068,-0.35675408,0.492391,0.45451687,-0.32358727,0.510824,0.43766984,-0.28431458,0.506801,0.43358066,-0.26716857,0.50479,0.42979635,-0.25113052,0.502961,0.48123622,-0.321413,0.513868,0.46558281,-0.27776264,0.508568,0.46080869,-0.25470229,0.505476,0.45810592,-0.23849202,0.503268,0.50397363,-0.32322199,0.516043,0.51974615,-0.29890643,0.535092,0.5278028,-0.28629888,0.544838,0.53512074,-0.27474538,0.553699,0.53210599,-0.33182325,0.517988,0.52774353,-0.29214045,0.514856,0.53023212,-0.27801438,0.513417,0.53255202,-0.26513257,0.512147
0.49594884,-0.40448285,0.503495,0.49750467,-0.37320253,0.509554,0.47442206,-0.39677513,0.503348,0.43998865,-0.39000196,0.501724,0.41376068,-0.38387017,0.506791,0.40506359,-0.37961539,0.51705,0.47065254,-0.3358706,0.513477,0.45792681,-0.29708968,0.511474,0.45156936,-0.27771902,0.510472,0.44579318,-0.26012097,0.509561,0.49723249,-0.33536561,0.515325,0.49700891,-0.3001628,0.526003,0.49685461,-0.27953162,0.532232,0.49673366,-0.26475303,0.536681,0.51906215,-0.33846305,0.516194,0.51254455,-0.3006231,0.514491,0.50918348,-0.28106556,0.513619,0.5061132,-0.26316817,0.512827,0.54459322,-0.34843423,0.516064,0.53471824,-0.30996255,0.513872,0.53957251,-0.30555785,0.512865,0.54416385,-0.30147252,0.511976
0.5054741,-0.41242835,0.511714,0.50351712,-0.37621501,0.514443,0.48541395,-0.40813081,0.51121,0.45587166,-0.40073372,0.515006,0.41906612,-0.38612604,0.505078,0.40310353,-0.37712117,0.510627,0.47377665,-0.3380645,0.51564,0.45943464,-0.29783865,0.510694,0.45227192,-0.27775719,0.508221,0.44576549,-0.25951989,0.505973,0.50005901,-0.33673398,0.517043,0.48828954,-0.29363402,0.511705,0.48069779,-0.26810876,0.508591,0.47583258,-0.25023187,0.506367,0.52202018,-0.33937968,0.517904,0.51484911,-0.29459774,0.516616,0.51277168,-0.27248373,0.515956,0.51189824,-0.26180715,0.515357,0.54835862,-0.34921876,0.51839,0.55477271,-0.31027519,0.52122,0.55711334,-0.29287365,0.522521,0.56218319,-0.27893882,0.523668
0.5194618,-0.4277348,0.516986,0.51804889,-0.39334986,0.51696,0.50250759,-0.42712326,0.51436,0.46240834,-0.41066639,0.509077,0.43009064,-0.39798286,0.505991,0.41831068,-0.39080819,0.512902,0.48398867,-0.35307823,0.513521,0.4770863,-0.31715774,0.517354,0.47521057,-0.299031,0.51927,0.47785427,-0.28514591,0.521012,0.5108866,-0.35218591,0.516935,0.49357247,-0.30553712,0.508497,0.48878381,-0.2814892,0.503574,0.48707417,-0.26573118,0.500058,0.53365425,-0.35540485,0.519749,0.52813868,-0.31261327,0.520902,0.53302909,-0.29353231,0.521492,0.53762789,-0.27549171,0.522028,0.56154297,-0.36622383,0.52302,0.55867427,-0.32426974,0.517891,0.55735885,-0.30494838,0.515534,0.56327453,-0.29880256,0.513455
0.51772481,-0.43553624,0.511096,0.51637435,-0.39557804,0.514584,0.49552724,-0.42552312,0.50879,0.46069232,-0.41163849,0.507978,0.43034024,-0.39927409,0.506793,0.41961096,-0.39178541,0.51419,0.48987944,-0.35822406,0.513948,0.48465201,-0.31979098,0.515099,0.48204208,-0.30059541,0.515675,0.47656245,-0.28283457,0.516198,0.5181402,-0.36046833,0.517905,0.50991979,-0.31557613,0.513757,0.50513621,-0.28951289,0.511337,0.50206944,-0.27102296,0.509609,0.54131487,-0.36606559,0.520788,0.53295792,-0.32009871,0.518015,0.53573634,-0.30039024,0.516596,0.53955631,-0.28355938,0.515306,0.56825265,-0.37935868,0.523479,0.57421813,-0.34126237,0.526226,0.57693565,-0.32407058,0.527488,0.58597382,-0.31508738,0.528602
0.52731966,-0.44029456,0.516731,0.53199627,-0.39848938,0.518389,0.50569537,-0.4308238,0.51529,0.47534685,-0.41836613,0.512535,0.43853523,-0.40345376,0.503619,0.42297684,-0.39402443,0.505774,0.5024092,-0.35824332,0.517638,0.48538702,-0.31607438,0.511485,0.48485938,-0.30282303,0.508409,0.4844774,-0.29030964,0.505612,0.52902901,-0.35820835,0.519968,0.51713582,-0.31261905,0.513267,0.51021362,-0.28615121,0.509358,0.50418801,-0.270061,0.506566,0.55117186,-0.36203706,0.521708,0.5435173,-0.31522267,0.516001,0.54300087,-0.2936566,0.513082,0.54259078,-0.27357988,0.510427,0.5775863,-0.37342669,0.523416,0.57847892,-0.33341027,0.522764,0.58416101,-0.31749685,0.522465,0.59236186,-0.31640613,0.522201
0.54563892,-0.44905612,0.522896,0.54390627,-0.41045875,0.522836,0.5218895,-0.43822212,0.519027,0.49149846,-0.42900065,0.516749,0.45346638,-0.40966667,0.504935,0.436413,-0.39580944,0.502236,0.51054405,-0.36948229,0.517758,0.51539729,-0.33629496,0.527334,0.51781623,-0.31963432,0.532122,0.52001119,-0.30445082,0.536475,0.53824259,-0.36976962,0.52278,0.53831949,-0.33165263,0.528618,0.53838815,-0.30958402,0.532024,0.54753258,-0.29988509,0.534457,0.56154158,-0.37393029,0.526922,0.56615811,-0.33571916,0.530161,0.5692582,-0.31619068,0.531818,0.57208332,-0.29832578,0.533324,0.58975341,-0.38578472,0.531741,0.58868928,-0.34683074,0.526556,0.59160731,-0.33143113,0.524174,0.59325456,-0.31695766,0.522073
0.54589096,-0.45048434,0.522757,0.54725494,-0.41296375,0.525204,0.5251527,-0.44146183,0.521803,0.49182455,-0.42925778,0.517287,0.45508286,-0.41102537,0.506823,0.43862983,-0.39782589,0.505679,0.52271835,-0.37332581,0.525622,0.51272217,-0.3329183,0.521952,0.51163745,-0.31271182,0.520116,0.50826985,-0.29424085,0.518448,0.54949983,-0.37452712,0.527535,0.54412006,-0.33124422,0.524905,0.5414076,-0.30620354,0.52337,0.54061113,-0.2924874,0.525538,0.57141534,-0.37927809,0.528846,0.5619836,-0.33377905,0.523827,0.56478384,-0.31682429,0.521259,0.56502487,-0.29912295,0.518925,0.59680636,-0.39159187,0.529907,0.6026709,-0.35443336,0.529206,0.60536509,-0.33735625,0.528883,0.60774378,-0.32228699,0.528599
0.55192568,-0.45632834,0.527961,0.55202097,-0.41664212,0.528884,0.53323763,-0.44886328,0.527488,0.49703453,-0.4335973,0.52135,0.45950599,-0.41430635,0.51085,0.44893413,-0.40493621,0.516609,0.52744546,-0.37587507,0.528894,0.51789145,-0.3387538,0.52208,0.51307676,-0.319763,0.518672,0.50867837,-0.30223562,0.515575,0.55292212,-0.37687785,0.529763,0.54267767,-0.33166545,0.522365,0.53692238,-0.30550559,0.51805,0.53879778,-0.29202643,0.52229,0.57462275,-0.38170035,0.530378,0.57117268,-0.33981956,0.523882,0.56861528,-0.31773954,0.520558,0.56491241,-0.29799842,0.517536,0.60022904,-0.39441876,0.53092,0.61015033,-0.36017075,0.532171,0.61540306,-0.34464482,0.534289,0.62003542,-0.33095383,0.536157
0.5587579,-0.46219749,0.529285,0.56484277,-0.42593543,0.529436,0.53615071,-0.45093196,0.526835,0.50445733,-0.4355049,0.517853,0.47015169,-0.41588113,0.509559,0.46052774,-0.40744308,0.516723,0.53245809,-0.38312781,0.526346,0.52201023,-0.34107807,0.522185,0.52154338,-0.3235352,0.520105,0.521157,-0.30720488,0.518214,0.55983172,-0.38412797,0.529579,0.54987013,-0.33901544,0.520952,0.54418576,-0.31259001,0.515919,0.53582559,-0.29136632,0.512325,0.58287912,-0.38892238,0.532224,0.57958014,-0.34633866,0.530612,0.58132214,-0.32600591,0.529787,0.58455606,-0.30857116,0.529037,0.61089656,-0.40170431,0.535267,0.61085798,-0.3638595,0.533976,0.61789488,-0.35152699,0.533383,0.62432552,-0.34030071,0.532859
0.55916301,-0.46225345,0.527059,0.56503681,-0.4258015,0.52796,0.54053817,-0.45391738,0.524565,0.50424101,-0.43626395,0.51664,0.4710353,-0.41876969,0.510079,0.45898865,-0.40875178,0.514702,0.53363157,-0.38312581,0.525323,0.53025136,-0.34513977,0.526131,0.53348178,-0.32878577,0.526535,0.53650233,-0.31343004,0.526903,0.56123692,-0.38452907,0.528818,0.55092549,-0.33861324,0.521442,0.55024999,-0.31425125,0.517139,0.54944623,-0.29700925,0.514066,0.58435213,-0.3896019,0.531598,0.58714686,-0.34913441,0.53156,0.58746485,-0.32808655,0.531541,0.5899845,-0.31073399,0.531523,0.61220679,-0.40261267,0.534656,0.6125299,-0.36486111,0.53354,0.61990346,-0.35272336,0.533028,0.62664287,-0.34166521,0.532575
0.56005995,-0.4637436,0.522265,0.56403057,-0.4267774,0.524856,0.54136215,-0.45508442,0.51912,0.50589189,-0.43864825,0.515325,0.4737812,-0.42186354,0.509561,0.45936177,-0.40845217,0.512647,0.53472383,-0.38484877,0.52252,0.5370622,-0.35032321,0.525927,0.53599607,-0.33067419,0.527631,0.54617599,-0.32082717,0.529179,0.56299173,-0.38708897,0.527324,0.55769656,-0.34376312,0.522217,0.55385117,-0.31652683,0.519237,0.55306918,-0.2987692,0.517109,0.58634121,-0.39269299,0.531001,0.59206519,-0.35497324,0.532827,0.59578858,-0.33471456,0.53376,0.59764393,-0.31477003,0.534609,0.61384735,-0.40601194,0.534782,0.61900168,-0.36848766,0.53422,0.6251118,-0.35394656,0.533961,0.63060003,-0.34090052,0.533733
0.56519491,-0.46789354,0.522409,0.56478458,-0.43017336,0.524649,0.5431263,-0.45739078,0.520041,0.51029044,-0.44305234,0.516687,0.47656392,-0.42369484,0.508275,0.46408651,-0.41240222,0.511861,0.53624308,-0.39008944,0.523086,0.53270426,-0.34977539,0.522319,0.53277134,-0.33272874,0.521935,0.53520075,-0.31483867,0.521586,0.56319922,-0.39071835,0.526783,0.55494276,-0.34442295,0.521356,0.55302474,-0.31905521,0.51819,0.5520151,-0.30028993,0.515928,0.58542595,-0.39496393,0.529586,0.59062983,-0.35493802,0.531268,0.59445381,-0.33476046,0.532128,0.59669926,-0.3149782,0.53291,0.61160502,-0.40516178,0.532418,0.61757886,-0.3702289,0.53036,0.61866721,-0.35433791,0.529415,0.62257899,-0.34114649,0.52858
0.56677256,-0.47082741,0.524401,0.56313257,-0.43097525,0.524223,0.54381487,-0.45968583,0.521273,0.50535113,-0.44598866,0.516308,0.47373507,-0.42924289,0.510267,0.46020373,-0.41181311,0.510636,0.53073437,-0.39039854,0.520143,0.52893362,-0.35110838,0.520723,0.5311188,-0.33300447,0.521013,0.53444531,-0.31532423,0.521276,0.55851337,-0.39106059,0.524049,0.55344407,-0.34478293,0.520198,0.55127921,-0.32105003,0.517951,0.55169171,-0.30099912,0.516346,0.5821188,-0.39440674,0.527281,0.57520471,-0.35252422,0.519999,0.57263496,-0.32997843,0.516274,0.57092231,-0.3098337,0.512887,0.60968985,-0.40676812,0.531108,0.61201076,-0.370673,0.527544,0.61436375,-0.3529131,0.525906,0.61762591,-0.33904612,0.524462
0.56221007,-0.4696607,0.521619,0.55637175,-0.43320384,0.522049,0.5401967,-0.45903089,0.519185,0.50145623,-0.44560482,0.514974,0.47004458,-0.42834185,0.508792,0.45432585,-0.4113562,0.507694,0.52757398,-0.39142258,0.519264,0.52538408,-0.35163075,0.519132,0.52614284,-0.33277295,0.519066,0.5252204,-0.31288171,0.519007,0.55480211,-0.39255561,0.52247,0.54649559,-0.34930293,0.519891,0.54483021,-0.32447462,0.518387,0.54703342,-0.30475476,0.517312,0.5773715,-0.39726243,0.52507,0.57186164,-0.35234209,0.518342,0.5697525,-0.32980029,0.5149,0.56858786,-0.30972834,0.511771,0.60291888,-0.41242318,0.528059,0.60667923,-0.37606863,0.527273,0.61107221,-0.36058024,0.526912,0.61875837,-0.34430838,0.526593
0.55687033,-0.4681333,0.521141,0.54493737,-0.43448307,0.520239,0.53172656,-0.46378865,0.51805,0.4887743,-0.44607423,0.513815,0.45842204,-0.42959572,0.509398,0.44312052,-0.41505228,0.509379,0.51472422,-0.39060234,0.515726,0.51893818,-0.35358208,0.520058,0.52401991,-0.33509457,0.522223,0.52551557,-0.31838328,0.524192,0.54225587,-0.39239273,0.519356,0.53166932,-0.34611647,0.514366,0.52894113,-0.32123619,0.511455,0.52718509,-0.30338472,0.509375,0.56519761,-0.39771682,0.522425,0.56237239,-0.3553458,0.520585,0.56543206,-0.3358132,0.519644,0.57365447,-0.31525385,0.518788,0.59268943,-0.41096825,0.526181,0.59181133,-0.37184803,0.521999,0.5965427,-0.3578864,0.520077,0.60187015,-0.34724751,0.518382
0.52413729,-0.48361053,0.523631,0.52538676,-0.4397559,0.519617,0.50492424,-0.47069689,0.522736,0.4703602,-0.44748966,0.515982,0.43898931,-0.42646041,0.50645,0.42535212,-0.40995892,0.505652,0.50195193,-0.39395918,0.515789,0.49878436,-0.35274709,0.511989,0.49721232,-0.33214443,0.510101,0.49578264,-0.31341093,0.508384,0.52660874,-0.39695751,0.515702,0.52154473,-0.3507788,0.508493,0.51884772,-0.32400737,0.504538,0.52033112,-0.30313493,0.503879,0.54679872,-0.40334537,0.515989,0.54287823,-0.35903569,0.510529,0.54209224,-0.33771704,0.507735,0.54139677,-0.31817729,0.505196,0.57035723,-0.41795829,0.516974,0.57572678,-0.38258157,0.515552,0.57819044,-0.36634645,0.514899,0.58070315,-0.35222753,0.514323
0.51979972,-0.47868465,0.517316,0.51863304,-0.43527207,0.514946,0.50068034,-0.46805194,0.51752,0.46523809,-0.44717055,0.512136,0.42992324,-0.43182124,0.505205,0.41229093,-0.41575766,0.501376,0.48761109,-0.39300324,0.513614,0.48317764,-0.35216028,0.512359,0.48330451,-0.33414696,0.511732,0.48343238,-0.31743929,0.511161,0.51147578,-0.39149633,0.512638,0.50619593,-0.34673765,0.510959,0.50655891,-0.32338933,0.509979,0.5081632,-0.30875845,0.509279,0.53149381,-0.39419007,0.512046,0.53451553,-0.35367474,0.512846,0.53606215,-0.3329482,0.513256,0.53746738,-0.31410644,0.513628,0.55584445,-0.40446437,0.511733,0.55474041,-0.36616396,0.504394,0.55451588,-0.34886344,0.501022,0.55433074,-0.33354475,0.498047
0.51092796,-0.47459226,0.511997,0.49993488,-0.43056086,0.509013,0.49049788,-0.46297615,0.510969,0.44353713,-0.44525928,0.504889,0.41098346,-0.42941016,0.499835,0.39373904,-0.4147349,0.49804,0.4711531,-0.38598175,0.505714,0.46290121,-0.34549602,0.502407,0.45877525,-0.32525022,0.500754,0.4550239,-0.30684289,0.499251,0.4962931,-0.38666407,0.506108,0.49765162,-0.34852614,0.513873,0.49845006,-0.32631856,0.518403,0.49902308,-0.31047327,0.521639,0.51732869,-0.39121786,0.506697,0.5089397,-0.34585815,0.500665,0.50771585,-0.32635103,0.497578,0.50679632,-0.30852225,0.494773,0.54277622,-0.40383897,0.507873,0.54397895,-0.36555405,0.503242,0.54552016,-0.34869715,0.502039,0.54688073,-0.33382282,0.500978
0.48338289,-0.46539366,0.500168,0.47509032,-0.42252295,0.501019,0.4538918,-0.45339609,0.499198,0.42074926,-0.43716662,0.499955,0.39239891,-0.4235227,0.499731,0.38135228,-0.41306033,0.505105,0.44957335,-0.37919085,0.500363,0.44073361,-0.33682125,0.494124,0.43773848,-0.31817685,0.491005,0.43501139,-0.30093673,0.488169,0.47560099,-0.38130338,0.501845,0.46625155,-0.33415325,0.495064,0.46382609,-0.3112403,0.491108,0.46290077,-0.29635251,0.488282,0.49705924,-0.3868379,0.502989,0.49642052,-0.34581514,0.503369,0.50000452,-0.32836062,0.503564,0.50336566,-0.31195722,0.503741,0.52236656,-0.40026369,0.504197,0.5316801,-0.36557778,0.504834,0.53689711,-0.35036519,0.506033,0.54149984,-0.33694473,0.507091
0.46695627,-0.46750263,0.496976,0.46290591,-0.43075599,0.497411,0.44688021,-0.45619319,0.496438,0.41298754,-0.44235518,0.497664,0.38937187,-0.42404357,0.49821,0.37671555,-0.41035892,0.499651,0.43790637,-0.38891425,0.497021,0.43846013,-0.35079225,0.499173,0.43883447,-0.33183365,0.500359,0.43917495,-0.31460782,0.501437,0.46340091,-0.39018037,0.497832,0.45906861,-0.34528771,0.494379,0.45654392,-0.31918672,0.492365,0.45538656,-0.30121217,0.490926,0.48435292,-0.39497516,0.498461,0.48315714,-0.35178211,0.495168,0.48351937,-0.33075299,0.493483,0.48386378,-0.3114847,0.491951,0.50891724,-0.40740016,0.49913,0.51386662,-0.37043821,0.495228,0.51654817,-0.35376376,0.493831,0.51891705,-0.3390435,0.492599
0.45503962,-0.46928036,0.496461,0.44900283,-0.42342287,0.497013,0.4373269,-0.46001522,0.498727,0.39601987,-0.43691329,0.496835,0.3672511,-0.42144816,0.494863,0.353822,-0.40747638,0.496525,0.42724098,-0.38248063,0.500243,0.42299031,-0.34166196,0.498243,0.42112757,-0.32856735,0.497242,0.41939251,-0.3161431,0.496333,0.44989056,-0.38222334,0.497546,0.44097432,-0.336578,0.490948,0.43602719,-0.31140969,0.4871,0.43247833,-0.29320834,0.484351,0.46848375,-0.38581618,0.495275,0.47815302,-0.35102903,0.504695,0.48313651,-0.33322071,0.509514,0.48766718,-0.31702428,0.513895,0.49030055,-0.39695747,0.492516,0.49173418,-0.35839497,0.488245,0.49305659,-0.34286361,0.486283,0.49426429,-0.32898068,0.484551
0.43843676,-0.46413971,0.492459,0.43057414,-0.42247842,0.492562,0.41917036,-0.45367016,0.493235,0.38157276,-0.43872928,0.495005,0.35604041,-0.42564618,0.497869,0.34636945,-0.41475433,0.503792,0.40480728,-0.38214785,0.493611,0.40863876,-0.34758194,0.501453,0.41081146,-0.33054535,0.505687,0.41278671,-0.31505974,0.509536,0.42885001,-0.38133665,0.49266,0.42976956,-0.34137046,0.497971,0.43036357,-0.31807123,0.501069,0.43078626,-0.30140822,0.503282,0.44874514,-0.38448333,0.491869,0.44701225,-0.34169162,0.488089,0.44612868,-0.31974894,0.486156,0.44532608,-0.2997707,0.484398,0.47240078,-0.39506292,0.490922,0.47656982,-0.35823505,0.485958,0.47850449,-0.34124275,0.483677,0.48022157,-0.32621117,0.481664
0.41491752,-0.45777596,0.482927,0.40769248,-0.41741164,0.484871,0.38883011,-0.45004883,0.486302,0.36094748,-0.435073,0.491631,0.33290464,-0.41976999,0.490854,0.3162492,-0.40339629,0.487267,0.38781125,-0.37867956,0.490427,0.39054881,-0.34489891,0.499154,0.39201336,-0.32809935,0.503639,0.39336992,-0.31284547,0.507749,0.40963221,-0.37764665,0.486734,0.40662244,-0.33487283,0.487481,0.40487518,-0.31001916,0.487917,0.40336297,-0.29340061,0.488229,0.42742389,-0.38053103,0.483519,0.42880171,-0.34087992,0.486626,0.42960442,-0.32068775,0.488326,0.43033306,-0.30233466,0.48987,0.44804623,-0.39067302,0.479425,0.4596513,-0.35833562,0.485701,0.46520754,-0.34368418,0.488826,0.47010903,-0.33076108,0.491583
0.40144168,-0.46397392,0.489262,0.39179919,-0.41861208,0.487753,0.37704038,-0.45333323,0.493754,0.3458835,-0.4403228,0.496711,0.31937891,-0.42625572,0.498353,0.30685215,-0.41357262,0.501427,0.37295761,-0.37832907,0.492445,0.36268875,-0.33910063,0.484338,0.35751473,-0.31916733,0.480285,0.35278625,-0.30085011,0.4766,0.39158804,-0.37671481,0.486308,0.38706861,-0.33433933,0.486081,0.38441652,-0.30946395,0.485949,0.38251506,-0.29162464,0.485855,0.40712044,-0.37934556,0.481392,0.40506724,-0.33503954,0.475976,0.40281906,-0.31379891,0.473204,0.40077731,-0.29428139,0.470685,0.42568634,-0.38967335,0.47586,0.43435805,-0.35369363,0.476552,0.4389108,-0.33779193,0.47759,0.44292912,-0.32375117,0.478505
0.38667463,-0.46302799,0.489608,0.37842968,-0.41811899,0.488088,0.36714596,-0.45079069,0.489222,0.32677251,-0.43379844,0.488066,0.30216121,-0.42266897,0.492646,0.29131945,-0.41186825,0.497949,0.35115877,-0.37591943,0.486595,0.35051658,-0.33929138,0.491256,0.35020461,-0.32106617,0.493587,0.35002055,-0.30485889,0.495706,0.37596217,-0.37582598,0.48663,0.36414619,-0.32729267,0.477663,0.35854546,-0.30406644,0.472432,0.35526707,-0.29103687,0.468695,0.39656447,-0.37969736,0.486796,0.39609811,-0.3395604,0.488646,0.39585829,-0.31899186,0.489593,0.3956394,-0.3002735,0.490454,0.42122005,-0.39137728,0.487239,0.42200686,-0.35281243,0.480667,0.42238001,-0.33503141,0.477647,0.42271633,-0.31930948,0.474983
0.36536034,-0.45520845,0.478578,0.35867289,-0.41494632,0.478753,0.34801027,-0.44709448,0.481635,0.31422762,-0.43064697,0.486113,0.29034797,-0.41584187,0.489431,0.27637489,-0.40003314,0.488814,0.33740871,-0.37519062,0.482737,0.33210811,-0.33450721,0.48012,0.32957624,-0.31429005,0.478982,0.32728822,-0.29591885,0.477968,0.35916548,-0.37398214,0.47892,0.35087176,-0.32715321,0.472659,0.34534306,-0.30175817,0.469007,0.34137131,-0.28343193,0.466399,0.3770276,-0.37682758,0.475762,0.37548109,-0.33312459,0.472241,0.37468447,-0.31095479,0.47044,0.37285563,-0.29532013,0.468803,0.39797632,-0.38711525,0.472022,0.40879571,-0.35386148,0.477002,0.41407991,-0.3388957,0.479663,0.41874095,-0.3256936,0.48201
0.34909163,-0.45645009,0.476889,0.34392291,-0.4151882,0.478082,0.33314852,-0.44823929,0.48129,0.2977838,-0.43155486,0.485757,0.27364364,-0.41790712,0.489504,0.26061159,-0.40353674,0.49095,0.32566728,-0.37685617,0.48444,0.3210606,-0.33388644,0.480433,0.31592514,-0.31682582,0.47843,0.31037338,-0.30476249,0.476609,0.34641391,-0.37546669,0.479224,0.34047212,-0.32800498,0.473571,0.33506193,-0.30436562,0.470274,0.33111636,-0.28721591,0.467918,0.36316742,-0.37804767,0.474824,0.36350546,-0.33933747,0.479449,0.36369804,-0.31978614,0.481816,0.36208417,-0.30587074,0.483967,0.38231772,-0.38776102,0.469458,0.38320963,-0.34943012,0.464057,0.38347035,-0.33232436,0.461576,0.38371639,-0.31712581,0.459387
0.33586939,-0.45903137,0.479777,0.32716079,-0.41462034,0.477405,0.31878248,-0.449504,0.482667,0.28182883,-0.43007745,0.484462,0.25764426,-0.41500377,0.487465,0.2442792,-0.39964579,0.487878,0.30454488,-0.37416057,0.479502,0.3039043,-0.33569735,0.481294,0.30359195,-0.3166437,0.48219,0.30122722,-0.30170781,0.483004,0.32602123,-0.37263912,0.475137,0.32635149,-0.33136513,0.478565,0.32548719,-0.30801694,0.480565,0.32485024,-0.29111909,0.481994,0.34371993,-0.37531896,0.471758,0.34222948,-0.33322511,0.469329,0.34146799,-0.31161388,0.468087,0.34075033,-0.29195729,0.466957,0.36464449,-0.38554237,0.468172,0.36445769,-0.34641383,0.460014,0.36361387,-0.33162412,0.456266,0.36290921,-0.31835026,0.452959
0.31892155,-0.45880911,0.477661,0.31243192,-0.41856742,0.47704,0.30329838,-0.45063618,0.482279,0.26925784,-0.43527177,0.487677,0.24533804,-0.42114521,0.491516,0.2343687,-0.40719986,0.494697,0.29425659,-0.37942595,0.482484,0.29286244,-0.33834575,0.481117,0.28826928,-0.32096465,0.480433,0.284001,-0.30478719,0.479812,0.31385231,-0.37821184,0.476449,0.30833054,-0.33272554,0.471591,0.30382167,-0.30747383,0.468756,0.3005874,-0.28931251,0.466732,0.32984182,-0.38104296,0.471539,0.3295893,-0.33546923,0.466211,0.32594567,-0.31681146,0.463485,0.32258827,-0.29941113,0.461007,0.34836708,-0.39126115,0.465869,0.35521589,-0.354463,0.464911,0.35729478,-0.33871508,0.464471,0.35915098,-0.3246757,0.464082
0.30417481,-0.45685367,0.473131,0.29959913,-0.41358444,0.47348,0.28989524,-0.4501936,0.479502,0.25871772,-0.43269754,0.483556,0.23537538,-0.41829699,0.487494,0.22908351,-0.40648831,0.493119,0.28077567,-0.37770658,0.481788,0.2780832,-0.33716832,0.48052,0.27674718,-0.31710594,0.479886,0.27102638,-0.30321499,0.47931,0.29897691,-0.37270648,0.473812,0.29603323,-0.33127287,0.476186,0.29431498,-0.30709136,0.477571,0.29308692,-0.28981326,0.47856,0.31393449,-0.37246418,0.467215,0.31813618,-0.33121598,0.467753,0.31543639,-0.31404058,0.468028,0.31287994,-0.29785435,0.468278,0.33157448,-0.37914344,0.45941,0.33109961,-0.34159877,0.452326,0.33090514,-0.32418534,0.449071,0.33074735,-0.30873221,0.4462
0.2988498,-0.45708674,0.473286,0.28814198,-0.4157894,0.473705,0.278496,-0.44945357,0.477882,0.247807,-0.43281954,0.484822,0.22603374,-0.41828136,0.490082,0.21422471,-0.40327534,0.49189,0.26832939,-0.37862044,0.479813,0.26932076,-0.33960179,0.481325,0.26714875,-0.32132052,0.482081,0.26514095,-0.30445779,0.482769,0.28822724,-0.37648593,0.474101,0.28439462,-0.32968749,0.469514,0.27833274,-0.30596202,0.466839,0.27393325,-0.28867362,0.464928,0.30461066,-0.37854755,0.46936,0.30457569,-0.33465332,0.464288,0.30287078,-0.31385018,0.461692,0.30327388,-0.29469193,0.459333,0.32381844,-0.38782206,0.463727,0.32866854,-0.34884652,0.458814,0.33084377,-0.33116411,0.456557,0.3279448,-0.32456748,0.454565
0.29071804,-0.45700093,0.472028,0.28632272,-0.41619019,0.4729,0.27527759,-0.44950522,0.476933,0.24624943,-0.43379135,0.484116,0.2241658,-0.41938159,0.48925,0.21290266,-0.40473278,0.491701,0.26664431,-0.37972704,0.479694,0.26792019,-0.33922346,0.479162,0.26435068,-0.32192536,0.478896,0.2610335,-0.30583731,0.478655,0.28629309,-0.37715227,0.473722,0.27779067,-0.33285448,0.470317,0.27333969,-0.30693881,0.468331,0.27261078,-0.2891764,0.466912,0.3024792,-0.37882592,0.468726,0.30189268,-0.3339079,0.462406,0.29910483,-0.31355038,0.459172,0.29567602,-0.29606323,0.456232,0.3214712,-0.38759757,0.462719,0.32546137,-0.34827563,0.456867,0.32724797,-0.33040754,0.454178,0.32375729,-0.32407843,0.451805
0.28886104,-0.45894635,0.473195,0.28524119,-0.41751984,0.473348,0.26983683,-0.45166879,0.478066,0.24245741,-0.43623653,0.484082,0.21614309,-0.42294941,0.488051,0.20853247,-0.4082885,0.492104,0.26591325,-0.38034255,0.47964,0.25758756,-0.33986797,0.475341,0.25413782,-0.31907998,0.473191,0.25211612,-0.30333144,0.471237,0.28537602,-0.37797513,0.473491,0.27849968,-0.33338665,0.469929,0.27354155,-0.30816635,0.467851,0.27145601,-0.2899995,0.466367,0.30008874,-0.38093035,0.468416,0.29909581,-0.33541181,0.462604,0.29171879,-0.3179917,0.45963,0.28623218,-0.30103463,0.456927,0.31879345,-0.39018584,0.462436,0.32124488,-0.34974499,0.456127,0.3162777,-0.33675863,0.453228,0.31708326,-0.32441778,0.45067
0.28376692,-0.46047484,0.473677,0.28424525,-0.41821387,0.473526,0.26866902,-0.45240471,0.478549,0.23844744,-0.43654036,0.483653,0.21450307,-0.42204157,0.487352,0.20256326,-0.40776788,0.489758,0.26535579,-0.38060598,0.479622,0.25818833,-0.34011312,0.476299,0.25459836,-0.31985516,0.474637,0.24959316,-0.30272668,0.473126,0.28365897,-0.3793224,0.473385,0.27740072,-0.33394266,0.469135,0.27250596,-0.30847949,0.466655,0.27013281,-0.28990237,0.464885,0.29947123,-0.3815675,0.468264,0.29790615,-0.33563646,0.461941,0.29125893,-0.31762528,0.458707,0.28838973,-0.2993195,0.455766,0.31714543,-0.39285876,0.462281,0.31944055,-0.35265173,0.457172,0.3185731,-0.3367847,0.454825,0.31770547,-0.3263485,0.452754
0.28576891,-0.45891645,0.471863,0.28338383,-0.41754062,0.471965,0.27014525,-0.45067652,0.4762,0.24275979,-0.43400248,0.481893,0.2142757,-0.4160191,0.47829,0.2078006,-0.40341725,0.487107,0.26292495,-0.38062701,0.477544,0.26086973,-0.34036679,0.476595,0.25922544,-0.32076124,0.476121,0.2559584,-0.30405781,0.47569,0.28368696,-0.37805381,0.472061,0.27928035,-0.33603205,0.471715,0.27829696,-0.31181657,0.473603,0.27745005,-0.29499599,0.474951,0.30010136,-0.38042572,0.467538,0.29924261,-0.33528481,0.462119,0.29669446,-0.3151289,0.459347,0.29545297,-0.29609419,0.456827,0.3193431,-0.39015095,0.462214,0.3218652,-0.34997856,0.455822,0.32560514,-0.33090428,0.452884,0.32016672,-0.32505376,0.450293
0.28746458,-0.45718864,0.469738,0.29251465,-0.41469184,0.47132,0.27419873,-0.4518,0.477384,0.25449432,-0.43168477,0.481067,0.22601112,-0.40868237,0.477356,0.2191121,-0.39657359,0.482678,0.282785,-0.38301726,0.482061,0.28684228,-0.34854512,0.487085,0.2772709,-0.34176126,0.489597,0.26792673,-0.33509496,0.491881,0.29801837,-0.3783528,0.472803,0.29082969,-0.33499338,0.46752,0.28639189,-0.30956238,0.464438,0.28133336,-0.29263218,0.462237,0.3101544,-0.37842684,0.465036,0.31865562,-0.33573609,0.462016,0.30840709,-0.32837453,0.46047,0.2985492,-0.32131472,0.459065,0.32375729,-0.38567747,0.455663,0.33498633,-0.34682612,0.449107,0.33423582,-0.33177708,0.446094,0.32928482,-0.32305614,0.443436
0.2938973,-0.45556486,0.470611,0.30183542,-0.40321816,0.466983,0.28458481,-0.44122333,0.472243,0.25463649,-0.41240327,0.472151,0.22975362,-0.39278001,0.471792,0.21931113,-0.37662258,0.473527,0.28146678,-0.3598393,0.466714,0.27609049,-0.31660944,0.45658,0.2734022,-0.2949713,0.451512,0.27095937,-0.27528746,0.446906,0.30365247,-0.36126618,0.463581,0.3037992,-0.31809422,0.462668,0.303669,-0.29314531,0.462135,0.3033529,-0.27545736,0.461754,0.32173864,-0.36653125,0.461335,0.31850222,-0.32094112,0.451573,0.31656461,-0.29828285,0.446579,0.31480897,-0.27761407,0.442039,0.3426888,-0.38007003,0.459297,0.35010372,-0.34130896,0.454644,0.35215479,-0.327406,0.452506,0.35754131,-0.31578807,0.45062
0.31627415,-0.42264141,0.456072,0.31870875,-0.38164162,0.458506,0.29629799,-0.41159776,0.455149,0.27080131,-0.39283892,0.460399,0.25171576,-0.37958589,0.468364,0.24944179,-0.37201016,0.479738,0.29490176,-0.34114015,0.458904,0.30092324,-0.30706834,0.467431,0.30396275,-0.29006887,0.471735,0.30672542,-0.27461922,0.475647,0.32099086,-0.34322854,0.460788,0.32506453,-0.30419817,0.466618,0.3275977,-0.28159638,0.470244,0.32940823,-0.26544972,0.472834,0.34223433,-0.34870596,0.462115,0.34171087,-0.30463903,0.458563,0.34253069,-0.28552472,0.456745,0.34333233,-0.26768211,0.455092,0.36675247,-0.36187274,0.463272,0.37458907,-0.32582572,0.460971,0.37819528,-0.30924089,0.459913,0.38138099,-0.29459588,0.45898
0.32641236,-0.42021724,0.457005,0.33555363,-0.37634593,0.459618,0.31504045,-0.40701314,0.455722,0.28766345,-0.3907672,0.460918,0.26788919,-0.38010552,0.469534,0.26419631,-0.37347124,0.481101,0.30885008,-0.33740105,0.459675,0.31353992,-0.30142259,0.465548,0.31595968,-0.28330946,0.468484,0.31816377,-0.26667592,0.471154,0.33526412,-0.33821562,0.462068,0.33967034,-0.29928847,0.468004,0.34247304,-0.27683082,0.471787,0.34449153,-0.26080893,0.474512,0.35701776,-0.34262143,0.463798,0.35573642,-0.30127978,0.464264,0.35882992,-0.29446971,0.464503,0.3618639,-0.28774748,0.46472,0.38256291,-0.35448041,0.465398,0.3892573,-0.3196858,0.467387,0.39464675,-0.30889059,0.468301,0.39958329,-0.29891717,0.469107
0.36494035,-0.4071595,0.473442,0.36172145,-0.36143211,0.471587,0.34201891,-0.39413698,0.469585,0.3122869,-0.37097437,0.469279,0.30185123,-0.36842453,0.48701,0.29954437,-0.36244085,0.499134,0.33136319,-0.31715614,0.465486,0.33339182,-0.28085736,0.469581,0.3343995,-0.26240123,0.471629,0.33531098,-0.24544426,0.47349,0.3587617,-0.3200088,0.469847,0.35123468,-0.27812825,0.460157,0.34684118,-0.25304857,0.454504,0.34387229,-0.23516206,0.450466,0.38173029,-0.3263603,0.473608,0.38176952,-0.28647458,0.473226,0.38629723,-0.27604794,0.473031,0.39071304,-0.26591026,0.472854,0.40951698,-0.34110394,0.478325,0.41479798,-0.30473739,0.472447,0.41727683,-0.28786385,0.469746,0.41949287,-0.27288634,0.467363
0.38408102,-0.38494899,0.478654,0.3825914,-0.34100718,0.475134,0.36174522,-0.37205813,0.474157,0.33243386,-0.35056283,0.474563,0.31904052,-0.34212598,0.488399,0.31320103,-0.33101253,0.496332,0.35323398,-0.29636235,0.467145,0.34347424,-0.25302387,0.456468,0.33862436,-0.23137194,0.45113,0.33421826,-0.21166803,0.446277,0.38119563,-0.29978863,0.471834,0.37630951,-0.25439448,0.465592,0.37345925,-0.22796076,0.461951,0.37142305,-0.20910075,0.45935,0.40442009,-0.30665292,0.476017,0.40091176,-0.261014,0.468201,0.4031611,-0.24289929,0.464202,0.40539304,-0.22590593,0.460566,0.43198918,-0.32198559,0.481504,0.43944289,-0.284817,0.47754,0.44280592,-0.26793387,0.475719,0.44832112,-0.25651992,0.474112
0.41502353,-0.35358243,0.480656,0.41600476,-0.31320255,0.484066,0.39306484,-0.34188693,0.47738,0.36388843,-0.32327908,0.479795,0.35054359,-0.31966695,0.495532,0.34502142,-0.31187317,0.505541,0.38875324,-0.27239143,0.482104,0.38153706,-0.23111752,0.477692,0.37797258,-0.2104745,0.475486,0.37473633,-0.19169129,0.47348,0.41692673,-0.27537073,0.487264,0.41486881,-0.23356897,0.488314,0.41384223,-0.20930812,0.489129,0.41310831,-0.19198256,0.48971,0.44007744,-0.28153023,0.491198,0.43865588,-0.24166907,0.490586,0.44337367,-0.22276594,0.490272,0.4478294,-0.20496098,0.489988,0.46713895,-0.29542839,0.495253,0.47530252,-0.26024248,0.495233,0.47901917,-0.24422369,0.495224,0.48550096,-0.23214685,0.495217
0.40941549,-0.32427524,0.471634,0.42339283,-0.2898785,0.483247,0.39392598,-0.3141698,0.475129,0.37657639,-0.29818027,0.487293,0.37412698,-0.29886388,0.509584,0.37614844,-0.29398773,0.523761,0.41265273,-0.25463422,0.495189,0.41841762,-0.22305142,0.504082,0.42193763,-0.20536774,0.508528,0.42513553,-0.1890334,0.51257,0.43651401,-0.25746039,0.494136,0.44017591,-0.21970762,0.498681,0.44380008,-0.1961113,0.501332,0.4464086,-0.17888109,0.503226,0.45487509,-0.26296896,0.492203,0.46247326,-0.22916461,0.498065,0.4687151,-0.20997336,0.501064,0.47454844,-0.19197458,0.503791,0.47409687,-0.27513113,0.488023,0.49064105,-0.24509784,0.493973,0.49842014,-0.23116725,0.496706,0.50590616,-0.21836126,0.499118
0.42418532,-0.32831472,0.483145,0.43385525,-0.28485275,0.486879,0.40182614,-0.31358921,0.478658,0.37554597,-0.28948835,0.466499,0.35594191,-0.28150565,0.476503,0.34468508,-0.26776115,0.478024,0.40894437,-0.24196294,0.483586,0.41535821,-0.20721348,0.49164,0.4185642,-0.18966712,0.495668,0.42275613,-0.17283564,0.499329,0.43858925,-0.24747736,0.49038,0.44292696,-0.20901303,0.496346,0.44674555,-0.1857556,0.499825,0.44982088,-0.16878282,0.502311,0.46276731,-0.25572477,0.49563,0.46585743,-0.21767699,0.498189,0.47021772,-0.19736009,0.499498,0.47732776,-0.18100171,0.500688,0.49055177,-0.2721277,0.501175,0.50614014,-0.23929411,0.503057,0.51331061,-0.22418596,0.503921,0.5196428,-0.21084406,0.504684
0.45064857,-0.31114431,0.49946,0.45681436,-0.27060266,0.501811,0.42767195,-0.2946693,0.492863,0.39728109,-0.26975026,0.477538,0.37523738,-0.25884435,0.484629,0.36455129,-0.24291414,0.484356,0.43177363,-0.22464783,0.494943,0.44613834,-0.19377939,0.508302,0.45333512,-0.17815401,0.514982,0.46289471,-0.1622336,0.521055,0.46254766,-0.23308451,0.504015,0.47044627,-0.19528387,0.51236,0.47505432,-0.17299704,0.517227,0.4783469,-0.15697374,0.520704,0.48759747,-0.24375882,0.511267,0.50082148,-0.20820336,0.519975,0.50759376,-0.18995761,0.52443,0.51375423,-0.1733395,0.52848,0.51634075,-0.26308517,0.51939,0.52946407,-0.22839862,0.518385,0.53553143,-0.21236958,0.517923,0.54090465,-0.19817764,0.517515
0.45118595,-0.30392027,0.500725,0.46163159,-0.25719313,0.505525,0.43437863,-0.29147205,0.501392,0.40799169,-0.2593144,0.50218,0.38354506,-0.23722335,0.500099,0.37024343,-0.21620463,0.492775,0.44716995,-0.21573626,0.509472,0.45768178,-0.18211562,0.518767,0.46299328,-0.16532056,0.523477,0.46782245,-0.15004607,0.527759,0.47203344,-0.22049495,0.510025,0.4833783,-0.18360978,0.519179,0.49004585,-0.16206662,0.524519,0.49546223,-0.14559797,0.528334,0.49151626,-0.22802468,0.51004,0.50495641,-0.19253793,0.517408,0.51234616,-0.17383711,0.521178,0.52003186,-0.15581672,0.524605,0.51254849,-0.24332989,0.509268,0.5314599,-0.21320417,0.514672,0.5401416,-0.19938069,0.517155,0.54796318,-0.18706317,0.519346
0.46244801,-0.27557437,0.507259,0.4750588,-0.23783589,0.513879,0.444705,-0.26156958,0.506393,0.414356,-0.23590908,0.502488,0.39021241,-0.21624831,0.502661,0.37690639,-0.19657834,0.498496,0.46062007,-0.19559838,0.517052,0.46635308,-0.15894791,0.519974,0.46920265,-0.14082723,0.521435,0.47588271,-0.1243236,0.522763,0.48689317,-0.20238052,0.520085,0.49791532,-0.16527121,0.528029,0.50433016,-0.14378927,0.532663,0.51173237,-0.12632476,0.535973,0.50736962,-0.21143662,0.521975,0.52297407,-0.17623432,0.529532,0.53157006,-0.15777694,0.533398,0.53939375,-0.14096165,0.536913,0.52931633,-0.22828952,0.523103,0.54457294,-0.19932849,0.525667,0.55554306,-0.1852163,0.526845,0.56542939,-0.17245477,0.527884
0.47438451,-0.27128166,0.515403,0.48901753,-0.22432604,0.521493,0.46111811,-0.25029774,0.515646,0.43095954,-0.22737493,0.513956,0.40402419,-0.20671526,0.510748,0.38962692,-0.18772878,0.506618,0.47305702,-0.18359753,0.525734,0.48650075,-0.15186363,0.536812,0.49334827,-0.13605877,0.542492,0.499572,-0.1216977,0.547655,0.49859862,-0.18819528,0.527203,0.50521237,-0.14731208,0.53113,0.50919472,-0.12350802,0.533552,0.51205733,-0.10648041,0.535282,0.51868991,-0.19552046,0.527854,0.53077817,-0.16055695,0.53484,0.5383826,-0.14123443,0.538414,0.54662462,-0.12253574,0.541664,0.54056981,-0.21045952,0.527616,0.56185512,-0.18288763,0.536355,0.57167447,-0.17019523,0.540371,0.58033634,-0.15900014,0.543914
0.48268311,-0.25489228,0.519376,0.49669636,-0.20998363,0.529802,0.4654829,-0.23222005,0.519699,0.43907826,-0.20914951,0.521318,0.41214955,-0.18194469,0.511286,0.40274865,-0.16547969,0.513333,0.48354033,-0.17100596,0.536943,0.49993758,-0.1421448,0.551452,0.50815771,-0.12772765,0.558731,0.51563087,-0.11462434,0.565349,0.50966712,-0.17707929,0.539576,0.5196721,-0.13846204,0.546701,0.52559516,-0.11597585,0.55095,0.52982556,-0.099918701,0.553985,0.52991868,-0.18530081,0.540788,0.54633114,-0.15366231,0.550078,0.55633892,-0.13579761,0.554831,0.56824832,-0.11754333,0.559152,0.5514191,-0.20073101,0.540495,0.57661347,-0.17522077,0.549446,0.58818029,-0.16351676,0.553559,0.59838039,-0.15319787,0.557187
0.49886597,-0.2449832,0.532246,0.51811428,-0.20326187,0.542191,0.48764924,-0.22768128,0.535246,0.46279467,-0.20603019,0.536322,0.42562653,-0.18021446,0.518797,0.40825871,-0.16491849,0.51674,0.50881565,-0.1653198,0.552491,0.51676965,-0.1312999,0.560793,0.52109364,-0.11305528,0.564944,0.52502819,-0.096343492,0.568718,0.53272122,-0.16900867,0.55163,0.54417747,-0.13556248,0.562842,0.55157796,-0.11393509,0.569383,0.55785263,-0.096127497,0.574055,0.55108613,-0.17535138,0.550019,0.56309948,-0.13992761,0.559251,0.56924303,-0.12183815,0.563974,0.57482702,-0.10541279,0.568268,0.57019814,-0.18875745,0.546504,0.58852299,-0.16096215,0.554813,0.59691207,-0.14828919,0.558631,0.60593279,-0.13463944,0.562
0.4988907,-0.24277707,0.532474,0.51706115,-0.20299291,0.541811,0.48604036,-0.22617234,0.535136,0.45877621,-0.1979415,0.534322,0.43496129,-0.1774996,0.533643,0.42579505,-0.15617412,0.527891,0.50898347,-0.16366039,0.551286,0.5177177,-0.130497,0.560455,0.5223566,-0.11315538,0.56504,0.52657468,-0.097339116,0.569208,0.53256187,-0.1689746,0.550672,0.54655822,-0.13616162,0.563467,0.55537347,-0.11550294,0.570931,0.56217782,-0.099564426,0.576262,0.55048871,-0.17660605,0.549321,0.56086309,-0.13951807,0.556444,0.56616968,-0.12055384,0.560088,0.5709936,-0.10332003,0.563401,0.56885744,-0.19142076,0.54621,0.58797147,-0.1631359,0.554938,0.59674288,-0.15017662,0.558949,0.60528809,-0.13751303,0.562487
0.50680681,-0.23770439,0.537522,0.52414287,-0.1948825,0.545377,0.4893728,-0.22348837,0.537059,0.46166388,-0.19061036,0.53288,0.4355004,-0.1669351,0.527708,0.42339932,-0.15120733,0.524517,0.51251848,-0.15228764,0.549942,0.52007309,-0.12100279,0.559748,0.52565232,-0.10310062,0.564651,0.53073268,-0.086684555,0.569109,0.53818303,-0.16026607,0.552863,0.55158374,-0.12721334,0.56641,0.56024109,-0.10690093,0.574312,0.56642617,-0.092355882,0.579956,0.5579561,-0.17009617,0.55456,0.57199039,-0.13715063,0.565916,0.57916587,-0.1203751,0.571727,0.58468712,-0.10609248,0.577009,0.5787802,-0.18753083,0.555276,0.59479046,-0.15652881,0.561485,0.60213578,-0.14232278,0.564338,0.61029871,-0.12872126,0.566855
0.5066806,-0.23468454,0.537522,0.52528631,-0.19317938,0.547747,0.49120559,-0.21854317,0.539091,0.46515548,-0.18564656,0.537762,0.43986196,-0.16132875,0.532759,0.42783907,-0.14062617,0.527712,0.51658059,-0.14999919,0.556467,0.52491237,-0.11734014,0.565761,0.52907901,-0.10110369,0.570408,0.53493791,-0.085874521,0.574632,0.54131001,-0.15680731,0.557533,0.55539368,-0.12314457,0.569698,0.56438563,-0.10224833,0.576794,0.56993,-0.089360842,0.581862,0.56006884,-0.16560764,0.557491,0.57294,-0.13085308,0.567521,0.57967543,-0.11312857,0.572803,0.58782924,-0.10146507,0.579364,0.57919821,-0.18170498,0.555784,0.59684789,-0.1520455,0.563489,0.60497343,-0.14073145,0.567029,0.61327866,-0.12763467,0.570153
0.50746005,-0.23327428,0.538429,0.52545019,-0.1925325,0.54831,0.49204465,-0.2173028,0.540042,0.46538383,-0.1857377,0.538026,0.44003947,-0.16139385,0.532974,0.42784799,-0.14062911,0.527723,0.51698162,-0.15011563,0.556899,0.52551915,-0.11747578,0.566415,0.5297895,-0.10123946,0.571174,0.53543232,-0.085457777,0.575499,0.54159157,-0.15688888,0.557823,0.55562766,-0.12319645,0.569938,0.56459209,-0.10228573,0.577005,0.57066439,-0.08829089,0.582053,0.56027579,-0.16566883,0.557697,0.57308033,-0.13088513,0.56766,0.57978371,-0.1131497,0.57291,0.58713322,-0.099979662,0.578759,0.57936808,-0.18175827,0.555947,0.59728216,-0.15215613,0.563899,0.60552132,-0.14010717,0.567553,0.61375967,-0.12716596,0.570776
0.51015747,-0.2339645,0.540405,0.52672994,-0.19385908,0.54943,0.49420743,-0.22049218,0.541651,0.475389,-0.1948474,0.543321,0.44854161,-0.16906837,0.535672,0.42985388,-0.14472103,0.529058,0.51637037,-0.15214804,0.557015,0.52527721,-0.11994941,0.566086,0.52988313,-0.10300953,0.570622,0.53476845,-0.086304741,0.574745,0.54180384,-0.15916545,0.558164,0.55450551,-0.12529171,0.570207,0.5606687,-0.10623711,0.577231,0.56907383,-0.088514136,0.582249,0.56075604,-0.16776672,0.558305,0.57426533,-0.13368566,0.569086,0.5813881,-0.11632648,0.574813,0.58790699,-0.10056094,0.580063,0.58041748,-0.1822751,0.557013,0.59757038,-0.15408851,0.564715,0.60578781,-0.14013187,0.568254,0.61427896,-0.12690305,0.571377
0.51176091,-0.23430923,0.541474,0.52767978,-0.19472133,0.550292,0.49556655,-0.22090724,0.542593,0.47594461,-0.19507512,0.543956,0.44876434,-0.16915232,0.535938,0.43149315,-0.14573218,0.530023,0.51653523,-0.15330129,0.55758,0.52559544,-0.1205851,0.566548,0.53024451,-0.10360005,0.571032,0.53512968,-0.086933758,0.575109,0.54209464,-0.15970436,0.558827,0.55434095,-0.12567881,0.570766,0.56035182,-0.10592882,0.577731,0.56845103,-0.088699461,0.582705,0.56127568,-0.16807029,0.559066,0.5747544,-0.13400879,0.569855,0.58189858,-0.11666931,0.575623,0.58839418,-0.1009136,0.580868,0.58133606,-0.18265716,0.557924,0.59788931,-0.15428245,0.565354,0.60604652,-0.1401696,0.568767,0.61463488,-0.12675393,0.571779
0.51602964,-0.2330926,0.544139,0.5296936,-0.19382646,0.551996,0.49894218,-0.21742626,0.544082,0.47149777,-0.19022131,0.541393,0.44503883,-0.16543519,0.535027,0.43136553,-0.1457984,0.530023,0.51700198,-0.149715,0.557163,0.52617801,-0.11723803,0.567407,0.53109559,-0.10050962,0.572529,0.5366588,-0.086120302,0.577185,0.54311281,-0.15625285,0.559612,0.55641655,-0.12282086,0.57233,0.56063689,-0.10019881,0.579748,0.5697968,-0.087212975,0.585047,0.56326847,-0.16155036,0.560931,0.57699811,-0.12746097,0.571708,0.58408763,-0.11005665,0.577288,0.58978946,-0.098791513,0.58236,0.58582038,-0.17639742,0.561219,0.59848906,-0.14849671,0.567867,0.60770783,-0.13290217,0.570921,0.61688992,-0.12626567,0.573616
0.51270772,-0.23264159,0.541399,0.52815696,-0.19365658,0.550308,0.49627704,-0.21770749,0.542076,0.46689902,-0.18802401,0.538189,0.44033013,-0.16401092,0.53247,0.42831867,-0.14456724,0.529253,0.51664897,-0.15251769,0.557101,0.52563817,-0.11987073,0.566727,0.53070449,-0.10273391,0.571539,0.53578336,-0.086237251,0.575915,0.54213361,-0.1587228,0.558943,0.5541141,-0.12493351,0.571008,0.561835,-0.10302479,0.578046,0.56844211,-0.087564686,0.583073,0.56155437,-0.16736398,0.559668,0.57660612,-0.13464632,0.571387,0.58423395,-0.11933459,0.577507,0.59129515,-0.1020806,0.58307,0.58248668,-0.18303477,0.559089,0.59776329,-0.15431045,0.565492,0.6052202,-0.14027741,0.568434,0.61397822,-0.12613452,0.57103
0.51195661,-0.23259379,0.540402,0.52637792,-0.19890872,0.548782,0.495472,-0.21921398,0.541323,0.46974489,-0.19369141,0.538856,0.44398751,-0.1688428,0.533014,0.43172793,-0.15003869,0.531546,0.51470658,-0.15617491,0.555531,0.52372683,-0.12347298,0.564858,0.52890312,-0.10620109,0.569521,0.53349834,-0.092292219,0.57376,0.54059468,-0.16339273,0.556905,0.55172291,-0.12981892,0.568735,0.55934443,-0.10872558,0.575637,0.56409417,-0.091891564,0.580566,0.55963446,-0.17215201,0.557292,0.57469651,-0.13906619,0.568996,0.58256772,-0.12221864,0.575151,0.58897225,-0.10491448,0.580747,0.57970366,-0.18823672,0.5564,0.59437314,-0.15900346,0.562605,0.60281968,-0.14419526,0.565456,0.61127845,-0.13354454,0.567972
