sluyters/QuantumLeap/backend/src/datasets/dynamic/HandGestureDataset_SHREC2017_csv/Gesture11/finger_2/subject_1_essai_4_skeletons_world.csv
Wrist_x,Wrist_y,Wrist_z,Palm_x,Palm_y,Palm_z,thumb_base_x,thumb_base_y,thumb_base_z,thumb_first_joint_x,thumb_first_joint_y,thumb_first_joint_z,thumb_second_joint_x,thumb_second_joint_y,thumb_second_joint_z,thumb_tip_x,thumb_tip_y,thumb_tip_z,index_base_x,index_base_y,index_base_z,index_first_joint_x,index_first_joint_y,index_first_joint_z,index_second_joint_x,index_second_joint_y,index_second_joint_z,index_tip_x,index_tip_y,index_tip_z,middle_base_x,middle_base_y,middle_base_z,middle_first_joint_x,middle_first_joint_y,middle_first_joint_z,middle_second_joint_x,middle_second_joint_y,middle_second_joint_z,middle_tip_x,middle_tip_y,middle_tip_z,ring_base_x,ring_base_y,ring_base_z,ring_first_joint_x,ring_first_joint_y,ring_first_joint_z,ring_second_joint_x,ring_second_joint_y,ring_second_joint_z,ring_tip_x,ring_tip_y,ring_tip_z,pinky_base_x,pinky_base_y,pinky_base_z,pinky_first_joint_x,pinky_first_joint_y,pinky_first_joint_z,pinky_second_joint_x,pinky_second_joint_y,pinky_second_joint_z,pinky_tip_x,pinky_tip_y,pinky_tip_z,
0.41025145,-0.2448934,0.649961,0.38642393,-0.21382125,0.654,0.38810309,-0.24682482,0.653278,0.3537019,-0.23929502,0.657872,0.31478661,-0.22724855,0.646301,0.29922887,-0.21657133,0.651158,0.34305914,-0.19616544,0.661064,0.31682559,-0.16022803,0.65729,0.30058465,-0.14031643,0.655403,0.29075336,-0.13288665,0.653687,0.35836495,-0.17759773,0.657847,0.3295733,-0.13820828,0.653788,0.31485178,-0.11612011,0.655496,0.30427047,-0.10024738,0.656717,0.37402692,-0.16794843,0.654763,0.3583816,-0.13749366,0.659929,0.35038775,-0.12193046,0.662572,0.34530002,-0.10945024,0.664975,0.39580622,-0.16034291,0.650424,0.38590867,-0.13065668,0.648003,0.38237208,-0.11824078,0.646891,0.37656081,-0.10497695,0.645909
0.40726043,-0.26237497,0.661358,0.37963859,-0.21986449,0.659439,0.38182451,-0.26281254,0.663246,0.34242876,-0.24044407,0.664106,0.30642359,-0.22340181,0.652865,0.28876055,-0.20919043,0.651689,0.33553208,-0.18342525,0.660596,0.31044699,-0.1498053,0.655879,0.29502723,-0.13234199,0.65352,0.28072856,-0.11613398,0.651376,0.35692348,-0.17579289,0.657612,0.33365862,-0.13798278,0.660223,0.32224853,-0.1145695,0.661745,0.31034316,-0.10009437,0.662833,0.37392068,-0.16850154,0.655362,0.36045851,-0.1418913,0.657584,0.35271384,-0.12444539,0.658721,0.34459799,-0.10953835,0.659754,0.39769017,-0.16784323,0.653111,0.38733975,-0.13712711,0.648071,0.38097196,-0.11873876,0.645756,0.37535964,-0.10534379,0.643713
0.40569773,-0.26014026,0.660037,0.37932908,-0.21731922,0.657749,0.38204573,-0.25420807,0.660124,0.34345364,-0.23357236,0.659604,0.30709706,-0.21581965,0.647531,0.28853543,-0.20433279,0.647227,0.33347096,-0.18183385,0.656309,0.30514245,-0.14633777,0.646438,0.29023406,-0.13368336,0.641502,0.27699306,-0.12298511,0.637015,0.35417194,-0.17239709,0.65557,0.3338427,-0.13558019,0.660357,0.32198636,-0.11410728,0.66315,0.31175638,-0.099682165,0.665145,0.37326829,-0.16742218,0.655207,0.35815588,-0.13709434,0.656815,0.35111591,-0.12250465,0.658243,0.34375243,-0.10829412,0.659542,0.39834488,-0.1643264,0.655216,0.38465792,-0.13228308,0.648327,0.37891533,-0.117347,0.645162,0.37427829,-0.10465055,0.643553
0.40355839,-0.25388802,0.656313,0.38026521,-0.21280978,0.656664,0.3806379,-0.24862972,0.65783,0.34309575,-0.23339299,0.658041,0.30631605,-0.219704,0.648612,0.28753184,-0.20506971,0.645641,0.33512801,-0.18189649,0.658878,0.30805257,-0.14742076,0.651741,0.29676015,-0.13726962,0.648172,0.28493328,-0.12901345,0.644928,0.35496894,-0.17154104,0.656999,0.33500214,-0.13518406,0.662195,0.32300057,-0.11368597,0.665227,0.31424857,-0.098174874,0.667392,0.37227685,-0.1636196,0.655413,0.35776283,-0.13486299,0.656328,0.35135789,-0.11872309,0.656796,0.3445007,-0.1076611,0.660051,0.3966867,-0.1604798,0.653506,0.38415108,-0.12908573,0.648727,0.37703087,-0.11359074,0.646531,0.37205662,-0.1007924,0.645167
0.40382664,-0.25576789,0.657076,0.38153286,-0.21435963,0.656742,0.38109238,-0.25112728,0.658913,0.34300652,-0.23283136,0.657502,0.30536207,-0.21683983,0.644372,0.28829099,-0.20568686,0.646245,0.33533183,-0.18183148,0.658907,0.30793933,-0.14718236,0.651291,0.29344469,-0.13366884,0.647484,0.28190066,-0.1232919,0.644022,0.35476662,-0.1711174,0.656423,0.32706703,-0.12798275,0.650972,0.31067604,-0.10322979,0.647793,0.29894842,-0.085517034,0.645522,0.37250197,-0.16531012,0.654413,0.35783993,-0.13537177,0.655856,0.35050514,-0.12081859,0.656594,0.34475368,-0.10738273,0.660454,0.39590012,-0.15998544,0.652144,0.3824817,-0.12798626,0.645664,0.37672869,-0.11390304,0.642687,0.37109139,-0.10431613,0.64006
0.40625545,-0.25675164,0.661114,0.3822885,-0.21488823,0.658218,0.38279638,-0.25398776,0.661861,0.34349975,-0.23370113,0.658299,0.30670102,-0.21944768,0.648287,0.29107654,-0.20905219,0.64892,0.33460111,-0.18181858,0.657223,0.30598771,-0.14663997,0.646835,0.29501091,-0.14144742,0.641641,0.28526768,-0.13641736,0.63692,0.35473982,-0.17211029,0.655459,0.32561985,-0.13304388,0.644165,0.30847596,-0.11655674,0.637577,0.30177581,-0.11747604,0.632871,0.37236313,-0.16527228,0.654319,0.35252045,-0.13360657,0.64641,0.34046198,-0.115832,0.642363,0.3414543,-0.10576545,0.655118,0.39689176,-0.16179023,0.65354,0.38215899,-0.12900337,0.644922,0.3763957,-0.11378666,0.640963,0.36876994,-0.10410919,0.637469
0.41087743,-0.25277644,0.656228,0.39179338,-0.22136961,0.653735,0.39343269,-0.25657447,0.654212,0.35908097,-0.24139994,0.654669,0.32203723,-0.22742,0.643614,0.3107913,-0.22257964,0.650735,0.33766559,-0.19375612,0.649417,0.31252281,-0.15683963,0.642083,0.30183181,-0.14079316,0.638415,0.29007407,-0.12555062,0.635081,0.35825913,-0.18157486,0.651361,0.32686718,-0.14376175,0.64022,0.31232152,-0.13389274,0.633721,0.315054,-0.13936313,0.629079,0.37751868,-0.17679743,0.65323,0.35801583,-0.14053363,0.643916,0.34830418,-0.12385431,0.639151,0.34871791,-0.11163363,0.652249,0.40171433,-0.1685701,0.655869,0.39180543,-0.13598513,0.649918,0.38696605,-0.1206487,0.647184,0.38236663,-0.10541087,0.644772
0.42252463,-0.26016864,0.653178,0.39827381,-0.23150995,0.651312,0.39748932,-0.26006637,0.652864,0.36653705,-0.25142176,0.654126,0.32729186,-0.23105526,0.636766,0.30953742,-0.21552989,0.63435,0.34692061,-0.20458585,0.649636,0.3259147,-0.1684604,0.641394,0.31638026,-0.16083411,0.637273,0.30738032,-0.15360882,0.633527,0.36625109,-0.19191447,0.649535,0.33215713,-0.15853599,0.639134,0.31623142,-0.14556729,0.633067,0.31520309,-0.14336875,0.628733,0.38406648,-0.18363249,0.649653,0.36390078,-0.14960202,0.640304,0.35360806,-0.13224365,0.635521,0.35419553,-0.1204509,0.650253,0.40927068,-0.17800779,0.650141,0.40210609,-0.1483216,0.650277,0.39863371,-0.13444058,0.65034,0.39545843,-0.12203069,0.650395
0.42954377,-0.26566085,0.650867,0.40815301,-0.23176661,0.649611,0.40389826,-0.26459335,0.64973,0.36963969,-0.24791646,0.642554,0.32928738,-0.23373155,0.627254,0.31425251,-0.22879529,0.632998,0.35680653,-0.20284306,0.647276,0.33178857,-0.17034368,0.639621,0.32435343,-0.16069806,0.635794,0.31734636,-0.15153751,0.632314,0.37792107,-0.1918515,0.648414,0.35169783,-0.1550504,0.640196,0.33956389,-0.13665865,0.635403,0.33054141,-0.12287744,0.631979,0.3970016,-0.1850041,0.649486,0.37620063,-0.15171697,0.641018,0.36555194,-0.13466755,0.636686,0.36670352,-0.12277894,0.651678,0.4233557,-0.18113677,0.650967,0.41390467,-0.15046621,0.650236,0.40956126,-0.13637118,0.6499,0.40572868,-0.12393284,0.649604
0.45264245,-0.28873234,0.646204,0.42506421,-0.25177867,0.642132,0.42524666,-0.28530325,0.642391,0.38930014,-0.26818339,0.637114,0.3479925,-0.24864265,0.617938,0.33098877,-0.23849079,0.620305,0.37029268,-0.21843238,0.6344,0.34059369,-0.18190117,0.623038,0.32995559,-0.16735054,0.617358,0.32439601,-0.15965025,0.612193,0.39332072,-0.2088,0.638254,0.37173667,-0.17092777,0.641217,0.35935572,-0.14895584,0.643273,0.3505192,-0.13326875,0.644748,0.41425401,-0.20327718,0.641866,0.39621506,-0.16898703,0.632691,0.38708914,-0.15171057,0.627997,0.39027741,-0.14026845,0.642537,0.44318463,-0.20141946,0.646824,0.43416863,-0.16974479,0.64317,0.43170291,-0.15594031,0.643943,0.42952631,-0.14375242,0.644626
0.43324081,-0.31222196,0.634062,0.41637248,-0.27491522,0.635725,0.40796485,-0.30589639,0.632359,0.39325565,-0.27785822,0.636319,0.35601246,-0.25969475,0.622852,0.34432342,-0.2564192,0.629072,0.37287819,-0.23823544,0.634636,0.36009568,-0.19840493,0.629322,0.35303827,-0.18494715,0.626665,0.34671296,-0.17377127,0.624249,0.39659558,-0.2315249,0.637309,0.37673908,-0.19248888,0.640814,0.36507985,-0.16957813,0.642859,0.35671763,-0.15315046,0.64432,0.41728637,-0.22830506,0.639331,0.40212789,-0.19467653,0.633559,0.39441617,-0.17759391,0.630605,0.39878872,-0.1668898,0.646326,0.44440734,-0.22910497,0.641366,0.4624118,-0.20254458,0.642999,0.47070854,-0.19030287,0.64375,0.47804129,-0.17948106,0.644412
0.43556484,-0.3160347,0.63325,0.42372217,-0.28289006,0.635701,0.41116551,-0.30983864,0.632388,0.40300622,-0.287693,0.640886,0.36665972,-0.26456744,0.626085,0.35490091,-0.25754639,0.630593,0.38343818,-0.24621386,0.636243,0.36847616,-0.20481875,0.631399,0.36091388,-0.18385466,0.628977,0.35399048,-0.16463707,0.626775,0.4063515,-0.23943679,0.638036,0.38728894,-0.19412136,0.633163,0.37564787,-0.16752242,0.630321,0.36705741,-0.14838387,0.62829,0.42629626,-0.23612487,0.639248,0.41736141,-0.20124677,0.634443,0.41240766,-0.18340348,0.631984,0.4197333,-0.17194827,0.648038,0.45233942,-0.23680439,0.640194,0.45920205,-0.20394137,0.639196,0.46436645,-0.19390999,0.642525,0.46935551,-0.18271302,0.645462
0.45987499,-0.34835856,0.638637,0.44441505,-0.31035155,0.640238,0.43662598,-0.34226009,0.638896,0.42543557,-0.31841125,0.648319,0.38925954,-0.29513444,0.634529,0.37774274,-0.28752297,0.638898,0.40469709,-0.2736971,0.641661,0.38817234,-0.23248104,0.635687,0.37982677,-0.21162077,0.6327,0.37219029,-0.19250588,0.629985,0.42629727,-0.26621205,0.641762,0.40541196,-0.22061177,0.635226,0.39265896,-0.19412455,0.631414,0.38325154,-0.17520317,0.628691,0.44521007,-0.2623733,0.641672,0.43498234,-0.22719954,0.635833,0.42931489,-0.20938229,0.632845,0.43660944,-0.19877636,0.648647,0.47015683,-0.2625363,0.641267,0.47505946,-0.23106511,0.638539,0.48068345,-0.21830257,0.641833,0.48566563,-0.20695617,0.64474
0.46797802,-0.35833436,0.643219,0.4619258,-0.32456646,0.642802,0.44376407,-0.34939129,0.641562,0.44180988,-0.33032678,0.650874,0.40678235,-0.30127356,0.634663,0.39569101,-0.28806117,0.637027,0.42525017,-0.28000096,0.64036,0.41417923,-0.23769038,0.632461,0.40859125,-0.21618279,0.628512,0.40223537,-0.20934647,0.624922,0.4494633,-0.27692275,0.642404,0.43502828,-0.22853591,0.633569,0.43282228,-0.20345731,0.637501,0.43118159,-0.18519141,0.64031,0.47033956,-0.27698182,0.644132,0.45990926,-0.24076535,0.63614,0.45459641,-0.2224044,0.632051,0.463252,-0.21197705,0.647153,0.49714318,-0.28231614,0.646217,0.51859443,-0.25821553,0.645517,0.52846546,-0.24712678,0.645196,0.53718217,-0.23733405,0.644912
0.50849024,-0.37995581,0.66082,0.4945306,-0.33423556,0.652867,0.48808945,-0.36931348,0.662473,0.47089331,-0.34997167,0.65698,0.42912624,-0.31895597,0.633633,0.41295346,-0.30111683,0.629524,0.46023391,-0.28665841,0.649619,0.43127989,-0.24822256,0.636385,0.41667154,-0.22878522,0.629769,0.40664868,-0.22526069,0.623753,0.47965995,-0.28242422,0.645292,0.46094618,-0.23168824,0.629037,0.44760396,-0.20789076,0.619554,0.43795251,-0.1905063,0.612781,0.49686248,-0.28196272,0.642587,0.49670646,-0.24764801,0.639438,0.49663345,-0.22999447,0.637827,0.50346107,-0.21685537,0.645192,0.51997102,-0.28745753,0.640941,0.49329622,-0.28818617,0.627789,0.49821752,-0.30768794,0.643644,0.50080818,-0.32331175,0.65442
0.55231132,-0.39227021,0.674489,0.52313908,-0.34830581,0.658698,0.52607598,-0.38648274,0.669176,0.49446376,-0.36453809,0.657328,0.45097197,-0.33867579,0.633106,0.43099792,-0.32324462,0.628317,0.46920312,-0.30667976,0.641057,0.44792929,-0.26255781,0.629892,0.43737884,-0.2407518,0.62431,0.43575844,-0.22831574,0.619235,0.49170502,-0.29861532,0.64366,0.45335728,-0.24955992,0.622032,0.44361018,-0.23023824,0.609416,0.43663544,-0.21610619,0.600405,0.51248603,-0.29518295,0.647505,0.4989387,-0.2582642,0.635149,0.49200888,-0.23938918,0.628827,0.4899751,-0.22418992,0.628551,0.54172894,-0.29707825,0.654937,0.53793844,-0.30037267,0.633517,0.55925188,-0.31396985,0.648027,0.56877979,-0.31801485,0.661191
0.56966548,-0.40848432,0.671451,0.54240951,-0.3632058,0.655795,0.54338129,-0.40115605,0.666157,0.51188059,-0.37746362,0.653999,0.46933917,-0.351649,0.63286,0.45119184,-0.33799701,0.631219,0.49014694,-0.3188903,0.63827,0.46918957,-0.27171364,0.619392,0.45874215,-0.24830805,0.609953,0.45679637,-0.23907456,0.601372,0.5133656,-0.31218673,0.640885,0.49439472,-0.26690745,0.636167,0.48329688,-0.24040328,0.633416,0.47535413,-0.22142916,0.63145,0.53465901,-0.30994065,0.644725,0.52129994,-0.27279873,0.626627,0.51446505,-0.25380262,0.617368,0.50951763,-0.23712688,0.610468,0.56433781,-0.3134146,0.652125,0.55594604,-0.31841426,0.630686,0.5738534,-0.33704477,0.645193,0.58472732,-0.3445721,0.658363
0.56305293,-0.41495416,0.667492,0.54077167,-0.37628601,0.654463,0.53553222,-0.40385453,0.659211,0.50441098,-0.37988977,0.644614,0.46451571,-0.34723065,0.620362,0.45107241,-0.32939013,0.618175,0.49467608,-0.32325269,0.634832,0.48731808,-0.28133207,0.632082,0.48366092,-0.26054677,0.630706,0.48910385,-0.24796862,0.629456,0.52099169,-0.3226066,0.642055,0.5099076,-0.27306262,0.630043,0.5034368,-0.2439963,0.623036,0.49881241,-0.22315638,0.618031,0.54425512,-0.32539747,0.649407,0.53442393,-0.28820207,0.633813,0.52956354,-0.26929034,0.625835,0.52532453,-0.25221214,0.618582,0.57504263,-0.33503284,0.66039,0.56832237,-0.33709805,0.639808,0.58061369,-0.35739543,0.654116,0.58925611,-0.37085595,0.666907
0.58075168,-0.42627661,0.660629,0.56003348,-0.38114389,0.650573,0.55972457,-0.41791362,0.662991,0.53430745,-0.39847338,0.661331,0.49674106,-0.37071231,0.643564,0.48235026,-0.35332668,0.642114,0.51970826,-0.33641369,0.646823,0.51366347,-0.29411174,0.643528,0.5106442,-0.273003,0.64188,0.50502742,-0.26274746,0.640383,0.53775459,-0.32987272,0.640996,0.52861766,-0.28445189,0.63985,0.52325847,-0.2577934,0.639182,0.51941617,-0.23867675,0.638704,0.55435555,-0.32759013,0.637282,0.54630471,-0.29244381,0.63234,0.54218952,-0.27449212,0.629812,0.5357013,-0.25703091,0.627513,0.57778615,-0.33102136,0.634862,0.56803077,-0.29557322,0.619789,0.56354738,-0.27929033,0.612863,0.57308693,-0.27131478,0.621385
0.59876094,-0.44700037,0.66164,0.58219581,-0.40369664,0.655234,0.57623103,-0.43767314,0.662142,0.55177082,-0.41811926,0.662799,0.51469415,-0.38933269,0.644867,0.50197699,-0.37260041,0.644942,0.54258518,-0.35861007,0.651539,0.5265376,-0.31214785,0.636786,0.51852586,-0.28904355,0.629409,0.51119873,-0.28102082,0.622703,0.5640124,-0.35373966,0.649134,0.55607562,-0.3083152,0.648661,0.55144927,-0.2818386,0.648385,0.54800473,-0.26289048,0.648188,0.58305562,-0.35267347,0.647844,0.5741011,-0.31760947,0.643461,0.56952841,-0.29975046,0.641219,0.56537578,-0.2835515,0.63918,0.60863895,-0.35725465,0.64755,0.60525897,-0.32139864,0.638182,0.6036743,-0.30509889,0.633877,0.60985898,-0.29450491,0.637965
0.60848168,-0.4491092,0.666127,0.58784189,-0.4062687,0.657695,0.58562658,-0.4414102,0.666788,0.57236233,-0.42807928,0.670363,0.53320527,-0.40323765,0.656276,0.51876331,-0.38926154,0.657227,0.54584776,-0.36774091,0.652831,0.52443604,-0.32173363,0.637217,0.51376146,-0.29887263,0.629409,0.50550067,-0.29148326,0.622312,0.56604593,-0.36010558,0.649664,0.54875027,-0.31399931,0.644695,0.53865373,-0.28708033,0.641796,0.5314393,-0.26784202,0.639726,0.58385531,-0.35471212,0.647965,0.5715155,-0.31906707,0.641582,0.56349545,-0.30352145,0.638317,0.56379503,-0.28672922,0.640202,0.6095238,-0.35775544,0.647578,0.60427721,-0.32169401,0.637343,0.60184608,-0.30526442,0.63264,0.60581987,-0.29382839,0.634883
0.63101131,-0.47718827,0.676174,0.61734504,-0.43211317,0.668458,0.60661304,-0.46469754,0.672984,0.58188409,-0.44032013,0.670279,0.54737861,-0.40826486,0.649876,0.53613465,-0.39025968,0.649292,0.57769654,-0.38176211,0.659064,0.55446995,-0.33951029,0.650826,0.54420841,-0.31973128,0.646706,0.54176374,-0.31452124,0.642962,0.60290483,-0.38045379,0.661109,0.58732121,-0.3296152,0.644705,0.57823039,-0.29993579,0.635136,0.57173774,-0.27872548,0.628302,0.62490381,-0.38246905,0.663625,0.62319045,-0.3470158,0.65936,0.62229946,-0.32907062,0.657177,0.63756007,-0.32095034,0.672121,0.65356763,-0.39092488,0.667996,0.6401103,-0.35530148,0.654209,0.63392677,-0.33895063,0.647874,0.62847047,-0.32453245,0.642284
0.6420583,-0.48616776,0.679217,0.6348801,-0.44583063,0.670973,0.62137025,-0.47680802,0.671463,0.62196736,-0.44966098,0.669179,0.57848667,-0.41508467,0.647074,0.56096981,-0.40108882,0.646166,0.58867354,-0.39047564,0.655278,0.59429502,-0.35495596,0.663748,0.59710049,-0.33708937,0.667983,0.60434162,-0.32692886,0.671834,0.61867616,-0.39267196,0.663123,0.6126271,-0.3459743,0.659368,0.6096265,-0.31879935,0.657178,0.60751398,-0.29924425,0.655614,0.6450037,-0.3976429,0.670471,0.63163505,-0.35918663,0.654232,0.62618004,-0.34189561,0.645924,0.64116755,-0.33960257,0.657354,0.67929239,-0.4097712,0.680551,0.66309124,-0.37071224,0.665731,0.65597646,-0.35322653,0.658922,0.64973745,-0.33793263,0.652914
0.64774646,-0.49703405,0.678994,0.6352127,-0.44908954,0.669881,0.61994142,-0.47931221,0.670957,0.61244013,-0.44973384,0.657395,0.57389881,-0.4192185,0.64175,0.56244018,-0.4055771,0.647458,0.59839159,-0.39340518,0.653226,0.58051814,-0.34931208,0.638212,0.57157282,-0.3271921,0.630705,0.57106347,-0.32128365,0.623881,0.62816866,-0.39885831,0.661202,0.63458783,-0.35679754,0.667343,0.63833332,-0.3321681,0.670925,0.64100959,-0.31453408,0.673484,0.65383819,-0.40664302,0.668752,0.63001399,-0.36603505,0.649525,0.62153044,-0.3493707,0.639687,0.63547261,-0.34912962,0.6501,0.68639386,-0.422344,0.679229,0.66991922,-0.38666335,0.669386,0.66282823,-0.3705915,0.664863,0.65677272,-0.35654146,0.660873
0.65485524,-0.50720323,0.688602,0.64223936,-0.46480652,0.670259,0.62605347,-0.48747329,0.67768,0.59610321,-0.45734715,0.654343,0.56962469,-0.42840211,0.644521,0.56582653,-0.41303837,0.651387,0.60635824,-0.4040376,0.643579,0.58634564,-0.35906108,0.6159,0.57698426,-0.33763832,0.602061,0.57367904,-0.33606856,0.589479,0.63599837,-0.41082728,0.652791,0.63737014,-0.3622252,0.644169,0.63818143,-0.33382716,0.63914,0.63876504,-0.31352057,0.635547,0.66184829,-0.42004991,0.662353,0.64474572,-0.37806767,0.642619,0.63597016,-0.35687971,0.632523,0.64729331,-0.34818566,0.642519,0.69492165,-0.43789486,0.676899,0.67633761,-0.39949723,0.656626,0.66859686,-0.38284723,0.647312,0.66176144,-0.36818273,0.639093
0.65136217,-0.5200432,0.687642,0.64692522,-0.47893683,0.674967,0.62843621,-0.50169797,0.68005,0.60718935,-0.4689324,0.658523,0.58282624,-0.44322994,0.655258,0.58178473,-0.43521366,0.668151,0.61417156,-0.4174709,0.656471,0.61676165,-0.37480032,0.652511,0.61803759,-0.35358698,0.650531,0.62388575,-0.34454162,0.64873,0.64263928,-0.42435655,0.662895,0.63953445,-0.37415635,0.647853,0.63772693,-0.3448582,0.639078,0.63643858,-0.3239246,0.632811,0.6671494,-0.43350672,0.669551,0.64897031,-0.39188824,0.647634,0.63963942,-0.37082301,0.636421,0.65100124,-0.36288517,0.645936,0.69811143,-0.45113976,0.67966,0.7071263,-0.41904699,0.672617,0.71117886,-0.40445491,0.669382,0.71470648,-0.39165937,0.666527
0.66225435,-0.53277985,0.689994,0.65936166,-0.48654562,0.677528,0.63732528,-0.51311354,0.682542,0.62681408,-0.47839283,0.659336,0.59956286,-0.44622432,0.646501,0.59482359,-0.43352358,0.654199,0.62103096,-0.42542638,0.659358,0.61847056,-0.38102179,0.644579,0.61719902,-0.35879123,0.637189,0.61719854,-0.35368167,0.630472,0.65014098,-0.43101946,0.665655,0.64273728,-0.37855153,0.652744,0.64283543,-0.35536802,0.645213,0.64322516,-0.33906742,0.639833,0.67554999,-0.43915066,0.672185,0.65468694,-0.40017866,0.650444,0.64400817,-0.38033849,0.63932,0.65419108,-0.37372844,0.648941,0.70828435,-0.4556846,0.682107,0.71361578,-0.42141785,0.672476,0.71787986,-0.40697761,0.669627,0.7191166,-0.39373403,0.667114
0.66411597,-0.53290582,0.689429,0.65968473,-0.48570892,0.677564,0.63940364,-0.51363744,0.68249,0.62780273,-0.47793654,0.660076,0.60055205,-0.44553001,0.647078,0.5957931,-0.43263809,0.654629,0.62271005,-0.42514914,0.660471,0.6194575,-0.38014212,0.644686,0.61782735,-0.35765209,0.636794,0.61740716,-0.35228269,0.629619,0.65135776,-0.43055993,0.666264,0.64436387,-0.37815306,0.65346,0.64468332,-0.35499024,0.645991,0.64523339,-0.33870163,0.640656,0.67627657,-0.43849771,0.672314,0.65633666,-0.39994883,0.651305,0.64613191,-0.38030351,0.640557,0.65643833,-0.37105908,0.650568,0.70825213,-0.4547269,0.681566,0.71414527,-0.42081295,0.6723,0.7184013,-0.40636892,0.669365,0.72059942,-0.39383908,0.666776
0.70807023,-0.53060437,0.689565,0.69411221,-0.48366602,0.680609,0.68301625,-0.51673564,0.683757,0.64599998,-0.49107002,0.677259,0.6116093,-0.46428479,0.659647,0.59783214,-0.44683686,0.657499,0.65351481,-0.43036539,0.666964,0.62493722,-0.38149857,0.650588,0.62672039,-0.37751186,0.6424,0.62865033,-0.37391346,0.634956,0.67982735,-0.43061906,0.67208,0.66057578,-0.37748613,0.658744,0.66001127,-0.3535921,0.650964,0.66509119,-0.35349856,0.645407,0.70274496,-0.43407304,0.677259,0.69115709,-0.39538041,0.661993,0.68519894,-0.37578848,0.654183,0.7000181,-0.36877047,0.666363,0.7324351,-0.44440915,0.684952,0.73196008,-0.41634483,0.674333,0.73172664,-0.40347986,0.669454,0.73167286,-0.39230054,0.665148
0.70284853,-0.52667081,0.687023,0.69241434,-0.48092826,0.679551,0.67880126,-0.51235195,0.681121,0.64208331,-0.48784624,0.674409,0.60549538,-0.46235508,0.660609,0.58960772,-0.44504062,0.657785,0.65763946,-0.42506203,0.666789,0.62704371,-0.37936619,0.650782,0.62371607,-0.36028917,0.642779,0.62477926,-0.35667942,0.635503,0.68188007,-0.42888279,0.672434,0.67346022,-0.39158972,0.660074,0.66754377,-0.37115593,0.652864,0.66331162,-0.35664153,0.647715,0.70455336,-0.43304445,0.677887,0.69289986,-0.39690775,0.663296,0.68691294,-0.37860011,0.65583,0.7016309,-0.37278535,0.668258,0.73335062,-0.4440609,0.685623,0.73483578,-0.41636451,0.675353,0.73552171,-0.40363485,0.670635,0.73620877,-0.39247825,0.666471
0.70156739,-0.52536657,0.68827,0.69124079,-0.47926596,0.679601,0.67738598,-0.51062783,0.68157,0.63738033,-0.48402478,0.672298,0.6030965,-0.46125777,0.660126,0.58749968,-0.44443832,0.657739,0.65564134,-0.42330541,0.664989,0.62617928,-0.37530311,0.648027,0.62020283,-0.35789193,0.639547,0.62152763,-0.35472111,0.631837,0.68208745,-0.42537119,0.671345,0.6693259,-0.3887804,0.655946,0.66200929,-0.36776543,0.646963,0.65786145,-0.35219123,0.640546,0.70415409,-0.43160558,0.677514,0.69064445,-0.39568207,0.661321,0.68370666,-0.37750019,0.653036,0.69758467,-0.371859,0.664754,0.73346795,-0.44327951,0.686303,0.73499354,-0.41544869,0.674997,0.7356942,-0.40266118,0.669802,0.73636699,-0.3914302,0.665218
0.69887738,-0.52563687,0.688308,0.68539725,-0.47755412,0.678821,0.67465248,-0.51044457,0.681485,0.62982652,-0.48130042,0.665859,0.59573049,-0.46277809,0.66086,0.58527412,-0.44696645,0.661569,0.65098927,-0.42272243,0.663491,0.62174931,-0.37628017,0.6458,0.61549323,-0.35676814,0.636954,0.61685756,-0.35320733,0.628913,0.67655568,-0.42811908,0.669785,0.65999666,-0.38959804,0.65264,0.65178538,-0.36869645,0.642639,0.64961391,-0.3524696,0.635495,0.70032512,-0.43320303,0.675991,0.68469876,-0.39885597,0.658441,0.67739351,-0.38159984,0.649463,0.69232545,-0.37339466,0.660703,0.73072229,-0.44553961,0.684977,0.72813011,-0.41589934,0.671666,0.72691303,-0.40232751,0.66555,0.72435302,-0.39248658,0.663174
0.68164671,-0.52641687,0.684625,0.67689902,-0.48008936,0.675285,0.65890127,-0.51369717,0.683231,0.62591063,-0.48807707,0.676629,0.59337901,-0.46201333,0.661604,0.58393797,-0.44398774,0.654351,0.64289199,-0.4277022,0.667127,0.6246024,-0.37825251,0.65001,0.61769344,-0.37287904,0.641451,0.61463219,-0.36922361,0.63367,0.66588837,-0.4284852,0.666389,0.65827913,-0.39051642,0.652944,0.65256091,-0.37010119,0.645101,0.64892228,-0.35601201,0.639499,0.68575934,-0.43250272,0.666788,0.67176124,-0.39531245,0.65006,0.66457125,-0.37651179,0.641501,0.68109906,-0.37191176,0.653561,0.71140316,-0.44389605,0.669007,0.71597682,-0.41189403,0.66228,0.71908413,-0.40032672,0.65919,0.72578114,-0.39313605,0.663538
0.67151647,-0.53538756,0.684772,0.66432642,-0.49813893,0.676098,0.64645965,-0.52115672,0.682921,0.62029003,-0.50011483,0.673299,0.58664568,-0.46732489,0.655491,0.58093566,-0.4484934,0.65774,0.63139764,-0.44276785,0.667798,0.62257771,-0.39793479,0.651506,0.6188525,-0.37473687,0.64336,0.62045314,-0.35566971,0.635955,0.65525775,-0.44415399,0.667838,0.64408974,-0.3950638,0.649955,0.63775821,-0.36689784,0.639524,0.63325032,-0.34669775,0.632073,0.67595754,-0.44868399,0.668805,0.66724611,-0.39560593,0.652825,0.66625716,-0.37618002,0.644649,0.68260831,-0.36896083,0.657007,0.70272564,-0.46073717,0.671558,0.70727607,-0.41903128,0.659986,0.71157494,-0.39908612,0.654669,0.71084359,-0.39409322,0.649978
0.66097172,-0.53558502,0.684817,0.649448,-0.49517855,0.674366,0.63701656,-0.51590435,0.681699,0.60210941,-0.49061269,0.668979,0.57294099,-0.45882252,0.653101,0.56572953,-0.44012864,0.653345,0.62370105,-0.43700403,0.663209,0.6098039,-0.39275182,0.644926,0.6030745,-0.37137266,0.635784,0.59697035,-0.35183343,0.627474,0.65002336,-0.44215249,0.664413,0.63649741,-0.39265731,0.644534,0.62672651,-0.36683897,0.632939,0.62626186,-0.34699724,0.627235,0.66892953,-0.45034542,0.666531,0.663501,-0.40439605,0.6545,0.66130145,-0.38194622,0.648345,0.65991584,-0.36280886,0.64275,0.69494287,-0.46648,0.670953,0.69352339,-0.42572292,0.656347,0.69384925,-0.40773309,0.650607,0.69429185,-0.39217346,0.645541
0.65964028,-0.53783335,0.682622,0.64859379,-0.49462468,0.672967,0.63673921,-0.51933017,0.680649,0.59940464,-0.49070891,0.6673,0.56693778,-0.462274,0.652115,0.56130056,-0.44167889,0.6519,0.62417887,-0.437079,0.663842,0.60999287,-0.39354162,0.646475,0.60301254,-0.37206429,0.637792,0.59667416,-0.35243611,0.629898,0.64880433,-0.44174164,0.663772,0.63407768,-0.39410311,0.644805,0.62647412,-0.36719183,0.633741,0.62429468,-0.35013674,0.629009,0.66743516,-0.44926201,0.664755,0.65711328,-0.40107134,0.650845,0.65000102,-0.38116845,0.643728,0.6455247,-0.36219679,0.637258,0.69229585,-0.46473085,0.667711,0.68987881,-0.42351714,0.653487,0.68899364,-0.40622458,0.646952,0.68830638,-0.3910872,0.641185
0.64200792,-0.53855362,0.676107,0.63332625,-0.49456144,0.667895,0.62500735,-0.52285381,0.676842,0.59447946,-0.49748779,0.669899,0.56532422,-0.46358143,0.653424,0.55853292,-0.44649907,0.655442,0.61043619,-0.44073425,0.663277,0.59815458,-0.39498165,0.646795,0.59201299,-0.37211457,0.638554,0.59077869,-0.35182967,0.631062,0.63114964,-0.44291519,0.660074,0.62021833,-0.39072474,0.642231,0.61380944,-0.36049484,0.631823,0.61875989,-0.34431366,0.63417,0.64874002,-0.44802718,0.658321,0.64266774,-0.39579155,0.642314,0.63964016,-0.36872735,0.634124,0.6369383,-0.34391041,0.626679,0.67086506,-0.46065594,0.65783,0.67757331,-0.40917443,0.645256,0.68105723,-0.39194329,0.639479,0.6843688,-0.37640057,0.634381
0.61980587,-0.53702399,0.668256,0.61217143,-0.49309888,0.66049,0.59294236,-0.52097999,0.66717,0.56859834,-0.48769732,0.656145,0.54887158,-0.46173177,0.655346,0.5521197,-0.45229293,0.66803,0.59297707,-0.43674773,0.653803,0.58087548,-0.39156381,0.638232,0.57482724,-0.36893537,0.630447,0.56932954,-0.34834117,0.623369,0.61541955,-0.44228876,0.653095,0.6059689,-0.39113451,0.636077,0.60044355,-0.361371,0.62615,0.59980998,-0.34204026,0.622504,0.6341112,-0.4501155,0.653348,0.6258965,-0.39255953,0.63815,0.62273602,-0.36673914,0.630374,0.62052282,-0.34772882,0.623305,0.6568218,-0.46585505,0.655102,0.66296872,-0.41449986,0.64653,0.66770844,-0.39579044,0.642591,0.67207878,-0.37893401,0.639115
0.60808983,-0.53546473,0.668015,0.60270363,-0.48371276,0.656698,0.58826079,-0.51681531,0.664322,0.55718214,-0.48370307,0.658966,0.5270286,-0.45305738,0.644578,0.51756101,-0.43432572,0.639692,0.57687958,-0.42649456,0.644205,0.57543961,-0.38192973,0.633866,0.57471517,-0.35967162,0.628697,0.57405361,-0.33945137,0.623998,0.60078074,-0.43096277,0.645921,0.59691427,-0.38135958,0.63818,0.59889985,-0.35654937,0.633664,0.60041094,-0.33849994,0.630439,0.62100783,-0.43814048,0.648553,0.62150667,-0.39485924,0.642443,0.62177214,-0.37265253,0.639317,0.62202037,-0.35242725,0.636476,0.64618748,-0.4534034,0.653736,0.6427443,-0.42078529,0.637426,0.64122477,-0.40569303,0.629932,0.63991929,-0.39231802,0.62332
0.60644599,-0.53424593,0.66785,0.59705374,-0.48283893,0.653847,0.58634467,-0.51708136,0.664537,0.55098746,-0.48661845,0.653935,0.52109674,-0.45744698,0.641441,0.51520443,-0.43719907,0.640902,0.56183218,-0.42990936,0.640024,0.54506091,-0.38380755,0.621144,0.53667544,-0.36078038,0.611704,0.5291136,-0.34001186,0.603122,0.58559434,-0.43168647,0.640512,0.57786241,-0.38225932,0.630551,0.57377296,-0.3539779,0.62474,0.57085553,-0.33371808,0.62059,0.60624885,-0.43675024,0.642422,0.60022632,-0.39121649,0.629938,0.5971469,-0.36790917,0.623551,0.59487731,-0.34750859,0.617744,0.63293903,-0.44964377,0.647272,0.6236072,-0.41449052,0.628798,0.61933914,-0.39828916,0.62031,0.61577409,-0.38462585,0.612821
0.58588751,-0.52703226,0.658587,0.57211744,-0.48332001,0.650657,0.55870023,-0.51458406,0.659717,0.53401375,-0.48791355,0.656027,0.50330107,-0.4561066,0.641579,0.49589056,-0.43833687,0.642359,0.54787303,-0.43083322,0.646743,0.54052897,-0.38597512,0.636164,0.53685686,-0.36355785,0.630875,0.53338246,-0.34350837,0.626067,0.56837164,-0.43232668,0.643104,0.55765965,-0.38063968,0.625711,0.55115373,-0.35155906,0.615565,0.54651088,-0.33075023,0.608318,0.58588576,-0.43688425,0.640962,0.58707364,-0.39295626,0.635656,0.58766497,-0.37058913,0.632941,0.58802586,-0.3510186,0.630473,0.6080724,-0.44886305,0.639966,0.6090763,-0.41094094,0.628205,0.60947164,-0.39371158,0.622801,0.60925256,-0.38174905,0.618032
0.56382597,-0.52486624,0.653487,0.55531358,-0.4788324,0.645795,0.55082172,-0.51219535,0.658977,0.51734207,-0.48177167,0.655479,0.49504521,-0.45571959,0.65235,0.49023106,-0.43867775,0.655726,0.54166377,-0.42760966,0.647724,0.53591018,-0.38224958,0.640479,0.5294661,-0.36324948,0.636857,0.52355447,-0.34571404,0.633564,0.55626103,-0.42829844,0.63847,0.54484967,-0.37729944,0.624177,0.53819022,-0.34764989,0.615839,0.53321683,-0.32674617,0.609884,0.56849896,-0.43212131,0.631679,0.55921782,-0.38527781,0.618404,0.55386415,-0.36222533,0.611613,0.54899805,-0.34121596,0.605438,0.58379844,-0.44319598,0.625242,0.58740454,-0.40680905,0.617776,0.58868704,-0.39048987,0.614346,0.58556524,-0.38435183,0.611319
0.54532436,-0.52390033,0.652617,0.53465284,-0.47684633,0.642088,0.51766331,-0.50641414,0.651138,0.49172544,-0.47411816,0.645544,0.46597219,-0.44496081,0.634569,0.45523841,-0.42408076,0.627902,0.51246077,-0.42016934,0.633013,0.49328595,-0.3771145,0.615049,0.4836797,-0.35545542,0.606068,0.47493338,-0.33568256,0.597902,0.53482738,-0.42509758,0.632061,0.52207063,-0.3733778,0.612177,0.51461714,-0.34331296,0.600577,0.50928846,-0.32188906,0.592292,0.5537064,-0.43260529,0.632411,0.55035299,-0.38899599,0.627566,0.54863684,-0.36669949,0.625087,0.54707617,-0.34643881,0.622833,0.57711029,-0.44826722,0.634798,0.58340857,-0.41361115,0.630276,0.58786567,-0.39887166,0.629909,0.59180249,-0.38585323,0.629585
0.52562552,-0.52234727,0.649065,0.51384593,-0.47619743,0.639829,0.5112321,-0.50877387,0.652953,0.47964729,-0.48221116,0.651665,0.45128744,-0.45180848,0.639129,0.44024103,-0.43159236,0.633771,0.49341903,-0.42440966,0.638622,0.47787318,-0.37685256,0.622438,0.46940647,-0.35429434,0.614347,0.46128784,-0.33451437,0.60699,0.51012183,-0.424261,0.631034,0.49647298,-0.37188369,0.612927,0.4853823,-0.34799833,0.602364,0.47742295,-0.33067424,0.59482,0.52443083,-0.42753375,0.62578,0.52669636,-0.38606201,0.625156,0.52738514,-0.36506718,0.624837,0.52800907,-0.34587951,0.624546,0.54281188,-0.43816826,0.621418,0.53787312,-0.40227995,0.607039,0.53561831,-0.38574439,0.600433,0.53363618,-0.37112837,0.594604
0.51054915,-0.52804839,0.651394,0.50174838,-0.48233743,0.645438,0.48338653,-0.51314742,0.651714,0.4535877,-0.48090809,0.643686,0.43111979,-0.45610037,0.641804,0.42184208,-0.43670104,0.640911,0.48234455,-0.42661869,0.641811,0.46315842,-0.42751492,0.629725,0.45317751,-0.43216955,0.623846,0.44396968,-0.43684339,0.618633,0.50352044,-0.4299555,0.639766,0.48889271,-0.3819902,0.625165,0.47821524,-0.36263717,0.616647,0.47009468,-0.35132821,0.610564,0.52130291,-0.43604284,0.638723,0.50371325,-0.43030137,0.626464,0.49443053,-0.42746211,0.620192,0.485891,-0.42502476,0.614603,0.54322661,-0.44996653,0.638633,0.53713666,-0.41396198,0.626693,0.53435131,-0.39733253,0.621207,0.5313184,-0.38387196,0.616366
0.49557169,-0.5275917,0.653733,0.48187288,-0.47312738,0.644744,0.46595876,-0.50497121,0.649921,0.43241752,-0.47349987,0.638201,0.40660048,-0.44954548,0.634291,0.39455455,-0.42999946,0.631458,0.44992702,-0.41593121,0.633676,0.43244117,-0.41715997,0.616088,0.42251733,-0.42478241,0.607294,0.41345798,-0.43214941,0.599393,0.47536122,-0.41945293,0.636183,0.45648783,-0.38208759,0.617601,0.4457685,-0.35999772,0.607327,0.43808925,-0.34391745,0.600049,0.49727772,-0.42586517,0.639217,0.4796533,-0.37923381,0.622351,0.47484378,-0.35856781,0.619206,0.47178389,-0.34046804,0.618114,0.52517802,-0.44035429,0.644427,0.50129795,-0.44373388,0.628193,0.49286097,-0.45137142,0.620735,0.49732381,-0.46877774,0.629102
0.48077109,-0.52017895,0.653735,0.46064827,-0.46647234,0.641953,0.44917698,-0.50121638,0.649866,0.41165478,-0.47030928,0.636178,0.38468044,-0.44844857,0.632662,0.37091219,-0.42967465,0.629513,0.42401065,-0.40963115,0.628915,0.40333441,-0.41254615,0.609148,0.39435208,-0.4196703,0.599264,0.39918394,-0.44089611,0.610237,0.44852521,-0.41130065,0.630733,0.42729617,-0.37332889,0.609258,0.41478067,-0.35064785,0.596731,0.41059328,-0.33814677,0.594764,0.47017435,-0.41634971,0.6335,0.45005347,-0.3738461,0.614176,0.44230963,-0.35396197,0.607851,0.43624717,-0.33637991,0.603535,0.49869532,-0.42952979,0.638926,0.4712298,-0.43283309,0.620695,0.46477641,-0.4401819,0.612319,0.47046852,-0.45721552,0.619927
0.44644421,-0.51878613,0.657755,0.43863597,-0.46719422,0.647101,0.43215091,-0.50583401,0.662171,0.39527955,-0.48490792,0.655503,0.36327406,-0.46375478,0.648242,0.34854322,-0.44714233,0.646988,0.41693028,-0.41530023,0.645618,0.386692,-0.38444118,0.629982,0.37126201,-0.36869058,0.622164,0.36768893,-0.36473405,0.633404,0.43111891,-0.41203811,0.636954,0.39326056,-0.40316834,0.618912,0.37029115,-0.39809139,0.608388,0.36430498,-0.40665482,0.619361,0.44373822,-0.41296638,0.630967,0.42062715,-0.37947792,0.614232,0.41011959,-0.36328302,0.607928,0.4007123,-0.34848987,0.60268,0.46081387,-0.42130071,0.626021,0.42907091,-0.42439221,0.612506,0.4310316,-0.43418815,0.606297,0.44248732,-0.45262757,0.6145
0.43697795,-0.51504892,0.649683,0.42487241,-0.46693001,0.641161,0.42247303,-0.50353352,0.654794,0.38284063,-0.48279736,0.649699,0.35320789,-0.46306962,0.645356,0.3437448,-0.44696737,0.645808,0.40179802,-0.4182892,0.642031,0.37356246,-0.38234172,0.626787,0.35840586,-0.3668258,0.619165,0.35478614,-0.36311789,0.630662,0.41689881,-0.41280546,0.633045,0.38406285,-0.40698616,0.617238,0.36404209,-0.40616535,0.608017,0.35989256,-0.41810799,0.619739,0.43010612,-0.41174043,0.626563,0.40036877,-0.37891989,0.614522,0.38875212,-0.36543935,0.614557,0.37777629,-0.35270264,0.614589,0.44771146,-0.41735748,0.620641,0.43210201,-0.39683464,0.607491,0.42481741,-0.38719104,0.601448,0.42805003,-0.38735976,0.609973
0.39620792,-0.50687383,0.639043,0.39424752,-0.45828366,0.632455,0.38253872,-0.49363653,0.643557,0.34790481,-0.47090532,0.638061,0.31917674,-0.45116096,0.634471,0.30422646,-0.43370474,0.632046,0.37725966,-0.40776051,0.633862,0.35738776,-0.37023683,0.618084,0.34731588,-0.35111996,0.610195,0.34843283,-0.34373687,0.6215,0.39268933,-0.40571904,0.626182,0.35853874,-0.4038799,0.612236,0.33744058,-0.40460602,0.604102,0.33176029,-0.41789111,0.616819,0.405801,-0.40737017,0.620567,0.37894335,-0.37137947,0.610457,0.36579031,-0.35691006,0.608157,0.35346443,-0.34334529,0.606065,0.42244464,-0.41604655,0.615288,0.40923397,-0.38920367,0.603673,0.40308549,-0.37658558,0.598336,0.39762951,-0.36530379,0.593647
0.38456673,-0.50614134,0.630882,0.36729322,-0.46115462,0.620922,0.36230322,-0.50179766,0.636097,0.32803023,-0.47938671,0.630815,0.29857786,-0.45425124,0.62209,0.29111579,-0.44134676,0.627547,0.34192806,-0.41289682,0.620951,0.31448271,-0.37439874,0.604304,0.30062273,-0.3549436,0.595981,0.29691479,-0.34764003,0.606761,0.35654383,-0.40684756,0.611435,0.33517999,-0.35461252,0.594386,0.31662756,-0.33249137,0.584441,0.31275202,-0.32644097,0.595524,0.36950038,-0.40539264,0.604673,0.3486393,-0.35916074,0.58987,0.33769898,-0.33601656,0.582296,0.33544672,-0.32244999,0.588865,0.38708022,-0.41065902,0.598696,0.355709,-0.40960637,0.586106,0.34289092,-0.41830264,0.580321,0.34072447,-0.43700732,0.588663
0.3682346,-0.50442966,0.623616,0.35291815,-0.45543084,0.617244,0.3515395,-0.49306053,0.626812,0.31107815,-0.46643894,0.619435,0.29096322,-0.4532291,0.626529,0.28514089,-0.44216554,0.634432,0.32598737,-0.40788537,0.617079,0.29744782,-0.37105406,0.603474,0.28298452,-0.35238607,0.596672,0.27840735,-0.34606206,0.609516,0.34244361,-0.40380291,0.611174,0.31745735,-0.3554225,0.596192,0.30292122,-0.32729125,0.587453,0.29682822,-0.31172605,0.589697,0.35696843,-0.40371746,0.606999,0.33591589,-0.35770434,0.594125,0.32525167,-0.33445986,0.587538,0.32225289,-0.32009443,0.593769,0.37632827,-0.41017143,0.603351,0.35911982,-0.37103617,0.592076,0.34666471,-0.36521365,0.586896,0.3496026,-0.3813379,0.596491
0.33293995,-0.498615,0.609383,0.32360969,-0.45520017,0.606799,0.3148861,-0.48981123,0.613592,0.2918338,-0.46869904,0.61904,0.26882265,-0.44698853,0.618242,0.25963839,-0.43139762,0.621263,0.29503153,-0.41194433,0.610528,0.27821994,-0.37401234,0.609872,0.26981398,-0.35504554,0.609545,0.26287551,-0.33870881,0.610883,0.31334685,-0.40666954,0.604339,0.30050452,-0.36279364,0.603697,0.29301017,-0.33718847,0.603323,0.28808545,-0.3193705,0.603957,0.32908728,-0.4053038,0.599521,0.31649423,-0.35912255,0.588991,0.30645529,-0.33981039,0.583604,0.29719653,-0.32195656,0.578707,0.34939453,-0.40960916,0.594414,0.34189663,-0.374753,0.590551,0.33845527,-0.35876058,0.588776,0.33698423,-0.34626819,0.589947
0.31220193,-0.49478322,0.610581,0.30665736,-0.45077058,0.60717,0.29519111,-0.48433459,0.61507,0.27227938,-0.45928176,0.617471,0.25339569,-0.43848746,0.62038,0.24879261,-0.42410523,0.626686,0.28214348,-0.40478133,0.6107,0.26853688,-0.36254267,0.605056,0.25489855,-0.34783036,0.602233,0.24217135,-0.33411008,0.599668,0.30069841,-0.40149254,0.603921,0.28591614,-0.35336607,0.595537,0.27730198,-0.32532672,0.590647,0.27115238,-0.30531375,0.587153,0.31632963,-0.40182837,0.598706,0.30539146,-0.35485666,0.588041,0.29489486,-0.33699193,0.582584,0.28516971,-0.32040358,0.577623,0.33594218,-0.40828561,0.593295,0.33077737,-0.37414125,0.590854,0.32827769,-0.35849805,0.589732,0.32606204,-0.34467811,0.588743
0.31347703,-0.4957261,0.613519,0.30465738,-0.45097723,0.608503,0.29547621,-0.48577174,0.617412,0.27140225,-0.46187658,0.619935,0.25036786,-0.44471322,0.624716,0.24487755,-0.43135609,0.631482,0.27119152,-0.40608295,0.610167,0.25923264,-0.36167013,0.602618,0.24584978,-0.34744455,0.598843,0.23691484,-0.33294326,0.595411,0.28970948,-0.40100495,0.603726,0.27889358,-0.35704607,0.603826,0.27259127,-0.33143216,0.603884,0.26809265,-0.31314932,0.603925,0.30575842,-0.39992742,0.598962,0.28590253,-0.3557719,0.587819,0.275007,-0.33393694,0.582117,0.26463081,-0.31449598,0.576934,0.32670575,-0.40477511,0.594376,0.32514682,-0.36727484,0.583545,0.31528058,-0.35989268,0.578569,0.30756061,-0.36590136,0.574178
0.31055203,-0.4978878,0.615219,0.29482903,-0.45505871,0.610613,0.29350033,-0.48928922,0.620982,0.26213978,-0.46682569,0.623598,0.24210783,-0.44663078,0.626232,0.2346141,-0.43066013,0.629672,0.2685747,-0.41084481,0.614991,0.25783532,-0.36279755,0.603189,0.24112679,-0.35354416,0.597288,0.22699709,-0.34420689,0.591924,0.2859839,-0.40553771,0.606226,0.2698132,-0.35837713,0.598694,0.2603743,-0.33084626,0.594301,0.26130319,-0.31268586,0.598552,0.30079034,-0.40426201,0.599504,0.2837592,-0.36057603,0.590389,0.27587753,-0.33713564,0.585725,0.26693409,-0.31747857,0.581486,0.31972273,-0.40888042,0.592568,0.30796714,-0.37569922,0.581915,0.30252417,-0.36027323,0.577021,0.29769788,-0.34656175,0.572702
0.30891167,-0.50024935,0.616263,0.29309512,-0.45653856,0.609619,0.29101957,-0.49075145,0.620676,0.25981583,-0.46805187,0.621485,0.23900915,-0.44713054,0.622963,0.23113043,-0.43094534,0.626001,0.2620546,-0.41349044,0.610857,0.248436,-0.36904815,0.602698,0.23467207,-0.35427513,0.598619,0.22184042,-0.34052112,0.594911,0.28256282,-0.40577429,0.603291,0.26425824,-0.36127015,0.596706,0.25477673,-0.33403019,0.592864,0.25144319,-0.31366047,0.592121,0.29816333,-0.40489197,0.597777,0.28250384,-0.36219865,0.590417,0.27439558,-0.34035262,0.586651,0.26716931,-0.31962151,0.583228,0.31837926,-0.41022112,0.592626,0.30149395,-0.37850407,0.580771,0.29407433,-0.36362034,0.575324,0.28711858,-0.35115029,0.570518
0.30759101,-0.50026975,0.616223,0.29234699,-0.45558171,0.609156,0.28967813,-0.49101001,0.620797,0.2590508,-0.4671061,0.620844,0.237891,-0.44581545,0.621739,0.22999259,-0.42982125,0.625009,0.26320539,-0.40999304,0.610315,0.24803566,-0.36706169,0.602673,0.23422829,-0.35251142,0.598851,0.22134159,-0.3389498,0.595377,0.28124616,-0.40462689,0.602425,0.26542571,-0.35860324,0.59665,0.2561706,-0.33167114,0.593281,0.24954736,-0.31239443,0.590874,0.29678453,-0.40347088,0.59669,0.28044247,-0.36078382,0.58865,0.27177014,-0.33914732,0.584536,0.26439563,-0.31880565,0.580796,0.31698917,-0.40851076,0.591361,0.29908781,-0.37728151,0.579368,0.29103061,-0.36311726,0.573858,0.28351309,-0.35132361,0.568996
0.30872258,-0.50068171,0.616687,0.30353875,-0.45183285,0.608356,0.29063756,-0.49132435,0.621057,0.26905107,-0.46439768,0.620385,0.24830119,-0.44398454,0.622054,0.24168354,-0.42964165,0.627515,0.27067583,-0.40637805,0.608391,0.25732252,-0.3627569,0.601687,0.24372885,-0.35054111,0.598334,0.23229604,-0.33557534,0.595287,0.28854813,-0.40047936,0.600421,0.26944499,-0.35619871,0.594074,0.25967801,-0.32938279,0.590371,0.25267783,-0.31015626,0.587726,0.3041077,-0.39895587,0.594756,0.28644434,-0.35697233,0.586644,0.27663636,-0.33607571,0.582493,0.26608366,-0.31766611,0.57872,0.32465157,-0.40367407,0.589746,0.3059345,-0.37381628,0.576763,0.29714527,-0.36375385,0.570797,0.28815191,-0.35588598,0.565533
0.31405397,-0.49102936,0.610462,0.30606545,-0.43440337,0.599279,0.30081631,-0.47976119,0.616688,0.28070405,-0.45073187,0.619367,0.25852655,-0.42851459,0.618536,0.24981673,-0.41244096,0.621348,0.27428113,-0.38987716,0.599795,0.25905242,-0.34651034,0.592385,0.24284986,-0.33365144,0.588681,0.22855066,-0.32510457,0.585313,0.28874592,-0.38271435,0.588628,0.26513115,-0.33653041,0.577856,0.25131141,-0.3094949,0.571572,0.24141955,-0.29013954,0.567084,0.30183502,-0.38025279,0.580638,0.27882565,-0.33768811,0.568195,0.26614498,-0.31670989,0.561829,0.25411417,-0.2979933,0.556042,0.32008521,-0.38407383,0.573466,0.2964178,-0.35540921,0.559097,0.28433502,-0.34490539,0.552495,0.27295612,-0.33806298,0.54667
0.32244203,-0.47688204,0.610708,0.30652285,-0.42446839,0.599778,0.30591274,-0.46918662,0.617197,0.28112339,-0.44064657,0.619782,0.25953685,-0.41897945,0.61984,0.25092223,-0.40267428,0.622455,0.27539649,-0.38002329,0.600808,0.26019136,-0.33633418,0.592638,0.24397668,-0.32290094,0.588553,0.22885216,-0.31039318,0.58484,0.28970717,-0.3727413,0.589368,0.26679306,-0.32670614,0.579317,0.25337752,-0.29974461,0.573453,0.24377246,-0.28043635,0.569265,0.30262049,-0.37016399,0.581126,0.28016301,-0.32760841,0.569166,0.26776031,-0.30658609,0.563048,0.2559795,-0.28780185,0.557485,0.32058141,-0.37381421,0.573613,0.29724735,-0.34485281,0.559537,0.28529944,-0.33414263,0.55307,0.27401996,-0.32707204,0.547363
0.34503402,-0.47061175,0.611761,0.32484949,-0.42247688,0.599732,0.32617246,-0.46414408,0.616727,0.29672716,-0.44102595,0.6158,0.27656476,-0.42344953,0.619166,0.26433421,-0.40808588,0.620521,0.2879344,-0.37945476,0.598032,0.26348635,-0.34920391,0.60007,0.2528269,-0.33130873,0.601089,0.24213246,-0.31664265,0.602015,0.30350159,-0.37046971,0.588276,0.28682894,-0.32885063,0.58868,0.27703295,-0.3043983,0.588916,0.2700035,-0.28685263,0.589084,0.31777257,-0.36654532,0.581539,0.30059523,-0.33206922,0.584593,0.29184312,-0.31450026,0.586156,0.27822226,-0.30816058,0.587577,0.33798968,-0.36861891,0.575979,0.31595362,-0.34119836,0.559636,0.30460442,-0.33247313,0.552127,0.29429544,-0.32562146,0.545502
0.3452595,-0.46151593,0.602532,0.33221899,-0.41505289,0.593191,0.32510737,-0.45378393,0.605329,0.30089625,-0.43151294,0.606359,0.27320327,-0.41120801,0.602558,0.2652216,-0.39815494,0.608551,0.29355864,-0.37235625,0.590492,0.27155888,-0.33807112,0.591177,0.2605884,-0.32097418,0.59152,0.25063166,-0.30545712,0.591831,0.31221044,-0.36582798,0.584295,0.29070607,-0.31783927,0.573503,0.27733939,-0.29061297,0.567208,0.26777455,-0.2711258,0.562711,0.3289565,-0.36369829,0.580199,0.31248469,-0.32465908,0.579169,0.30420119,-0.30484159,0.5789,0.29666964,-0.28682263,0.578656,0.35185182,-0.36746937,0.577199,0.33693708,-0.33352385,0.57199,0.33009333,-0.31795124,0.569596,0.32406048,-0.30422444,0.567485
0.37145229,-0.46209193,0.599878,0.35288669,-0.41972857,0.594251,0.35066836,-0.45601024,0.602848,0.32175942,-0.43832058,0.605949,0.29479875,-0.41805282,0.602737,0.28573918,-0.4058457,0.608966,0.31386709,-0.38034367,0.594299,0.29223583,-0.34370817,0.592578,0.28141574,-0.32538259,0.591718,0.27157642,-0.30871816,0.590936,0.33246436,-0.37247202,0.588891,0.31696661,-0.33198603,0.591605,0.30792308,-0.30836152,0.593188,0.30146221,-0.29148363,0.594319,0.34913983,-0.36899828,0.585045,0.33356347,-0.32766377,0.581024,0.32559103,-0.30650748,0.578966,0.31834226,-0.28727021,0.577096,0.37189223,-0.37074816,0.581638,0.35813827,-0.3434732,0.585121,0.35143641,-0.33105605,0.586721,0.34528549,-0.32014552,0.588133
0.36457968,-0.43386369,0.585594,0.35076153,-0.39039797,0.580498,0.34374097,-0.42534246,0.587588,0.31231532,-0.40247793,0.584521,0.28742953,-0.38342938,0.583904,0.27937933,-0.37143532,0.591156,0.31526186,-0.34708523,0.579633,0.30918558,-0.30384374,0.574268,0.30572637,-0.2824296,0.571585,0.30257637,-0.26290948,0.569146,0.33567674,-0.34182715,0.575644,0.32473539,-0.3004706,0.579194,0.31834587,-0.27632072,0.581266,0.31377792,-0.25905879,0.582745,0.35350025,-0.34055392,0.572907,0.34120785,-0.3034522,0.576104,0.33491264,-0.28445292,0.57774,0.32918591,-0.26717069,0.579227,0.37694012,-0.34502073,0.570689,0.36640888,-0.31717395,0.575189,0.3615726,-0.30438544,0.577256,0.35680615,-0.29308813,0.579081
0.39809959,-0.43973146,0.597366,0.38307369,-0.39620267,0.591715,0.37543635,-0.43078692,0.597287,0.34224446,-0.40729855,0.591605,0.31462087,-0.3876119,0.588351,0.30544879,-0.37582447,0.595038,0.34440334,-0.35228072,0.587775,0.33760201,-0.3092074,0.582628,0.33396824,-0.28786928,0.580054,0.33065949,-0.26842106,0.577714,0.3667307,-0.34764008,0.586333,0.35357699,-0.30638157,0.589142,0.34589563,-0.28228952,0.590781,0.34040469,-0.26506945,0.591951,0.38625409,-0.34689165,0.585755,0.37169711,-0.30971424,0.587873,0.36424595,-0.29068569,0.588956,0.3574713,-0.27338346,0.589942,0.41189982,-0.35196519,0.586145,0.39890236,-0.3238164,0.589184,0.39294239,-0.31090682,0.59058,0.3874049,-0.2994969,0.591812
0.38134288,-0.44359571,0.611227,0.38103661,-0.38771764,0.607039,0.35998797,-0.4164621,0.606977,0.33314059,-0.38026252,0.590286,0.3114744,-0.36383504,0.592323,0.3105314,-0.36066119,0.605937,0.35424173,-0.33357854,0.598658,0.34076187,-0.32351712,0.58576,0.33487696,-0.32435533,0.579311,0.32945059,-0.32533585,0.573483,0.3801711,-0.33776268,0.603049,0.3768217,-0.29122987,0.599518,0.37321671,-0.26809279,0.597458,0.36986673,-0.26712002,0.595987,0.402042,-0.34428787,0.607117,0.38953608,-0.32964856,0.593818,0.38313605,-0.3224353,0.587014,0.37728472,-0.31576463,0.580918,0.42906595,-0.35818167,0.612625,0.41385332,-0.32143335,0.599743,0.4068544,-0.3045054,0.593824,0.40069198,-0.28955835,0.588628
0.39352204,-0.42944914,0.592831,0.39756927,-0.38371722,0.598743,0.37273462,-0.40744959,0.592459,0.35147995,-0.37709059,0.584304,0.33700064,-0.36833829,0.599279,0.33135585,-0.35990355,0.604826,0.37861229,-0.33719797,0.602272,0.37376927,-0.29662332,0.600744,0.37133569,-0.27621253,0.59998,0.37275676,-0.26012539,0.605196,0.40319628,-0.34030389,0.604374,0.40005091,-0.29582152,0.604527,0.39821558,-0.26986829,0.604616,0.3963087,-0.25915569,0.60468,0.42307645,-0.34527472,0.605467,0.41395741,-0.30786442,0.606168,0.40965661,-0.29006438,0.606527,0.40777655,-0.28183235,0.606853,0.44617586,-0.35609747,0.605625,0.43750124,-0.32520931,0.601862,0.4334406,-0.31065305,0.600133,0.42981626,-0.2976095,0.598607
0.40095095,-0.42068891,0.590455,0.41787485,-0.38302636,0.597665,0.3926407,-0.40623438,0.590692,0.37261232,-0.37678082,0.583824,0.35889431,-0.36863946,0.599769,0.35243423,-0.35968457,0.604458,0.39971141,-0.33753277,0.60287,0.39584187,-0.29758911,0.6027,0.39388906,-0.27742561,0.602615,0.39453066,-0.26058615,0.606268,0.42412305,-0.34039342,0.604533,0.42063824,-0.29565954,0.604196,0.41860794,-0.26959334,0.604,0.41712987,-0.25880425,0.60386,0.44373788,-0.34507969,0.605125,0.43493813,-0.30819099,0.606811,0.43134461,-0.29061244,0.607673,0.43041315,-0.28257727,0.608457,0.46631559,-0.3554107,0.604457,0.45899932,-0.32525578,0.601948,0.45556242,-0.31099624,0.600796,0.4524878,-0.29819219,0.599779
0.45800569,-0.40325215,0.625828,0.45104574,-0.35586101,0.618928,0.4337323,-0.38645062,0.620721,0.40312822,-0.34919545,0.602076,0.38131142,-0.3296078,0.604532,0.37308697,-0.31265727,0.607189,0.41713814,-0.30127367,0.607591,0.40809599,-0.26033786,0.593556,0.40356621,-0.24025805,0.586538,0.39944797,-0.2220231,0.580159,0.44413394,-0.30436694,0.612356,0.43338964,-0.30368539,0.595774,0.42718445,-0.30365197,0.586102,0.43562882,-0.32988196,0.598623,0.46726985,-0.31014566,0.617025,0.44756499,-0.26335262,0.601494,0.44549004,-0.24398538,0.604351,0.44349779,-0.22585665,0.606949,0.49651123,-0.32337364,0.62374,0.47766047,-0.28541551,0.612027,0.47459054,-0.28009524,0.606645,0.47191295,-0.27532294,0.601896
0.47730677,-0.38078345,0.611363,0.46464849,-0.34006164,0.611351,0.45066466,-0.36905512,0.606671,0.41861672,-0.33395813,0.590921,0.39650717,-0.33191737,0.599477,0.38414296,-0.31533762,0.5994,0.42359929,-0.29618807,0.605231,0.41148599,-0.25432623,0.597906,0.40571363,-0.23334211,0.594725,0.40043416,-0.21409161,0.591833,0.45078853,-0.29547184,0.611339,0.43631987,-0.24815243,0.602744,0.42785751,-0.22043196,0.59773,0.43895417,-0.21323752,0.612453,0.47413828,-0.29748473,0.61637,0.46615696,-0.25382672,0.609835,0.46960495,-0.23555408,0.616348,0.47270905,-0.21853414,0.622268,0.5039021,-0.30499675,0.622213,0.49704395,-0.27008741,0.613526,0.49443505,-0.25496364,0.609535,0.49222523,-0.24164264,0.606013
0.47742364,-0.37681096,0.609203,0.47885603,-0.33486692,0.612988,0.45287664,-0.3637186,0.605721,0.42864811,-0.32978391,0.601667,0.41715007,-0.31772112,0.616563,0.41025656,-0.30311047,0.620036,0.45050202,-0.2881318,0.611022,0.43790631,-0.24971063,0.6054,0.43145985,-0.22987371,0.602588,0.42550929,-0.21145502,0.600033,0.47802004,-0.29151191,0.616592,0.47786326,-0.24568651,0.613595,0.47797918,-0.21890235,0.611846,0.4873958,-0.20363952,0.622516,0.50082291,-0.29676872,0.620771,0.49271883,-0.2539041,0.616274,0.49217351,-0.23376178,0.618487,0.49165386,-0.21523159,0.620499,0.52829819,-0.30799715,0.62491,0.52223737,-0.27297899,0.618393,0.51944987,-0.2567145,0.615399,0.51698937,-0.24226894,0.612758
0.55680716,-0.35981121,0.643326,0.54531604,-0.31372129,0.634485,0.53142451,-0.34524514,0.636646,0.49964688,-0.30962239,0.615474,0.47500141,-0.29845775,0.618941,0.47301215,-0.29459487,0.634999,0.50603508,-0.26108129,0.619781,0.47642561,-0.21701542,0.601345,0.46612579,-0.19812415,0.592126,0.45671199,-0.18068535,0.583746,0.5336943,-0.26256232,0.626065,0.51878526,-0.21500662,0.618462,0.51009225,-0.18728604,0.614027,0.50441745,-0.16767206,0.611505,0.55759391,-0.26702192,0.632192,0.55437916,-0.2260064,0.632438,0.55281664,-0.20508229,0.632655,0.55139701,-0.18607327,0.632852,0.58811231,-0.2785861,0.640966,0.57463255,-0.24008535,0.625753,0.56929378,-0.22301052,0.618763,0.56458375,-0.20793219,0.612595
0.55584854,-0.35705185,0.647728,0.54339728,-0.30345301,0.635805,0.53135661,-0.34091722,0.64164,0.49153683,-0.3026297,0.628724,0.45991963,-0.27436141,0.611539,0.45251737,-0.25779593,0.614825,0.50929394,-0.24625663,0.619779,0.48189761,-0.20099802,0.599024,0.4741106,-0.19063575,0.588646,0.46704831,-0.18101594,0.579212,0.53649642,-0.25064705,0.624449,0.52012784,-0.2009765,0.602976,0.51058722,-0.17184825,0.59045,0.50377643,-0.15096736,0.581503,0.5600247,-0.25766943,0.62958,0.53833576,-0.21171006,0.611774,0.52724806,-0.1882548,0.602664,0.51812752,-0.1679822,0.594383,0.58759236,-0.27496133,0.637777,0.57670408,-0.23277967,0.621135,0.57175493,-0.21616548,0.613489,0.56352621,-0.20441372,0.606742
0.55532183,-0.35527825,0.64786,0.54598458,-0.30296645,0.63544,0.53011557,-0.33355067,0.643042,0.49881498,-0.29473538,0.62507,0.4773225,-0.27066206,0.623186,0.47854987,-0.26050087,0.635815,0.51924297,-0.2446785,0.620731,0.51481566,-0.2093616,0.627233,0.51310345,-0.19037666,0.630484,0.51144919,-0.17266833,0.63344,0.5447848,-0.25005148,0.623611,0.52985271,-0.20242212,0.601318,0.52145682,-0.17623801,0.588313,0.51561243,-0.15833666,0.579024,0.56682778,-0.25787562,0.627321,0.55975619,-0.21617964,0.625689,0.5561269,-0.19477072,0.624853,0.55282233,-0.17526345,0.624094,0.59489177,-0.27390114,0.633963,0.58524509,-0.23481257,0.619373,0.58141481,-0.21805751,0.61267,0.57835989,-0.20457406,0.606755
0.56067737,-0.34393403,0.646716,0.56539449,-0.29087596,0.639135,0.5486537,-0.32072711,0.645459,0.5270973,-0.28835226,0.640532,0.5014494,-0.25866862,0.630684,0.49958004,-0.24367794,0.637652,0.54035575,-0.23826714,0.632352,0.5198788,-0.19721918,0.61731,0.50957432,-0.17638874,0.609789,0.50016588,-0.15726201,0.602952,0.56321514,-0.24074146,0.631916,0.54601067,-0.19435475,0.615298,0.53594115,-0.16672195,0.605605,0.52873146,-0.14670232,0.598681,0.58279003,-0.2459275,0.632373,0.58069593,-0.2078598,0.63429,0.57919313,-0.18710685,0.635271,0.57774463,-0.16828787,0.636163,0.60751469,-0.25839576,0.63433,0.60568238,-0.22628469,0.631735,0.60468979,-0.21061789,0.630542,0.60373676,-0.19755942,0.62949
0.57373142,-0.33868646,0.648206,0.57994419,-0.29647796,0.644533,0.55508085,-0.32261741,0.647583,0.54364472,-0.29533988,0.645218,0.51444122,-0.26426642,0.631195,0.51062456,-0.24803882,0.636226,0.55970919,-0.24365167,0.641227,0.55302181,-0.20286259,0.640396,0.54966706,-0.18239554,0.63998,0.54661122,-0.163747,0.639602,0.58307207,-0.24753682,0.641034,0.58203107,-0.19844766,0.628578,0.58143781,-0.16975212,0.621312,0.58102063,-0.14922694,0.616122,0.60239161,-0.25376854,0.641271,0.59039765,-0.20860599,0.631253,0.58427812,-0.18576197,0.626128,0.58034055,-0.17306907,0.621469,0.62554678,-0.26718574,0.642236,0.61941192,-0.2312841,0.63583,0.61694348,-0.21487294,0.632887,0.61510667,-0.20103486,0.63029
0.57548335,-0.33521023,0.647745,0.58457145,-0.28622908,0.646275,0.55709733,-0.31898986,0.647174,0.54789024,-0.28200076,0.648966,0.52058941,-0.24936896,0.634443,0.51923172,-0.23130796,0.638972,0.56650295,-0.23354714,0.644532,0.5582085,-0.19300858,0.64129,0.55480012,-0.17219241,0.639668,0.5521614,-0.15391185,0.638194,0.59024833,-0.23808953,0.644874,0.59397673,-0.19525895,0.647312,0.59635343,-0.16988695,0.648734,0.59872927,-0.15065522,0.64975,0.60960286,-0.24475294,0.645314,0.6027382,-0.20281194,0.641672,0.59925079,-0.18164253,0.639809,0.59901868,-0.1668619,0.638115,0.63232436,-0.25848982,0.646101,0.6286612,-0.22278323,0.637497,0.62853628,-0.20937033,0.633543,0.62850158,-0.19729769,0.630055
0.58267001,-0.32219582,0.645135,0.59374214,-0.27545259,0.646453,0.56513688,-0.30613481,0.645312,0.54571191,-0.26913092,0.636182,0.51692455,-0.24017251,0.624202,0.51412247,-0.22748319,0.632754,0.57648394,-0.22438827,0.647579,0.56538718,-0.1846575,0.641275,0.56357012,-0.16686944,0.638123,0.56258719,-0.15240392,0.635258,0.60007899,-0.22849543,0.647709,0.59514963,-0.18079338,0.640852,0.59324086,-0.15261918,0.636852,0.59302409,-0.13308763,0.633995,0.61906197,-0.23465263,0.647673,0.61812272,-0.19458123,0.647874,0.61843254,-0.1733155,0.647977,0.61925714,-0.15351922,0.64807,0.6409908,-0.24750643,0.647385,0.64604699,-0.21477654,0.64662,0.64835472,-0.19982128,0.646268,0.65112934,-0.18616854,0.645958
0.58792771,-0.32152618,0.648708,0.59556453,-0.27566341,0.64828,0.57361266,-0.30213959,0.648598,0.54929425,-0.27190725,0.638484,0.52458172,-0.24763203,0.629225,0.52037017,-0.23096153,0.639181,0.57682977,-0.22418491,0.647846,0.56739482,-0.1806191,0.641452,0.56631659,-0.16348654,0.638255,0.56697571,-0.15378736,0.635349,0.60020422,-0.22786218,0.647873,0.59656107,-0.18046161,0.642436,0.59544653,-0.15241845,0.639265,0.59606679,-0.13308948,0.637,0.61913374,-0.23374598,0.647941,0.62095414,-0.1936653,0.649362,0.62370185,-0.172617,0.650089,0.63327528,-0.1564159,0.65075,0.64123801,-0.24639565,0.648101,0.65256052,-0.21400805,0.649823,0.65849718,-0.19950804,0.650614,0.66453934,-0.18656379,0.651312
0.60353411,-0.31899125,0.657446,0.6140193,-0.27026515,0.655811,0.58671672,-0.30128129,0.656374,0.56856429,-0.27234856,0.644586,0.52786278,-0.24278472,0.622369,0.51317981,-0.2268543,0.623201,0.59280138,-0.2179931,0.653305,0.59040012,-0.17762468,0.649352,0.5911622,-0.15690219,0.647375,0.5919094,-0.13763666,0.645578,0.61718828,-0.2217485,0.654254,0.62151396,-0.17847573,0.654922,0.62535614,-0.15178169,0.655313,0.62812249,-0.13253518,0.655591,0.63719561,-0.22777711,0.655212,0.64301565,-0.18871484,0.657939,0.64617086,-0.16856125,0.659335,0.64954291,-0.14961552,0.660603,0.66094796,-0.24076512,0.656631,0.66636693,-0.20808747,0.651986,0.67056501,-0.19287083,0.649852,0.67450096,-0.17951264,0.647968
0.62106445,-0.30871899,0.664433,0.62824752,-0.25898749,0.664501,0.60459426,-0.28440725,0.662758,0.58190627,-0.25343761,0.658323,0.55078203,-0.22139945,0.640015,0.54628043,-0.20362668,0.643647,0.60762137,-0.20666122,0.662366,0.60352209,-0.16310168,0.654787,0.60146465,-0.1414283,0.650997,0.60252354,-0.12743457,0.647552,0.63290113,-0.21125947,0.664566,0.62805341,-0.16577693,0.657895,0.62918625,-0.13876516,0.654004,0.63008396,-0.11899716,0.651225,0.65349923,-0.21786252,0.66637,0.65633214,-0.18330487,0.66621,0.65777424,-0.16570666,0.666128,0.65700634,-0.1502996,0.666054,0.67768082,-0.23133645,0.668452,0.68383735,-0.20167059,0.664106,0.68661325,-0.18818061,0.662109,0.69083325,-0.17843159,0.660348
0.62876745,-0.30104786,0.664211,0.63171315,-0.25943113,0.665335,0.60805117,-0.28491257,0.661832,0.59216083,-0.25626495,0.659808,0.55819053,-0.22329381,0.638421,0.55163742,-0.20464302,0.639651,0.60859156,-0.20787375,0.663,0.60867159,-0.1656385,0.659451,0.60871181,-0.14451198,0.657676,0.61152078,-0.12659356,0.656063,0.63486674,-0.2120117,0.666406,0.62934975,-0.16672799,0.65939,0.63150309,-0.14054827,0.655297,0.63317004,-0.12131608,0.652374,0.65633011,-0.21820257,0.669089,0.65818264,-0.18265338,0.666975,0.65998382,-0.16476412,0.666765,0.6618309,-0.14840351,0.666573,0.68160995,-0.23111106,0.671993,0.68815738,-0.20135217,0.668118,0.69132577,-0.1877184,0.666338,0.69583031,-0.17699694,0.664767
0.61635353,-0.30745387,0.665214,0.62075498,-0.26493268,0.666625,0.59820259,-0.28474429,0.664076,0.583476,-0.25175126,0.666497,0.56205149,-0.21718658,0.651608,0.5648977,-0.19872767,0.656941,0.6123467,-0.20942249,0.666101,0.61102185,-0.16666626,0.661324,0.61035844,-0.14529442,0.658935,0.61131851,-0.12673293,0.656763,0.63790174,-0.21967393,0.667969,0.64337666,-0.1730293,0.661317,0.64669454,-0.14575518,0.657436,0.64969449,-0.12599758,0.654664,0.65650101,-0.22983423,0.669355,0.65715962,-0.1860546,0.667026,0.65855347,-0.16551031,0.665834,0.65788994,-0.14870117,0.664751,0.67679583,-0.24727663,0.670699,0.68537785,-0.21408961,0.672024,0.69035061,-0.1992371,0.673657,0.69477265,-0.18609647,0.675098
0.61301799,-0.31076061,0.665582,0.62259761,-0.26613766,0.667392,0.59743777,-0.28568556,0.665274,0.58581804,-0.25367718,0.666112,0.56418968,-0.21814106,0.652513,0.56729911,-0.19970008,0.658008,0.61753908,-0.21210568,0.668219,0.61446956,-0.16865675,0.662874,0.61355825,-0.14720952,0.660202,0.61323367,-0.12752204,0.657772,0.64038913,-0.22103771,0.669116,0.64685347,-0.17497819,0.663555,0.65074718,-0.1480585,0.660311,0.65420218,-0.12841745,0.657994,0.65813725,-0.23101564,0.669659,0.65801878,-0.18946252,0.666287,0.65850233,-0.16755185,0.665699,0.66024173,-0.14877729,0.665165,0.67728246,-0.24817613,0.66995,0.68682974,-0.21531215,0.672042,0.69164165,-0.20021694,0.673299,0.69599958,-0.1867835,0.674408
0.63329082,-0.29970686,0.666945,0.63819114,-0.25788497,0.668862,0.61288529,-0.28418641,0.665499,0.59782232,-0.24998544,0.667484,0.5690098,-0.21889776,0.65422,0.56720796,-0.19931382,0.656933,0.6151449,-0.20945318,0.66828,0.61407278,-0.16668632,0.663018,0.61318814,-0.14569041,0.660387,0.61379931,-0.12669013,0.657994,0.63993579,-0.21053626,0.670687,0.6364042,-0.16640139,0.664722,0.64070301,-0.1347821,0.661242,0.64096894,-0.11437375,0.658757,0.66049798,-0.21708301,0.672463,0.66032512,-0.17304674,0.666995,0.65989068,-0.15130898,0.664197,0.66105007,-0.13248682,0.661653,0.68539387,-0.22839384,0.674164,0.69902279,-0.194076,0.676088,0.70509834,-0.17938521,0.677356,0.71059627,-0.16646614,0.678609
0.62867566,-0.30180563,0.66853,0.63707226,-0.25936309,0.67024,0.6101932,-0.28525948,0.667648,0.59793755,-0.25228942,0.670262,0.56831748,-0.2195216,0.655216,0.56785141,-0.20047489,0.658437,0.61735071,-0.2076113,0.670252,0.61516507,-0.16513054,0.66448,0.61379563,-0.14501001,0.661594,0.61475128,-0.12625538,0.658971,0.64150487,-0.21230006,0.671867,0.63869969,-0.16567144,0.665426,0.6411366,-0.1361763,0.661669,0.64026258,-0.11741153,0.658986,0.66160748,-0.21785386,0.673014,0.65862649,-0.18210736,0.667125,0.65876961,-0.16344875,0.665105,0.65869245,-0.14746346,0.663269,0.6841887,-0.23209939,0.674023,0.69964455,-0.19628321,0.676289,0.7059808,-0.18101761,0.67733,0.71157103,-0.16754795,0.678248
0.62619776,-0.30510612,0.669828,0.63830432,-0.26076495,0.671998,0.60825054,-0.28569515,0.668352,0.59719753,-0.25308259,0.670448,0.56909976,-0.22013017,0.655909,0.56876661,-0.20158955,0.659803,0.6199561,-0.21073114,0.67155,0.61708791,-0.16779431,0.665872,0.61533928,-0.14590983,0.663033,0.61565678,-0.12700697,0.660452,0.64598764,-0.21519671,0.674065,0.64546615,-0.17110765,0.667929,0.6467168,-0.14386119,0.664349,0.64558349,-0.12237048,0.661792,0.66628321,-0.22265081,0.675902,0.66170383,-0.18404185,0.669987,0.6606137,-0.16621334,0.666961,0.65969935,-0.14804884,0.66421,0.69016611,-0.23979831,0.677627,0.69559964,-0.20071244,0.673951,0.69733209,-0.18688788,0.672262,0.70162959,-0.17415535,0.670772
0.62687078,-0.30520765,0.670408,0.63856988,-0.2614727,0.672585,0.60900829,-0.28599922,0.669059,0.59725446,-0.25365866,0.671019,0.57004199,-0.22069835,0.656856,0.56985913,-0.20250294,0.661273,0.62090603,-0.2110709,0.672306,0.61761761,-0.16808394,0.666592,0.61571085,-0.14624202,0.663735,0.61595576,-0.12747346,0.661138,0.64679664,-0.21618451,0.674658,0.64605177,-0.17126289,0.668535,0.64731548,-0.14399436,0.664964,0.64671751,-0.12289216,0.662412,0.66696845,-0.22369268,0.676361,0.66231556,-0.18485962,0.670454,0.66116351,-0.16656769,0.667432,0.66022189,-0.14842322,0.664684,0.69047268,-0.23990483,0.677928,0.69604833,-0.20143108,0.674581,0.69798748,-0.18683089,0.673043,0.70230006,-0.17378975,0.671686
0.63016816,-0.30644815,0.673921,0.63920886,-0.2619138,0.673713,0.61189567,-0.28718419,0.672288,0.59826802,-0.25413991,0.672525,0.57111728,-0.22126891,0.658329,0.57046019,-0.20293349,0.662372,0.6197041,-0.20961467,0.671446,0.61357946,-0.16677947,0.66335,0.61087327,-0.14485979,0.659303,0.60852522,-0.12912429,0.655623,0.64473379,-0.21473695,0.673516,0.63901427,-0.16729334,0.664637,0.63673236,-0.14175803,0.659458,0.6385418,-0.12428444,0.655759,0.66473972,-0.22130994,0.675242,0.65896148,-0.18391325,0.667168,0.65655354,-0.1647685,0.663037,0.66020827,-0.14828002,0.664725,0.6884193,-0.23581425,0.677286,0.69615523,-0.20119308,0.674889,0.69998457,-0.1833449,0.673788,0.70320136,-0.17337841,0.672817
0.63230653,-0.30189164,0.670676,0.63935428,-0.26159653,0.673526,0.61423178,-0.28563811,0.670551,0.59786187,-0.25385755,0.671995,0.57231156,-0.22182543,0.6597,0.57236281,-0.20383215,0.664853,0.62369886,-0.21057546,0.675298,0.62071261,-0.16784014,0.670533,0.62025213,-0.14700074,0.66815,0.6207456,-0.128124,0.665984,0.6477896,-0.21534883,0.67624,0.64740956,-0.16826744,0.671027,0.64878683,-0.14058196,0.667986,0.64966706,-0.12043206,0.665814,0.66708181,-0.22184578,0.676708,0.66375006,-0.18566281,0.671926,0.66274003,-0.16853228,0.669479,0.6700166,-0.15259429,0.675387,0.68911062,-0.23417932,0.676716,0.69664877,-0.20267531,0.675967,0.70022924,-0.18836532,0.675623,0.7042305,-0.17453336,0.67532
0.63243802,-0.30505251,0.675441,0.64064459,-0.26215995,0.674877,0.61431823,-0.28760642,0.674437,0.59705274,-0.25515141,0.673308,0.57092831,-0.22216258,0.659001,0.57000968,-0.20345323,0.662607,0.62148903,-0.21019284,0.673186,0.61511235,-0.16674846,0.664814,0.61235141,-0.14632737,0.660628,0.61112824,-0.12751697,0.656823,0.64571657,-0.214996,0.67434,0.64057291,-0.16724879,0.665193,0.63801455,-0.14286359,0.659857,0.63804377,-0.12465919,0.656046,0.66530841,-0.22211243,0.675351,0.6588244,-0.18819786,0.667028,0.65543109,-0.1695387,0.66277,0.6696884,-0.15755006,0.675868,0.6885078,-0.23554793,0.67663,0.69614682,-0.2051393,0.675815,0.6996377,-0.19178889,0.67544,0.70234609,-0.18195737,0.67511
0.63018488,-0.30481975,0.674651,0.63679938,-0.26542983,0.675524,0.6123239,-0.28716262,0.673665,0.59529173,-0.25524126,0.67215,0.56911834,-0.22209182,0.657963,0.56954069,-0.20376339,0.662557,0.62265198,-0.21283175,0.674831,0.61836062,-0.17027499,0.667864,0.61614125,-0.14872937,0.66438,0.6153659,-0.12845036,0.661213,0.64730266,-0.21891494,0.676354,0.64443477,-0.17076953,0.668764,0.64197217,-0.14555216,0.664336,0.64433349,-0.12529408,0.661174,0.66711303,-0.22606713,0.677515,0.66494644,-0.19142912,0.67467,0.66695795,-0.16943183,0.673214,0.68341888,-0.16457561,0.689801,0.69024534,-0.24090628,0.678698,0.69992716,-0.20705128,0.679195,0.70775626,-0.19446785,0.679423,0.70938239,-0.17907755,0.679624
0.62888994,-0.30519178,0.673626,0.633276,-0.26903022,0.67461,0.61175695,-0.28788555,0.673356,0.58974914,-0.25661064,0.670369,0.56746906,-0.22542446,0.659015,0.56896112,-0.20551967,0.663561,0.62088517,-0.22281373,0.674926,0.61679713,-0.18113928,0.668131,0.61475501,-0.15997982,0.664734,0.61291754,-0.14039694,0.661646,0.64434875,-0.22773932,0.675547,0.64235513,-0.18055502,0.668217,0.64145908,-0.14995955,0.663941,0.6407555,-0.13057092,0.660887,0.66450341,-0.23424485,0.675953,0.66379592,-0.18861606,0.672148,0.66418248,-0.16814358,0.670201,0.66360412,-0.15141093,0.668431,0.6851467,-0.24930803,0.676239,0.68825155,-0.21556701,0.671998,0.68984003,-0.19990248,0.67005,0.68808874,-0.19759161,0.668331
0.6329762,-0.30491807,0.674376,0.63787609,-0.26620056,0.675222,0.61373264,-0.2876177,0.672679,0.59608775,-0.26541304,0.673752,0.56984979,-0.23350355,0.659819,0.56312452,-0.21013468,0.659367,0.61861428,-0.21714428,0.673584,0.61271645,-0.17485434,0.666711,0.61113539,-0.15331653,0.663275,0.61091624,-0.13386635,0.660151,0.64423682,-0.22411348,0.676027,0.63844302,-0.18032472,0.671358,0.64329994,-0.15438513,0.668635,0.64515977,-0.13314547,0.666689,0.66459229,-0.22900243,0.677947,0.66250323,-0.18733476,0.671227,0.66123181,-0.16589397,0.667789,0.6599996,-0.14867204,0.664663,0.6908158,-0.24004717,0.680017,0.69579318,-0.20384491,0.675484,0.69796952,-0.18626699,0.673401,0.70200129,-0.17265649,0.671563
0.62846687,-0.30527267,0.671353,0.63538069,-0.27012202,0.674442,0.61180863,-0.28879188,0.672055,0.59444797,-0.26568427,0.67318,0.56910767,-0.23373119,0.659683,0.56517011,-0.21538109,0.662437,0.62216556,-0.22179731,0.677454,0.6169929,-0.17834348,0.673022,0.6175749,-0.15890524,0.670806,0.61691416,-0.13957208,0.668892,0.64516846,-0.22636101,0.677384,0.64661888,-0.1829244,0.676211,0.64970699,-0.15653505,0.675526,0.6518955,-0.13761668,0.675037,0.66387491,-0.23454762,0.676994,0.66169677,-0.19194681,0.672663,0.66271768,-0.171022,0.670447,0.66310952,-0.14977901,0.668433,0.68446845,-0.24739756,0.67596,0.69026591,-0.20873114,0.673275,0.69578287,-0.19321826,0.673368,0.70208029,-0.17571652,0.673449
0.6301122,-0.30747324,0.673629,0.6350727,-0.27055106,0.674227,0.61240772,-0.29047205,0.673252,0.59262149,-0.26550764,0.671301,0.56426195,-0.23275926,0.654693,0.56150179,-0.21514943,0.659137,0.6182599,-0.21993268,0.674144,0.60836583,-0.17845467,0.666977,0.60585722,-0.15861106,0.663394,0.6037868,-0.14055657,0.660137,0.64235705,-0.22534709,0.674797,0.64341935,-0.18235799,0.673876,0.64481803,-0.15629577,0.673338,0.64848031,-0.13716036,0.672954,0.66175612,-0.23109968,0.675271,0.65856229,-0.18960253,0.6707,0.65577677,-0.16910992,0.668361,0.65630857,-0.14820776,0.666235,0.68400303,-0.24418821,0.675709,0.6851081,-0.20612931,0.669407,0.68677165,-0.18773325,0.666511,0.68836759,-0.17971875,0.663956
0.61911472,-0.31072806,0.666889,0.6256668,-0.28301141,0.67099,0.60290431,-0.29624743,0.668155,0.57932853,-0.27184364,0.664825,0.5573827,-0.23963446,0.652495,0.55466743,-0.21690413,0.652448,0.61636426,-0.23410179,0.675683,0.61207293,-0.19296075,0.672368,0.6107587,-0.17268755,0.67071,0.61005244,-0.14862853,0.669203,0.63938418,-0.23950132,0.67567,0.64480643,-0.19532317,0.675931,0.64796834,-0.16955954,0.676083,0.6505278,-0.15039021,0.676191,0.65772474,-0.24646891,0.675393,0.6562444,-0.20127921,0.671931,0.65551142,-0.17824277,0.670188,0.65810453,-0.15466346,0.668604,0.67843433,-0.25989111,0.674529,0.6799077,-0.22543022,0.671552,0.68229951,-0.20795381,0.670184,0.68664449,-0.19543376,0.668978
0.61854395,-0.31093091,0.665612,0.62505422,-0.28146239,0.670482,0.60127058,-0.29720078,0.667326,0.57964897,-0.27107498,0.665296,0.55808152,-0.23924696,0.654008,0.55557168,-0.21684216,0.654318,0.61603232,-0.23337326,0.676289,0.61258846,-0.19289633,0.673837,0.61163103,-0.17271059,0.67261,0.61245468,-0.14849275,0.671496,0.63890088,-0.23834416,0.67601,0.64339181,-0.19400749,0.675971,0.64600844,-0.16817231,0.675948,0.64773739,-0.14545959,0.675932,0.65709748,-0.24494417,0.675463,0.6562492,-0.2006105,0.672891,0.65580919,-0.17808427,0.671575,0.65890306,-0.15550659,0.670378,0.67759658,-0.25788868,0.674175,0.68280832,-0.22440729,0.673135,0.68667522,-0.2069905,0.672657,0.69020074,-0.19176603,0.672235
