sluyters/QuantumLeap/backend/src/datasets/dynamic/HandGestureDataset_SHREC2017_csv/Gesture11/finger_2/subject_28_essai_8_skeletons_world.csv
Wrist_x,Wrist_y,Wrist_z,Palm_x,Palm_y,Palm_z,thumb_base_x,thumb_base_y,thumb_base_z,thumb_first_joint_x,thumb_first_joint_y,thumb_first_joint_z,thumb_second_joint_x,thumb_second_joint_y,thumb_second_joint_z,thumb_tip_x,thumb_tip_y,thumb_tip_z,index_base_x,index_base_y,index_base_z,index_first_joint_x,index_first_joint_y,index_first_joint_z,index_second_joint_x,index_second_joint_y,index_second_joint_z,index_tip_x,index_tip_y,index_tip_z,middle_base_x,middle_base_y,middle_base_z,middle_first_joint_x,middle_first_joint_y,middle_first_joint_z,middle_second_joint_x,middle_second_joint_y,middle_second_joint_z,middle_tip_x,middle_tip_y,middle_tip_z,ring_base_x,ring_base_y,ring_base_z,ring_first_joint_x,ring_first_joint_y,ring_first_joint_z,ring_second_joint_x,ring_second_joint_y,ring_second_joint_z,ring_tip_x,ring_tip_y,ring_tip_z,pinky_base_x,pinky_base_y,pinky_base_z,pinky_first_joint_x,pinky_first_joint_y,pinky_first_joint_z,pinky_second_joint_x,pinky_second_joint_y,pinky_second_joint_z,pinky_tip_x,pinky_tip_y,pinky_tip_z,
0.392061181,-0.215719797,0.431433,0.397638656,-0.178897363,0.437623,0.376012915,-0.209159806,0.43562,0.362007801,-0.198006239,0.449228,0.337351119,-0.174136343,0.444117,0.331856996,-0.16016287,0.449695,0.381040748,-0.149378884,0.446775,0.378864315,-0.112411236,0.4461,0.382782309,-0.0950365423,0.451746,0.386326046,-0.078850031,0.456879,0.402549671,-0.147503393,0.443072,0.40115146,-0.105698041,0.442193,0.400109519,-0.081058036,0.441679,0.399307738,-0.0639734824,0.441313,0.419827712,-0.149371015,0.439425,0.421373124,-0.107314666,0.438062,0.422178621,-0.0855853944,0.437365,0.422919277,-0.0657044164,0.436731,0.43932429,-0.15766424,0.434111,0.451090679,-0.131648947,0.437364,0.456621164,-0.116717744,0.438858,0.461632917,-0.10303367,0.440176
0.393971749,-0.208507489,0.432806,0.406187823,-0.163253931,0.437519,0.380619487,-0.191446849,0.437061,0.35387798,-0.167324211,0.4364,0.326241274,-0.139846232,0.419701,0.31412076,-0.119844454,0.414647,0.395485015,-0.129898595,0.44586,0.400970816,-0.100299021,0.452742,0.402970842,-0.081465962,0.456182,0.404661033,-0.0637889584,0.45931,0.416216672,-0.131116609,0.441668,0.417219801,-0.0900999178,0.439793,0.417200557,-0.0651630845,0.4387,0.416763737,-0.0497497752,0.437918,0.432362484,-0.135648454,0.43776,0.437044438,-0.096668794,0.436284,0.439293102,-0.07471136,0.435529,0.441423062,-0.0541232455,0.434842,0.449579022,-0.147279934,0.432395,0.4669243,-0.122238202,0.438717,0.474819436,-0.110920942,0.441622,0.481650149,-0.0982597742,0.444185
0.398003218,-0.206403968,0.432948,0.415408547,-0.164151908,0.436567,0.385252204,-0.192082626,0.436191,0.363015986,-0.167417347,0.433562,0.335697406,-0.139904729,0.418075,0.324461318,-0.119972031,0.413534,0.402153411,-0.131399851,0.442942,0.40154538,-0.0921479361,0.439999,0.401287311,-0.0716589709,0.438527,0.40108169,-0.0524969675,0.437189,0.423706498,-0.131799141,0.439754,0.426774604,-0.0894952301,0.43614,0.428547399,-0.0649319588,0.434033,0.427098315,-0.0506239962,0.432527,0.440917392,-0.135689428,0.436778,0.447192714,-0.0954164746,0.432773,0.449780563,-0.0733145697,0.430724,0.451221029,-0.0532206625,0.428861,0.459983773,-0.146715312,0.432689,0.477104627,-0.120543352,0.434383,0.484820994,-0.108781627,0.435162,0.490297758,-0.095995517,0.435849
0.402973595,-0.207637655,0.435533,0.416813955,-0.165090457,0.435085,0.389167741,-0.193608865,0.437275,0.370417904,-0.164255414,0.430529,0.344559876,-0.134571365,0.416632,0.338467591,-0.115933849,0.417177,0.405192862,-0.127208303,0.437054,0.410080602,-0.0905881153,0.4409,0.412532262,-0.0720554681,0.442823,0.414765399,-0.0550790852,0.444571,0.427446975,-0.130936869,0.434689,0.426148343,-0.0871013604,0.427437,0.425804772,-0.0617459113,0.423207,0.425441509,-0.0460411318,0.420186,0.445098685,-0.137949699,0.432786,0.451311689,-0.0976285847,0.429107,0.455208108,-0.0756718878,0.427225,0.458885281,-0.0552164394,0.425514,0.464457342,-0.153193099,0.430642,0.479747474,-0.123347058,0.431469,0.483906974,-0.108837776,0.431849,0.489747358,-0.0965048469,0.432184
0.411039719,-0.213678797,0.432498,0.423157041,-0.179628702,0.432236,0.395820569,-0.201937335,0.434629,0.374113619,-0.180873451,0.429832,0.344936465,-0.153152712,0.417728,0.332800761,-0.132234966,0.40665,0.40883953,-0.139316477,0.434819,0.4072823,-0.101558984,0.433254,0.406787439,-0.0817964593,0.432472,0.406596006,-0.0633467148,0.431761,0.43093997,-0.143001985,0.432005,0.429726083,-0.0986244079,0.425017,0.429323517,-0.072436096,0.420941,0.429053058,-0.0536099163,0.418029,0.448331457,-0.15006313,0.429713,0.453591699,-0.10839365,0.425413,0.456834824,-0.0865162537,0.423213,0.45985421,-0.0664310253,0.421213,0.467179884,-0.165435144,0.427084,0.477742888,-0.133731616,0.423139,0.483536947,-0.118521054,0.421326,0.489095542,-0.106092626,0.419726
0.406963981,-0.228013843,0.429841,0.41002686,-0.193869085,0.427497,0.385342099,-0.222948059,0.430132,0.358904701,-0.190181416,0.421334,0.336152441,-0.161704427,0.41216,0.329174004,-0.142863925,0.411674,0.393561768,-0.151739718,0.426438,0.392459587,-0.111931083,0.422596,0.391918564,-0.0918535672,0.420674,0.391434441,-0.0734985765,0.418928,0.416911511,-0.156925253,0.425421,0.415298102,-0.112048182,0.416093,0.415349779,-0.0865436454,0.410651,0.415509283,-0.0677940942,0.406765,0.435519272,-0.165236659,0.424809,0.439332084,-0.122303089,0.416349,0.442146122,-0.100395622,0.41202,0.444829163,-0.0801289736,0.408084,0.456150114,-0.182175482,0.424497,0.466072789,-0.148444893,0.418798,0.470583125,-0.133040714,0.416179,0.475285147,-0.119345938,0.413869
0.380906107,-0.257041969,0.42212,0.389817863,-0.215022381,0.4204,0.364409751,-0.243382195,0.422534,0.338108445,-0.210421941,0.413732,0.314434084,-0.180820945,0.402053,0.30695447,-0.161656794,0.400995,0.374355063,-0.173511526,0.419879,0.371814993,-0.133166514,0.412034,0.372254133,-0.113311617,0.409968,0.372686386,-0.0949881331,0.40809,0.397416409,-0.178952506,0.418875,0.397981246,-0.134781929,0.410135,0.398810868,-0.110645567,0.405036,0.399575605,-0.0927406075,0.401395,0.415764533,-0.187375788,0.418215,0.421661917,-0.145042387,0.409393,0.42484021,-0.123074694,0.40488,0.428003832,-0.103261149,0.400777,0.436079586,-0.204324457,0.417739,0.447920142,-0.171620294,0.411715,0.453625158,-0.156611094,0.408947,0.458691286,-0.143317151,0.406505
0.368388922,-0.293773336,0.426532,0.372637006,-0.248259592,0.418771,0.350797511,-0.279504347,0.425373,0.32170852,-0.246303424,0.414108,0.295776279,-0.217708211,0.400029,0.283526193,-0.196403671,0.387153,0.352725739,-0.2028076,0.412537,0.345626069,-0.160100543,0.399423,0.345364722,-0.140243565,0.396663,0.345152824,-0.121965981,0.394154,0.376252158,-0.208526878,0.411907,0.371374324,-0.162935339,0.397404,0.368858096,-0.137416441,0.388943,0.36714524,-0.118849923,0.382901,0.395276281,-0.217581324,0.41214,0.395905211,-0.172811706,0.39767,0.396417519,-0.150448778,0.390267,0.396910865,-0.130051769,0.383537,0.416901639,-0.235881022,0.413742,0.425086277,-0.201313195,0.403053,0.429287325,-0.186684024,0.398142,0.433113065,-0.173620147,0.393808
0.363609163,-0.324607904,0.427118,0.360406811,-0.276602203,0.415754,0.345370267,-0.312620176,0.426875,0.312847194,-0.281552465,0.415369,0.283436402,-0.254966863,0.400727,0.268425145,-0.235085154,0.385491,0.335219231,-0.232404534,0.408499,0.322450121,-0.18889744,0.392896,0.318735709,-0.168714448,0.388348,0.315359589,-0.15019318,0.384214,0.357484013,-0.234699396,0.405704,0.346910104,-0.187177916,0.388077,0.344237377,-0.161308482,0.3817,0.342354768,-0.142631123,0.377145,0.376092659,-0.241143893,0.404506,0.370517653,-0.196047763,0.386515,0.36772813,-0.175267195,0.377311,0.364947437,-0.160167219,0.368943,0.398408055,-0.25673517,0.405053,0.40268343,-0.221529585,0.391159,0.40475183,-0.206968268,0.384776,0.406690989,-0.193975546,0.379144
0.348446788,-0.341023749,0.425355,0.345412315,-0.292573115,0.412736,0.328373313,-0.327112585,0.422419,0.299116421,-0.296564835,0.41467,0.27067369,-0.269861026,0.400813,0.256251681,-0.250647044,0.385557,0.317935346,-0.245919693,0.401248,0.315193029,-0.206418579,0.39792,0.313806716,-0.187495509,0.396256,0.312544991,-0.16995697,0.394743,0.342623197,-0.250283085,0.401577,0.330560621,-0.204920567,0.382431,0.323620485,-0.179273094,0.371263,0.31869244,-0.160742897,0.363286,0.363368505,-0.258512137,0.403071,0.359749621,-0.212253483,0.386292,0.358130953,-0.190196842,0.377707,0.3568001,-0.17065023,0.369903,0.388319332,-0.27637928,0.406974,0.391983127,-0.2401152,0.393084,0.393640883,-0.223542781,0.386702,0.395086143,-0.208948072,0.381071
0.327749004,-0.362580654,0.425318,0.325882327,-0.314762055,0.414298,0.309971048,-0.350232873,0.425213,0.28188881,-0.320956985,0.419763,0.253634165,-0.29570304,0.407749,0.241832817,-0.275413245,0.403242,0.302051624,-0.270293205,0.407452,0.289404756,-0.228716906,0.392134,0.282612507,-0.209777725,0.384474,0.27632619,-0.192745106,0.377512,0.324155636,-0.273081472,0.404584,0.312878528,-0.225898177,0.38746,0.306293364,-0.198474282,0.377471,0.301586342,-0.178934655,0.370336,0.34254447,-0.27994916,0.403294,0.343405837,-0.233992225,0.38979,0.343212406,-0.214673061,0.382882,0.343193734,-0.19670264,0.376601,0.364403755,-0.296068083,0.40368,0.366811476,-0.261991323,0.389703,0.367845552,-0.247194698,0.383282,0.368849407,-0.234002684,0.377616
0.30249224,-0.375238857,0.43144,0.300550232,-0.327049459,0.41513,0.283104157,-0.360144232,0.427763,0.255633084,-0.331898634,0.423523,0.22297965,-0.309030282,0.404497,0.207534223,-0.289263073,0.39591,0.274515366,-0.278734591,0.400461,0.261644625,-0.235630333,0.380062,0.254511226,-0.217710918,0.369862,0.248002935,-0.201337354,0.36059,0.298744117,-0.28490888,0.400753,0.294772144,-0.239122623,0.378314,0.29455929,-0.21411093,0.367921,0.294454277,-0.196134429,0.360497,0.318930644,-0.294633701,0.402578,0.320638025,-0.247509572,0.385812,0.320833593,-0.230377924,0.377234,0.321233692,-0.214449189,0.369435,0.342927525,-0.31421102,0.407506,0.345360458,-0.280415839,0.390332,0.346519929,-0.264837188,0.382441,0.34756655,-0.251062037,0.375478
0.301118705,-0.380889631,0.428648,0.292746008,-0.336599814,0.414824,0.285065345,-0.371042415,0.431094,0.251775727,-0.352657895,0.424962,0.221846648,-0.33073071,0.417392,0.204134913,-0.312844497,0.409393,0.266245966,-0.293351047,0.409568,0.253275355,-0.247590766,0.396033,0.24141007,-0.236984099,0.389266,0.230307772,-0.227074604,0.383114,0.2848198,-0.291574257,0.402651,0.268844436,-0.242829707,0.382255,0.255021902,-0.224783834,0.370358,0.244993614,-0.211595867,0.36186,0.301021473,-0.295024301,0.398299,0.293329843,-0.245271065,0.376478,0.285447917,-0.22673436,0.365314,0.271665591,-0.227751728,0.355165,0.321704317,-0.307833092,0.395595,0.317472607,-0.270085669,0.378379,0.314747897,-0.254202828,0.370469,0.312377096,-0.240102527,0.36349
0.296664695,-0.37870742,0.428049,0.275489467,-0.328365135,0.415879,0.278765771,-0.368833463,0.428894,0.233544314,-0.345164995,0.420189,0.203693546,-0.325643576,0.413612,0.186141472,-0.307972418,0.406347,0.242385713,-0.290413209,0.409566,0.224794364,-0.244939347,0.394996,0.21312671,-0.23044704,0.387711,0.202248834,-0.217246638,0.381088,0.263885303,-0.287013062,0.405163,0.24557547,-0.235010946,0.386699,0.231463258,-0.221581701,0.375929,0.221115882,-0.212166831,0.368236,0.282800211,-0.288768407,0.402721,0.267652612,-0.242997461,0.383455,0.25974066,-0.220094342,0.373598,0.251956597,-0.201493175,0.364637,0.307057361,-0.298831487,0.401959,0.301488315,-0.258779865,0.38837,0.298747775,-0.241304391,0.382127,0.294551732,-0.23565184,0.376617
0.274163203,-0.367253679,0.418997,0.25787178,-0.317740331,0.412134,0.258137737,-0.362514649,0.423989,0.21880685,-0.336331357,0.420135,0.19208303,-0.316238212,0.416621,0.176354148,-0.298638419,0.411581,0.234405992,-0.281807217,0.41439,0.215881658,-0.241769026,0.402455,0.205032192,-0.22358342,0.396487,0.194637862,-0.207418184,0.391063,0.251420439,-0.275900556,0.40609,0.247968184,-0.22873648,0.395484,0.233062238,-0.223558621,0.389297,0.221839615,-0.219776814,0.384878,0.26617261,-0.27558527,0.399923,0.253291501,-0.230172303,0.384417,0.245318913,-0.208379066,0.376484,0.238032322,-0.188330452,0.369271,0.284887086,-0.283344021,0.393908,0.284110722,-0.246112299,0.381115,0.28375758,-0.228996791,0.375238,0.276530052,-0.223866624,0.370051
0.252510432,-0.329681559,0.41185,0.244691244,-0.282033934,0.405817,0.237311139,-0.324001193,0.41659,0.206171292,-0.305816226,0.415785,0.178571247,-0.291002376,0.414593,0.16295499,-0.276158287,0.412918,0.221280226,-0.24760127,0.408256,0.203721713,-0.207161761,0.398776,0.189324446,-0.195876907,0.394035,0.175716344,-0.185235277,0.389726,0.23794598,-0.241518882,0.400507,0.217040807,-0.199381441,0.388149,0.202451146,-0.177107774,0.380941,0.190320451,-0.16360993,0.375791,0.252543295,-0.24091295,0.394712,0.24272003,-0.193542215,0.380743,0.232331325,-0.174195417,0.373596,0.222406881,-0.156634607,0.367099,0.271245525,-0.24811771,0.388985,0.273090127,-0.209075595,0.377139,0.266443385,-0.198578106,0.371697,0.260479323,-0.189042871,0.366894
0.249253698,-0.332019253,0.416527,0.238914844,-0.283665747,0.410088,0.233578298,-0.324420408,0.419969,0.198826229,-0.299162219,0.417853,0.17178545,-0.279566842,0.414028,0.155539852,-0.261465887,0.407253,0.217139935,-0.245754241,0.410609,0.202394408,-0.206911778,0.401055,0.186806841,-0.190655204,0.396278,0.174548157,-0.17677086,0.391935,0.237670189,-0.243538357,0.404422,0.219116205,-0.199602778,0.392241,0.204956027,-0.177242575,0.385136,0.193451911,-0.162952592,0.38006,0.250498387,-0.245548323,0.399953,0.23908176,-0.198939468,0.386912,0.230988413,-0.176839627,0.38024,0.224648467,-0.158531945,0.374175,0.269589149,-0.256297744,0.395842,0.270510096,-0.216620476,0.384929,0.264032573,-0.205145165,0.379915,0.258218783,-0.194733207,0.37549
0.235327386,-0.305147297,0.417218,0.232217901,-0.258990123,0.412474,0.220548109,-0.298018046,0.42162,0.190370237,-0.273352882,0.417403,0.164922309,-0.254069076,0.415558,0.153854146,-0.237314339,0.415008,0.211872913,-0.223257993,0.415263,0.200999357,-0.182153347,0.405953,0.187752384,-0.179406508,0.401297,0.17805091,-0.184619615,0.397065,0.2294929,-0.219447054,0.4083,0.21281693,-0.17483421,0.397658,0.197327527,-0.155262331,0.39145,0.185830964,-0.140683395,0.387016,0.244439675,-0.220631287,0.403027,0.23244692,-0.174921054,0.391518,0.222762779,-0.15407465,0.38563,0.213636153,-0.134916538,0.380276,0.262718937,-0.229771077,0.397689,0.25797846,-0.191327451,0.387535,0.255238708,-0.173977828,0.38287,0.252821407,-0.158642416,0.378753
0.229761215,-0.274573852,0.412141,0.22468378,-0.229766332,0.408629,0.214685827,-0.268840838,0.41674,0.184966798,-0.246793215,0.414308,0.159722092,-0.22969321,0.4144,0.149847694,-0.215173589,0.416565,0.202735408,-0.196414463,0.412419,0.192881082,-0.16187497,0.413984,0.186306829,-0.144535943,0.414766,0.174402352,-0.134901313,0.415478,0.220279338,-0.19120595,0.405538,0.205013832,-0.146826757,0.396309,0.190080248,-0.125399367,0.390926,0.179019328,-0.109464192,0.38708,0.235360263,-0.191129294,0.400214,0.230718453,-0.146645846,0.391968,0.224432891,-0.124913742,0.387749,0.218614333,-0.10475072,0.383913,0.254114893,-0.198595726,0.394605,0.252768411,-0.160442649,0.385257,0.251111145,-0.143218864,0.380962,0.249650134,-0.128001395,0.377172
0.228817123,-0.251690772,0.41076,0.227901115,-0.208204259,0.409182,0.216806218,-0.246627196,0.417462,0.189106335,-0.230166311,0.420539,0.166097343,-0.216317062,0.423294,0.151172352,-0.201127288,0.421975,0.212323627,-0.176610044,0.416855,0.194802415,-0.141621112,0.415224,0.186041392,-0.124125485,0.414409,0.172186127,-0.115992159,0.413667,0.22709563,-0.170849451,0.407793,0.210172653,-0.12804662,0.400984,0.196877608,-0.104138828,0.397011,0.187157434,-0.0866095038,0.394174,0.239506155,-0.170183998,0.400486,0.23380765,-0.127525113,0.394607,0.223961124,-0.107346974,0.391599,0.214754208,-0.0883940036,0.388865,0.254448765,-0.176738055,0.392231,0.257481189,-0.141821354,0.388035,0.253906475,-0.125828261,0.386107,0.249497142,-0.112118074,0.384406
0.235522515,-0.228620774,0.412327,0.229167819,-0.18541089,0.410184,0.219168085,-0.223999488,0.416065,0.191290616,-0.208470783,0.418704,0.167666806,-0.195853121,0.422313,0.151942602,-0.180284312,0.419937,0.204967919,-0.15459842,0.413697,0.196659386,-0.127576487,0.426038,0.192432863,-0.1139074,0.432208,0.188551067,-0.101393701,0.437818,0.223696425,-0.148375653,0.408298,0.206011352,-0.105028513,0.400031,0.192216768,-0.0810915239,0.395208,0.182079678,-0.0634247926,0.391763,0.239907755,-0.147270044,0.404061,0.231212354,-0.103865528,0.39631,0.222645894,-0.0823472792,0.392345,0.214693646,-0.062248651,0.388739,0.260260494,-0.153213031,0.399486,0.262682744,-0.117993291,0.392019,0.258278274,-0.102860089,0.388589,0.253916318,-0.0895781809,0.385562
0.234178137,-0.227090461,0.413788,0.230821491,-0.184021963,0.412223,0.219123212,-0.221887502,0.418824,0.190268942,-0.198319688,0.420345,0.167353699,-0.181223382,0.421196,0.151397986,-0.163326427,0.414324,0.21266139,-0.148034512,0.417759,0.200091283,-0.11222163,0.41786,0.193796196,-0.0942871927,0.41791,0.183381001,-0.0790157276,0.417956,0.230711436,-0.144383754,0.410846,0.217425648,-0.100388138,0.403488,0.208649765,-0.0745858169,0.399196,0.198011608,-0.0600483583,0.39613,0.243193796,-0.146596274,0.405307,0.239846587,-0.102704802,0.39929,0.232874024,-0.080979827,0.396211,0.226402031,-0.0606850406,0.393412,0.261782115,-0.153559408,0.399113,0.263087684,-0.117936484,0.39358,0.260918872,-0.102013039,0.391037,0.261490525,-0.0855990965,0.388794
0.237159212,-0.226846091,0.41405,0.241281568,-0.18302803,0.412556,0.222116781,-0.221188635,0.418833,0.20046715,-0.200421326,0.420735,0.176968584,-0.183502745,0.421137,0.160744216,-0.165692716,0.41402,0.221698309,-0.149576586,0.41781,0.208330449,-0.113883628,0.417585,0.201643741,-0.0960301891,0.417472,0.187132359,-0.0799126462,0.417369,0.239969466,-0.145668922,0.411242,0.225977951,-0.101765886,0.403869,0.216836468,-0.0760352478,0.399568,0.202216783,-0.0608644988,0.396496,0.255271315,-0.146548978,0.40598,0.248408127,-0.103680503,0.399728,0.241143027,-0.0819891206,0.396529,0.23046368,-0.0612276598,0.393622,0.273584935,-0.154890271,0.400097,0.270661725,-0.117577771,0.392767,0.268871823,-0.100438173,0.389399,0.263453278,-0.085169268,0.386427
0.240851313,-0.225920487,0.418224,0.244266664,-0.172184218,0.41464,0.225213832,-0.215806649,0.420401,0.198340113,-0.187093543,0.419383,0.177561471,-0.172780396,0.424197,0.172891031,-0.162191608,0.430934,0.223181408,-0.135327835,0.415267,0.210004163,-0.096018788,0.406993,0.198356429,-0.0819847584,0.402856,0.187267707,-0.0685404793,0.399095,0.243839007,-0.134030593,0.411486,0.234057607,-0.089613713,0.401498,0.222071352,-0.0675700298,0.395672,0.21226712,-0.0543565053,0.39151,0.261106952,-0.13715396,0.408721,0.253707601,-0.0926586875,0.398442,0.24645291,-0.0707401532,0.393183,0.2397503,-0.0502420703,0.388403,0.281683705,-0.14833325,0.406109,0.282967611,-0.111607262,0.397525,0.281613432,-0.0946982803,0.393581,0.280434421,-0.0796065806,0.390101
0.256664834,-0.230696585,0.422225,0.261123115,-0.185524901,0.416646,0.240176972,-0.223829146,0.425874,0.216749418,-0.199095142,0.42041,0.188949444,-0.177111011,0.413191,0.176463007,-0.159691503,0.411481,0.237039459,-0.150693262,0.417957,0.223280828,-0.112164699,0.411058,0.213824349,-0.0948127247,0.407608,0.204875496,-0.0787158965,0.404472,0.257097281,-0.147209428,0.411737,0.24237598,-0.102387726,0.400391,0.231782444,-0.0783882596,0.393772,0.223889367,-0.0610446102,0.389045,0.273864337,-0.148483206,0.407158,0.263835531,-0.104181196,0.396599,0.263407417,-0.0831502512,0.398291,0.262975231,-0.063447238,0.399828,0.294207666,-0.15726355,0.40277,0.275566563,-0.141182,0.393233,0.272734819,-0.155182757,0.388851,0.280806029,-0.173453044,0.397892
0.277020504,-0.238956147,0.426048,0.278223663,-0.198361018,0.418587,0.266532327,-0.237297787,0.427458,0.233124845,-0.210099762,0.418506,0.202600934,-0.184424224,0.405359,0.188462442,-0.164364951,0.397852,0.249703608,-0.161352534,0.415871,0.236555482,-0.121634491,0.409396,0.229935596,-0.101592328,0.406158,0.223890356,-0.0832617747,0.403215,0.271674335,-0.158773663,0.412023,0.255815865,-0.113231951,0.398387,0.245978454,-0.0899160652,0.390433,0.238820672,-0.0726799982,0.384751,0.290265536,-0.160939233,0.409577,0.288341496,-0.118932365,0.407258,0.287353716,-0.096999706,0.406071,0.286453958,-0.0767920176,0.404992,0.313170058,-0.171005005,0.408002,0.298544883,-0.150955524,0.396161,0.294957948,-0.163793087,0.39072,0.302751002,-0.181956819,0.399299
0.287491574,-0.264684543,0.416433,0.289551666,-0.220053024,0.412723,0.273645946,-0.255864981,0.420848,0.246093896,-0.228718413,0.41689,0.219144409,-0.204248676,0.407782,0.207433924,-0.184987832,0.404186,0.273355645,-0.182961448,0.416152,0.257284261,-0.144294229,0.409615,0.249178594,-0.124747239,0.406347,0.241766573,-0.1068475,0.403375,0.291263709,-0.18167717,0.409455,0.278385266,-0.137525127,0.399983,0.270308241,-0.111563812,0.394458,0.264483072,-0.0927044013,0.390511,0.305981517,-0.184823316,0.4043,0.310692788,-0.146895885,0.405166,0.308300108,-0.126859266,0.40561,0.306014283,-0.107829853,0.406013,0.323136914,-0.196046098,0.398921,0.329965394,-0.161771293,0.397278,0.33308261,-0.146109674,0.396524,0.337629351,-0.133047682,0.397989
0.305301044,-0.270528247,0.428102,0.305589535,-0.220841781,0.418323,0.286383558,-0.260140951,0.427817,0.261422089,-0.23244615,0.419037,0.232103744,-0.20766133,0.408755,0.218443273,-0.188323186,0.403622,0.272615364,-0.181284015,0.412009,0.263046304,-0.1423504,0.403599,0.25693053,-0.13188643,0.399394,0.2511649,-0.121826437,0.395571,0.297506872,-0.179705557,0.409709,0.279702243,-0.13396735,0.393514,0.269529687,-0.111494639,0.384067,0.262370685,-0.0970238808,0.377319,0.317160138,-0.182747351,0.408763,0.30498739,-0.139304817,0.392303,0.298766282,-0.116660252,0.383881,0.293115906,-0.0957800369,0.376225,0.341759805,-0.194204285,0.409334,0.340215679,-0.15963701,0.396479,0.339614078,-0.143421676,0.390573,0.339145068,-0.128923053,0.385362
0.326283792,-0.288588483,0.424698,0.321890947,-0.239603139,0.415769,0.305705929,-0.276629375,0.423056,0.271531353,-0.244068029,0.40978,0.24183549,-0.216449448,0.39777,0.229456234,-0.195198199,0.390288,0.293984228,-0.196992528,0.408224,0.277814538,-0.15734555,0.399837,0.272250154,-0.141533772,0.395643,0.26707198,-0.126520928,0.39183,0.317882739,-0.198870606,0.407904,0.310950314,-0.15610912,0.400684,0.310329123,-0.144206632,0.396473,0.309904447,-0.152637007,0.393464,0.337936827,-0.204774527,0.408506,0.326535401,-0.162680355,0.39322,0.32086716,-0.140958051,0.385399,0.31622813,-0.122030931,0.37829,0.362383784,-0.219484167,0.410737,0.3488633,-0.209448665,0.396567,0.336081006,-0.217107646,0.390057,0.324724623,-0.223988307,0.384313
0.331277699,-0.295096973,0.423366,0.334967129,-0.253727943,0.415335,0.317558392,-0.290078909,0.422271,0.28126814,-0.261607209,0.411821,0.251871505,-0.238254734,0.403075,0.238919894,-0.220956197,0.401195,0.309282978,-0.211521244,0.40904,0.293021379,-0.170701767,0.395922,0.285154121,-0.157621446,0.389362,0.277866154,-0.145266316,0.383399,0.332639271,-0.213289123,0.40826,0.319143034,-0.171179738,0.393504,0.311081024,-0.147880299,0.384896,0.305294072,-0.130730423,0.378747,0.352451188,-0.219133118,0.408397,0.343402471,-0.177575739,0.393773,0.338743824,-0.156244752,0.386292,0.334555147,-0.136396124,0.37949,0.376756605,-0.233982967,0.409931,0.379861807,-0.196522924,0.39856,0.378171389,-0.186438566,0.393335,0.37680624,-0.17725557,0.388726
0.355154089,-0.325981821,0.427701,0.349989259,-0.277454138,0.41705,0.334672398,-0.313826481,0.425581,0.301128852,-0.282530949,0.413431,0.273575283,-0.25721091,0.402913,0.262773117,-0.238692542,0.40116,0.32085557,-0.233291888,0.407841,0.303818065,-0.190040437,0.392254,0.299158377,-0.170797356,0.389449,0.294882707,-0.15301391,0.3869,0.345370196,-0.235432693,0.407664,0.331152196,-0.187382436,0.390375,0.32370367,-0.166851861,0.38029,0.318418268,-0.151697992,0.373087,0.366155948,-0.241794015,0.40855,0.357850281,-0.194627252,0.391409,0.354046337,-0.173348085,0.382639,0.350667017,-0.153685962,0.374666,0.391520283,-0.257419311,0.411405,0.391788836,-0.218964813,0.398327,0.391835432,-0.201478768,0.392318,0.391331788,-0.195493113,0.387017
0.361327498,-0.336413833,0.431029,0.360791754,-0.293373946,0.418896,0.340084898,-0.322411521,0.427743,0.308880731,-0.296531748,0.411642,0.278297746,-0.268115677,0.393677,0.264159479,-0.246858546,0.383654,0.332034534,-0.24557839,0.407285,0.315804152,-0.206299111,0.390161,0.307669985,-0.186417601,0.381599,0.300263591,-0.168188059,0.373816,0.357061145,-0.250012544,0.408204,0.343562739,-0.208875427,0.389387,0.335750477,-0.184540742,0.378411,0.330203058,-0.166835893,0.370571,0.378409707,-0.258434367,0.410135,0.380975465,-0.215041557,0.404169,0.382790419,-0.193693806,0.401117,0.38375089,-0.185907972,0.398342,0.404637631,-0.276913656,0.414465,0.408379722,-0.238977117,0.4011,0.409947297,-0.221810615,0.39496,0.409544151,-0.215386025,0.389542
0.370978285,-0.352271927,0.433612,0.371099939,-0.306405906,0.42032,0.349779366,-0.33672076,0.429914,0.317398195,-0.307964206,0.413065,0.287967441,-0.281799968,0.394255,0.274039438,-0.260820859,0.386369,0.34227933,-0.257208984,0.407473,0.327016311,-0.22058261,0.389319,0.319402126,-0.202950551,0.380242,0.312483631,-0.186797593,0.371991,0.367371249,-0.262473377,0.408606,0.354164661,-0.219762846,0.388699,0.346525881,-0.194587781,0.377086,0.341102706,-0.176396105,0.368791,0.388778655,-0.271649264,0.410827,0.381539754,-0.228572014,0.391299,0.377920818,-0.20630223,0.381307,0.374689102,-0.185906049,0.372225,0.41507968,-0.291134908,0.415691,0.418246435,-0.252398708,0.401488,0.419502545,-0.240487208,0.394962,0.420808923,-0.229785433,0.389204
0.379877742,-0.364995276,0.434459,0.380683722,-0.321523018,0.422015,0.363422356,-0.356419644,0.431161,0.328832514,-0.323703789,0.414975,0.299105797,-0.296788358,0.396511,0.284764822,-0.275835878,0.38506,0.352529557,-0.273837234,0.410204,0.34076837,-0.234376656,0.392783,0.334915676,-0.214408408,0.384073,0.32961204,-0.196101409,0.376154,0.377615566,-0.278720942,0.411059,0.368142176,-0.232363015,0.391988,0.362980616,-0.209426498,0.380863,0.359394945,-0.192731989,0.372917,0.398814263,-0.287467363,0.41297,0.393859811,-0.240694147,0.394283,0.391770959,-0.220515852,0.384723,0.39001283,-0.201901004,0.376032,0.42449052,-0.306141222,0.417329,0.430818991,-0.269769983,0.404261,0.434259312,-0.25542565,0.398257,0.437396016,-0.242661983,0.392959
0.389506622,-0.375882965,0.437169,0.388776802,-0.328214028,0.423849,0.368550418,-0.360699818,0.433441,0.336521432,-0.330919328,0.417062,0.306631834,-0.304634759,0.400378,0.290096426,-0.280984586,0.391046,0.359867886,-0.279626912,0.410947,0.345913306,-0.241286643,0.392751,0.338956611,-0.221846233,0.383653,0.332645681,-0.203997305,0.375382,0.385193134,-0.284944447,0.412106,0.373849511,-0.239158873,0.39219,0.367638989,-0.216838808,0.380573,0.363342344,-0.20183667,0.372275,0.406686499,-0.294089525,0.414348,0.400935037,-0.246325402,0.3949,0.3985129,-0.226501645,0.38495,0.396457423,-0.208218983,0.375904,0.432863866,-0.313326467,0.419239,0.436647038,-0.27694429,0.404855,0.438348235,-0.260278776,0.398246,0.438517326,-0.245301368,0.392415
0.39312568,-0.38045782,0.439239,0.393089988,-0.333340157,0.426721,0.372361196,-0.364980548,0.435629,0.340378172,-0.334915576,0.420137,0.313254714,-0.31068861,0.404091,0.297648037,-0.287749845,0.396939,0.367571543,-0.286881952,0.414459,0.356398665,-0.246872727,0.3969,0.350748659,-0.229410367,0.38812,0.345660409,-0.213284936,0.380138,0.39286026,-0.293272443,0.415685,0.383985468,-0.248415927,0.396494,0.378853292,-0.226388164,0.385298,0.375266674,-0.211305425,0.377302,0.414221492,-0.303301426,0.417905,0.409550173,-0.254995571,0.399145,0.407452656,-0.235258932,0.389547,0.405695079,-0.217053214,0.380821,0.440005367,-0.323595122,0.422633,0.445343149,-0.286894896,0.409156,0.447764592,-0.270297877,0.402964,0.449923686,-0.255839232,0.397501
0.394942408,-0.38260005,0.439117,0.395845107,-0.337198022,0.427502,0.376721523,-0.369905142,0.436048,0.34415145,-0.337319411,0.42034,0.319887399,-0.309019217,0.406083,0.30468403,-0.288955774,0.398316,0.368134277,-0.288682105,0.416485,0.358883618,-0.248533358,0.399763,0.354156123,-0.231146397,0.391402,0.349921088,-0.215069452,0.383801,0.393146258,-0.29395142,0.417261,0.385787156,-0.249199845,0.39897,0.381504863,-0.227549248,0.388301,0.378534458,-0.212601754,0.380679,0.41434044,-0.303057873,0.419024,0.41062352,-0.255712349,0.401072,0.408970379,-0.235662294,0.391887,0.406591627,-0.215620925,0.383538,0.440103128,-0.322293891,0.423065,0.446060385,-0.285519857,0.410327,0.449009718,-0.270062454,0.404475,0.451675405,-0.25644922,0.399311
0.394954553,-0.381996836,0.438679,0.395697829,-0.335117869,0.429015,0.374908252,-0.367391379,0.43615,0.347811749,-0.333417732,0.424635,0.321568082,-0.303544405,0.409645,0.308922818,-0.284092424,0.399258,0.37031611,-0.287506872,0.419882,0.362858398,-0.24483888,0.404831,0.360055591,-0.227736082,0.397305,0.356540091,-0.216462225,0.390464,0.392966574,-0.289125648,0.420495,0.389207012,-0.245334902,0.404041,0.38707609,-0.224342064,0.394442,0.38549826,-0.214170037,0.387586,0.414968842,-0.300847404,0.421935,0.413764177,-0.255264409,0.405804,0.413419189,-0.235200849,0.397551,0.414006231,-0.218528808,0.390048,0.439958402,-0.318689152,0.425266,0.44821005,-0.283117946,0.414135,0.452309605,-0.269081058,0.409021,0.456646617,-0.257816957,0.404509
