sluyters/QuantumLeap/backend/src/datasets/dynamic/HandGestureDataset_SHREC2017_csv/Gesture11/finger_2/subject_28_essai_6_skeletons_world.csv
Wrist_x,Wrist_y,Wrist_z,Palm_x,Palm_y,Palm_z,thumb_base_x,thumb_base_y,thumb_base_z,thumb_first_joint_x,thumb_first_joint_y,thumb_first_joint_z,thumb_second_joint_x,thumb_second_joint_y,thumb_second_joint_z,thumb_tip_x,thumb_tip_y,thumb_tip_z,index_base_x,index_base_y,index_base_z,index_first_joint_x,index_first_joint_y,index_first_joint_z,index_second_joint_x,index_second_joint_y,index_second_joint_z,index_tip_x,index_tip_y,index_tip_z,middle_base_x,middle_base_y,middle_base_z,middle_first_joint_x,middle_first_joint_y,middle_first_joint_z,middle_second_joint_x,middle_second_joint_y,middle_second_joint_z,middle_tip_x,middle_tip_y,middle_tip_z,ring_base_x,ring_base_y,ring_base_z,ring_first_joint_x,ring_first_joint_y,ring_first_joint_z,ring_second_joint_x,ring_second_joint_y,ring_second_joint_z,ring_tip_x,ring_tip_y,ring_tip_z,pinky_base_x,pinky_base_y,pinky_base_z,pinky_first_joint_x,pinky_first_joint_y,pinky_first_joint_z,pinky_second_joint_x,pinky_second_joint_y,pinky_second_joint_z,pinky_tip_x,pinky_tip_y,pinky_tip_z,
0.340596061,-0.272567315,0.412511,0.343607566,-0.22863234,0.408702,0.321735999,-0.262093132,0.410767,0.293950047,-0.238732637,0.400235,0.26098626,-0.211168763,0.385053,0.252952278,-0.196747858,0.388391,0.320059877,-0.192549921,0.404412,0.30825647,-0.151023908,0.393927,0.302337348,-0.130075531,0.388685,0.296944893,-0.110916834,0.383919,0.345813223,-0.196272184,0.405883,0.338728037,-0.149812599,0.394736,0.33556769,-0.12537905,0.388234,0.333368688,-0.107398838,0.38359,0.366897901,-0.204162047,0.407512,0.367787208,-0.161350045,0.400814,0.369693326,-0.140721235,0.397387,0.37163491,-0.121642456,0.394272,0.390789046,-0.221548636,0.410095,0.401511329,-0.188241899,0.408861,0.407968244,-0.173815613,0.409903,0.41367072,-0.16109306,0.410829
0.343913306,-0.271486889,0.409791,0.343913296,-0.227363195,0.406448,0.324224646,-0.262141804,0.407869,0.296787644,-0.234293221,0.395717,0.267488993,-0.205651757,0.377051,0.255933109,-0.186960894,0.373329,0.317858184,-0.192865905,0.402161,0.30906061,-0.151221154,0.392373,0.308216602,-0.131556313,0.387479,0.305629341,-0.112675305,0.38303,0.343893348,-0.195060191,0.403976,0.338286286,-0.148951809,0.393471,0.336028424,-0.124099115,0.387343,0.334673602,-0.106647253,0.382966,0.365527035,-0.201660709,0.405838,0.369910972,-0.15988814,0.401721,0.374791968,-0.1365947,0.399614,0.378223271,-0.116904105,0.3977,0.391917961,-0.214303074,0.4086,0.404199222,-0.181772625,0.407967,0.410262099,-0.16683043,0.407706,0.414892169,-0.157387114,0.40928
0.352907561,-0.263926498,0.407437,0.355811307,-0.212605188,0.403272,0.338624161,-0.24903845,0.406157,0.306648167,-0.221732953,0.394923,0.27739738,-0.197369269,0.383959,0.267202116,-0.181956748,0.385139,0.328660526,-0.17920843,0.399421,0.320634632,-0.13673781,0.389027,0.317058629,-0.116375415,0.383829,0.314026787,-0.0983033649,0.379105,0.354034397,-0.179917572,0.400194,0.349775236,-0.133991679,0.388998,0.347478745,-0.107255064,0.382467,0.346116788,-0.0882608202,0.377802,0.375301167,-0.185340026,0.401287,0.379517222,-0.143422322,0.396615,0.382817889,-0.121954484,0.394225,0.386320787,-0.102342326,0.392053,0.4003424,-0.199895115,0.40332,0.413733878,-0.167994005,0.404215,0.419898249,-0.153385938,0.404626,0.425927504,-0.140244834,0.404988
0.358668753,-0.249390311,0.404493,0.362978213,-0.199036447,0.401191,0.33903063,-0.24029003,0.40274,0.309982032,-0.204460735,0.390973,0.280967055,-0.177259563,0.373142,0.2678685,-0.157846998,0.367708,0.337995276,-0.163930737,0.397152,0.329659683,-0.121734395,0.387348,0.326798258,-0.101610039,0.382446,0.324225503,-0.0829146382,0.37799,0.363816949,-0.166857929,0.39875,0.359442371,-0.121041663,0.388321,0.359201731,-0.0963407202,0.382238,0.35942469,-0.078655482,0.377892,0.385032839,-0.174018984,0.400428,0.389012016,-0.131970831,0.395047,0.392825983,-0.110533231,0.392294,0.396421998,-0.0906386062,0.389791,0.409364975,-0.190431695,0.402973,0.419693852,-0.158556601,0.402467,0.426429964,-0.143535984,0.402234,0.433275796,-0.13049647,0.402029
0.358145081,-0.243688654,0.401375,0.363032992,-0.194686923,0.397513,0.34195924,-0.228575452,0.399851,0.313978256,-0.198365648,0.389344,0.282532324,-0.171409985,0.368509,0.267189245,-0.154009621,0.361746,0.343713223,-0.155811329,0.393486,0.334651319,-0.113610396,0.3831,0.330765555,-0.0931888078,0.377907,0.323642754,-0.0780854301,0.373187,0.369172004,-0.159866991,0.394642,0.364426224,-0.114184793,0.383572,0.363822612,-0.0904719292,0.377114,0.363578041,-0.0728026609,0.372502,0.38989863,-0.167958729,0.396016,0.392715165,-0.124997347,0.389688,0.395015967,-0.102970226,0.386451,0.393786889,-0.0860108416,0.383508,0.413259444,-0.185471548,0.398314,0.427422487,-0.154296662,0.39947,0.434373653,-0.139802686,0.400001,0.440512694,-0.1269993,0.400469
0.359377756,-0.242154407,0.399403,0.366735639,-0.193443966,0.394762,0.342321138,-0.227933311,0.396697,0.316565572,-0.19979879,0.383631,0.286607476,-0.17095087,0.363965,0.27079738,-0.151013141,0.357849,0.343879756,-0.15917392,0.38875,0.333946749,-0.116390722,0.377393,0.330244394,-0.0957358987,0.371715,0.324294987,-0.0749192987,0.366553,0.370325371,-0.16311142,0.391297,0.364336149,-0.116706326,0.379337,0.361428055,-0.0905516435,0.37236,0.360939877,-0.0725905266,0.367377,0.389942642,-0.169092503,0.393899,0.391856684,-0.125920526,0.386636,0.39668357,-0.10591098,0.382921,0.396311831,-0.0837913798,0.379543,0.4148959,-0.186921718,0.397752,0.429340126,-0.155607678,0.395417,0.435891031,-0.140861804,0.395239,0.439951393,-0.126825449,0.396096
0.363105634,-0.245230179,0.402018,0.3668037,-0.204320379,0.393633,0.34284483,-0.234673334,0.399132,0.312766425,-0.21158109,0.385544,0.281524928,-0.185700193,0.362451,0.26679928,-0.16602513,0.35391,0.339312754,-0.166389854,0.385427,0.327503152,-0.123186162,0.37096,0.321994307,-0.101985729,0.363727,0.316991327,-0.0825933269,0.357151,0.365321063,-0.169846212,0.387354,0.355814457,-0.122348358,0.371841,0.353032728,-0.098269669,0.362792,0.351199796,-0.0805161576,0.356328,0.387031448,-0.177665948,0.389852,0.387373754,-0.133393523,0.379639,0.387514527,-0.110869184,0.374413,0.389740451,-0.0916124618,0.369662,0.412562133,-0.195257701,0.394281,0.422863735,-0.161244175,0.391434,0.428103947,-0.14587014,0.390615,0.432842421,-0.132346777,0.389998
0.364816035,-0.247731671,0.403216,0.364954406,-0.206302479,0.39307,0.343718119,-0.238993213,0.39941,0.310403272,-0.21259587,0.383343,0.280771862,-0.187166119,0.362873,0.266265362,-0.167262783,0.354101,0.333683644,-0.170203105,0.382716,0.320842664,-0.127190339,0.366611,0.314431473,-0.105669919,0.358559,0.313664877,-0.0845814296,0.355181,0.360272444,-0.173402677,0.385476,0.349917758,-0.125563559,0.368329,0.34723389,-0.102831379,0.358327,0.345517077,-0.0860244758,0.351182,0.384388553,-0.179164116,0.388853,0.380885247,-0.136357953,0.377347,0.380789386,-0.11387836,0.37146,0.383379615,-0.0919953512,0.366108,0.411269553,-0.19710949,0.394624,0.418312674,-0.161728127,0.388712,0.421461468,-0.145683887,0.385995,0.425735688,-0.13611107,0.383598
0.344495134,-0.270779931,0.404251,0.349140578,-0.227215199,0.390199,0.32867016,-0.262544344,0.400524,0.297117997,-0.234104948,0.383048,0.265987414,-0.20832526,0.361194,0.251421329,-0.188334843,0.352656,0.318444362,-0.187625322,0.377918,0.304654652,-0.144071883,0.361434,0.298058234,-0.122966846,0.353192,0.292063369,-0.103672402,0.345699,0.344437938,-0.190796836,0.379686,0.329900605,-0.142269325,0.358934,0.322995867,-0.117861454,0.346829,0.318138105,-0.100079899,0.338182,0.366624488,-0.198685603,0.382674,0.363948776,-0.153107295,0.368825,0.363598289,-0.130988456,0.36174,0.363355825,-0.110656949,0.355298,0.393536641,-0.216881231,0.388725,0.400385542,-0.181029971,0.381975,0.405038572,-0.165469281,0.378874,0.409219761,-0.151602571,0.376137
0.339460362,-0.295205911,0.402505,0.332773998,-0.245990804,0.386169,0.318986782,-0.283778241,0.398907,0.285014922,-0.255983391,0.38778,0.252288752,-0.232900107,0.36799,0.238307091,-0.218797695,0.350283,0.302256888,-0.205920342,0.372869,0.284242691,-0.163491114,0.35198,0.27532388,-0.143687162,0.341535,0.267382583,-0.12854944,0.33204,0.327685063,-0.209618521,0.373946,0.312127101,-0.162330318,0.351213,0.303309522,-0.136661032,0.337952,0.297038665,-0.118146051,0.32848,0.349535866,-0.217970799,0.376614,0.342197757,-0.170553449,0.358938,0.339355574,-0.149943939,0.349894,0.336900743,-0.130843492,0.341672,0.376178642,-0.236746592,0.382723,0.383385816,-0.200643177,0.37429,0.386645943,-0.184158873,0.370416,0.390529535,-0.170120642,0.367973
0.323630505,-0.312485473,0.401254,0.31489161,-0.264757097,0.381942,0.302312358,-0.302122278,0.396255,0.265006986,-0.277091266,0.379896,0.23074104,-0.252527519,0.362623,0.215826388,-0.239577095,0.345988,0.281965511,-0.226190696,0.365244,0.262577735,-0.179345735,0.345383,0.253956103,-0.1619983,0.335453,0.246090354,-0.145916782,0.326425,0.308360511,-0.229188993,0.367531,0.291136787,-0.180551868,0.341968,0.281053875,-0.152455157,0.327056,0.275407269,-0.144119386,0.316404,0.33105439,-0.236859523,0.371523,0.319817978,-0.187694926,0.34992,0.315782237,-0.168004533,0.338867,0.312244996,-0.149806104,0.328819,0.358770456,-0.25456411,0.379714,0.361730846,-0.216723426,0.367279,0.363027593,-0.199465342,0.361566,0.36580843,-0.187423019,0.356525
0.305385756,-0.34183269,0.40208,0.296304791,-0.293844115,0.383077,0.284389971,-0.331445061,0.397691,0.248426076,-0.303030783,0.380736,0.216864609,-0.281227874,0.360332,0.200308691,-0.260914185,0.349331,0.263660076,-0.255208656,0.367355,0.243473031,-0.209929476,0.344149,0.233538971,-0.192679019,0.332546,0.224473343,-0.176791859,0.321998,0.289515476,-0.258118625,0.368898,0.27179689,-0.207937438,0.343687,0.261781578,-0.182494081,0.328981,0.254994095,-0.172355421,0.318477,0.311842579,-0.265743365,0.372243,0.298427633,-0.21999771,0.347766,0.291555137,-0.196629352,0.335243,0.28530091,-0.175409578,0.323858,0.339252044,-0.283458748,0.379633,0.340035002,-0.245743185,0.364865,0.340375993,-0.228448519,0.358079,0.340667279,-0.213208379,0.352092
0.292010251,-0.367242482,0.400612,0.281336899,-0.31708995,0.384716,0.272559047,-0.35799043,0.399197,0.236828722,-0.33131117,0.384045,0.204395773,-0.307421992,0.365991,0.187583583,-0.287961485,0.355046,0.250238442,-0.279450998,0.374571,0.231385149,-0.235808774,0.354447,0.220824134,-0.219466983,0.344385,0.211121877,-0.204366551,0.335237,0.2733605,-0.280119657,0.372854,0.253596207,-0.230711118,0.350918,0.241383144,-0.205756139,0.338122,0.231855392,-0.196611281,0.328982,0.293726382,-0.286079404,0.373176,0.276585829,-0.241555371,0.351539,0.267815885,-0.218671672,0.340469,0.259843467,-0.197798992,0.330406,0.319397912,-0.302271337,0.376511,0.315378946,-0.263262782,0.360264,0.313517783,-0.245381432,0.3528,0.312155886,-0.229839742,0.346535
0.29457311,-0.352550454,0.401014,0.268535681,-0.30080933,0.379767,0.267186493,-0.341237429,0.399772,0.229220088,-0.329264585,0.38577,0.191323013,-0.309460864,0.366519,0.169561484,-0.294359767,0.352192,0.23307979,-0.265329973,0.367074,0.211235189,-0.220438958,0.342252,0.197755607,-0.20839312,0.329841,0.18532995,-0.197322902,0.318558,0.254917337,-0.26478616,0.363913,0.229224529,-0.217756128,0.337087,0.21427378,-0.190467272,0.321439,0.201762136,-0.18764044,0.310261,0.275069957,-0.269628967,0.36363,0.258603447,-0.224001054,0.33667,0.25016921,-0.200715733,0.322876,0.242496245,-0.17958863,0.310337,0.301862247,-0.284299471,0.367268,0.29738437,-0.244155825,0.351092,0.295287862,-0.225834658,0.34366,0.29449402,-0.210508892,0.338341
0.264106092,-0.357938041,0.402388,0.248409178,-0.308020447,0.382403,0.244415264,-0.349677617,0.401021,0.205409041,-0.331431006,0.387537,0.169046037,-0.311637028,0.369874,0.148617796,-0.297461148,0.354629,0.214319887,-0.271558892,0.370199,0.193949977,-0.222396913,0.349349,0.180384867,-0.216729581,0.338924,0.167724043,-0.211618632,0.329447,0.236719467,-0.271064149,0.36749,0.211736832,-0.225777467,0.341827,0.197004034,-0.199818795,0.326857,0.184962809,-0.192296951,0.316165,0.25698993,-0.276063431,0.367442,0.244831563,-0.223718948,0.34419,0.235357944,-0.209958787,0.332293,0.22668045,-0.197354808,0.321478,0.283405923,-0.29111268,0.371115,0.284034586,-0.252345083,0.357837,0.284286362,-0.234629762,0.351736,0.285107558,-0.219529497,0.347107
0.258354973,-0.353971189,0.400099,0.236475427,-0.301880257,0.384004,0.239727738,-0.348000129,0.400719,0.19666723,-0.324943911,0.388247,0.162334144,-0.306138938,0.373897,0.14242753,-0.289266646,0.362262,0.202759345,-0.269264007,0.376468,0.184287369,-0.221929733,0.3594,0.170683237,-0.215816808,0.350867,0.157863356,-0.21021783,0.343109,0.223460637,-0.264996085,0.371994,0.197576353,-0.218473259,0.349693,0.180524922,-0.198156477,0.336684,0.167759957,-0.185985617,0.327392,0.242494967,-0.266850536,0.370067,0.225929957,-0.217019818,0.348356,0.214907963,-0.199222901,0.337249,0.204779504,-0.182735806,0.327151,0.267844075,-0.278234911,0.370855,0.2653698,-0.239724114,0.353838,0.264213548,-0.222079927,0.346019,0.262886773,-0.207443041,0.33912
0.245604041,-0.342702531,0.392469,0.226914601,-0.290579549,0.383275,0.227663732,-0.339288102,0.394622,0.186266522,-0.317074742,0.386556,0.153446215,-0.298986308,0.377121,0.138109969,-0.28334577,0.374344,0.195881398,-0.26235879,0.381368,0.173398551,-0.219595148,0.367107,0.159675613,-0.205209733,0.359977,0.146837541,-0.191777639,0.353495,0.216030479,-0.254899065,0.376415,0.203159041,-0.206032001,0.362699,0.189724523,-0.201505469,0.354698,0.179631037,-0.198273259,0.348983,0.234214507,-0.253904948,0.373338,0.218698198,-0.208457923,0.356196,0.208565077,-0.190617584,0.347425,0.198503564,-0.176661127,0.339452,0.258077297,-0.261630024,0.371519,0.256701554,-0.222628714,0.358635,0.257667263,-0.206116934,0.354954,0.258543692,-0.191454855,0.351707
0.227788049,-0.312478584,0.388361,0.214982225,-0.265259593,0.381548,0.212151824,-0.310005827,0.392077,0.176783364,-0.292937459,0.387317,0.144885223,-0.27571874,0.379175,0.126588374,-0.260105574,0.373535,0.18850946,-0.238933606,0.382962,0.164374,-0.200328014,0.372651,0.149100668,-0.185128656,0.367495,0.133923224,-0.174168825,0.362808,0.205655269,-0.231106799,0.376465,0.180303902,-0.188190594,0.363936,0.162960857,-0.165992339,0.356627,0.149168883,-0.163380147,0.351406,0.221342251,-0.229581248,0.371856,0.205737692,-0.18269577,0.358089,0.191565125,-0.167443909,0.351045,0.178058122,-0.153631643,0.344642,0.242173013,-0.236431394,0.367833,0.243117416,-0.195985726,0.35574,0.238902914,-0.180967005,0.350184,0.229958856,-0.17865977,0.345282
0.222619391,-0.303186446,0.386761,0.21053014,-0.249241962,0.382898,0.203663298,-0.292851259,0.39088,0.170809905,-0.272465399,0.386526,0.142882516,-0.25541443,0.382712,0.125852238,-0.238495886,0.37557,0.188080889,-0.224416573,0.386381,0.165506109,-0.187240036,0.377744,0.151707954,-0.171076149,0.373426,0.138226282,-0.157002384,0.3695,0.204892812,-0.216508417,0.380016,0.180857084,-0.174945125,0.370265,0.163335652,-0.15423356,0.364577,0.14889022,-0.145168279,0.360514,0.219805984,-0.214678824,0.375194,0.203267975,-0.170826753,0.363875,0.192452345,-0.150069375,0.358084,0.181476698,-0.131853868,0.352819,0.238929785,-0.220819451,0.370375,0.239808698,-0.182655373,0.363223,0.23558847,-0.166967008,0.359936,0.229659052,-0.155431487,0.357037
0.225764622,-0.295681959,0.401456,0.211066846,-0.239450203,0.391928,0.208385032,-0.281715719,0.404152,0.172106508,-0.267932935,0.39879,0.139059509,-0.251296579,0.389269,0.124032707,-0.236745221,0.387474,0.182155532,-0.210611511,0.390546,0.155456481,-0.172539859,0.377907,0.140768501,-0.154770759,0.371588,0.127234627,-0.138393975,0.365844,0.200728651,-0.205067302,0.384782,0.176047582,-0.16076291,0.369541,0.158255676,-0.139164331,0.36065,0.144364662,-0.125494709,0.3543,0.217680706,-0.205463244,0.38107,0.203015346,-0.158730078,0.366483,0.190637419,-0.140100904,0.35902,0.179109035,-0.122650012,0.352236,0.239996415,-0.214517133,0.378573,0.234033212,-0.176496354,0.371217,0.231294868,-0.159070222,0.367837,0.228879809,-0.143717611,0.364855
0.224976616,-0.277343223,0.403054,0.210842151,-0.22020786,0.39298,0.207184654,-0.263718575,0.405521,0.171374096,-0.243198784,0.397568,0.138143328,-0.225052638,0.385375,0.120335534,-0.208215734,0.378837,0.182078155,-0.191035699,0.391007,0.15454826,-0.153191837,0.37819,0.141384818,-0.134818998,0.373497,0.129295145,-0.117936523,0.36923,0.201028097,-0.185276206,0.385424,0.175950252,-0.1409246,0.369632,0.158310532,-0.118751892,0.36042,0.144624795,-0.104510966,0.353839,0.218196212,-0.185546227,0.38192,0.202889526,-0.139038917,0.366753,0.190550562,-0.119994547,0.358993,0.179068994,-0.102152868,0.351938,0.240687954,-0.194560909,0.379763,0.235840099,-0.156076072,0.371162,0.233371092,-0.138530263,0.36721,0.231192619,-0.123050129,0.363723
0.224087176,-0.260125407,0.401562,0.214968014,-0.206769628,0.393379,0.207418269,-0.255873612,0.40414,0.173809481,-0.227194545,0.396622,0.141842635,-0.208089044,0.385479,0.125115989,-0.190844777,0.379512,0.188384457,-0.17735445,0.392541,0.163414471,-0.138933358,0.381114,0.149871621,-0.120396894,0.375401,0.136851364,-0.103884853,0.370207,0.207612396,-0.172441922,0.387241,0.185516708,-0.127803412,0.373154,0.169496699,-0.104795076,0.364936,0.156901856,-0.0896966156,0.359066,0.224669138,-0.173327422,0.383765,0.212351923,-0.127454149,0.370267,0.201431304,-0.107780764,0.363361,0.191268024,-0.0893116328,0.357082,0.246430662,-0.182917279,0.38129,0.244101123,-0.144975113,0.373894,0.24279003,-0.127634653,0.370495,0.241633558,-0.112340936,0.367497
0.226174624,-0.228018494,0.400159,0.216181856,-0.183122021,0.394733,0.207415988,-0.22443978,0.400912,0.172268215,-0.207278704,0.394566,0.140828965,-0.191690072,0.387486,0.122583235,-0.174334865,0.376452,0.187189488,-0.156506451,0.392903,0.163034926,-0.118323934,0.382475,0.150929659,-0.0991830181,0.377261,0.138574144,-0.0875011622,0.37252,0.208902288,-0.150748822,0.390663,0.185726683,-0.107787395,0.378564,0.172012926,-0.0822797433,0.371507,0.161709442,-0.0748373553,0.366466,0.22801816,-0.150602664,0.389407,0.212004209,-0.106148914,0.377242,0.202525567,-0.0842225834,0.371018,0.193787348,-0.0638802314,0.36536,0.252283454,-0.158460121,0.388972,0.252588692,-0.122412411,0.379545,0.246089681,-0.116293052,0.375214,0.24219399,-0.112099935,0.371392
0.225365433,-0.225558918,0.395459,0.216341472,-0.18245838,0.392813,0.206553413,-0.222091357,0.396354,0.176460999,-0.202637205,0.393201,0.146423483,-0.183114856,0.38487,0.13086807,-0.166261532,0.380469,0.187096446,-0.156017236,0.392622,0.175016907,-0.120541767,0.392002,0.166689114,-0.10204027,0.391693,0.158971753,-0.0848919124,0.391411,0.209667144,-0.150655152,0.390827,0.18931202,-0.107392627,0.3813,0.180537698,-0.080239022,0.375742,0.172644209,-0.0616099458,0.371773,0.229315262,-0.150807356,0.389637,0.220421341,-0.106220256,0.379748,0.215164228,-0.083512042,0.374688,0.208940942,-0.0641292484,0.370089,0.253775153,-0.158873154,0.388759,0.255787712,-0.123192278,0.383684,0.256407969,-0.105680296,0.381353,0.256564666,-0.0906257291,0.379295
0.230154088,-0.227761253,0.401336,0.222238073,-0.181735677,0.394978,0.210982448,-0.223226401,0.401556,0.182527216,-0.197243787,0.395969,0.152350872,-0.175984751,0.384555,0.137790578,-0.158705478,0.380494,0.197807153,-0.149516103,0.391955,0.180899203,-0.109520987,0.382881,0.170818244,-0.0901161597,0.378344,0.16101309,-0.0836963621,0.374219,0.220280366,-0.146381705,0.39021,0.201980203,-0.101247815,0.37714,0.188726992,-0.0786945025,0.369515,0.178924342,-0.0618330106,0.364069,0.239781971,-0.148591531,0.389464,0.229894926,-0.10421554,0.377785,0.22118575,-0.085236242,0.37181,0.213036756,-0.0671915348,0.366378,0.263960749,-0.159493264,0.389787,0.267842206,-0.123426593,0.385726,0.269993287,-0.107096794,0.384408,0.271944111,-0.0927158845,0.383322
0.230910208,-0.226718188,0.397468,0.234840077,-0.187390761,0.396153,0.21325908,-0.223249004,0.399737,0.191660557,-0.204948999,0.396005,0.161321787,-0.182859331,0.384843,0.145531363,-0.163383291,0.372794,0.210332493,-0.161090345,0.398488,0.191196971,-0.122759335,0.391814,0.181477311,-0.103247155,0.388477,0.172548399,-0.0852963873,0.385444,0.231166969,-0.156046492,0.395167,0.214518178,-0.112491399,0.387223,0.203945484,-0.0869540294,0.382589,0.196284545,-0.0683836412,0.379279,0.249073538,-0.156378916,0.392575,0.241050902,-0.112346308,0.384034,0.234844416,-0.0902632152,0.379664,0.229134536,-0.0697823084,0.375691,0.27097748,-0.164598309,0.389839,0.275245697,-0.12923995,0.386967,0.276476447,-0.112699871,0.385648,0.275171864,-0.0955166867,0.384484
0.250174624,-0.242951799,0.406768,0.249532071,-0.203544511,0.39861,0.232436082,-0.236734896,0.40752,0.205724572,-0.216740646,0.398366,0.176375035,-0.192444258,0.386283,0.160750626,-0.172563471,0.375137,0.224260563,-0.170246446,0.39534,0.203919364,-0.130190599,0.38285,0.192885426,-0.110754797,0.376605,0.181584601,-0.0948775657,0.370928,0.245593164,-0.169073569,0.392471,0.228899656,-0.123016493,0.377899,0.216362016,-0.0993030461,0.369399,0.207213967,-0.0818196761,0.363327,0.264001086,-0.173075249,0.390993,0.254265744,-0.128846371,0.382046,0.247100207,-0.107289363,0.377468,0.240493142,-0.0872379572,0.373307,0.286568608,-0.186360607,0.39081,0.289459683,-0.150479085,0.388143,0.290774252,-0.134087624,0.386917,0.291927747,-0.11967473,0.385836
0.262086043,-0.2549005,0.408388,0.262402455,-0.209787562,0.398197,0.243951607,-0.246814588,0.408276,0.215290466,-0.225280929,0.397486,0.186063311,-0.202758537,0.388323,0.177374833,-0.189210168,0.391085,0.235653559,-0.17549416,0.392712,0.215700724,-0.133992466,0.377969,0.204113587,-0.116818741,0.370598,0.193351683,-0.100756222,0.363897,0.257783838,-0.174384642,0.390527,0.238791295,-0.128988699,0.373925,0.226015798,-0.105967656,0.36424,0.216072598,-0.0927013684,0.357322,0.276959679,-0.178524047,0.389835,0.264951401,-0.131628133,0.373339,0.256258047,-0.112032344,0.3649,0.24826625,-0.0936733489,0.357228,0.30075388,-0.1921815,0.390931,0.301727303,-0.154201169,0.382579,0.302977038,-0.137296983,0.379793,0.304224733,-0.122457078,0.377519
0.284592638,-0.275213266,0.402928,0.277341756,-0.228431454,0.396009,0.263300879,-0.267143262,0.40004,0.227950996,-0.238905193,0.385877,0.198906221,-0.216139333,0.376031,0.186861168,-0.200772578,0.37603,0.245893409,-0.19429013,0.388544,0.226140548,-0.153653011,0.375129,0.216516411,-0.134507475,0.368421,0.207643258,-0.116738067,0.362323,0.271932455,-0.194069181,0.390802,0.256684457,-0.14805635,0.376601,0.247787453,-0.121198887,0.368317,0.241536949,-0.10232882,0.3624,0.294286537,-0.198801877,0.393414,0.282772074,-0.153715928,0.379775,0.277479856,-0.132668928,0.372797,0.272666496,-0.113022611,0.366454,0.321638186,-0.212772355,0.397702,0.332519034,-0.180106372,0.399044,0.337694665,-0.165228782,0.399883,0.342260154,-0.152108069,0.400624
0.289154298,-0.298151843,0.403937,0.287273083,-0.250901536,0.395143,0.269098809,-0.286824787,0.400859,0.237526212,-0.257095768,0.385583,0.209657104,-0.230567674,0.372515,0.199082473,-0.212306771,0.370505,0.259922996,-0.212289795,0.386442,0.245404595,-0.171298906,0.371539,0.237769975,-0.152849574,0.364087,0.230754526,-0.135661275,0.357313,0.285798555,-0.215885954,0.388525,0.274212358,-0.168378897,0.372579,0.270747339,-0.1426335,0.367752,0.268273897,-0.123992202,0.364305,0.307654841,-0.22393344,0.391195,0.30492626,-0.1786045,0.381081,0.30335241,-0.158609177,0.375906,0.301515578,-0.144360221,0.371202,0.333612201,-0.242073766,0.395899,0.337803125,-0.204042573,0.386106,0.341313371,-0.187737872,0.383494,0.34451389,-0.173412938,0.381307
0.307024864,-0.312113777,0.403073,0.301653772,-0.262469499,0.392014,0.285336607,-0.300956229,0.398555,0.249500123,-0.269863108,0.38087,0.220665644,-0.243726556,0.358059,0.205970437,-0.223195672,0.348382,0.27062055,-0.22299378,0.380213,0.2538559,-0.180998651,0.362817,0.246601962,-0.164538707,0.35412,0.239967722,-0.14916727,0.346213,0.29753742,-0.226103832,0.383691,0.285307423,-0.180813019,0.365474,0.2783946,-0.154254598,0.355112,0.273464619,-0.135134906,0.34771,0.320464254,-0.233876645,0.387757,0.32395916,-0.19198756,0.383547,0.32752326,-0.171801812,0.381393,0.331667104,-0.163223826,0.379435,0.348212152,-0.251886404,0.394487,0.358441979,-0.216821003,0.382963,0.358543129,-0.216695328,0.377669,0.349252858,-0.225727083,0.372997
0.318128849,-0.319793367,0.408023,0.317209003,-0.27208721,0.394996,0.296608222,-0.308895351,0.404217,0.266084735,-0.280830882,0.386835,0.235242291,-0.255105082,0.36711,0.220904823,-0.235921357,0.360477,0.28494655,-0.23231881,0.383112,0.267041076,-0.19308209,0.364642,0.258048014,-0.173192304,0.355407,0.249846391,-0.154933222,0.347012,0.310961479,-0.23460508,0.385193,0.29571689,-0.18614497,0.365318,0.287506567,-0.170889272,0.353724,0.2816896,-0.159616828,0.345443,0.333609133,-0.241864011,0.38832,0.323235139,-0.197887016,0.369091,0.318064987,-0.176355049,0.359252,0.313421692,-0.156515039,0.350308,0.361808115,-0.259662975,0.394337,0.364279043,-0.220084728,0.381264,0.364976454,-0.211434233,0.375257,0.365837642,-0.203603961,0.369957
0.333666272,-0.33951124,0.399711,0.329283832,-0.292217865,0.391525,0.312523529,-0.329824681,0.395638,0.283293474,-0.304115532,0.39177,0.25347741,-0.277815979,0.372494,0.240495734,-0.258959046,0.366931,0.299144445,-0.254948605,0.38182,0.287236409,-0.212501794,0.367252,0.281281052,-0.191188605,0.359968,0.275866845,-0.171756872,0.353347,0.325957885,-0.257077441,0.385364,0.31943564,-0.21105285,0.370218,0.315647331,-0.184107165,0.361382,0.312950191,-0.164812473,0.355071,0.348478141,-0.26386991,0.389173,0.349300076,-0.219540742,0.375422,0.349695044,-0.196930087,0.368387,0.353070656,-0.177946949,0.365128,0.375233889,-0.280315714,0.395073,0.38292022,-0.244288116,0.386202,0.388929765,-0.235223802,0.382126,0.394606151,-0.226983928,0.378529
0.343047824,-0.352135946,0.408966,0.34014462,-0.304728207,0.395294,0.320199832,-0.339170021,0.40286,0.286739389,-0.308000638,0.384605,0.259516409,-0.281906462,0.364979,0.246138747,-0.260907495,0.355602,0.30840191,-0.260409751,0.380011,0.292728685,-0.221358124,0.360113,0.284998434,-0.202066117,0.350164,0.278629996,-0.18761116,0.341119,0.336498164,-0.266776247,0.385005,0.326038752,-0.227078136,0.364242,0.320223604,-0.204060922,0.35213,0.316271213,-0.187874252,0.343479,0.3605607,-0.277506199,0.390603,0.356706438,-0.231562325,0.371643,0.355454001,-0.211288899,0.361942,0.354445621,-0.192631129,0.353124,0.389783689,-0.299509596,0.39958,0.397721129,-0.262583463,0.388089,0.401184994,-0.245887337,0.382809,0.405489674,-0.235367879,0.37815
0.352897365,-0.36501155,0.416052,0.351265114,-0.319644824,0.401289,0.330681,-0.35148902,0.410011,0.302787577,-0.325598556,0.391241,0.273097986,-0.297496405,0.368872,0.260444675,-0.277608852,0.358495,0.320537844,-0.278608015,0.385523,0.303872744,-0.23647374,0.364715,0.296027701,-0.217189577,0.354311,0.288905524,-0.199500107,0.344852,0.348397552,-0.284221939,0.390179,0.33624796,-0.236847737,0.36845,0.330637063,-0.214204425,0.355775,0.326737051,-0.197767152,0.346721,0.371922179,-0.293979027,0.395618,0.366571614,-0.246846807,0.37654,0.365349632,-0.226830112,0.36678,0.364374796,-0.208406457,0.357906,0.399862907,-0.314047092,0.404614,0.404441181,-0.27723733,0.390492,0.406482701,-0.26041016,0.384003,0.40983447,-0.250848778,0.378278
0.357643746,-0.370325529,0.419888,0.355171472,-0.324013755,0.403895,0.338101729,-0.359685929,0.414263,0.305866414,-0.329961502,0.393889,0.276883053,-0.305091672,0.371866,0.262987411,-0.282257826,0.361868,0.326681384,-0.284692463,0.388038,0.310049053,-0.242291727,0.366505,0.302150201,-0.222962503,0.355739,0.292407437,-0.20269436,0.345951,0.353906471,-0.290501126,0.39186,0.341653806,-0.242812632,0.369093,0.335775993,-0.220233778,0.355812,0.329025971,-0.200706602,0.346326,0.376878831,-0.300466326,0.396745,0.371513632,-0.253068608,0.376817,0.370117505,-0.233060616,0.366621,0.369164076,-0.215421316,0.357352,0.404172377,-0.32085031,0.405333,0.408548264,-0.283985548,0.390153,0.410478484,-0.267149102,0.383178,0.41350347,-0.257827709,0.377024
