sluyters/QuantumLeap/backend/src/datasets/dynamic/HandGestureDataset_SHREC2017_csv/Gesture11/finger_2/subject_4_essai_2_skeletons_world.csv
Wrist_x,Wrist_y,Wrist_z,Palm_x,Palm_y,Palm_z,thumb_base_x,thumb_base_y,thumb_base_z,thumb_first_joint_x,thumb_first_joint_y,thumb_first_joint_z,thumb_second_joint_x,thumb_second_joint_y,thumb_second_joint_z,thumb_tip_x,thumb_tip_y,thumb_tip_z,index_base_x,index_base_y,index_base_z,index_first_joint_x,index_first_joint_y,index_first_joint_z,index_second_joint_x,index_second_joint_y,index_second_joint_z,index_tip_x,index_tip_y,index_tip_z,middle_base_x,middle_base_y,middle_base_z,middle_first_joint_x,middle_first_joint_y,middle_first_joint_z,middle_second_joint_x,middle_second_joint_y,middle_second_joint_z,middle_tip_x,middle_tip_y,middle_tip_z,ring_base_x,ring_base_y,ring_base_z,ring_first_joint_x,ring_first_joint_y,ring_first_joint_z,ring_second_joint_x,ring_second_joint_y,ring_second_joint_z,ring_tip_x,ring_tip_y,ring_tip_z,pinky_base_x,pinky_base_y,pinky_base_z,pinky_first_joint_x,pinky_first_joint_y,pinky_first_joint_z,pinky_second_joint_x,pinky_second_joint_y,pinky_second_joint_z,pinky_tip_x,pinky_tip_y,pinky_tip_z,
0.3769722,-0.23593905,0.644342,0.34937613,-0.19773714,0.638797,0.35580679,-0.23747643,0.647631,0.31761749,-0.22387144,0.649826,0.28561308,-0.21226194,0.649911,0.26790734,-0.19833345,0.648125,0.30068073,-0.1702064,0.639314,0.26603847,-0.13863712,0.631647,0.24700387,-0.12328063,0.627813,0.23363705,-0.1088509,0.625905,0.31824976,-0.15591615,0.633515,0.28290542,-0.11623166,0.623063,0.26247306,-0.093310748,0.616966,0.24636075,-0.082167276,0.612611,0.33525264,-0.14758757,0.629337,0.30432986,-0.10911284,0.625711,0.28769227,-0.089350523,0.623856,0.27046231,-0.071310002,0.62217,0.35999557,-0.1440654,0.625529,0.33339705,-0.10927346,0.61445,0.32017489,-0.096808269,0.609359,0.30839939,-0.089260544,0.604868
0.37651911,-0.23577854,0.643959,0.34898068,-0.19772811,0.638638,0.35553454,-0.23746924,0.647516,0.31801043,-0.22444529,0.650185,0.28607164,-0.21306682,0.650467,0.26802275,-0.19907516,0.648915,0.30084648,-0.17073672,0.639657,0.26564488,-0.13915317,0.631384,0.24676854,-0.12387042,0.627247,0.23270546,-0.10935872,0.625023,0.31823749,-0.15629455,0.63357,0.28416876,-0.11715731,0.624788,0.26446569,-0.094539272,0.619666,0.25000293,-0.08275383,0.616006,0.33507741,-0.14783499,0.629131,0.30375415,-0.10939134,0.625184,0.28667324,-0.089604653,0.623164,0.26904597,-0.071654469,0.621328,0.35960316,-0.14413716,0.624978,0.33122926,-0.10957383,0.614134,0.31664538,-0.09564591,0.609151,0.30294146,-0.084722263,0.604755
0.37667633,-0.23596734,0.644459,0.3488219,-0.19780972,0.638704,0.35581764,-0.23777006,0.648214,0.31849187,-0.22494465,0.650734,0.28660478,-0.21370922,0.65112,0.26830097,-0.19969564,0.649664,0.30090888,-0.17107377,0.639686,0.2655625,-0.13962066,0.631488,0.24687368,-0.12439685,0.627389,0.23227904,-0.1098402,0.624729,0.31804368,-0.15648912,0.633222,0.285669,-0.11808998,0.627422,0.26889063,-0.097857076,0.624038,0.25239063,-0.083950623,0.621621,0.33468757,-0.14792299,0.628519,0.30380744,-0.10977686,0.625728,0.28688137,-0.090074813,0.624299,0.27081979,-0.072056611,0.623001,0.35902469,-0.14410616,0.624143,0.32938015,-0.11045173,0.613035,0.31246233,-0.096215451,0.607931,0.3008465,-0.08483607,0.603428
0.37329361,-0.23490633,0.645775,0.33178133,-0.19035882,0.639008,0.34615186,-0.23345773,0.649966,0.30395559,-0.21733777,0.652796,0.2726429,-0.20531081,0.653858,0.25307042,-0.19048519,0.651863,0.28612413,-0.1625263,0.639871,0.25295431,-0.13143946,0.633546,0.23488669,-0.11620672,0.630383,0.21835697,-0.10226798,0.627508,0.3027839,-0.14848351,0.632563,0.2685629,-0.1085914,0.624461,0.24858209,-0.08529772,0.619735,0.23430131,-0.068648517,0.616359,0.31901355,-0.1404507,0.627275,0.28661867,-0.10527265,0.627236,0.27004323,-0.087273166,0.627216,0.25497394,-0.070909176,0.627198,0.34281992,-0.13742914,0.622408,0.31751269,-0.10071177,0.610291,0.30723038,-0.09433252,0.604724,0.2956598,-0.084309333,0.599812
0.36257436,-0.23067129,0.64491,0.33046011,-0.19043647,0.639734,0.33801584,-0.23043999,0.650356,0.30423296,-0.21722014,0.655727,0.27416645,-0.20499185,0.657352,0.2549658,-0.18992115,0.655818,0.28671189,-0.16360827,0.643311,0.25473949,-0.13103686,0.635916,0.23645282,-0.11556748,0.632218,0.21969537,-0.10138779,0.628857,0.30206643,-0.14914951,0.634804,0.26837795,-0.10959791,0.627228,0.2488396,-0.086585907,0.623036,0.23490344,-0.070156913,0.620088,0.31714985,-0.14072056,0.628356,0.28646771,-0.10368158,0.627595,0.27085261,-0.084769577,0.627366,0.25668075,-0.067584058,0.627213,0.33947001,-0.13714533,0.621844,0.31417593,-0.10382806,0.617117,0.30071776,-0.089013785,0.614945,0.28872084,-0.075799392,0.613029
0.3608997,-0.23062113,0.645078,0.33011063,-0.19106071,0.640123,0.33782381,-0.23101839,0.650708,0.30396377,-0.2172726,0.656427,0.27391105,-0.20456966,0.657585,0.25526092,-0.18943601,0.65656,0.28672596,-0.16441649,0.644092,0.25508331,-0.13130522,0.636129,0.23651603,-0.11595523,0.632147,0.21937309,-0.10201222,0.628527,0.30178613,-0.14988124,0.635404,0.26461302,-0.11091598,0.62538,0.24091695,-0.089200124,0.619533,0.2303525,-0.072254218,0.619663,0.31662588,-0.14137556,0.628783,0.28652241,-0.10371125,0.627805,0.2712281,-0.084490392,0.627515,0.25735282,-0.067025267,0.627319,0.3386552,-0.13769257,0.62203,0.31458505,-0.10475535,0.617632,0.30121633,-0.089941114,0.615612,0.28929225,-0.076719675,0.613829
0.36721926,-0.23294167,0.6449,0.33033693,-0.19133233,0.640182,0.33808846,-0.23123246,0.650673,0.30429276,-0.21729117,0.656755,0.27429849,-0.20438929,0.657802,0.25592079,-0.18922064,0.657028,0.28721172,-0.16482445,0.644498,0.25519834,-0.13116932,0.634929,0.23613961,-0.11611663,0.630144,0.21841645,-0.10473005,0.625795,0.30211093,-0.15024361,0.635689,0.26683091,-0.11077354,0.626751,0.24635426,-0.087803655,0.621746,0.23187546,-0.071443679,0.618559,0.31680919,-0.14169104,0.628943,0.28701307,-0.10372292,0.627891,0.27188588,-0.084350202,0.627585,0.25816384,-0.066746543,0.627379,0.33865333,-0.13793909,0.622,0.31527709,-0.10504141,0.617667,0.30193425,-0.090227305,0.615676,0.29003263,-0.077004783,0.61392
0.36578723,-0.23197136,0.64372,0.33020561,-0.19083607,0.63938,0.34083732,-0.23162658,0.649886,0.30486752,-0.21728078,0.656635,0.27534959,-0.20486661,0.6584,0.25722454,-0.19000276,0.658076,0.28744063,-0.16493449,0.644465,0.25485079,-0.13074946,0.633982,0.23568624,-0.11576906,0.628741,0.21781469,-0.10245485,0.623977,0.30190014,-0.15007714,0.635247,0.26534105,-0.111432,0.626234,0.24346584,-0.08932798,0.620976,0.22996898,-0.072787186,0.618851,0.31623014,-0.14127203,0.628124,0.28685223,-0.10319927,0.627346,0.27241874,-0.082890081,0.627207,0.2592482,-0.064891902,0.627081,0.33763209,-0.13717236,0.620672,0.30977911,-0.099582062,0.612188,0.29951357,-0.088087081,0.611127,0.28852398,-0.074763979,0.610191
0.36507113,-0.23307268,0.64564,0.32868844,-0.19899644,0.638161,0.3389777,-0.23270831,0.651503,0.30490098,-0.22082302,0.657101,0.27581497,-0.20693072,0.658087,0.25752741,-0.19050341,0.658157,0.28662424,-0.17144022,0.64072,0.25058673,-0.13618631,0.626658,0.23246204,-0.11844699,0.619628,0.2227999,-0.10636722,0.618698,0.30011024,-0.15698095,0.631038,0.26469465,-0.11626959,0.620886,0.24394188,-0.092404702,0.614963,0.22651962,-0.073881843,0.61148,0.31374279,-0.14858636,0.623872,0.27999837,-0.10444272,0.61301,0.26266664,-0.081740285,0.60749,0.24688213,-0.06103034,0.602531,0.33454964,-0.14514657,0.61696,0.31102913,-0.10686998,0.606355,0.30214217,-0.090815209,0.602765,0.29176315,-0.074241133,0.599596
0.37362874,-0.23791972,0.656976,0.35192736,-0.2000918,0.646136,0.36161478,-0.24234839,0.66073,0.32066164,-0.21822345,0.654214,0.29068046,-0.2113147,0.655988,0.27301729,-0.20411718,0.660181,0.30357075,-0.17350045,0.643664,0.26455049,-0.14026943,0.628237,0.24864613,-0.12313539,0.620524,0.23267401,-0.11131797,0.626746,0.32002552,-0.1582443,0.635811,0.29758834,-0.15119189,0.614747,0.28875051,-0.15339496,0.602459,0.28236836,-0.15510886,0.593695,0.33629186,-0.14924792,0.630513,0.30000813,-0.10822717,0.617646,0.28128773,-0.087668438,0.611064,0.26328544,-0.070028071,0.60575,0.36065023,-0.14505376,0.626401,0.32935937,-0.13292568,0.612387,0.31365215,-0.12717242,0.605948,0.29949119,-0.12198929,0.600289
0.38254134,-0.24039672,0.655887,0.35379592,-0.20125669,0.647175,0.36179892,-0.24284037,0.659765,0.32338824,-0.22130186,0.656424,0.29325353,-0.21274453,0.658998,0.27767496,-0.20253432,0.660272,0.31545094,-0.18034709,0.646311,0.2798267,-0.14807071,0.629167,0.26163247,-0.13154731,0.620594,0.25210163,-0.11972609,0.630947,0.33080901,-0.16448227,0.638878,0.30065718,-0.15445488,0.620116,0.29035291,-0.15646322,0.609172,0.28356748,-0.1587491,0.601355,0.34579088,-0.154659,0.633695,0.29955936,-0.12420741,0.620315,0.27536423,-0.10817321,0.614024,0.25354943,-0.093483816,0.61005,0.36495835,-0.14734305,0.629318,0.33230804,-0.13387248,0.6168,0.31668093,-0.12820686,0.611048,0.30262838,-0.12320416,0.605974
0.41109135,-0.23759402,0.638378,0.37281765,-0.20131009,0.62571,0.39101649,-0.24298072,0.642105,0.3513783,-0.23233199,0.642472,0.31398102,-0.22143615,0.63622,0.29331209,-0.20917163,0.635041,0.3208098,-0.18179125,0.621965,0.28146526,-0.14586475,0.600165,0.26184247,-0.12795353,0.589265,0.25411467,-0.12616358,0.598505,0.33336146,-0.16360341,0.613647,0.28635098,-0.12774533,0.590625,0.25867403,-0.10793472,0.577196,0.2387305,-0.093810717,0.567603,0.34719172,-0.15179818,0.608162,0.30457727,-0.10942784,0.586785,0.28221008,-0.088951623,0.575848,0.26155608,-0.072658797,0.565906,0.37006143,-0.1436317,0.604176,0.33595655,-0.10925172,0.586866,0.32025373,-0.097302827,0.578913,0.30812511,-0.09203714,0.571895
0.38692616,-0.26773134,0.630757,0.36254508,-0.22297168,0.616233,0.36262629,-0.26207623,0.629133,0.32853754,-0.23385455,0.616525,0.30034546,-0.2187468,0.616811,0.29144225,-0.20850472,0.626264,0.31428086,-0.1826277,0.604257,0.27595911,-0.14554079,0.583864,0.25686406,-0.1270709,0.573667,0.24476238,-0.11717554,0.576582,0.33732748,-0.17535898,0.602402,0.30542342,-0.12820291,0.584119,0.28702272,-0.10083197,0.573794,0.2739424,-0.081315306,0.56653,0.35873087,-0.17345129,0.602439,0.32630373,-0.13049344,0.593989,0.31000364,-0.10864876,0.590165,0.2952826,-0.088814382,0.58689,0.38836074,-0.17866984,0.605212,0.36399925,-0.13666435,0.586273,0.35204601,-0.12110161,0.577572,0.34519178,-0.12117857,0.569894
0.41753765,-0.25897177,0.624576,0.38867202,-0.21548373,0.611978,0.39565455,-0.25887805,0.627453,0.3546973,-0.24302486,0.622791,0.32095606,-0.23016953,0.618862,0.30594662,-0.21869566,0.621672,0.34193252,-0.18440474,0.607171,0.30177087,-0.15360422,0.592292,0.28147295,-0.13802453,0.584852,0.26506389,-0.12477543,0.582877,0.35952852,-0.17097447,0.599979,0.32311774,-0.13314615,0.579466,0.3013557,-0.11034151,0.567589,0.28555963,-0.093677589,0.559186,0.37657818,-0.16367635,0.595415,0.35160539,-0.15561798,0.573191,0.34298482,-0.15591541,0.56182,0.33514528,-0.15634648,0.551584,0.40166311,-0.16185681,0.592485,0.374871,-0.16042981,0.576826,0.37412313,-0.17409528,0.569631,0.38879595,-0.1874325,0.577314
0.42345019,-0.2681454,0.628119,0.39518792,-0.23144366,0.60975,0.400268,-0.26717405,0.629172,0.36060168,-0.25370385,0.618319,0.32510414,-0.23713863,0.611883,0.30969774,-0.22357296,0.612787,0.34311318,-0.19719211,0.598649,0.30318432,-0.16072975,0.579241,0.28380433,-0.14463724,0.569538,0.26603711,-0.12986819,0.560716,0.36272486,-0.18511553,0.592255,0.32165734,-0.13975649,0.565545,0.30100206,-0.11473521,0.555761,0.28612604,-0.096680028,0.548772,0.38156602,-0.17929886,0.588969,0.34277145,-0.13253624,0.564999,0.32960783,-0.12131496,0.552734,0.32923596,-0.13093724,0.541585,0.40893295,-0.17972818,0.588608,0.39440733,-0.19192771,0.56826,0.41226775,-0.20937575,0.581769,0.42843364,-0.22504465,0.594169
0.42667653,-0.28010186,0.602321,0.39981776,-0.23501963,0.589036,0.40739284,-0.27869802,0.607242,0.3700095,-0.26072016,0.606391,0.33457843,-0.24283671,0.599483,0.31434808,-0.22513285,0.594157,0.35755081,-0.20105311,0.586424,0.31884001,-0.17067531,0.570547,0.2992087,-0.15530339,0.562608,0.28118775,-0.14117983,0.555391,0.37268919,-0.18863156,0.576383,0.3309366,-0.15089051,0.555984,0.30626266,-0.12852858,0.544085,0.28848023,-0.11238362,0.535586,0.38758124,-0.18235029,0.569546,0.35082346,-0.13723316,0.552099,0.33069464,-0.11752759,0.543172,0.31518439,-0.11183642,0.535057,0.40986952,-0.1821099,0.564108,0.38187366,-0.19108551,0.549187,0.39918479,-0.21191715,0.563041,0.41622322,-0.21759545,0.573665
0.4585771,-0.30206951,0.607992,0.43043057,-0.25425533,0.590625,0.44123267,-0.29877345,0.614189,0.40492388,-0.27907499,0.613318,0.37095119,-0.25976929,0.607539,0.35059737,-0.24146374,0.601428,0.38978237,-0.21608684,0.586905,0.34890533,-0.18691169,0.568765,0.32825073,-0.17223029,0.559694,0.30934174,-0.15878108,0.551448,0.40224173,-0.20511599,0.574086,0.35741284,-0.16884166,0.550466,0.33103932,-0.14746168,0.536688,0.31208897,-0.13208014,0.526846,0.41513823,-0.20030623,0.565401,0.37690509,-0.15457882,0.54521,0.35536795,-0.13599782,0.53488,0.33751477,-0.1333084,0.525489,0.43545529,-0.20235072,0.558585,0.40265079,-0.21473323,0.54201,0.41845802,-0.23442267,0.553874,0.43648346,-0.23853146,0.564308
0.43170781,-0.29241846,0.555368,0.41519499,-0.25497099,0.557324,0.41930452,-0.29472665,0.56549,0.39406889,-0.28403799,0.578053,0.36700941,-0.27236923,0.583957,0.34711772,-0.25619843,0.578962,0.38804868,-0.230582,0.571837,0.35528614,-0.20329156,0.569286,0.33852097,-0.18929365,0.568173,0.32301043,-0.17633104,0.567215,0.39750007,-0.21510544,0.559188,0.36278883,-0.181757,0.554095,0.34169023,-0.16141329,0.55122,0.32569704,-0.14747848,0.549167,0.40678092,-0.20560225,0.548561,0.38043857,-0.16182625,0.54301,0.36703141,-0.13956006,0.540171,0.34935128,-0.13103049,0.537589,0.42068089,-0.20044824,0.535858,0.40422755,-0.16802815,0.537456,0.39671892,-0.15322772,0.53819,0.38589213,-0.14656209,0.538838
0.47774234,-0.35281858,0.625742,0.4518276,-0.30672388,0.598623,0.4601775,-0.34015582,0.627545,0.42525347,-0.321635,0.616682,0.39023168,-0.29380836,0.602158,0.37608147,-0.27086502,0.595934,0.41183869,-0.2572458,0.582557,0.37133141,-0.22176397,0.552807,0.35109292,-0.20404037,0.537932,0.33270441,-0.18793941,0.52441,0.4264597,-0.25876246,0.572795,0.3875971,-0.21095998,0.538565,0.36576867,-0.18422209,0.520104,0.34882864,-0.16710202,0.506917,0.44127767,-0.26439754,0.567679,0.40182654,-0.21756079,0.541736,0.38035507,-0.19540875,0.528463,0.36077489,-0.17518315,0.516396,0.46378653,-0.27907347,0.566838,0.4421586,-0.23542228,0.54858,0.43226041,-0.21556515,0.540192,0.41757177,-0.20963807,0.53279
0.50272048,-0.31982029,0.577507,0.46431357,-0.28072457,0.562153,0.48364999,-0.32209381,0.583004,0.44478448,-0.31282222,0.582079,0.40710947,-0.30064749,0.576297,0.38539894,-0.28714803,0.573176,0.41307747,-0.25516955,0.558887,0.37449329,-0.21626292,0.534998,0.3552764,-0.19691001,0.523054,0.33799645,-0.1899672,0.512196,0.42475787,-0.2398528,0.54753,0.38010149,-0.19698598,0.523374,0.35513137,-0.1726303,0.510598,0.34164656,-0.16616447,0.501473,0.43806621,-0.23080511,0.539833,0.39913885,-0.18341408,0.516019,0.3792537,-0.15922677,0.503835,0.3613587,-0.15233082,0.492759,0.46063555,-0.22666927,0.533785,0.42613825,-0.18859019,0.516295,0.41457457,-0.19017077,0.508259,0.41312976,-0.20123327,0.501169
0.50787149,-0.33670549,0.573187,0.4712446,-0.29507159,0.557232,0.48847196,-0.33747697,0.578286,0.45287347,-0.32414228,0.57875,0.41565861,-0.30772542,0.57149,0.39594536,-0.2916672,0.568707,0.42119397,-0.26595492,0.55304,0.38208694,-0.23139503,0.528191,0.36248055,-0.21405561,0.515767,0.34462218,-0.19825422,0.504472,0.43381932,-0.2517736,0.542036,0.38561817,-0.21295571,0.519189,0.3576976,-0.19049763,0.505861,0.34204722,-0.18969931,0.496341,0.44773862,-0.24388118,0.534694,0.41464187,-0.19560643,0.514697,0.39769928,-0.17088525,0.504466,0.38092093,-0.15670507,0.495164,0.47074946,-0.241504,0.529172,0.44388219,-0.20081748,0.508082,0.43097029,-0.18617973,0.498392,0.42005558,-0.18358095,0.489843
0.50855546,-0.34173464,0.575975,0.46998432,-0.29730839,0.554438,0.48758433,-0.34033208,0.579237,0.44825453,-0.32346835,0.574241,0.41073141,-0.3064533,0.565285,0.38994141,-0.28875574,0.560001,0.41976538,-0.26593665,0.544063,0.37941243,-0.23012251,0.51498,0.35920411,-0.21288249,0.500439,0.34082071,-0.19727116,0.48722,0.43506931,-0.25530163,0.533926,0.39227945,-0.20919897,0.501823,0.36731303,-0.18323848,0.483096,0.35320758,-0.16650636,0.474673,0.45117629,-0.25064295,0.527899,0.41689325,-0.20073357,0.504058,0.39939109,-0.17530442,0.49186,0.38364282,-0.16995642,0.480771,0.47668261,-0.2526106,0.524953,0.44789888,-0.2126942,0.49995,0.43448214,-0.19686143,0.488462,0.42267352,-0.18946341,0.478326
0.51848731,-0.34967482,0.582932,0.49269701,-0.30871899,0.560254,0.50811276,-0.35873854,0.58318,0.4613876,-0.33615004,0.573059,0.42143386,-0.32125828,0.561808,0.39726491,-0.3022116,0.553586,0.44748998,-0.28727579,0.545178,0.40212547,-0.24410271,0.517062,0.37953127,-0.22652042,0.503004,0.35877138,-0.21033007,0.490225,0.46636068,-0.27710262,0.538655,0.41682932,-0.22782426,0.507658,0.38771363,-0.19875149,0.489577,0.36679999,-0.17781449,0.476661,0.48627774,-0.27534821,0.535728,0.44347243,-0.22079371,0.508676,0.42153997,-0.19807013,0.494836,0.40136041,-0.17700425,0.482254,0.51508957,-0.28431393,0.536593,0.48360037,-0.22873232,0.518897,0.46871711,-0.20725041,0.510766,0.45883544,-0.20645835,0.503592
0.52677799,-0.37068794,0.572247,0.49989817,-0.32283158,0.551762,0.5073059,-0.36982295,0.571055,0.4650162,-0.34597383,0.560991,0.42512144,-0.32417259,0.546578,0.40247389,-0.30575585,0.532389,0.45546144,-0.29851375,0.5363,0.41241498,-0.24736717,0.511169,0.39282618,-0.23733584,0.498604,0.3746904,-0.22807955,0.487182,0.47762491,-0.29159384,0.532253,0.43785372,-0.22690098,0.504571,0.41462593,-0.20469112,0.488424,0.4033168,-0.21073376,0.47689,0.49942615,-0.29252566,0.531128,0.45991176,-0.23320614,0.50647,0.44013564,-0.21159303,0.493854,0.42189806,-0.19145209,0.482385,0.52890808,-0.30448479,0.533673,0.50078741,-0.2484615,0.517113,0.48784316,-0.22411752,0.509505,0.47761188,-0.21301138,0.502792
0.51332588,-0.40760348,0.576051,0.50285057,-0.35374963,0.550939,0.49716495,-0.39726685,0.575178,0.45656704,-0.37088317,0.558201,0.42488719,-0.33730398,0.547411,0.41433963,-0.31197733,0.54271,0.46927403,-0.31301021,0.53275,0.42785703,-0.27435114,0.506006,0.4069006,-0.25470308,0.492634,0.38768158,-0.23663989,0.480478,0.48772512,-0.3180681,0.527022,0.45359746,-0.26413559,0.493436,0.42997952,-0.23858813,0.473845,0.41226235,-0.22151163,0.459851,0.50403291,-0.32965868,0.525012,0.49829972,-0.26927757,0.513013,0.48819367,-0.24563836,0.506875,0.47840847,-0.22417838,0.501294,0.52358794,-0.35464329,0.527399,0.52374755,-0.29919524,0.519122,0.52376331,-0.27406172,0.515319,0.51674895,-0.26165576,0.511963
0.52507473,-0.42275879,0.570571,0.51535846,-0.37153079,0.548538,0.50818542,-0.41306487,0.569698,0.47336554,-0.37788108,0.552859,0.4470776,-0.34656068,0.543963,0.43745696,-0.32110196,0.539198,0.48143915,-0.33260284,0.532441,0.44855481,-0.28892919,0.507712,0.43195498,-0.26667035,0.495347,0.41676024,-0.24615645,0.484106,0.50165099,-0.33746266,0.527554,0.47547603,-0.27786957,0.496774,0.45895663,-0.24497212,0.478818,0.44716481,-0.22123133,0.465993,0.51933402,-0.34862278,0.525905,0.50810011,-0.28547083,0.508905,0.49620995,-0.26340491,0.500207,0.48500496,-0.24339646,0.492299,0.54019129,-0.37259621,0.528132,0.53558121,-0.31586541,0.517966,0.53338512,-0.29013504,0.513295,0.52603848,-0.27923992,0.509174
0.5332951,-0.4226319,0.572528,0.51886426,-0.37012074,0.548492,0.51870223,-0.41470633,0.574003,0.48547226,-0.38287848,0.560403,0.45212679,-0.35844686,0.549841,0.43570307,-0.33419373,0.542183,0.48820068,-0.33162438,0.534092,0.44897054,-0.28995923,0.506122,0.43190822,-0.27169199,0.492136,0.41462093,-0.25309833,0.479422,0.50172884,-0.33492584,0.5256,0.46417933,-0.27844499,0.493857,0.43961435,-0.24820288,0.47534,0.42148598,-0.22722511,0.462113,0.51657549,-0.34402893,0.521197,0.49360541,-0.28309498,0.500464,0.47877955,-0.25484252,0.489856,0.46174515,-0.23441872,0.480213,0.53510293,-0.36571153,0.520604,0.53197163,-0.30756698,0.508707,0.52930192,-0.28168801,0.50324,0.51653019,-0.27242302,0.498416
0.54127446,-0.42652455,0.569651,0.52739709,-0.38080992,0.54462,0.5253438,-0.41806886,0.569871,0.49157833,-0.39522621,0.554225,0.45973682,-0.3662577,0.542569,0.44615941,-0.34113324,0.536326,0.48970852,-0.34255875,0.52791,0.45274644,-0.30296729,0.499477,0.43410436,-0.28284937,0.485261,0.41704819,-0.26434348,0.472337,0.50759014,-0.34466599,0.52078,0.46934244,-0.2887008,0.487662,0.44699347,-0.2558346,0.468344,0.43100928,-0.23224307,0.454545,0.52448207,-0.35371026,0.517606,0.50150226,-0.29326762,0.497221,0.4876794,-0.26526324,0.486792,0.47216317,-0.24571772,0.47731,0.54628699,-0.3756083,0.518627,0.53752311,-0.31782005,0.504989,0.53346822,-0.29150096,0.498722,0.52330133,-0.28163859,0.493193
0.54105394,-0.43514774,0.562917,0.52537304,-0.38836117,0.537632,0.52361902,-0.42636222,0.562165,0.48640327,-0.39936064,0.545028,0.45366894,-0.37348992,0.5302,0.43748209,-0.34845759,0.52077,0.4859959,-0.3493672,0.519485,0.45238558,-0.3079104,0.489753,0.43532339,-0.28729409,0.474887,0.41974844,-0.26833682,0.461372,0.50570286,-0.35209788,0.513551,0.47129197,-0.29333411,0.479854,0.45088058,-0.25967355,0.460198,0.43314923,-0.24403675,0.446158,0.52396772,-0.36156277,0.51139,0.50108586,-0.30093943,0.490118,0.48779335,-0.27301234,0.479234,0.47342061,-0.25370807,0.469341,0.54712317,-0.38379006,0.513633,0.53636639,-0.32775119,0.500299,0.53142871,-0.3019484,0.494173,0.52242295,-0.27980864,0.488767
0.54356188,-0.44834227,0.561656,0.53037294,-0.40397199,0.537553,0.52589271,-0.4395092,0.560938,0.49206472,-0.41261202,0.544004,0.46258419,-0.38408039,0.5307,0.44967376,-0.3586396,0.523211,0.49237553,-0.36473485,0.520252,0.46172513,-0.32126021,0.491852,0.44634648,-0.29918868,0.477652,0.43233001,-0.27889939,0.464743,0.5125214,-0.36804139,0.514598,0.48185724,-0.30882505,0.481972,0.46390802,-0.27431148,0.46294,0.44727077,-0.26075353,0.449346,0.53075434,-0.37790639,0.51254,0.50958765,-0.31949678,0.487165,0.49814543,-0.29095004,0.474182,0.48674132,-0.26744937,0.46238,0.55324095,-0.40042257,0.514681,0.54620445,-0.34495941,0.503298,0.54297511,-0.31943318,0.498067,0.53917732,-0.29892307,0.493452
0.56963879,-0.44830935,0.562439,0.54516342,-0.40066534,0.535713,0.55070914,-0.44207023,0.561586,0.51197809,-0.42030099,0.544135,0.47744937,-0.39382644,0.532663,0.46136954,-0.36958481,0.526467,0.50026359,-0.36652835,0.516456,0.46366416,-0.32377879,0.485436,0.44529129,-0.30217002,0.469927,0.42853778,-0.28236685,0.455827,0.52076304,-0.36637281,0.51026,0.48241193,-0.31038683,0.47526,0.46202799,-0.2787526,0.456824,0.44406175,-0.25886136,0.443656,0.5404467,-0.37260379,0.508038,0.51483814,-0.31624429,0.484198,0.49878334,-0.28832886,0.472001,0.48750993,-0.26341663,0.460913,0.56634448,-0.38979523,0.510483,0.54723749,-0.33772467,0.497922,0.53858778,-0.31523865,0.493179,0.53352676,-0.29468689,0.488995
0.56876028,-0.45363951,0.562494,0.54345417,-0.40972981,0.534835,0.54861552,-0.44627546,0.560385,0.51415387,-0.42366673,0.546163,0.47946826,-0.39764034,0.527764,0.46135156,-0.37125871,0.516283,0.49693153,-0.37314387,0.513308,0.46301489,-0.32952076,0.480947,0.44603005,-0.30749968,0.464767,0.43057104,-0.28733836,0.450058,0.51873806,-0.3741764,0.508494,0.48759387,-0.31906953,0.475799,0.46945325,-0.28656307,0.456728,0.45650841,-0.26315194,0.443105,0.5395276,-0.38156609,0.50751,0.52091973,-0.32453677,0.484081,0.51154803,-0.29502082,0.472174,0.50307002,-0.26792407,0.461349,0.56677903,-0.40043415,0.511568,0.55143671,-0.34619416,0.492841,0.54441965,-0.32103181,0.484236,0.53884544,-0.29940199,0.477213
0.56824968,-0.45519769,0.562225,0.54346865,-0.40959725,0.534863,0.5480242,-0.44781683,0.560042,0.51418283,-0.42425213,0.546022,0.47956321,-0.39775102,0.527726,0.4614507,-0.37142156,0.516324,0.49695562,-0.37320652,0.51344,0.46432326,-0.3275531,0.481124,0.44755542,-0.30657714,0.464966,0.43199783,-0.2888582,0.450277,0.51897156,-0.37416806,0.508804,0.48721898,-0.31991315,0.474832,0.46873169,-0.28791074,0.455015,0.455475,-0.26522649,0.440861,0.53992648,-0.38150017,0.507935,0.52079956,-0.32406516,0.484155,0.51096196,-0.29502838,0.471988,0.50199776,-0.26877835,0.460927,0.56734479,-0.40031276,0.51207,0.55153799,-0.34573776,0.493095,0.54506668,-0.32089945,0.485056,0.53933958,-0.29916546,0.477963
0.56535591,-0.44850726,0.554174,0.5498666,-0.3984822,0.528283,0.55276388,-0.44062043,0.554088,0.51807139,-0.42189372,0.541153,0.47810607,-0.39813076,0.526574,0.45395247,-0.37726007,0.516654,0.50195199,-0.36878947,0.510593,0.46816052,-0.3160453,0.478142,0.44631249,-0.30490194,0.461917,0.4315546,-0.29212494,0.447166,0.51779153,-0.36253958,0.503626,0.4790917,-0.30740149,0.468133,0.460232,-0.27894877,0.447429,0.44598873,-0.26574097,0.43264,0.54178276,-0.36567911,0.500679,0.51388118,-0.30861377,0.472507,0.4996254,-0.27913587,0.458093,0.48628473,-0.25986849,0.44499,0.56997888,-0.37885075,0.502125,0.54775616,-0.325062,0.482518,0.53754661,-0.30010466,0.47351,0.52919363,-0.27828809,0.466139
0.57198208,-0.45071823,0.559457,0.55289262,-0.40133146,0.532665,0.55346192,-0.4433908,0.557518,0.51748073,-0.42051954,0.542452,0.47636657,-0.39705129,0.524869,0.45592193,-0.37243031,0.513766,0.50356724,-0.37048804,0.511948,0.46853047,-0.31835818,0.480275,0.44807267,-0.3031961,0.464439,0.43129593,-0.28771097,0.450042,0.52576573,-0.36784879,0.507149,0.48580369,-0.31367325,0.471716,0.46413414,-0.28082518,0.451046,0.44913369,-0.26868907,0.436283,0.54751426,-0.37385607,0.506084,0.51664874,-0.32023339,0.479686,0.5040716,-0.29111921,0.46618,0.49292453,-0.2652319,0.453902,0.57524479,-0.38742872,0.509884,0.5489716,-0.33586874,0.488149,0.53719946,-0.31582728,0.478162,0.52638612,-0.29778369,0.46935
0.57767898,-0.44438341,0.559632,0.55310467,-0.39953036,0.533139,0.55863802,-0.44013519,0.559046,0.5191571,-0.41767357,0.545614,0.47902508,-0.3975088,0.528915,0.45793374,-0.3739515,0.516869,0.50583212,-0.36914534,0.514387,0.46785125,-0.31481879,0.484303,0.44616686,-0.29987992,0.469261,0.43102907,-0.28473771,0.455587,0.52652107,-0.36706255,0.507907,0.48774733,-0.30451364,0.474828,0.46476767,-0.27253212,0.455531,0.44960434,-0.26800667,0.441748,0.54673095,-0.37014648,0.505426,0.51662727,-0.31371263,0.480797,0.49909685,-0.28518819,0.468362,0.4863463,-0.26231703,0.457058,0.57287935,-0.38312192,0.507527,0.54846858,-0.32848903,0.486293,0.5318138,-0.3079159,0.476537,0.52242544,-0.29392164,0.467929
0.5703489,-0.43588569,0.55531,0.54294351,-0.38024362,0.532317,0.5507959,-0.43194303,0.553974,0.50662066,-0.40198427,0.541962,0.46779923,-0.37975543,0.530079,0.44621114,-0.35637051,0.520797,0.49600402,-0.35540919,0.514963,0.45467326,-0.29486042,0.485596,0.43958597,-0.28616682,0.470912,0.42816027,-0.28006225,0.457564,0.51810371,-0.34718281,0.510418,0.47860108,-0.29128144,0.478686,0.45315796,-0.25903754,0.460176,0.43697535,-0.24155705,0.446954,0.53955073,-0.34688816,0.509152,0.50931666,-0.29113996,0.483434,0.49381791,-0.26224343,0.470275,0.47987067,-0.23580368,0.458467,0.56828978,-0.35716442,0.512006,0.53624796,-0.29859442,0.489149,0.52704713,-0.28711657,0.478647,0.51902308,-0.27678386,0.469381
0.56748758,-0.41961635,0.555701,0.53773488,-0.36811826,0.534797,0.54782967,-0.41990937,0.554398,0.50286932,-0.38993101,0.544962,0.46565417,-0.37073229,0.534781,0.4439961,-0.34886363,0.527197,0.49266789,-0.34737972,0.518906,0.45250246,-0.29129107,0.491677,0.43544878,-0.27399253,0.478063,0.41982351,-0.25801733,0.465687,0.5149298,-0.33847918,0.514888,0.47338709,-0.27825962,0.484401,0.44919888,-0.24329511,0.466617,0.44259917,-0.24038876,0.453915,0.53631108,-0.3370291,0.513833,0.50353174,-0.28236234,0.487057,0.48684618,-0.25408836,0.473488,0.47164276,-0.22812232,0.461152,0.56449935,-0.34504172,0.516538,0.53104891,-0.29089292,0.492874,0.52007532,-0.27656446,0.482002,0.51149484,-0.26676882,0.472408
0.56109136,-0.41149547,0.554873,0.53231552,-0.36085507,0.537332,0.54193697,-0.41204374,0.554233,0.49816402,-0.38288076,0.54639,0.46369571,-0.35912022,0.538858,0.44597037,-0.33750572,0.534972,0.48849068,-0.33610591,0.524589,0.45107002,-0.2855841,0.501123,0.43325595,-0.26668317,0.48939,0.41687905,-0.24919417,0.478723,0.51059066,-0.32790667,0.520627,0.47316407,-0.26801551,0.494117,0.45276727,-0.24365626,0.478652,0.4380405,-0.22580532,0.467606,0.53237465,-0.32822444,0.519255,0.50501691,-0.26828902,0.500209,0.49103389,-0.23771275,0.490464,0.48123812,-0.2291194,0.481605,0.56211578,-0.34029069,0.520959,0.53044989,-0.28026362,0.502973,0.52100748,-0.27273416,0.494709,0.51264152,-0.26595281,0.487417
0.55624095,-0.40833091,0.552743,0.52615146,-0.35454883,0.537589,0.53820582,-0.40941582,0.553303,0.49449321,-0.37747083,0.549005,0.46206283,-0.35439733,0.544105,0.44550088,-0.3331508,0.541123,0.48562234,-0.33150539,0.528029,0.44921122,-0.28192989,0.507032,0.43129638,-0.26260754,0.496533,0.41485039,-0.2451444,0.486989,0.50670408,-0.32296311,0.523156,0.47076076,-0.26252585,0.499186,0.4505293,-0.2402213,0.485203,0.43584702,-0.22379889,0.475215,0.52742356,-0.32289955,0.520777,0.49820002,-0.26341994,0.500187,0.4832511,-0.23300625,0.489652,0.47142646,-0.22546762,0.480075,0.55552126,-0.3343311,0.520865,0.52579883,-0.27527908,0.504425,0.51543436,-0.26659891,0.496872,0.50634518,-0.25946893,0.490207
0.55383633,-0.40307932,0.563218,0.5247709,-0.34250639,0.547105,0.52981802,-0.3927685,0.564829,0.48968288,-0.36651315,0.559562,0.45463202,-0.34566313,0.553041,0.43361919,-0.32508174,0.54566,0.48718351,-0.3174778,0.538264,0.44793299,-0.27079084,0.517932,0.42832426,-0.25807512,0.507767,0.41039745,-0.24797495,0.498525,0.50656636,-0.3105939,0.53176,0.46736469,-0.25224182,0.507395,0.4433005,-0.23227254,0.493182,0.42577234,-0.2176095,0.48303,0.52551883,-0.31200464,0.528141,0.49163638,-0.25412195,0.50591,0.47428752,-0.22445563,0.494536,0.45805085,-0.21802518,0.484196,0.55095983,-0.32520614,0.526968,0.52137384,-0.2660593,0.509272,0.50742595,-0.25647377,0.501142,0.49525924,-0.25015553,0.493968
0.54063052,-0.3865194,0.577747,0.51883425,-0.33611372,0.561122,0.52429498,-0.38558068,0.579536,0.48382222,-0.3600896,0.573397,0.44710804,-0.33939145,0.564192,0.42643745,-0.31811081,0.557453,0.4818412,-0.31111044,0.552164,0.44197707,-0.26715168,0.531599,0.4214077,-0.24801515,0.521316,0.40236433,-0.23182721,0.511969,0.50068083,-0.3045124,0.545288,0.460085,-0.24882655,0.520494,0.43527819,-0.22027463,0.50603,0.41737311,-0.19954516,0.495699,0.51917862,-0.30610773,0.541418,0.48455329,-0.24767056,0.519164,0.46685109,-0.21781541,0.507779,0.44933201,-0.21138146,0.497428,0.54405167,-0.31940076,0.540051,0.51856792,-0.25991438,0.52244,0.50409225,-0.24733218,0.514348,0.49132175,-0.24006708,0.507208
0.53317014,-0.37607786,0.57395,0.5034098,-0.32227822,0.562058,0.5162822,-0.37722026,0.575097,0.47458994,-0.35073952,0.57404,0.44038451,-0.33128999,0.570478,0.42024716,-0.31188073,0.563681,0.46474705,-0.3062003,0.555478,0.42671618,-0.26045571,0.537008,0.40782192,-0.23925638,0.527773,0.39042465,-0.21966538,0.519377,0.48489707,-0.29426944,0.550733,0.44570514,-0.24042859,0.529859,0.42263605,-0.20859717,0.517682,0.40605578,-0.18564946,0.508985,0.50506008,-0.29092254,0.548107,0.47050584,-0.23474059,0.528929,0.45278779,-0.20588971,0.519117,0.4408091,-0.18130228,0.51505,0.53282793,-0.29782316,0.547294,0.50150646,-0.24433836,0.530856,0.48946863,-0.228294,0.523303,0.47866473,-0.21366915,0.516639
0.52099401,-0.36028665,0.594597,0.48905286,-0.31486563,0.577332,0.50453112,-0.36479518,0.59599,0.46549732,-0.3443194,0.591761,0.42664598,-0.32299015,0.580558,0.40458388,-0.30290401,0.571635,0.44745071,-0.29955951,0.567424,0.40975279,-0.25068227,0.543044,0.3908219,-0.22608398,0.530854,0.37495196,-0.21338017,0.519772,0.46558039,-0.28605375,0.560889,0.42522892,-0.22889674,0.53392,0.40167654,-0.19674539,0.518189,0.38477423,-0.1735985,0.506952,0.48473535,-0.28127469,0.557369,0.45001588,-0.22722715,0.532606,0.43219453,-0.19994005,0.519937,0.41624924,-0.17774367,0.508419,0.51241152,-0.28632323,0.556527,0.48326903,-0.23833986,0.535688,0.47018124,-0.21829359,0.526113,0.45851701,-0.20019242,0.517665
0.51804373,-0.35183206,0.58769,0.48614201,-0.30905436,0.572698,0.50285331,-0.35543536,0.592794,0.46064799,-0.33024653,0.592786,0.41869348,-0.31349454,0.586526,0.39234149,-0.29543641,0.577882,0.44198833,-0.27843591,0.569169,0.40162927,-0.23971526,0.548531,0.38046124,-0.22369183,0.538211,0.36108222,-0.20904659,0.528831,0.45481118,-0.26600548,0.558421,0.4120684,-0.21175004,0.534721,0.38339429,-0.1916841,0.520896,0.36246834,-0.17836534,0.511021,0.46928935,-0.26022634,0.551187,0.43753822,-0.20690976,0.536788,0.42137529,-0.17982686,0.529421,0.40246517,-0.17155763,0.522724,0.49288883,-0.26143085,0.545607,0.4646996,-0.22273966,0.540788,0.45182314,-0.20507841,0.538573,0.44050203,-0.18955638,0.536619
0.51915506,-0.3511597,0.591438,0.48167439,-0.30553629,0.578686,0.5002748,-0.34868016,0.594683,0.45021044,-0.33152782,0.593426,0.41033465,-0.31517722,0.591153,0.38528013,-0.29665674,0.585966,0.43343457,-0.28211612,0.574255,0.3944539,-0.241738,0.55444,0.37498011,-0.22156979,0.544533,0.35714383,-0.20397587,0.535526,0.44999838,-0.26741433,0.566541,0.40544214,-0.21504853,0.544645,0.37891777,-0.18905289,0.531872,0.35975105,-0.17021299,0.522748,0.4673453,-0.25961016,0.561563,0.43364193,-0.20686577,0.546899,0.41651843,-0.18013766,0.539396,0.40187733,-0.16994472,0.532575,0.49388802,-0.25811699,0.558182,0.45981131,-0.2128673,0.541163,0.44639894,-0.20240637,0.533343,0.43238539,-0.19166651,0.526444
0.49400535,-0.34279013,0.597142,0.4619134,-0.3003173,0.583625,0.47402938,-0.34417108,0.600039,0.42930741,-0.32380093,0.598222,0.38944261,-0.304837,0.594543,0.36485232,-0.28512332,0.587856,0.41455688,-0.27359258,0.578221,0.37587611,-0.23352249,0.558429,0.35653783,-0.21349012,0.548533,0.33889486,-0.20201785,0.539537,0.43144666,-0.26002777,0.570752,0.3865849,-0.20945549,0.548822,0.3623198,-0.18090681,0.53886,0.34487238,-0.16034977,0.531744,0.44896552,-0.25337342,0.566058,0.41233531,-0.19987937,0.544734,0.39359512,-0.17251235,0.533824,0.37749795,-0.16561481,0.523906,0.47559822,-0.25361727,0.56315,0.44255714,-0.20855401,0.546965,0.42730401,-0.19783789,0.539529,0.41439439,-0.19063341,0.532968
0.49282333,-0.34055713,0.605074,0.45161777,-0.29302765,0.588334,0.46523148,-0.33561062,0.608026,0.41884433,-0.31658745,0.604648,0.37707982,-0.29945095,0.59914,0.35059242,-0.28262383,0.58952,0.40239694,-0.26718052,0.580813,0.36178718,-0.23167432,0.567288,0.3413563,-0.21427241,0.560526,0.32277783,-0.1984482,0.554378,0.41939319,-0.25378709,0.572391,0.37124082,-0.20176928,0.547756,0.34237391,-0.1788173,0.533385,0.3221749,-0.16620644,0.52312,0.43707842,-0.24722454,0.56726,0.39174266,-0.19945677,0.544594,0.36912218,-0.17520243,0.533972,0.34844482,-0.15299885,0.524316,0.46398054,-0.2474037,0.56445,0.43269461,-0.21079706,0.558681,0.41829288,-0.19394328,0.55603,0.40557203,-0.1790543,0.553692
0.48116401,-0.33877681,0.611824,0.43851483,-0.29805629,0.59398,0.45203203,-0.34085234,0.615243,0.40396757,-0.32186737,0.609924,0.36437781,-0.30487133,0.607426,0.34149729,-0.28496925,0.603248,0.3900094,-0.27061401,0.586317,0.34928094,-0.23678477,0.574826,0.32897693,-0.21992202,0.569081,0.3108827,-0.20483933,0.564454,0.40671463,-0.2579531,0.576985,0.36463213,-0.20457811,0.556659,0.33762654,-0.1797067,0.544803,0.31803757,-0.16162274,0.536333,0.42407814,-0.25210031,0.571224,0.3863387,-0.20499352,0.560515,0.36708964,-0.18088109,0.555192,0.34960058,-0.15893187,0.550423,0.4504786,-0.2532666,0.56789,0.42108897,-0.21347834,0.559633,0.40755758,-0.19515318,0.555839,0.39560365,-0.17896043,0.552492
0.46976677,-0.33935724,0.614682,0.4277922,-0.29582224,0.595873,0.44968578,-0.34111141,0.617707,0.39684113,-0.32261627,0.613172,0.35600061,-0.30704869,0.610208,0.33208233,-0.28793497,0.605702,0.37617742,-0.27133479,0.587042,0.33666236,-0.23317425,0.572378,0.3152218,-0.21812158,0.565047,0.2957938,-0.20847894,0.558382,0.39183773,-0.25642254,0.57796,0.34633149,-0.19862129,0.548564,0.32215221,-0.19198115,0.531416,0.31191005,-0.19951142,0.519168,0.40885298,-0.24860138,0.572509,0.36831862,-0.20559344,0.564587,0.34753934,-0.18354345,0.560533,0.32867871,-0.16349724,0.556939,0.4357964,-0.24731291,0.569717,0.39375806,-0.20740351,0.550365,0.37473762,-0.1952827,0.541473,0.35774662,-0.18444347,0.533628
0.46753481,-0.34087292,0.618512,0.4189564,-0.30267467,0.599738,0.4445617,-0.34254608,0.62338,0.39801164,-0.33545356,0.619711,0.35576868,-0.31935321,0.615214,0.33175201,-0.3008907,0.611343,0.3692476,-0.28029823,0.593331,0.32613659,-0.24469032,0.573931,0.30380191,-0.22888876,0.564232,0.28312139,-0.21544456,0.555413,0.3819627,-0.26706814,0.581858,0.33638766,-0.21896817,0.563838,0.30986663,-0.19098598,0.553326,0.28949784,-0.18821825,0.545818,0.39674313,-0.26020952,0.574433,0.35553895,-0.21438052,0.560925,0.33429254,-0.19072771,0.554013,0.31487528,-0.16909735,0.54773,0.42132215,-0.2593372,0.569344,0.38451278,-0.21679371,0.547915,0.3661964,-0.20608559,0.53807,0.34981174,-0.196504,0.529382
0.45656692,-0.34292712,0.624379,0.41114486,-0.30460708,0.603567,0.43852103,-0.34516307,0.629171,0.38778827,-0.33697561,0.624034,0.34761814,-0.32041731,0.621107,0.32725342,-0.30155419,0.61871,0.36024334,-0.28140651,0.595677,0.31611016,-0.24500539,0.57467,0.29329552,-0.22886239,0.564167,0.27220686,-0.21513656,0.554619,0.37271393,-0.26793472,0.583746,0.32673852,-0.21949516,0.565195,0.3000128,-0.19134771,0.554374,0.27930095,-0.18850343,0.546645,0.38743052,-0.26099364,0.576164,0.34536293,-0.21460907,0.561523,0.32381908,-0.19079036,0.554195,0.30418671,-0.16905567,0.547595,0.41222035,-0.26021677,0.571275,0.37397122,-0.21675533,0.547818,0.35492277,-0.20569109,0.53704,0.33792346,-0.19581691,0.527531
0.44021873,-0.34323337,0.622948,0.38970886,-0.3047003,0.602452,0.41224872,-0.34655994,0.627788,0.36474976,-0.33664654,0.623314,0.32556491,-0.32018741,0.621069,0.30552052,-0.30121859,0.618463,0.33931504,-0.28077289,0.59484,0.29534501,-0.24471286,0.574642,0.272454,-0.22890634,0.564543,0.25125906,-0.21545788,0.555362,0.35126923,-0.26693627,0.582932,0.30048909,-0.21516184,0.555836,0.2683724,-0.20838714,0.54003,0.25455309,-0.2174103,0.52874,0.36558083,-0.25979874,0.575334,0.31486532,-0.21958236,0.559778,0.28648189,-0.20423385,0.551819,0.2598838,-0.19456975,0.544584,0.38997747,-0.25899564,0.570368,0.35216514,-0.21411741,0.546981,0.33266048,-0.20445492,0.536235,0.31523429,-0.19583553,0.526754
0.42951837,-0.35271266,0.624493,0.39075355,-0.31868728,0.60779,0.41523145,-0.35606662,0.632997,0.36688149,-0.35818477,0.631952,0.32857255,-0.3457509,0.632211,0.30853956,-0.3288761,0.631595,0.34903574,-0.29400022,0.607525,0.30045101,-0.27307156,0.594728,0.27585826,-0.26313915,0.58833,0.25338155,-0.2540703,0.582513,0.35561246,-0.27941552,0.591882,0.31931216,-0.22387716,0.57188,0.28738309,-0.20880128,0.560212,0.27158393,-0.21902226,0.551878,0.36508409,-0.27182645,0.580801,0.30882818,-0.24239137,0.566385,0.27913391,-0.22952029,0.55901,0.2513418,-0.22147232,0.552305,0.38321239,-0.27078083,0.571078,0.34150241,-0.23400357,0.552771,0.32010396,-0.22422184,0.54436,0.3009686,-0.21808128,0.536939
0.41343347,-0.38515368,0.640579,0.38311328,-0.33650967,0.621583,0.409136,-0.38127044,0.651488,0.36212787,-0.37718939,0.655114,0.317282,-0.37262821,0.652264,0.28896114,-0.3562291,0.64687,0.35774559,-0.29970064,0.622893,0.30454303,-0.27581021,0.6004,0.2780105,-0.26378737,0.589153,0.25359723,-0.25416925,0.578928,0.35462339,-0.29097824,0.603492,0.28863801,-0.27347635,0.581726,0.25028008,-0.26328443,0.569029,0.23234286,-0.27620003,0.55996,0.35535485,-0.28895262,0.589562,0.30396532,-0.25187355,0.576284,0.27962229,-0.23453661,0.573469,0.25721662,-0.21858151,0.57091,0.36205472,-0.29575416,0.576964,0.31629036,-0.3108812,0.56366,0.31936877,-0.31625628,0.557548,0.32602798,-0.32478375,0.55963
0.41649096,-0.38776748,0.63902,0.38748329,-0.34674723,0.621748,0.41191819,-0.38448251,0.650679,0.36924106,-0.39200322,0.655842,0.32803721,-0.39379965,0.660525,0.29838931,-0.38479095,0.658066,0.35849117,-0.31288278,0.625207,0.32490259,-0.34051768,0.616093,0.30795066,-0.35451294,0.611535,0.317845,-0.37611584,0.616651,0.35614731,-0.3045291,0.605299,0.29097437,-0.29017286,0.585506,0.25283502,-0.28187522,0.574151,0.23026283,-0.27765,0.566182,0.3578385,-0.30245945,0.590766,0.30409269,-0.27065845,0.579347,0.27646814,-0.2543178,0.573504,0.25219926,-0.24029813,0.570277,0.3661595,-0.3085236,0.577145,0.3242388,-0.32821707,0.565403,0.31875756,-0.33727415,0.560008,0.32504825,-0.34635287,0.562597
0.40028384,-0.41124379,0.652023,0.36825486,-0.36304964,0.631665,0.3912169,-0.40714744,0.660731,0.34172963,-0.3998816,0.659854,0.29753521,-0.3937828,0.657313,0.26639946,-0.38533687,0.649278,0.33549995,-0.32601583,0.629184,0.29954646,-0.34931226,0.615251,0.28140082,-0.36114173,0.608285,0.29031998,-0.38333719,0.613889,0.33807073,-0.31772931,0.612276,0.27266498,-0.30517635,0.587624,0.23425011,-0.29796209,0.573449,0.20663574,-0.29282602,0.563355,0.34372753,-0.31604813,0.600546,0.28638323,-0.28573037,0.584006,0.25677962,-0.27009957,0.575544,0.23087459,-0.25712209,0.570754,0.35654498,-0.32320754,0.590758,0.3117645,-0.34124077,0.574594,0.30959427,-0.35044216,0.567167,0.31629468,-0.36201541,0.569963
0.4013987,-0.41753914,0.653839,0.36861398,-0.3735652,0.632281,0.3921459,-0.41322584,0.6623,0.34229775,-0.41086045,0.660951,0.29847492,-0.40543623,0.659389,0.26725822,-0.39710262,0.651371,0.33522321,-0.33571569,0.628665,0.29883271,-0.35850893,0.613785,0.28050335,-0.37005045,0.606345,0.28904452,-0.3917861,0.611192,0.33778029,-0.32748203,0.61175,0.27190308,-0.31439723,0.585982,0.23331343,-0.30687812,0.571156,0.20562266,-0.30152372,0.560593,0.34349744,-0.32592786,0.600144,0.28571533,-0.2952073,0.582644,0.2559529,-0.27940133,0.573691,0.22980143,-0.2661707,0.568101,0.35652506,-0.33338904,0.590725,0.31132338,-0.3507411,0.573781,0.30895507,-0.3593566,0.565996,0.31532243,-0.37037829,0.568211
0.39968532,-0.41701273,0.651048,0.35933336,-0.37803891,0.632417,0.39089696,-0.41514158,0.661121,0.34128238,-0.42718067,0.662958,0.29821854,-0.433673,0.663441,0.26719916,-0.43308823,0.657678,0.31977169,-0.35159456,0.632888,0.29363099,-0.38164956,0.62096,0.28038828,-0.39698997,0.614995,0.29432292,-0.41747923,0.620634,0.32122456,-0.33885675,0.614674,0.25819874,-0.33944776,0.592438,0.22102012,-0.34015568,0.579848,0.19415941,-0.34073803,0.570856,0.3268171,-0.33279362,0.601683,0.26600058,-0.31570829,0.587629,0.23474831,-0.30733066,0.581285,0.20596175,-0.29964948,0.575519,0.34105462,-0.3335532,0.590106,0.30615351,-0.36027628,0.576061,0.30868967,-0.3691149,0.569608,0.31809092,-0.37632847,0.572577
0.38139788,-0.43817803,0.651289,0.34634577,-0.39157207,0.632315,0.37245453,-0.43730325,0.660923,0.33155501,-0.42506987,0.664329,0.29573601,-0.41788871,0.667882,0.2717909,-0.39988912,0.664411,0.31193126,-0.35983344,0.631979,0.27950662,-0.3857515,0.619971,0.26302058,-0.39904885,0.613967,0.27287116,-0.42160564,0.619912,0.31347791,-0.3479136,0.614244,0.25495365,-0.35807733,0.591387,0.2204397,-0.36436706,0.578269,0.19555573,-0.36899748,0.568928,0.31855383,-0.34301846,0.601684,0.25701096,-0.33366641,0.586947,0.22540632,-0.32947104,0.580462,0.19624695,-0.3256492,0.574566,0.33119156,-0.34604125,0.590673,0.29103424,-0.36800078,0.576035,0.29446979,-0.37663105,0.56931,0.30729273,-0.38505488,0.572361
0.38273013,-0.45001677,0.653564,0.34692309,-0.4125084,0.633369,0.37355004,-0.45905564,0.662867,0.33102847,-0.44566785,0.663274,0.2938922,-0.43749891,0.663718,0.26893845,-0.41826726,0.657438,0.31182959,-0.37958575,0.631773,0.27892729,-0.40505042,0.618686,0.26223919,-0.41808196,0.612143,0.27176675,-0.44030567,0.617403,0.31342229,-0.36781102,0.614135,0.25438502,-0.37739348,0.590068,0.21963078,-0.38324702,0.576147,0.19462664,-0.38753889,0.566225,0.3186089,-0.36315312,0.601788,0.25658622,-0.35339694,0.585977,0.22440678,-0.34840379,0.577888,0.19565264,-0.3452446,0.572826,0.3315162,-0.36666557,0.591252,0.29088065,-0.38778065,0.575731,0.29410255,-0.39548376,0.5686,0.30663021,-0.40324081,0.571127
0.35807256,-0.4707294,0.643727,0.3308688,-0.4226667,0.628107,0.35551551,-0.46803958,0.656266,0.31415297,-0.45567714,0.664382,0.27482129,-0.45194833,0.671149,0.25007194,-0.43498559,0.670066,0.30965778,-0.38751823,0.633833,0.27231395,-0.41300973,0.627604,0.2532999,-0.42604831,0.62449,0.25977481,-0.4495292,0.630195,0.30527174,-0.37750896,0.61323,0.24095477,-0.37282105,0.595528,0.20327661,-0.37021721,0.58537,0.17624989,-0.36837857,0.578127,0.30459639,-0.37439605,0.597948,0.24472001,-0.37490069,0.588549,0.21353336,-0.37522275,0.58374,0.18484461,-0.37556755,0.579387,0.30900025,-0.37984328,0.583146,0.26446005,-0.39575457,0.57313,0.27419093,-0.4064824,0.568528,0.28584359,-0.42057999,0.5714
0.34724646,-0.49435602,0.643975,0.32592357,-0.44530442,0.630418,0.34712747,-0.49178894,0.657734,0.30808705,-0.4705684,0.657063,0.27384392,-0.45501861,0.659753,0.2519869,-0.43350165,0.650349,0.31171564,-0.40963431,0.639134,0.27172015,-0.43272079,0.635819,0.25134912,-0.44450874,0.634161,0.24585869,-0.46701976,0.640004,0.30585118,-0.39923672,0.617507,0.24270952,-0.39696614,0.602629,0.20554178,-0.39572484,0.594005,0.17881963,-0.39486179,0.587846,0.30331617,-0.39590255,0.601159,0.24443717,-0.39383503,0.594519,0.21365227,-0.39280477,0.591122,0.18526086,-0.39189331,0.588046,0.30442239,-0.40125467,0.584731,0.25900572,-0.41486311,0.577103,0.26763389,-0.42882128,0.573598,0.27799777,-0.44554369,0.576592
0.34792373,-0.50043439,0.645231,0.32613347,-0.45568336,0.630824,0.34772278,-0.49772068,0.658862,0.30809924,-0.48110129,0.657089,0.273477,-0.46531904,0.658869,0.25136385,-0.44349093,0.648741,0.31155079,-0.4193558,0.638796,0.271321,-0.44214077,0.634885,0.25086121,-0.4537619,0.63293,0.24515223,-0.4758751,0.638165,0.30565058,-0.4089355,0.617102,0.24198009,-0.40182578,0.601486,0.20523702,-0.39706521,0.593719,0.17866569,-0.39569136,0.588172,0.30313049,-0.40565609,0.600791,0.24403342,-0.40331992,0.593537,0.21318349,-0.40215255,0.589825,0.1847612,-0.40111546,0.58646,0.30433649,-0.4112084,0.584566,0.2587113,-0.42441508,0.576447,0.26722236,-0.43807292,0.572716,0.27734881,-0.4544166,0.575246
0.34900063,-0.51329348,0.645153,0.3316258,-0.47287898,0.635663,0.34801934,-0.52077928,0.657834,0.31175338,-0.50695079,0.665888,0.27868079,-0.49686995,0.674384,0.25867191,-0.47999521,0.670666,0.31698269,-0.44110393,0.645737,0.27717285,-0.4641182,0.643199,0.25866133,-0.47873016,0.641931,0.25283907,-0.50532442,0.651845,0.31432548,-0.42789536,0.626625,0.25297177,-0.42723868,0.61407,0.21627022,-0.42706354,0.606848,0.18959093,-0.42701844,0.601707,0.31415128,-0.4220992,0.61191,0.25693896,-0.42748608,0.606493,0.22647691,-0.43044209,0.603722,0.19804289,-0.43327933,0.601236,0.3175323,-0.42438843,0.596613,0.27310821,-0.43906368,0.589806,0.28166104,-0.44587302,0.586679,0.2931499,-0.4583419,0.592816
0.36558243,-0.49024148,0.628365,0.32371398,-0.46197308,0.620839,0.36738526,-0.49779553,0.644499,0.32745887,-0.52585374,0.660693,0.30391058,-0.52901668,0.676133,0.28760114,-0.5184437,0.68061,0.29826551,-0.45339764,0.636743,0.2843714,-0.49842769,0.640394,0.28501542,-0.52253342,0.64222,0.30649571,-0.53748323,0.649465,0.28426004,-0.43575277,0.613671,0.22423636,-0.42993686,0.6061,0.190208,-0.42907859,0.60526,0.16773201,-0.43960965,0.60466,0.27714543,-0.42419165,0.595483,0.25517563,-0.47443606,0.595613,0.27252617,-0.49540406,0.59568,0.29296792,-0.51884684,0.601881,0.27667007,-0.4159989,0.575787,0.26290403,-0.45551612,0.573968,0.28090208,-0.47349848,0.579898,0.30010786,-0.47065242,0.582837
0.34631948,-0.50889045,0.624939,0.3214464,-0.4803245,0.622418,0.35997535,-0.51872266,0.643061,0.32325106,-0.52837559,0.663684,0.28824145,-0.53994569,0.68134,0.2611687,-0.53802673,0.68727,0.30823439,-0.46596383,0.644309,0.28014774,-0.50562298,0.654292,0.26549877,-0.52605102,0.659284,0.2710789,-0.55215581,0.666619,0.29119094,-0.44954332,0.620016,0.24796019,-0.48506574,0.6191,0.22241009,-0.50608404,0.61858,0.22528661,-0.52857019,0.618209,0.28056509,-0.43950464,0.600283,0.22806009,-0.44403346,0.603865,0.20091077,-0.44636091,0.605698,0.17636207,-0.44924961,0.608403,0.27420123,-0.43397496,0.577852,0.25500934,-0.47331874,0.581435,0.26965189,-0.49278998,0.585982,0.28687415,-0.49110685,0.586484
0.29896801,-0.48210579,0.601973,0.26836579,-0.45801208,0.606256,0.30378691,-0.48876768,0.619921,0.26422474,-0.50758517,0.643244,0.22784642,-0.51958456,0.66359,0.2017994,-0.51764261,0.6735,0.25366135,-0.45012675,0.632542,0.23709429,-0.50041039,0.646256,0.22824964,-0.52658271,0.653113,0.2442079,-0.55384036,0.665267,0.23884152,-0.43474666,0.610335,0.18243534,-0.44092409,0.614154,0.14853213,-0.44458742,0.616382,0.13640021,-0.46646258,0.617973,0.22999153,-0.42475649,0.591586,0.17793341,-0.42749785,0.597106,0.15084243,-0.42947446,0.59993,0.12597594,-0.43127154,0.602498,0.22562866,-0.41784932,0.569019,0.18612153,-0.41037818,0.574541,0.16792102,-0.40693194,0.577078,0.15079853,-0.40764353,0.579317
0.29999458,-0.48872607,0.60404,0.2688616,-0.46880126,0.607376,0.30486892,-0.49546343,0.622129,0.26413851,-0.5178498,0.643034,0.22787323,-0.53045879,0.663668,0.20204332,-0.52933692,0.674314,0.25392602,-0.46052094,0.633202,0.23718381,-0.51085867,0.6465,0.22826222,-0.53704165,0.653149,0.24397481,-0.56395255,0.664632,0.23892723,-0.444858,0.610554,0.1821885,-0.45045141,0.613323,0.14818443,-0.4537708,0.614939,0.1359853,-0.47535055,0.616093,0.22997484,-0.43470688,0.591543,0.17783421,-0.43732878,0.596773,0.15072154,-0.4392468,0.599449,0.12584698,-0.44098953,0.601881,0.22556207,-0.42773683,0.568851,0.18587893,-0.41986155,0.573792,0.16762569,-0.416238,0.576063,0.1504729,-0.41680341,0.578066
0.30033529,-0.49093796,0.604726,0.2690391,-0.46911077,0.607777,0.30517667,-0.49761692,0.622757,0.2643213,-0.51820817,0.643479,0.22783787,-0.53037646,0.663565,0.20189411,-0.52894599,0.673816,0.25397856,-0.46061622,0.633333,0.23052792,-0.50703464,0.64635,0.2180985,-0.53115192,0.652859,0.23026089,-0.55971991,0.664274,0.23897732,-0.44495127,0.610682,0.18199136,-0.43984956,0.611556,0.14806139,-0.43976892,0.612066,0.13415539,-0.45961637,0.612431,0.23003627,-0.43482299,0.591701,0.17825438,-0.43836206,0.598183,0.15123697,-0.44074894,0.601499,0.12639751,-0.44291869,0.604514,0.22565882,-0.4279203,0.569095,0.18602536,-0.4201923,0.574244,0.16778457,-0.41663252,0.576609,0.15063716,-0.41725838,0.578697
0.30133099,-0.49359328,0.606524,0.26957191,-0.47031597,0.608702,0.30618144,-0.5001653,0.624539,0.26516986,-0.51995742,0.645095,0.22841675,-0.53169283,0.664634,0.20289466,-0.52957362,0.674819,0.25426324,-0.4612121,0.633644,0.22016101,-0.49712301,0.646066,0.20207106,-0.51529086,0.652277,0.20631755,-0.54509032,0.663237,0.2391175,-0.44550944,0.610775,0.18216458,-0.44051482,0.611404,0.14829794,-0.43951421,0.611771,0.13389381,-0.4589547,0.612034,0.23009895,-0.4354199,0.591709,0.17844447,-0.43919531,0.598532,0.1514757,-0.44170286,0.602022,0.12667075,-0.44398279,0.605196,0.22570093,-0.4286854,0.569169,0.18600622,-0.42077869,0.574116,0.16774902,-0.41714124,0.57639,0.1505989,-0.41769819,0.578395
0.31080481,-0.49874536,0.612132,0.28235373,-0.47748462,0.61194,0.31592806,-0.50611536,0.629794,0.27867576,-0.52553257,0.649216,0.24377626,-0.53482195,0.668639,0.22046848,-0.52967513,0.678113,0.2653274,-0.46597543,0.634813,0.22999409,-0.49944076,0.645171,0.21150468,-0.51670888,0.650349,0.2155727,-0.54578821,0.660436,0.25080557,-0.45072371,0.611757,0.19323627,-0.44468397,0.610597,0.15907275,-0.44110775,0.60992,0.14335363,-0.45927331,0.609437,0.24242393,-0.44122367,0.59279,0.18985348,-0.44352133,0.598161,0.16242505,-0.4452709,0.600908,0.13720576,-0.44685901,0.603406,0.23898003,-0.4355623,0.570812,0.2006707,-0.41949219,0.574039,0.18307595,-0.41211147,0.575521,0.16596521,-0.40921362,0.576829
0.33225856,-0.50536657,0.616288,0.2929037,-0.47761805,0.612111,0.327915,-0.50742384,0.630371,0.28614107,-0.5192728,0.641483,0.24987962,-0.52406375,0.655189,0.2264982,-0.51741809,0.662421,0.27262125,-0.46069404,0.627618,0.23320154,-0.48799748,0.630307,0.21597022,-0.50185392,0.631652,0.22079827,-0.53171451,0.643406,0.25970455,-0.44805366,0.608133,0.20074502,-0.4380246,0.601453,0.16626157,-0.43216655,0.597557,0.15033402,-0.44822323,0.594774,0.25278992,-0.4410361,0.592538,0.19848623,-0.43919186,0.592322,0.17057106,-0.43882645,0.592211,0.14514408,-0.43849437,0.592111,0.25141847,-0.43892662,0.575221,0.2121192,-0.42135932,0.576594,0.19415606,-0.41333094,0.577224,0.17677656,-0.40988899,0.577781
0.34878994,-0.4878792,0.605986,0.32092549,-0.46605362,0.608546,0.35378205,-0.49463598,0.623992,0.31896041,-0.51177658,0.644583,0.28093196,-0.52412556,0.644079,0.25528123,-0.52731749,0.651309,0.30763526,-0.45422464,0.633738,0.28088446,-0.49569351,0.646396,0.26681189,-0.51711453,0.652725,0.27364974,-0.54774405,0.663909,0.29214996,-0.43979369,0.610985,0.23654423,-0.44434114,0.614029,0.20331675,-0.44718896,0.615805,0.18267386,-0.4606163,0.617073,0.28266816,-0.43092676,0.591971,0.23198607,-0.4411552,0.600635,0.20537773,-0.44649772,0.605067,0.1807878,-0.45139309,0.609096,0.27741621,-0.42592143,0.569421,0.23740523,-0.41792397,0.574475,0.21895117,-0.4142298,0.576797,0.20250008,-0.41135627,0.578846
0.3641968,-0.5061642,0.627286,0.37088938,-0.46677367,0.628342,0.36419266,-0.51270679,0.638732,0.32682881,-0.50528578,0.646273,0.28750738,-0.50337692,0.642905,0.26138363,-0.49154507,0.638997,0.36517874,-0.44342748,0.643967,0.32654157,-0.45671871,0.64739,0.30787318,-0.46918995,0.649101,0.3024365,-0.49813549,0.664422,0.36831239,-0.42753012,0.629348,0.3182222,-0.4379199,0.626147,0.28689143,-0.44493942,0.624771,0.28165831,-0.46673996,0.623789,0.37132285,-0.41878157,0.617195,0.32343591,-0.43277768,0.61852,0.29686941,-0.44049439,0.619198,0.27141568,-0.44793867,0.619908,0.37563582,-0.41641061,0.602891,0.33074866,-0.42718264,0.601789,0.30952895,-0.4322877,0.601283,0.29048089,-0.43687644,0.600836
0.37864424,-0.52772993,0.64985,0.39542788,-0.48705624,0.659806,0.3647413,-0.514864,0.64689,0.31227496,-0.4859517,0.637679,0.27948161,-0.45744561,0.617024,0.25642514,-0.43476679,0.608761,0.37748737,-0.44683643,0.66271,0.38420006,-0.44165984,0.665255,0.37931981,-0.45832503,0.666528,0.38309424,-0.48671959,0.683728,0.40678349,-0.45643279,0.669287,0.41879419,-0.45105843,0.672893,0.42695364,-0.44769941,0.675593,0.4246715,-0.46807645,0.677522,0.4297349,-0.46778839,0.673631,0.44918515,-0.46495855,0.67886,0.46016684,-0.46309727,0.681535,0.46818963,-0.48680272,0.683967,0.45445683,-0.48712822,0.676801,0.44682126,-0.47458826,0.675416,0.43514437,-0.47633518,0.67478,0.42432613,-0.47797636,0.674218
0.38644069,-0.52770232,0.659017,0.39980897,-0.4759952,0.665294,0.36447377,-0.49580831,0.656899,0.31676391,-0.47148783,0.648136,0.2882172,-0.45077866,0.634112,0.26584879,-0.42549073,0.62256,0.38763396,-0.43344871,0.666796,0.38217139,-0.42379893,0.662792,0.37391707,-0.42965496,0.66079,0.37332337,-0.45364839,0.676704,0.4154074,-0.44351304,0.671272,0.4135547,-0.4344946,0.669465,0.41241906,-0.42864878,0.668411,0.41539223,-0.45305912,0.685022,0.4367972,-0.45552377,0.674281,0.43324054,-0.44548092,0.671167,0.42733,-0.44646205,0.669573,0.42076568,-0.44893163,0.668125,0.45906816,-0.47617426,0.676594,0.44213029,-0.4605315,0.672496,0.4300775,-0.45589667,0.670614,0.4140817,-0.45708662,0.668952
0.36060829,-0.47638504,0.650621,0.37152649,-0.43419749,0.650741,0.34028713,-0.46051045,0.646348,0.32759283,-0.41436636,0.631151,0.31307465,-0.37051159,0.614325,0.31972972,-0.34813339,0.601229,0.35290475,-0.38766806,0.645256,0.34095506,-0.37770068,0.634624,0.33512397,-0.37518512,0.629308,0.34101111,-0.39175687,0.643299,0.38151528,-0.39561318,0.650855,0.3658283,-0.38298705,0.641946,0.35595675,-0.37512514,0.636749,0.35464244,-0.40318299,0.651472,0.40444544,-0.40659773,0.655452,0.38609009,-0.39798337,0.645849,0.36857675,-0.41773569,0.640935,0.37080583,-0.44729597,0.655166,0.42985537,-0.42738741,0.660765,0.4291631,-0.40099078,0.651142,0.40782207,-0.40832494,0.64672,0.38882147,-0.41489,0.642819
0.38437934,-0.44433429,0.653638,0.39551758,-0.40278955,0.652783,0.36288987,-0.42601116,0.647443,0.36119989,-0.38225497,0.629608,0.33532136,-0.34095815,0.619973,0.3384548,-0.31276958,0.613758,0.37562008,-0.35351299,0.644133,0.36825811,-0.34237626,0.631429,0.36457887,-0.33665142,0.625077,0.36354595,-0.35918057,0.638018,0.40561505,-0.36501994,0.651969,0.40320668,-0.3539144,0.641809,0.40206333,-0.34707358,0.635882,0.40373194,-0.37373985,0.649827,0.42950618,-0.37882019,0.658514,0.42472219,-0.36797798,0.647174,0.40679968,-0.38773126,0.641372,0.40336762,-0.4151201,0.654639,0.45585803,-0.40263408,0.666272,0.44691799,-0.38945103,0.655325,0.44275945,-0.38316393,0.650295,0.43895153,-0.39545095,0.645857
0.41809978,-0.40024801,0.636937,0.42102883,-0.36435719,0.641987,0.39376377,-0.3876407,0.631652,0.38729929,-0.34009166,0.617182,0.35484966,-0.30772517,0.61112,0.35361787,-0.27914063,0.607332,0.39250807,-0.3257471,0.638532,0.39214692,-0.30301053,0.631385,0.39212377,-0.29089522,0.627811,0.3984408,-0.30851105,0.642159,0.42383422,-0.33174421,0.646797,0.42828005,-0.31347201,0.643295,0.43137269,-0.30159472,0.641253,0.4411486,-0.3254613,0.656769,0.44959656,-0.34035697,0.653058,0.45130108,-0.32245239,0.64737,0.44236669,-0.34429423,0.644459,0.44489605,-0.37618076,0.6592,0.47954529,-0.3569569,0.659377,0.47547065,-0.33930314,0.653344,0.47360988,-0.33063482,0.650571,0.47606814,-0.34127671,0.648125
0.39111416,-0.35237983,0.596193,0.41668365,-0.32951133,0.607258,0.37861561,-0.34132318,0.600105,0.38821428,-0.29725113,0.599639,0.3780127,-0.26914126,0.606027,0.38894317,-0.24494585,0.608891,0.4178814,-0.30167655,0.619866,0.42189102,-0.27479304,0.62443,0.42394068,-0.25995355,0.626712,0.42536466,-0.27081817,0.644974,0.44022187,-0.30904003,0.617797,0.44284663,-0.28122597,0.622518,0.44431834,-0.26254452,0.625273,0.44596064,-0.27844098,0.643465,0.45618901,-0.31746,0.6149,0.45731382,-0.29088162,0.619372,0.44107082,-0.30704304,0.62166,0.44072293,-0.33963406,0.639926,0.47056978,-0.33153662,0.609458,0.46699865,-0.30608175,0.611533,0.46513975,-0.29326693,0.612486,0.46209093,-0.30049523,0.613327
0.40007145,-0.35035811,0.598677,0.42841103,-0.32161748,0.610865,0.38519553,-0.33849284,0.600491,0.39687093,-0.2896581,0.597683,0.3810204,-0.26302177,0.603455,0.38787091,-0.24090518,0.605732,0.4224999,-0.29143435,0.621504,0.42990625,-0.27321991,0.626135,0.43384725,-0.26297616,0.628451,0.44884642,-0.27173245,0.646641,0.44802583,-0.29872316,0.622473,0.45918663,-0.26128069,0.627999,0.46379216,-0.24590404,0.631223,0.47347263,-0.26538873,0.649541,0.46708144,-0.30735875,0.621958,0.48905423,-0.26386664,0.626236,0.48044308,-0.27010584,0.628424,0.48095038,-0.30089866,0.646538,0.48582396,-0.32214513,0.619069,0.48350654,-0.29705546,0.62116,0.48226804,-0.28443112,0.622122,0.47895767,-0.29049602,0.62297
0.45799478,-0.30176878,0.604048,0.46723597,-0.28376727,0.621893,0.43490092,-0.29024212,0.60047,0.41716681,-0.24684638,0.600942,0.39543685,-0.20490101,0.59023,0.40556525,-0.1796108,0.589491,0.44458653,-0.25798487,0.629348,0.46196715,-0.23210229,0.6347,0.47131908,-0.21779501,0.637376,0.48557846,-0.22863227,0.653385,0.47618286,-0.26753889,0.638888,0.50362519,-0.23625476,0.650481,0.52066866,-0.21958146,0.657244,0.53901024,-0.22986606,0.674819,0.50142561,-0.27727985,0.644821,0.52700585,-0.23528286,0.651874,0.53236395,-0.23628244,0.655483,0.53785508,-0.26441183,0.672046,0.52946391,-0.29197851,0.648353,0.53304263,-0.26269097,0.653561,0.53465898,-0.24791987,0.655954,0.52570289,-0.25078301,0.658065
0.46501818,-0.2863782,0.62457,0.48540709,-0.26692717,0.639285,0.44733321,-0.27047865,0.622481,0.43812674,-0.22109343,0.615953,0.4337951,-0.17995406,0.613868,0.44934847,-0.15744772,0.611575,0.47670024,-0.23480766,0.646555,0.49534014,-0.21184701,0.649947,0.50544602,-0.19918713,0.651642,0.51577451,-0.20975145,0.668414,0.5044747,-0.24937494,0.653299,0.53294819,-0.22174099,0.661207,0.54892566,-0.20733177,0.66582,0.56234029,-0.21782106,0.683736,0.52541405,-0.26345184,0.657267,0.55630631,-0.22850783,0.661928,0.55430813,-0.23146572,0.664312,0.55182062,-0.25754538,0.681493,0.54640152,-0.28358019,0.659107,0.55258313,-0.25354506,0.661963,0.5555751,-0.23850678,0.663276,0.5432441,-0.237801,0.664434
0.47352552,-0.17503765,0.627946,0.47548977,-0.21716065,0.62606,0.49418216,-0.18319123,0.641547,0.54026909,-0.22494793,0.658198,0.58206868,-0.2625015,0.677739,0.59328311,-0.28703497,0.683368,0.50284956,-0.25407317,0.642495,0.53548162,-0.24667036,0.636697,0.5527473,-0.24283839,0.633798,0.56390871,-0.23134747,0.644156,0.47717744,-0.25498065,0.624263,0.52073585,-0.245105,0.619413,0.54806239,-0.23902403,0.616584,0.5625846,-0.222312,0.627344,0.45579153,-0.25157235,0.609453,0.49749443,-0.24342619,0.605258,0.52026874,-0.23855959,0.603111,0.53239707,-0.22193617,0.613915,0.43037754,-0.2402818,0.592617,0.47049329,-0.23020387,0.591235,0.48973428,-0.22538609,0.5906,0.4977713,-0.21186204,0.59004
0.60047882,-0.24208985,0.703037,0.54319421,-0.25582013,0.669382,0.6029105,-0.26420832,0.701996,0.61822129,-0.30620689,0.700709,0.63599901,-0.33972193,0.698745,0.63301719,-0.36211584,0.692492,0.50852444,-0.29154223,0.645175,0.50827699,-0.2662659,0.60549,0.50783599,-0.25370315,0.585648,0.51795594,-0.2373349,0.582766,0.48990137,-0.26777453,0.637329,0.4988807,-0.24261591,0.596698,0.50392818,-0.22797802,0.572996,0.51945125,-0.21323854,0.570838,0.48044066,-0.24669071,0.634495,0.49018936,-0.22147206,0.597409,0.49524183,-0.20855112,0.578435,0.51429612,-0.1980574,0.576069,0.47977283,-0.21930316,0.637532,0.49301265,-0.20553975,0.607762,0.49944603,-0.19734822,0.594084,0.5050607,-0.19013341,0.582016
0.60116724,-0.23171883,0.703843,0.54330696,-0.23513586,0.669521,0.6032987,-0.24328173,0.702448,0.61808806,-0.28559513,0.700558,0.63586339,-0.31935076,0.698596,0.63288647,-0.34208975,0.692349,0.50791359,-0.27110826,0.6444,0.50693131,-0.24575651,0.603887,0.50608607,-0.23317536,0.58363,0.51564775,-0.21668487,0.580169,0.48952011,-0.24738394,0.636833,0.4979351,-0.22208937,0.595567,0.50260811,-0.20738853,0.571495,0.51762492,-0.19262784,0.568831,0.48029376,-0.22628512,0.634301,0.48953868,-0.20082787,0.596616,0.49430089,-0.18779339,0.577336,0.51285519,-0.1767028,0.574455,0.47998429,-0.19878153,0.637813,0.49284145,-0.18491065,0.607551,0.49907948,-0.17669593,0.593648,0.50450793,-0.16946405,0.581379
0.59670867,-0.21166471,0.694935,0.54241881,-0.2238181,0.667814,0.60097585,-0.23472429,0.69642,0.61608869,-0.270473,0.69409,0.63017391,-0.30560524,0.692144,0.62841429,-0.32890551,0.686243,0.51007899,-0.2639573,0.651334,0.50885457,-0.24886104,0.615865,0.51170595,-0.23335134,0.598131,0.52867777,-0.22009174,0.599276,0.4894951,-0.24038861,0.641985,0.4945246,-0.22564749,0.60449,0.49822094,-0.1974816,0.582618,0.49638144,-0.18972847,0.584088,0.4783499,-0.21897531,0.637209,0.47330489,-0.21720753,0.603416,0.48042078,-0.19256338,0.586127,0.48345847,-0.17975017,0.587536,0.47559928,-0.1902648,0.636763,0.4886122,-0.18676312,0.611649,0.49811884,-0.17570481,0.60011,0.50916684,-0.16897564,0.589928
0.60816035,-0.20429705,0.700675,0.55422517,-0.21109412,0.671504,0.60940932,-0.22778007,0.703075,0.62112504,-0.26935205,0.699774,0.63806953,-0.30210378,0.695297,0.63160474,-0.32737351,0.687691,0.51366858,-0.24623785,0.654823,0.5207347,-0.23724216,0.618444,0.52411377,-0.22956194,0.600254,0.54097215,-0.21786521,0.599359,0.50059683,-0.21925045,0.643722,0.51265202,-0.2142167,0.605008,0.5148162,-0.19137727,0.582426,0.50791863,-0.18234386,0.581795,0.49585324,-0.19588104,0.637724,0.48276717,-0.21273311,0.60551,0.49470441,-0.1946049,0.589029,0.49907981,-0.17916584,0.589147,0.50097785,-0.16664996,0.636246,0.51810507,-0.17787947,0.610794,0.51952958,-0.17558191,0.5991,0.5293654,-0.17660577,0.599403
0.57693134,-0.13908331,0.592905,0.55300063,-0.1440214,0.610773,0.55902367,-0.15353322,0.590123,0.51139892,-0.15832044,0.587899,0.46482448,-0.14115039,0.574115,0.43828479,-0.13811912,0.57562,0.5141304,-0.16588267,0.619282,0.486613,-0.14457815,0.625601,0.50591759,-0.13357686,0.628761,0.54060571,-0.14192735,0.645368,0.53070021,-0.14871569,0.627791,0.50416912,-0.11601702,0.639431,0.53597266,-0.1072342,0.646222,0.57389158,-0.12142814,0.664121,0.54688392,-0.13401356,0.632871,0.54557531,-0.099241464,0.640265,0.57433766,-0.11013164,0.644047,0.6088589,-0.13180638,0.661025,0.5701629,-0.11591481,0.63541,0.56746434,-0.093356774,0.640821,0.59104499,-0.097121816,0.643307,0.6222929,-0.10215555,0.656
0.57886041,-0.13587793,0.594866,0.55631134,-0.13442948,0.612085,0.55884918,-0.14847685,0.591303,0.51533804,-0.12397788,0.592959,0.48776896,-0.14972811,0.60101,0.48329755,-0.17467358,0.614423,0.51431006,-0.14979258,0.619135,0.49527111,-0.11656004,0.628516,0.48856795,-0.097811234,0.633207,0.49192257,-0.081499222,0.650608,0.53560507,-0.13658056,0.628484,0.51606824,-0.093137396,0.639315,0.54397194,-0.087897359,0.645632,0.57812794,-0.1067524,0.663195,0.55546662,-0.12545452,0.634327,0.55619852,-0.083805104,0.640772,0.59489221,-0.095981561,0.659643,0.61514956,-0.11947145,0.66458,0.58268784,-0.11202979,0.637873,0.57740258,-0.083488262,0.642528,0.59426169,-0.085557469,0.644666,0.62271673,-0.099396668,0.657059
0.63588281,-0.22400651,0.678137,0.59823206,-0.17870921,0.656409,0.60283824,-0.21814462,0.65919,0.55789117,-0.18154764,0.633168,0.50865577,-0.16622159,0.619407,0.47974565,-0.15509789,0.615456,0.53069248,-0.14151156,0.616978,0.50950305,-0.10328268,0.616633,0.49881242,-0.083993696,0.61646,0.49551112,-0.063533793,0.616302,0.56274057,-0.13637664,0.635716,0.57157405,-0.10603571,0.604726,0.59740223,-0.13590451,0.614987,0.6028875,-0.15818591,0.629418,0.59338266,-0.13681281,0.653489,0.55366552,-0.085247098,0.632736,0.55175321,-0.05823018,0.624208,0.57478364,-0.053321798,0.628189,0.63637862,-0.14568252,0.678201,0.5971994,-0.10235693,0.657101,0.60299932,-0.093162009,0.647407,0.61693489,-0.087041713,0.647459
0.63725067,-0.22411763,0.680018,0.59843971,-0.17754322,0.656237,0.60451481,-0.21829809,0.662921,0.55906724,-0.1771432,0.637533,0.51137096,-0.1634812,0.628151,0.48587913,-0.15523467,0.627822,0.53078056,-0.13973791,0.617822,0.51530537,-0.098006374,0.619786,0.50774746,-0.077783774,0.620768,0.50079578,-0.059204102,0.62166,0.5619826,-0.13436924,0.63359,0.56535085,-0.105984,0.599854,0.59454586,-0.13603823,0.613118,0.60333406,-0.15804636,0.629484,0.59200046,-0.13471364,0.649137,0.5563636,-0.085019035,0.634171,0.55400959,-0.058410462,0.626514,0.57897288,-0.054183263,0.63407,0.63872211,-0.14293741,0.671653,0.60601795,-0.096350594,0.647816,0.59675976,-0.075854397,0.643032,0.58853685,-0.057545926,0.638811
0.5784385,-0.2057994,0.601251,0.59452908,-0.20235696,0.626278,0.56090263,-0.20165234,0.605676,0.53134914,-0.17437229,0.612002,0.50933992,-0.15222013,0.620932,0.49948465,-0.14662217,0.631895,0.58369958,-0.19513018,0.649034,0.62319062,-0.20637715,0.692816,0.64293658,-0.21199291,0.714707,0.66088779,-0.21709422,0.734608,0.61008239,-0.19942404,0.650112,0.64595635,-0.1539395,0.67129,0.67909897,-0.16582708,0.695337,0.67690864,-0.19022519,0.695225,0.63008461,-0.20328898,0.648303,0.66627511,-0.2126268,0.68435,0.69153721,-0.1922015,0.702793,0.71189971,-0.18588929,0.720571,0.6504826,-0.20839739,0.641499,0.65491211,-0.17298529,0.65555,0.65687445,-0.15642147,0.662005,0.66104074,-0.14014039,0.667702
0.57851672,-0.20360636,0.603396,0.58943504,-0.18537703,0.628108,0.5570054,-0.19691851,0.603404,0.52815546,-0.17243946,0.61499,0.50929786,-0.1519887,0.623948,0.50129373,-0.14678557,0.636188,0.57091485,-0.1652703,0.644897,0.59129565,-0.12527281,0.66279,0.60163942,-0.10421975,0.671787,0.61113138,-0.084460927,0.679994,0.60182515,-0.17102877,0.651644,0.62117379,-0.12329545,0.671881,0.63247671,-0.094226701,0.683687,0.64085879,-0.072641139,0.692119,0.62599127,-0.17741789,0.654536,0.65132644,-0.17053124,0.68422,0.67592129,-0.149082,0.699407,0.70040161,-0.14779047,0.71856,0.65182393,-0.18774531,0.653248,0.6564074,-0.17697427,0.676367,0.66812594,-0.15965521,0.68699,0.68711419,-0.14626025,0.696363
0.63842535,-0.19204201,0.648662,0.61452808,-0.15768684,0.649068,0.61410303,-0.19474018,0.647211,0.56894786,-0.1660032,0.636207,0.52813862,-0.1502201,0.633432,0.50439417,-0.14529413,0.638029,0.56741753,-0.13834052,0.647454,0.54373857,-0.097477524,0.640034,0.53555062,-0.079632901,0.636324,0.52790415,-0.062715312,0.632951,0.59200932,-0.12530863,0.649455,0.56610923,-0.075391054,0.641404,0.55086159,-0.044667128,0.637277,0.53972998,-0.021872582,0.634431,0.61500986,-0.11814563,0.651059,0.59991036,-0.079579751,0.658645,0.59596887,-0.053982795,0.662525,0.59201942,-0.029430592,0.666054,0.64652746,-0.11617243,0.652845,0.63350845,-0.079203414,0.656883,0.62757077,-0.062315641,0.658738,0.62277862,-0.047497396,0.660825
0.64087734,-0.21364915,0.647246,0.62912403,-0.18084985,0.650058,0.61164661,-0.20746613,0.64067,0.56100085,-0.17651211,0.627644,0.52648774,-0.14797885,0.621596,0.50595758,-0.13112035,0.621434,0.58494604,-0.15230146,0.643402,0.57012478,-0.11014264,0.635075,0.56525242,-0.089192893,0.630911,0.56279585,-0.070629009,0.627126,0.61846361,-0.15084981,0.652736,0.61458584,-0.095167402,0.649704,0.6123054,-0.061693741,0.647935,0.61066844,-0.037314494,0.646672,0.64768808,-0.15297381,0.660119,0.63508509,-0.11472483,0.660428,0.64200335,-0.096611905,0.660585,0.64874381,-0.078939705,0.660729,0.68451934,-0.16144012,0.668161,0.65557144,-0.1209784,0.660001,0.64295832,-0.10215028,0.656253,0.63185059,-0.085582837,0.652945
0.60170553,-0.1809477,0.598194,0.61269298,-0.18385835,0.625156,0.5811304,-0.18527323,0.60092,0.54233314,-0.16694141,0.606406,0.50722336,-0.152238,0.609341,0.50312487,-0.12901437,0.615718,0.5948698,-0.19148349,0.647013,0.6055605,-0.15334231,0.665572,0.61139528,-0.13273759,0.674851,0.6173518,-0.11322658,0.683287,0.62363097,-0.18678438,0.650835,0.63622139,-0.19608165,0.675463,0.65466427,-0.20479602,0.701343,0.66786386,-0.21101544,0.719829,0.64629743,-0.1825287,0.651076,0.6580089,-0.14154394,0.672134,0.66466701,-0.11602513,0.682908,0.67212117,-0.094582536,0.692702,0.67096014,-0.17691849,0.646287,0.66536958,-0.14548435,0.661504,0.66337043,-0.12976289,0.668495,0.66200709,-0.11504387,0.674664
0.59162319,-0.17234787,0.582937,0.61751919,-0.18278154,0.617714,0.57399406,-0.17837429,0.588049,0.55298107,-0.16029878,0.601369,0.53355868,-0.14264897,0.612254,0.53134509,-0.1333321,0.625884,0.60932837,-0.20164743,0.647986,0.62798764,-0.16588467,0.675721,0.63769372,-0.14604031,0.689589,0.64704421,-0.12688469,0.702196,0.6373107,-0.19649677,0.650835,0.65914952,-0.20656005,0.685765,0.67792835,-0.21427486,0.712242,0.69136709,-0.21978646,0.731154,0.65827666,-0.19066424,0.649433,0.69611876,-0.21257356,0.688642,0.71054412,-0.19273459,0.708703,0.72695429,-0.18166378,0.726939,0.67903297,-0.18110805,0.64127,0.68776196,-0.15073566,0.664983,0.69170338,-0.13524644,0.675878,0.69515912,-0.12066577,0.685492
0.67221779,-0.2231203,0.65711,0.64703938,-0.19297529,0.659952,0.64411511,-0.22300231,0.650727,0.60692551,-0.18528078,0.642738,0.57349616,-0.15953051,0.641183,0.55231337,-0.14377221,0.641883,0.59454969,-0.17293384,0.653568,0.59198918,-0.13455294,0.646611,0.5913538,-0.11428364,0.643702,0.59099282,-0.09512055,0.641159,0.62358637,-0.16484944,0.662658,0.61039209,-0.11148818,0.656925,0.60272114,-0.078706899,0.653884,0.59717382,-0.054446775,0.651777,0.65028653,-0.16130356,0.669838,0.6282388,-0.1138355,0.661694,0.6165495,-0.088231262,0.657528,0.60571929,-0.064108189,0.653807,0.68623617,-0.16268456,0.677637,0.68492679,-0.12196077,0.678695,0.69344563,-0.11419803,0.679181,0.70137439,-0.10694571,0.67961
0.67930071,-0.22015845,0.656604,0.6581279,-0.18666058,0.657321,0.65241104,-0.2212,0.651313,0.61925588,-0.18503003,0.642612,0.58388193,-0.16138075,0.640266,0.56136847,-0.14610914,0.640497,0.60472246,-0.16857159,0.650916,0.59237788,-0.12611502,0.644779,0.58664934,-0.10411648,0.642352,0.5814425,-0.083548603,0.640251,0.63121515,-0.15790006,0.658004,0.61214736,-0.10565578,0.650481,0.59944747,-0.075890854,0.647555,0.59298877,-0.052087701,0.645465,0.65615517,-0.15231324,0.663763,0.63352541,-0.10600269,0.654635,0.62208029,-0.080998293,0.649965,0.61145921,-0.05735956,0.645766,0.69064776,-0.15144445,0.670314,0.67900043,-0.10731338,0.667425,0.67356077,-0.086592966,0.666098,0.66871288,-0.068069505,0.664927
0.67684031,-0.21721202,0.654149,0.65548461,-0.18224038,0.655053,0.64943543,-0.21679113,0.648258,0.6052948,-0.17881445,0.640601,0.57129663,-0.15002635,0.635424,0.55120853,-0.1300002,0.633715,0.60550281,-0.15176581,0.647994,0.59474055,-0.10732288,0.643866,0.6026964,-0.086856189,0.656356,0.60977398,-0.067271408,0.667711,0.63466841,-0.1462078,0.655914,0.62113588,-0.092256448,0.64801,0.61314568,-0.059106527,0.643498,0.60740218,-0.034589906,0.640337,0.6610561,-0.14524956,0.662339,0.64637802,-0.095306002,0.653394,0.63868863,-0.068257917,0.648817,0.63164886,-0.042697937,0.644725,0.69592308,-0.1504817,0.669626,0.68603945,-0.10544453,0.665429,0.68144551,-0.084327423,0.663501,0.6773767,-0.065465424,0.661813
0.6836608,-0.21773163,0.658241,0.66418705,-0.17966436,0.654236,0.65739312,-0.21395194,0.650445,0.62394083,-0.17187524,0.639083,0.58069545,-0.14287562,0.626401,0.55721044,-0.12973756,0.625802,0.60819274,-0.15297489,0.641364,0.59287131,-0.10812048,0.632178,0.59627488,-0.086838842,0.638294,0.59996808,-0.066601143,0.643855,0.63903798,-0.14706161,0.650423,0.61201262,-0.091912531,0.636715,0.60493018,-0.061925971,0.628719,0.59863783,-0.038805162,0.623007,0.6675002,-0.14577124,0.658314,0.64806272,-0.091502846,0.647636,0.64077236,-0.063180821,0.642173,0.63410626,-0.036861374,0.637206,0.7060506,-0.15064978,0.668227,0.69136961,-0.10518354,0.660498,0.68511719,-0.084027271,0.656948,0.67961743,-0.065234729,0.653815
0.70695053,-0.22464415,0.67888,0.67580889,-0.18261092,0.666467,0.6763894,-0.22235123,0.669341,0.64103717,-0.18797996,0.651642,0.59587605,-0.16063333,0.631937,0.56830899,-0.14092176,0.623864,0.62080597,-0.15113209,0.645614,0.60503649,-0.11021951,0.645095,0.6015928,-0.087793336,0.644835,0.59937811,-0.066842163,0.644599,0.64895257,-0.14239881,0.654645,0.60765165,-0.090395374,0.632137,0.59355762,-0.058698664,0.619008,0.58607313,-0.036958693,0.60963,0.67525143,-0.1397647,0.66342,0.64979277,-0.088068783,0.645612,0.6424924,-0.056152335,0.6365,0.62872387,-0.033026483,0.628218,0.71115975,-0.14470408,0.675938,0.69244217,-0.098778063,0.661794,0.68360531,-0.080623197,0.655295,0.67569372,-0.061630848,0.649561
0.71228935,-0.22622887,0.682428,0.68708245,-0.18351213,0.668508,0.68310273,-0.22319246,0.671804,0.65152117,-0.18568135,0.651631,0.60618657,-0.15625711,0.630741,0.57903975,-0.13582753,0.622589,0.63124314,-0.14904952,0.645219,0.61472045,-0.10789355,0.643315,0.61030762,-0.085520728,0.642364,0.60764784,-0.064574029,0.641499,0.66003024,-0.1420867,0.655251,0.6207737,-0.087818413,0.633574,0.60966718,-0.056547167,0.620929,0.60195741,-0.033707902,0.611897,0.68685363,-0.14104271,0.665012,0.66534198,-0.08529899,0.646017,0.65431892,-0.056330029,0.636298,0.644288,-0.029709095,0.627463,0.72341791,-0.14804198,0.678959,0.70877978,-0.10133378,0.664401,0.70205934,-0.079607711,0.657712,0.69866138,-0.060670718,0.65181
0.7027271,-0.22713667,0.676614,0.67639482,-0.18606465,0.66666,0.67527647,-0.22332216,0.665712,0.65062585,-0.18576758,0.64896,0.60472761,-0.15655318,0.627374,0.5775076,-0.13736033,0.620022,0.63101877,-0.15068304,0.645701,0.614791,-0.10463441,0.628833,0.60702935,-0.080710497,0.620399,0.59997535,-0.058878103,0.612732,0.65712807,-0.14791852,0.65718,0.63315246,-0.091552765,0.636989,0.61649088,-0.057483952,0.625212,0.60792847,-0.03387634,0.616799,0.68135622,-0.14915654,0.667705,0.66297037,-0.093747285,0.649952,0.65356068,-0.064843684,0.640869,0.64727984,-0.034099929,0.632611,0.71322627,-0.15881871,0.681793,0.72234923,-0.16006506,0.662824,0.7333461,-0.18399894,0.676412,0.73766906,-0.2040438,0.688357
0.70342687,-0.22425743,0.677183,0.68014422,-0.17308992,0.663382,0.67534906,-0.21947721,0.665201,0.65776785,-0.16810559,0.636531,0.60301307,-0.1463306,0.613297,0.57698967,-0.12995845,0.608638,0.63219703,-0.1322841,0.638405,0.60093933,-0.085851846,0.61431,0.58868679,-0.063139013,0.60571,0.577525,-0.042360374,0.597892,0.65981986,-0.12956203,0.650239,0.63711252,-0.071761394,0.62678,0.62387515,-0.03759979,0.613095,0.6144255,-0.012978742,0.603321,0.68479399,-0.13228763,0.661471,0.6648812,-0.076090629,0.640899,0.6547035,-0.04692222,0.630373,0.64546037,-0.020139688,0.620805,0.71956822,-0.14583142,0.677102,0.71751995,-0.098011848,0.664473,0.71754925,-0.076493349,0.658671,0.73984786,-0.06417483,0.666262
0.7037407,-0.22359421,0.677627,0.68141886,-0.17618575,0.663699,0.67543269,-0.21807754,0.665043,0.65754436,-0.16795903,0.635718,0.60352487,-0.14631945,0.613143,0.57808289,-0.12872049,0.607858,0.632339,-0.13213179,0.637852,0.60077369,-0.085656695,0.613328,0.58890881,-0.062997832,0.605062,0.57809613,-0.042244653,0.597548,0.66070997,-0.12956177,0.650434,0.63787378,-0.071707807,0.6267,0.62456284,-0.03752775,0.612855,0.61505944,-0.01289962,0.602965,0.68633118,-0.13241621,0.662297,0.66637953,-0.076123493,0.641541,0.65618437,-0.046908647,0.630922,0.64692482,-0.02008525,0.621268,0.72105997,-0.14555204,0.678685,0.72022952,-0.098267154,0.666262,0.7213256,-0.076987862,0.660554,0.73040415,-0.064758272,0.655518
0.70305775,-0.22289207,0.676656,0.68191929,-0.17564499,0.66298,0.67674215,-0.21779057,0.66624,0.65713838,-0.16979122,0.63928,0.60752664,-0.14145354,0.619049,0.58381239,-0.12103859,0.613782,0.63517454,-0.13318722,0.640128,0.61778132,-0.086338006,0.621415,0.61934011,-0.063862915,0.622953,0.62075765,-0.042977661,0.624351,0.6668826,-0.13084377,0.649955,0.63767713,-0.071928032,0.625836,0.62639742,-0.038357848,0.611767,0.62314791,-0.016064826,0.601718,0.69421737,-0.13293968,0.659522,0.68725977,-0.075842921,0.643669,0.68372188,-0.046508716,0.635558,0.68414804,-0.019871003,0.631534,0.72968331,-0.14407329,0.673196,0.71597985,-0.099062251,0.653751,0.70975589,-0.077976622,0.644816,0.7043065,-0.059141961,0.636933
0.70146372,-0.22213965,0.674953,0.68341196,-0.17591135,0.662256,0.67571807,-0.21671503,0.665106,0.65793746,-0.1696471,0.639074,0.60899246,-0.1410156,0.619619,0.58574502,-0.12041412,0.614678,0.64296817,-0.13205711,0.64081,0.63107498,-0.084008054,0.623971,0.63161093,-0.060845616,0.621961,0.63212838,-0.039512866,0.620133,0.67376162,-0.13041396,0.650163,0.64252372,-0.072530407,0.627697,0.63200222,-0.039046919,0.614592,0.62680027,-0.01549921,0.605231,0.70074366,-0.13410865,0.659234,0.6959182,-0.077194331,0.645843,0.6905729,-0.047270127,0.6391,0.68863034,-0.020370522,0.632969,0.73484586,-0.14718624,0.672149,0.73110279,-0.10016476,0.660708,0.73383527,-0.079328795,0.655451,0.73868827,-0.062084014,0.650812
0.69583935,-0.21922783,0.669119,0.69334888,-0.16781208,0.6619,0.67483835,-0.20973848,0.664153,0.65420587,-0.16346027,0.64558,0.61231487,-0.13085119,0.631071,0.59593844,-0.10940975,0.630313,0.65921689,-0.12257766,0.650531,0.63992884,-0.075357619,0.63503,0.63028455,-0.051750497,0.627279,0.62446451,-0.031506269,0.620233,0.68988737,-0.12423826,0.655025,0.67062338,-0.068459545,0.639806,0.66502458,-0.034834495,0.630928,0.66671845,-0.024114823,0.624586,0.71569064,-0.1306116,0.659504,0.69790519,-0.075397279,0.645592,0.69067191,-0.046251864,0.638474,0.68673243,-0.019405364,0.632004,0.74642111,-0.14676745,0.66606,0.73456468,-0.10159442,0.657044,0.73071399,-0.079687252,0.652902,0.73407796,-0.062412742,0.649247
0.72730295,-0.20304359,0.675448,0.71001762,-0.15778618,0.664736,0.7022559,-0.19732117,0.671535,0.66489638,-0.16047076,0.653215,0.6211356,-0.13203233,0.639221,0.60028214,-0.11113998,0.635597,0.66558823,-0.11943732,0.652365,0.637889,-0.074231395,0.633682,0.62519592,-0.050953003,0.624341,0.61654128,-0.036345919,0.615849,0.69351664,-0.11440198,0.654534,0.65929832,-0.05847609,0.634253,0.64738797,-0.027756547,0.622423,0.6462034,-0.017910292,0.613972,0.71847246,-0.11519277,0.657474,0.69294133,-0.059194455,0.639472,0.68036058,-0.03033286,0.630261,0.66890572,-0.0038962015,0.621888,0.75077906,-0.12475472,0.662901,0.730846,-0.080100871,0.653352,0.72179579,-0.059693194,0.648964,0.7223248,-0.046097308,0.645093
0.70956936,-0.21793605,0.678652,0.69888482,-0.16614961,0.666076,0.6915999,-0.20124762,0.674021,0.66488702,-0.16108931,0.654254,0.62480136,-0.13209049,0.643621,0.6073281,-0.11378449,0.644481,0.66127808,-0.12065787,0.651505,0.63781918,-0.073678176,0.635852,0.62811397,-0.051261432,0.628025,0.62089979,-0.040805409,0.62091,0.69070178,-0.11666131,0.654099,0.66421018,-0.060621369,0.631781,0.65244943,-0.028090087,0.618762,0.645481,-0.006682917,0.609463,0.71416571,-0.12326257,0.65759,0.69197616,-0.067196077,0.641533,0.6821257,-0.034394975,0.633318,0.67170146,-0.0079044787,0.62585,0.74671055,-0.13718424,0.664006,0.73585854,-0.091818894,0.656164,0.73088059,-0.071147236,0.652561,0.72793724,-0.049307572,0.649382
0.71429105,-0.21576832,0.678894,0.70614724,-0.16232046,0.666425,0.6933717,-0.20210507,0.674481,0.66250953,-0.16396339,0.655021,0.62395584,-0.13386296,0.64435,0.60441051,-0.11268345,0.640941,0.66265124,-0.12241898,0.65221,0.63916441,-0.075539753,0.637232,0.62988749,-0.052616671,0.629743,0.62410027,-0.038640504,0.622935,0.68953855,-0.12145855,0.654549,0.66219671,-0.062146533,0.632273,0.64703512,-0.03326944,0.619279,0.63944776,-0.012613637,0.609998,0.71525457,-0.1231963,0.65782,0.69436049,-0.06467464,0.642661,0.68319792,-0.035823894,0.634905,0.67303254,-0.0094092105,0.627855,0.74796548,-0.13564598,0.663959,0.73043614,-0.090009805,0.652571,0.72327056,-0.067880145,0.647338,0.717913,-0.053035905,0.642721
0.71390816,-0.2127068,0.677176,0.70556039,-0.16221344,0.666176,0.69309208,-0.20169739,0.673684,0.65897359,-0.16592772,0.655825,0.61870807,-0.13489599,0.641326,0.5998825,-0.1115642,0.636667,0.66349481,-0.12220297,0.654159,0.63727089,-0.075954606,0.635209,0.62284841,-0.056183891,0.625735,0.6161947,-0.039803774,0.617122,0.69158571,-0.11839947,0.655699,0.66452564,-0.061997728,0.635127,0.64784368,-0.027591502,0.623127,0.63638158,-0.0031016948,0.614555,0.71534033,-0.12219,0.658153,0.69372851,-0.064566215,0.642775,0.6822794,-0.035762542,0.634907,0.67228975,-0.0093768644,0.627754,0.74745592,-0.1323781,0.66307,0.73318935,-0.085174663,0.65577,0.7270974,-0.062400291,0.652416,0.72676608,-0.048201613,0.649457
0.71329019,-0.21425226,0.678704,0.70303991,-0.16536774,0.667438,0.69002929,-0.20725505,0.674054,0.65069898,-0.16811553,0.659386,0.61259082,-0.13819104,0.648717,0.59545486,-0.11215018,0.639427,0.66094003,-0.12408219,0.653732,0.63019099,-0.08244925,0.633968,0.61877405,-0.062304257,0.624086,0.60825784,-0.038973541,0.615102,0.69050863,-0.12128409,0.656708,0.66200215,-0.063478978,0.635647,0.64553329,-0.029543138,0.623361,0.63418387,-0.0053089705,0.614586,0.71640507,-0.12307891,0.660373,0.6815529,-0.072739589,0.645721,0.67191251,-0.046553884,0.638225,0.67217602,-0.040830033,0.63141,0.74979491,-0.13493593,0.666745,0.73624342,-0.089443343,0.660435,0.72745403,-0.070903965,0.657535,0.72678205,-0.049327245,0.654977
0.71491975,-0.21337067,0.678755,0.70317172,-0.16537353,0.667981,0.69173648,-0.20647146,0.675014,0.65293521,-0.1674835,0.660878,0.61359056,-0.13668643,0.648302,0.59734779,-0.11157164,0.639673,0.65936801,-0.12496846,0.655792,0.6327583,-0.078242476,0.637028,0.62265619,-0.057633656,0.627645,0.61452696,-0.039327314,0.619116,0.68773854,-0.12106381,0.657719,0.65940613,-0.065764712,0.637351,0.64408668,-0.032306485,0.62547,0.63503956,-0.006481516,0.616983,0.7130363,-0.1227663,0.660468,0.67735317,-0.070728709,0.641974,0.66005658,-0.045270688,0.632513,0.64902018,-0.019423085,0.623911,0.7456932,-0.13341649,0.665683,0.74009223,-0.090392255,0.66533,0.73864713,-0.072243916,0.666984,0.73879423,-0.055412293,0.668443
0.72100259,-0.21359519,0.683462,0.70326347,-0.16448428,0.670271,0.69475637,-0.20381659,0.678105,0.64428944,-0.1653263,0.660946,0.6099782,-0.13643713,0.64783,0.58900912,-0.11188355,0.640619,0.6535889,-0.12354111,0.654336,0.62714116,-0.081213286,0.632623,0.61322327,-0.059820883,0.621767,0.60114118,-0.040824569,0.611897,0.68336735,-0.11986822,0.657708,0.65445435,-0.063169335,0.634617,0.63684212,-0.026968952,0.621147,0.62953726,-0.010097482,0.611526,0.7103331,-0.12172523,0.661905,0.67038083,-0.066691663,0.640642,0.65879601,-0.044141142,0.629764,0.65433842,-0.033425177,0.619874,0.74586915,-0.13258427,0.669257,0.72683881,-0.088122805,0.659451,0.72326318,-0.068739832,0.654946,0.72439762,-0.050257709,0.650971
0.72094778,-0.20962039,0.681015,0.70245133,-0.16187101,0.668553,0.69408078,-0.20181847,0.675463,0.64748632,-0.16444447,0.659268,0.6104299,-0.13512487,0.647107,0.58815474,-0.11167708,0.640949,0.65214661,-0.1216744,0.652862,0.61985375,-0.074430368,0.631823,0.60732729,-0.054130185,0.621303,0.59929835,-0.03899937,0.61174,0.68153155,-0.11549671,0.656685,0.6506056,-0.057266062,0.638757,0.63269029,-0.024703831,0.628299,0.63598026,-0.0087275137,0.62083,0.70843339,-0.1169374,0.661177,0.67572425,-0.061948487,0.644769,0.66905063,-0.036092821,0.636374,0.66760622,-0.017805902,0.628743,0.74294568,-0.12356455,0.668733,0.72607977,-0.078871657,0.659637,0.72157205,-0.057303044,0.655457,0.71759692,-0.03807344,0.65177
0.71535336,-0.20934362,0.678154,0.69423919,-0.16175686,0.666539,0.68817279,-0.20122895,0.672076,0.64355119,-0.16278275,0.657343,0.60597302,-0.1326932,0.645436,0.58457556,-0.11105851,0.640731,0.64678474,-0.12123449,0.650737,0.61768348,-0.075046617,0.630244,0.60411768,-0.053580359,0.619998,0.59175286,-0.033882534,0.610683,0.67651741,-0.1188928,0.655477,0.64705876,-0.060419929,0.6369,0.64087722,-0.030747807,0.626064,0.63428994,-0.0078163707,0.618323,0.70277377,-0.12197467,0.660633,0.67539042,-0.067283721,0.645433,0.66142663,-0.039684681,0.637656,0.66546926,-0.019501114,0.630586,0.73630691,-0.1343267,0.6688,0.72768745,-0.090516768,0.665816,0.72373184,-0.070425337,0.664445,0.72024367,-0.052717246,0.663235
0.70860585,-0.20936494,0.676134,0.68597899,-0.16427262,0.665403,0.67731238,-0.20067891,0.670615,0.64374497,-0.16703048,0.65027,0.6013931,-0.13921153,0.639415,0.58266532,-0.11554499,0.638023,0.64307534,-0.12230326,0.650928,0.61680951,-0.076131851,0.63134,0.6040201,-0.054519806,0.621546,0.5923593,-0.0346527,0.612643,0.67312597,-0.1203609,0.655182,0.64689888,-0.064106081,0.634706,0.63372032,-0.030120395,0.622762,0.6261667,-0.0080651545,0.61423,0.69709804,-0.12568721,0.659842,0.67577127,-0.068806926,0.646873,0.66282134,-0.042030783,0.640238,0.66055055,-0.021863972,0.634205,0.73117705,-0.13899572,0.667268,0.71174672,-0.094964009,0.657464,0.70406274,-0.074063729,0.65296,0.70329734,-0.061850573,0.648985
