sluyters/QuantumLeap/backend/src/datasets/dynamic/HandGestureDataset_SHREC2017_csv/Gesture11/finger_2/subject_14_essai_1_skeletons_world.csv
Wrist_x,Wrist_y,Wrist_z,Palm_x,Palm_y,Palm_z,thumb_base_x,thumb_base_y,thumb_base_z,thumb_first_joint_x,thumb_first_joint_y,thumb_first_joint_z,thumb_second_joint_x,thumb_second_joint_y,thumb_second_joint_z,thumb_tip_x,thumb_tip_y,thumb_tip_z,index_base_x,index_base_y,index_base_z,index_first_joint_x,index_first_joint_y,index_first_joint_z,index_second_joint_x,index_second_joint_y,index_second_joint_z,index_tip_x,index_tip_y,index_tip_z,middle_base_x,middle_base_y,middle_base_z,middle_first_joint_x,middle_first_joint_y,middle_first_joint_z,middle_second_joint_x,middle_second_joint_y,middle_second_joint_z,middle_tip_x,middle_tip_y,middle_tip_z,ring_base_x,ring_base_y,ring_base_z,ring_first_joint_x,ring_first_joint_y,ring_first_joint_z,ring_second_joint_x,ring_second_joint_y,ring_second_joint_z,ring_tip_x,ring_tip_y,ring_tip_z,pinky_base_x,pinky_base_y,pinky_base_z,pinky_first_joint_x,pinky_first_joint_y,pinky_first_joint_z,pinky_second_joint_x,pinky_second_joint_y,pinky_second_joint_z,pinky_tip_x,pinky_tip_y,pinky_tip_z,
0.50323251,-0.33217127,0.634609,0.49050932,-0.29082047,0.638436,0.47913487,-0.31630563,0.639722,0.44655682,-0.2856883,0.646932,0.41700271,-0.26676536,0.650271,0.40544735,-0.24063986,0.649155,0.45481102,-0.23515952,0.647694,0.43157677,-0.20633037,0.646772,0.42503535,-0.19417644,0.654235,0.41880307,-0.18276699,0.66102,0.47297014,-0.22672109,0.642081,0.46064684,-0.18857358,0.638768,0.45286206,-0.16628644,0.636836,0.44435674,-0.1527072,0.635455,0.48813666,-0.22099017,0.637047,0.47430188,-0.21007739,0.635963,0.46655296,-0.20395052,0.635409,0.48519729,-0.2265132,0.652153,0.50782853,-0.21738137,0.630484,0.49481435,-0.1901947,0.637064,0.48877494,-0.17760639,0.640088,0.48332838,-0.16636917,0.642756
0.49681578,-0.32518954,0.631695,0.48533759,-0.28419173,0.634566,0.47502758,-0.31271287,0.63583,0.43552237,-0.27979994,0.640453,0.40415104,-0.26037821,0.642848,0.39100147,-0.23443386,0.641037,0.44095585,-0.22768846,0.641902,0.41531822,-0.19920862,0.639416,0.40721246,-0.18708414,0.645761,0.39954998,-0.17572336,0.651529,0.45989042,-0.21874958,0.637301,0.44445263,-0.18054363,0.632712,0.43494538,-0.15826913,0.630036,0.42589291,-0.14482755,0.628124,0.47587945,-0.21262635,0.633203,0.46235008,-0.20180934,0.630674,0.45483378,-0.19576573,0.62938,0.47538479,-0.21796747,0.645863,0.49693766,-0.2085324,0.627906,0.48111697,-0.18145843,0.633076,0.473786,-0.16892974,0.635451,0.46721145,-0.15775233,0.637546
0.46208069,-0.27806661,0.620227,0.45342681,-0.2461466,0.631829,0.43941125,-0.27076934,0.626069,0.40753405,-0.24452308,0.636343,0.37389228,-0.2211507,0.636373,0.3606309,-0.20278369,0.640888,0.4135073,-0.19758745,0.647316,0.39731027,-0.17046829,0.652619,0.39081824,-0.15752455,0.658582,0.38452704,-0.14547167,0.664003,0.43180649,-0.18703496,0.642879,0.41396061,-0.15344945,0.648598,0.40345798,-0.13370835,0.651933,0.39591557,-0.11954097,0.654316,0.44680519,-0.17930948,0.637975,0.4315416,-0.14683621,0.643664,0.42384747,-0.13042548,0.646575,0.41305044,-0.11667111,0.649221,0.46575194,-0.17284119,0.630101,0.45893231,-0.14644348,0.63395,0.4519256,-0.13232237,0.635718,0.44560043,-0.11961122,0.637279
0.46301981,-0.27995813,0.622214,0.45198509,-0.2468938,0.631174,0.43924057,-0.27214209,0.626654,0.40670233,-0.24545558,0.636067,0.37297644,-0.22254727,0.636358,0.35924887,-0.20404725,0.640437,0.40915726,-0.19730846,0.643042,0.38483394,-0.17065016,0.645575,0.37278575,-0.15669997,0.646841,0.36164888,-0.14381228,0.647993,0.42790208,-0.18695891,0.639708,0.40748125,-0.15342374,0.642222,0.39054588,-0.13519686,0.643688,0.38002751,-0.12093113,0.644736,0.44354889,-0.17945021,0.635996,0.42182202,-0.14841776,0.64207,0.41203243,-0.13233586,0.6457,0.40313549,-0.11771901,0.649001,0.46375526,-0.17333715,0.630004,0.44873637,-0.14578856,0.631176,0.43997856,-0.13182237,0.631714,0.43216094,-0.11935997,0.632189
0.45918412,-0.28004171,0.62166,0.44080625,-0.24745072,0.630264,0.43550595,-0.27224056,0.626081,0.395052,-0.24384201,0.632659,0.35831057,-0.21825768,0.628905,0.34337368,-0.19967309,0.631998,0.39785235,-0.19772579,0.641865,0.37480201,-0.17005058,0.643973,0.36254489,-0.15614019,0.645026,0.35122648,-0.14330059,0.645984,0.41611678,-0.18718572,0.638459,0.39568389,-0.15450762,0.641762,0.38132613,-0.13494719,0.643689,0.37091384,-0.12077321,0.645066,0.43143856,-0.17952468,0.634727,0.40931759,-0.14679394,0.639024,0.39809299,-0.13008451,0.641363,0.38791857,-0.11490151,0.643541,0.45136427,-0.17325128,0.628777,0.43834425,-0.14503221,0.629636,0.4290534,-0.13126275,0.630031,0.42055976,-0.11908771,0.630379
0.45731938,-0.27984842,0.621451,0.44136367,-0.24723314,0.631061,0.43518425,-0.27299469,0.62802,0.39385247,-0.24256781,0.630738,0.36260582,-0.22033709,0.636444,0.34969909,-0.20369318,0.643358,0.40050401,-0.19852205,0.646143,0.37794664,-0.1709495,0.649376,0.36589816,-0.15705194,0.650992,0.35474862,-0.14420096,0.652462,0.4172606,-0.18717628,0.640214,0.39708902,-0.15453271,0.644041,0.38285691,-0.13496077,0.646273,0.37252499,-0.12076639,0.647868,0.4311456,-0.17887735,0.634296,0.40909917,-0.14619027,0.638683,0.39782237,-0.12947077,0.640927,0.38759005,-0.11427888,0.642996,0.44909803,-0.17185446,0.62562,0.43945119,-0.14487485,0.631226,0.43162079,-0.13151863,0.633801,0.42435854,-0.11962774,0.636073
0.45697633,-0.28088073,0.622381,0.44088149,-0.24785343,0.630463,0.4337899,-0.27333607,0.627501,0.39460231,-0.24193059,0.627573,0.35666813,-0.21553403,0.624579,0.34300923,-0.19842947,0.629826,0.39805107,-0.19800673,0.642618,0.37514217,-0.17014071,0.644514,0.36295416,-0.15613325,0.645461,0.3517177,-0.14322367,0.646323,0.41570909,-0.18718558,0.63816,0.39497591,-0.15429743,0.640963,0.38045873,-0.13464643,0.642599,0.36993875,-0.12041593,0.643767,0.43052027,-0.17933702,0.633617,0.4062752,-0.14584009,0.63576,0.3909896,-0.12884207,0.636856,0.38329126,-0.11334796,0.638984,0.44986644,-0.17290509,0.626825,0.43662021,-0.14455401,0.627403,0.42726521,-0.1307873,0.627669,0.41871898,-0.11862116,0.627903
0.45628484,-0.28128559,0.622372,0.44052555,-0.24807199,0.630006,0.43330473,-0.27381808,0.627772,0.39477419,-0.24213223,0.628078,0.35673784,-0.21507659,0.62407,0.34310371,-0.19787887,0.629482,0.39767958,-0.19806994,0.642222,0.37490547,-0.17008832,0.643767,0.36278527,-0.15603148,0.64454,0.3533239,-0.14312047,0.645242,0.41500368,-0.18712927,0.637276,0.39528314,-0.15459272,0.641134,0.38126251,-0.13506146,0.643384,0.37291017,-0.12092123,0.644992,0.42955359,-0.17920822,0.63238,0.40481425,-0.14556926,0.634362,0.38984717,-0.12830943,0.635375,0.37756399,-0.11218139,0.636297,0.44863302,-0.172731,0.625263,0.43571065,-0.14442335,0.626319,0.42648633,-0.13072544,0.626805,0.41804681,-0.1186158,0.627233
0.45493918,-0.28124103,0.6212,0.43972472,-0.24813745,0.628945,0.43195751,-0.27372706,0.626542,0.39254704,-0.24166378,0.626807,0.35491802,-0.21289442,0.619177,0.341317,-0.19681207,0.626154,0.39682103,-0.19803985,0.641162,0.37452502,-0.1701127,0.642789,0.3626331,-0.15607405,0.643603,0.35301764,-0.14314821,0.644343,0.41419422,-0.18715187,0.636321,0.39467194,-0.15466435,0.6402,0.38073553,-0.13514771,0.642463,0.3706303,-0.12100974,0.64408,0.42878597,-0.17927047,0.6315,0.40249608,-0.14595206,0.633596,0.38906408,-0.1283236,0.634669,0.37677049,-0.11219325,0.635644,0.44791103,-0.17284024,0.624449,0.43472152,-0.14437306,0.625159,0.4253765,-0.13065931,0.625486,0.41683306,-0.11854431,0.625774
0.44940591,-0.28009799,0.620497,0.42646409,-0.23847118,0.628,0.42634936,-0.27202677,0.626259,0.37702863,-0.23534745,0.627038,0.34195561,-0.20990413,0.625466,0.32634638,-0.18886494,0.627189,0.38367247,-0.18840784,0.640601,0.36119055,-0.16033628,0.642038,0.34988162,-0.1462173,0.642757,0.3379168,-0.13358014,0.64341,0.40098597,-0.17740766,0.635147,0.37791593,-0.14340141,0.636444,0.36360293,-0.12329956,0.6372,0.35331126,-0.108847,0.637741,0.41549718,-0.16947382,0.629847,0.38901595,-0.1370116,0.631967,0.37544345,-0.12037448,0.633052,0.36260481,-0.10503327,0.634039,0.43450081,-0.16302221,0.622285,0.41601122,-0.13534584,0.624444,0.40754533,-0.12267112,0.625436,0.40009111,-0.11150912,0.626312
0.44749628,-0.27909666,0.620187,0.42535907,-0.23901035,0.627347,0.42320785,-0.27036084,0.624472,0.37505845,-0.23311056,0.623028,0.33792117,-0.19856617,0.611684,0.32188125,-0.17428045,0.610149,0.38134105,-0.18835083,0.637789,0.35762476,-0.16027348,0.638524,0.34563764,-0.1460839,0.638891,0.33332572,-0.13370414,0.639225,0.39971456,-0.17790944,0.634166,0.37620104,-0.14377386,0.634654,0.3609462,-0.12365496,0.634938,0.34968162,-0.10925224,0.635141,0.41521286,-0.17040544,0.63041,0.38757442,-0.13753842,0.631538,0.37339175,-0.12067412,0.632114,0.36001537,-0.10515127,0.632639,0.43553111,-0.16444183,0.624706,0.41555662,-0.13619252,0.624747,0.40617141,-0.12318486,0.624766,0.39776182,-0.11168041,0.624783
0.44898096,-0.27835948,0.619186,0.42481708,-0.23883036,0.624549,0.42229575,-0.27016524,0.623237,0.37542203,-0.23358635,0.620814,0.33640598,-0.2033536,0.608313,0.31954564,-0.17648695,0.606956,0.38437551,-0.18896789,0.633466,0.35783287,-0.16128031,0.632522,0.34430908,-0.14717007,0.63205,0.32897336,-0.13440171,0.631621,0.4020611,-0.17851446,0.629656,0.37771443,-0.14398415,0.628116,0.360348,-0.12436403,0.627218,0.34494088,-0.10981903,0.626577,0.41713323,-0.17103761,0.625941,0.38818134,-0.13774426,0.625371,0.37304411,-0.12010299,0.626779,0.3586906,-0.10481211,0.628059,0.43416651,-0.16397162,0.62062,0.41596725,-0.13630805,0.618325,0.40395589,-0.12355671,0.61727,0.39339567,-0.11421021,0.61634
0.44618705,-0.27799485,0.617895,0.42326671,-0.23917138,0.621521,0.4267723,-0.27229037,0.627682,0.39585272,-0.24440727,0.633248,0.35813225,-0.21857192,0.631482,0.34093823,-0.19528254,0.634004,0.3860025,-0.19146892,0.636729,0.36295705,-0.20160765,0.640436,0.35067195,-0.20619991,0.642289,0.33896596,-0.21058462,0.644073,0.39293906,-0.18024881,0.624974,0.35925476,-0.15123067,0.623626,0.34601804,-0.13668926,0.635178,0.33594171,-0.12576051,0.64343,0.39959234,-0.17100315,0.614903,0.3630308,-0.16891557,0.616977,0.34284764,-0.16774366,0.618038,0.33099715,-0.17494861,0.619002,0.4099644,-0.16331063,0.602532,0.40175144,-0.12762559,0.59963,0.3979883,-0.11129008,0.598296,0.39525921,-0.097051956,0.598005
0.44348353,-0.26405161,0.582869,0.42991873,-0.23436273,0.590831,0.41710493,-0.25830077,0.586962,0.38146666,-0.22822441,0.591614,0.34440724,-0.20880824,0.589751,0.33000611,-0.19666271,0.595143,0.3831319,-0.19269578,0.601568,0.36464593,-0.16219508,0.602869,0.35513076,-0.14654733,0.60352,0.34935672,-0.13328981,0.609314,0.40323324,-0.18272837,0.598414,0.38033033,-0.14771847,0.599731,0.36657314,-0.12670437,0.6005,0.35656134,-0.11141872,0.601049,0.41982254,-0.17544657,0.594959,0.39505465,-0.14707547,0.596795,0.38749175,-0.1331956,0.597734,0.38299525,-0.12267182,0.598588,0.44106575,-0.16913653,0.589452,0.42578168,-0.1567976,0.589173,0.41939876,-0.15587065,0.589045,0.41348746,-0.15501307,0.588932
0.4532819,-0.26962093,0.587385,0.44695543,-0.23839964,0.590948,0.42597633,-0.2605789,0.590022,0.39030595,-0.24283063,0.590336,0.35440726,-0.21959929,0.588892,0.34087019,-0.1910983,0.580515,0.40205952,-0.18526821,0.596802,0.38405956,-0.15110628,0.59324,0.37501598,-0.13393289,0.591459,0.37283772,-0.12022324,0.5996,0.42411806,-0.18000529,0.594341,0.41138689,-0.13836053,0.589803,0.40377214,-0.11326889,0.587156,0.39824285,-0.094964432,0.585265,0.44236664,-0.17686188,0.591931,0.4200392,-0.13810142,0.588857,0.40829007,-0.11765418,0.587285,0.39740663,-0.09868435,0.585855,0.46568926,-0.17614982,0.588464,0.45086623,-0.16288392,0.584143,0.44342567,-0.15708035,0.582158,0.43587489,-0.1542048,0.580406
0.4676538,-0.26931685,0.563753,0.45549899,-0.23969225,0.574237,0.439439,-0.26161993,0.56602,0.40566902,-0.22879858,0.568853,0.36744629,-0.21858,0.568505,0.35235073,-0.19639559,0.569423,0.40605012,-0.19451929,0.584307,0.38666206,-0.16558022,0.587546,0.37669776,-0.15073609,0.589165,0.36747986,-0.13702013,0.590637,0.42874594,-0.18627094,0.584221,0.40959198,-0.15755316,0.587907,0.40237867,-0.14042289,0.590058,0.40542015,-0.13942941,0.591594,0.44737829,-0.18033835,0.583019,0.42868918,-0.14778004,0.586252,0.41900708,-0.13003836,0.587906,0.41383237,-0.11537488,0.589409,0.47080143,-0.17564199,0.579655,0.46196003,-0.1680797,0.580556,0.46646784,-0.1817567,0.580971,0.48368409,-0.19820515,0.594122
0.46717375,-0.31358457,0.560206,0.45969126,-0.2756052,0.565262,0.43894891,-0.29633234,0.558689,0.41176737,-0.2493621,0.548753,0.37975107,-0.22743835,0.551007,0.36898281,-0.21065815,0.557887,0.41694068,-0.21035235,0.56672,0.40326398,-0.18290244,0.574256,0.39625198,-0.16834898,0.578024,0.38972537,-0.15487094,0.581449,0.44374626,-0.20866953,0.570078,0.44167504,-0.1787419,0.585781,0.44037972,-0.16106678,0.594941,0.43941687,-0.14834755,0.601484,0.46611248,-0.2085686,0.572298,0.45445211,-0.16862274,0.568998,0.45282195,-0.16044605,0.567309,0.45468722,-0.16948043,0.565774,0.49421198,-0.21199144,0.573924,0.4818007,-0.17688962,0.570059,0.4761539,-0.16096878,0.568283,0.47364749,-0.15039452,0.566715
0.52499482,-0.3065197,0.577078,0.49588423,-0.2671362,0.571024,0.49384086,-0.29797731,0.577341,0.45248723,-0.26775501,0.574107,0.40890352,-0.25061238,0.568785,0.39043956,-0.22613366,0.565083,0.43018412,-0.21329644,0.567257,0.42375353,-0.19115972,0.58257,0.420428,-0.17992123,0.590226,0.41701146,-0.1692205,0.597186,0.45081444,-0.20304845,0.565259,0.43041858,-0.16881205,0.568018,0.41821654,-0.14836559,0.569628,0.40936052,-0.13354235,0.570778,0.4692509,-0.19618057,0.564266,0.44076266,-0.16446834,0.561865,0.43776351,-0.15840978,0.560637,0.44753867,-0.16683392,0.559521,0.49540889,-0.19162708,0.564251,0.47913715,-0.18699029,0.551786,0.47492127,-0.18972528,0.546059,0.49123522,-0.20561276,0.555676
0.53584227,-0.33337888,0.566842,0.51958171,-0.29534305,0.568954,0.50540952,-0.320026,0.566037,0.46995679,-0.28871326,0.567137,0.43313751,-0.26584917,0.56585,0.42012736,-0.23777905,0.559034,0.46538587,-0.2353276,0.569341,0.45731043,-0.21042337,0.582638,0.4530574,-0.19762624,0.589286,0.44906888,-0.18579606,0.59533,0.49034891,-0.22954348,0.570966,0.4751315,-0.19654825,0.577129,0.46621814,-0.17723796,0.580724,0.46261941,-0.1664675,0.583291,0.51168271,-0.22608293,0.572077,0.48657627,-0.18701571,0.566247,0.47353041,-0.16665715,0.563264,0.46154789,-0.14792174,0.560553,0.53968703,-0.22541416,0.572969,0.52968855,-0.20003728,0.579808,0.52520638,-0.18856751,0.582951,0.52298451,-0.1781578,0.585723
0.54030041,-0.33663217,0.561776,0.53963519,-0.30419052,0.565544,0.52611996,-0.32987568,0.566218,0.49731742,-0.29574965,0.570414,0.47660433,-0.28332134,0.584297,0.47534822,-0.27889525,0.597969,0.50063743,-0.24395572,0.573889,0.47706778,-0.21654663,0.57161,0.46499289,-0.2024864,0.570471,0.45383996,-0.18948937,0.569435,0.51987752,-0.23679603,0.569133,0.50574896,-0.2014254,0.573657,0.49732038,-0.18057928,0.576295,0.49040509,-0.16632605,0.57818,0.5360905,-0.2321951,0.564811,0.512066,-0.19470319,0.562517,0.49957965,-0.17543461,0.561344,0.48807329,-0.15782703,0.560277,0.55731727,-0.23027831,0.559087,0.53865256,-0.19949952,0.558214,0.53016144,-0.1855023,0.557813,0.5245647,-0.17796645,0.557459
0.56368255,-0.38941747,0.562689,0.5542612,-0.34616129,0.561987,0.53354089,-0.36341787,0.554669,0.5000251,-0.31329228,0.539433,0.46416439,-0.29096888,0.54004,0.45839467,-0.26318337,0.538334,0.50872669,-0.26623793,0.551064,0.5230232,-0.23957981,0.567149,0.53016639,-0.22590956,0.575192,0.53665643,-0.21328997,0.582503,0.53889976,-0.27361937,0.561319,0.53958712,-0.23161897,0.551242,0.54013397,-0.20659753,0.545364,0.54059535,-0.18847393,0.541166,0.56420913,-0.28131971,0.569838,0.55430442,-0.25093457,0.581977,0.55150181,-0.23354976,0.588188,0.54883472,-0.21747157,0.593834,0.59584692,-0.29469462,0.579859,0.60398541,-0.2896673,0.568574,0.60760704,-0.30080874,0.563389,0.62139134,-0.31942427,0.572376
0.59417191,-0.40077877,0.556786,0.58033307,-0.35727638,0.554718,0.56268174,-0.37796579,0.549453,0.52961189,-0.33190637,0.535941,0.48854982,-0.30975432,0.533091,0.47917105,-0.28186293,0.529613,0.5284498,-0.28013869,0.543764,0.51231496,-0.24717008,0.540193,0.50412727,-0.23038919,0.538408,0.49661112,-0.21495545,0.536785,0.55836478,-0.2841008,0.552749,0.55211629,-0.24561514,0.55569,0.54836714,-0.22271517,0.557405,0.54564271,-0.20615275,0.558631,0.58372853,-0.28906557,0.560371,0.55647281,-0.24981442,0.554972,0.56125799,-0.23584474,0.55221,0.56598979,-0.22250194,0.549699,0.61603352,-0.2992405,0.569607,0.62204583,-0.29699961,0.557422,0.62082631,-0.30908418,0.551823,0.63505485,-0.32740343,0.560818
0.60084437,-0.40120058,0.557372,0.59247822,-0.35740648,0.55492,0.5690624,-0.37821275,0.549812,0.54091616,-0.33143629,0.535182,0.50016466,-0.3095881,0.532805,0.49071392,-0.28165484,0.529222,0.53977038,-0.27995631,0.54341,0.52366842,-0.24695091,0.539714,0.51550113,-0.23015727,0.537866,0.50800652,-0.21471558,0.536186,0.56990044,-0.28401702,0.552586,0.56433117,-0.24577559,0.556053,0.56097119,-0.22298288,0.558075,0.55852124,-0.20648082,0.55952,0.59550374,-0.28908362,0.560406,0.56805233,-0.24982477,0.554995,0.57315526,-0.23585158,0.552226,0.57819546,-0.22250599,0.549709,0.62819193,-0.29941755,0.569944,0.63428885,-0.29699055,0.557405,0.63270407,-0.30898392,0.551644,0.64689802,-0.32721428,0.560494
0.7107106,-0.44132759,0.573743,0.68558463,-0.40232621,0.573782,0.69177645,-0.43439269,0.584434,0.66896936,-0.47035178,0.590435,0.68487172,-0.48965944,0.612617,0.67101291,-0.50526456,0.619482,0.63782511,-0.35091442,0.587734,0.60352488,-0.34033898,0.577246,0.58607445,-0.33499434,0.572001,0.57002613,-0.33010136,0.567234,0.64313217,-0.33646343,0.573819,0.60575941,-0.32646709,0.56464,0.58334506,-0.32053152,0.559286,0.5670349,-0.31624087,0.555462,0.64859109,-0.32595632,0.562356,0.60429678,-0.30582449,0.556849,0.59183875,-0.31163339,0.554032,0.5816925,-0.31852245,0.551471,0.65897491,-0.31719962,0.549043,0.64504554,-0.28468506,0.546709,0.63783881,-0.29233351,0.545636,0.65177488,-0.31273184,0.556056
0.71971245,-0.44354444,0.576625,0.69560484,-0.40196513,0.573267,0.69655212,-0.43405227,0.583976,0.69575424,-0.48173388,0.604723,0.72036251,-0.50755397,0.635005,0.7182036,-0.53289465,0.653358,0.64022389,-0.34663229,0.580562,0.60694729,-0.33642645,0.57061,0.59000536,-0.33126549,0.565634,0.57441604,-0.32653812,0.561111,0.6492298,-0.33426517,0.57007,0.61183548,-0.32406472,0.560485,0.5894433,-0.31801446,0.554894,0.57316634,-0.31364415,0.550901,0.65835353,-0.32562884,0.561791,0.61415774,-0.30554879,0.556347,0.60197617,-0.31136846,0.553561,0.59210215,-0.31826716,0.551029,0.67410364,-0.31937825,0.552814,0.65192715,-0.28305833,0.543585,0.64116483,-0.28896302,0.539345,0.65423646,-0.30868589,0.548862
0.78575816,-0.45448099,0.599894,0.74478293,-0.42712877,0.595512,0.76100819,-0.4569625,0.608714,0.76496986,-0.51282756,0.630161,0.76824109,-0.53050525,0.657602,0.76291792,-0.55779707,0.671252,0.67150798,-0.399556,0.604024,0.66183698,-0.42091359,0.596922,0.65750646,-0.43244976,0.593372,0.66137903,-0.44451319,0.590144,0.67744102,-0.38176478,0.591339,0.65751237,-0.39974924,0.581369,0.65040717,-0.41506498,0.575554,0.65821502,-0.42798172,0.571723,0.68441096,-0.36831108,0.581364,0.63941239,-0.33261677,0.565338,0.61649453,-0.31445667,0.557139,0.59572383,-0.29800998,0.549685,0.69868824,-0.3551335,0.570611,0.68508775,-0.38316395,0.563997,0.68675888,-0.38994013,0.560958,0.70309751,-0.40426863,0.570486
0.69274968,-0.45388645,0.544209,0.68281183,-0.41731499,0.551912,0.66263629,-0.43832323,0.545504,0.64303868,-0.39941942,0.544676,0.61065175,-0.39177679,0.55525,0.60167521,-0.3693405,0.559496,0.63320278,-0.35465428,0.55883,0.63122287,-0.3345957,0.558991,0.63015441,-0.3238401,0.559071,0.63206606,-0.31810766,0.559144,0.65879193,-0.35078606,0.559249,0.65763009,-0.32419477,0.559618,0.656877,-0.30740175,0.559834,0.66088841,-0.30245098,0.559988,0.67980713,-0.34860556,0.558764,0.66993914,-0.31770949,0.558725,0.6647289,-0.30102971,0.558819,0.65988302,-0.28530327,0.558973,0.70606236,-0.34907975,0.556752,0.70785597,-0.35432243,0.555051,0.71063184,-0.37016343,0.554269,0.72717323,-0.38392464,0.56688
0.69654969,-0.45631609,0.545372,0.69277713,-0.42433782,0.558977,0.66475372,-0.43987265,0.545663,0.65746346,-0.39702706,0.541517,0.63236064,-0.38257183,0.554837,0.61537938,-0.37693145,0.56829,0.64486048,-0.36656606,0.568593,0.65669073,-0.34979118,0.574787,0.66282315,-0.34046466,0.577884,0.66864034,-0.33144095,0.58079,0.67343893,-0.36498649,0.571933,0.67775633,-0.33199913,0.579225,0.68013548,-0.3115253,0.583479,0.68971552,-0.30984579,0.586517,0.69630287,-0.36421568,0.573218,0.71113811,-0.33647796,0.579499,0.71906192,-0.3208195,0.582713,0.72657502,-0.30567749,0.585711,0.72356997,-0.36548813,0.572151,0.70661586,-0.33723452,0.574836,0.69974235,-0.32421525,0.576069,0.6968948,-0.3135869,0.578292
0.69852538,-0.45886285,0.546076,0.69636684,-0.42948249,0.560563,0.66453356,-0.44048167,0.544411,0.65342284,-0.39522283,0.538277,0.62462131,-0.37897784,0.548297,0.60803743,-0.37324798,0.560558,0.64543544,-0.36803682,0.568231,0.65946826,-0.34929625,0.575656,0.66958744,-0.33684257,0.579961,0.6773416,-0.3257635,0.583875,0.67713653,-0.37156783,0.57436,0.69545398,-0.34505703,0.582374,0.70702441,-0.32816402,0.587255,0.71561263,-0.31527221,0.590803,0.70159808,-0.37353752,0.577846,0.70783934,-0.339309,0.583903,0.71295271,-0.32177664,0.587001,0.72894005,-0.31090413,0.589818,0.73037488,-0.37793949,0.57917,0.71982104,-0.35059718,0.581956,0.71480539,-0.3376873,0.583237,0.71192675,-0.32672794,0.585399
0.69876874,-0.45966065,0.545961,0.69643183,-0.43033307,0.560758,0.66470532,-0.44107254,0.544154,0.65265898,-0.39525338,0.537995,0.62375733,-0.37807126,0.547418,0.60771455,-0.37242864,0.559516,0.64554763,-0.36887452,0.568451,0.66032304,-0.35004805,0.575854,0.66981953,-0.33880987,0.579749,0.67755044,-0.32810608,0.583289,0.67697544,-0.37196192,0.57485,0.69508558,-0.34548075,0.582879,0.70645854,-0.32857676,0.587715,0.71489791,-0.31568002,0.59123,0.70165951,-0.37395692,0.578525,0.70782162,-0.33983751,0.584713,0.71417022,-0.32329804,0.587879,0.72895532,-0.31808803,0.590758,0.73065833,-0.37833878,0.580009,0.72020104,-0.35119863,0.583017,0.71522297,-0.33837463,0.584399,0.71181117,-0.32722915,0.586188
0.69834904,-0.46184256,0.54545,0.69640384,-0.44200907,0.560821,0.66457562,-0.44329229,0.543814,0.65179596,-0.40606632,0.538125,0.62242784,-0.38679082,0.546183,0.60691322,-0.37714843,0.557107,0.64656667,-0.38034383,0.569126,0.66309991,-0.36228595,0.576968,0.67179949,-0.3522775,0.580972,0.68003225,-0.342582,0.584707,0.67762012,-0.38219919,0.57546,0.69621475,-0.35687869,0.584305,0.7079768,-0.34070326,0.58972,0.71669561,-0.32831989,0.593655,0.70228273,-0.38411099,0.579019,0.70844738,-0.35065227,0.585551,0.71600962,-0.33550847,0.588893,0.7321541,-0.33353417,0.59193,0.73113972,-0.38830924,0.580262,0.72102528,-0.36176546,0.583809,0.71619431,-0.34920465,0.585439,0.71221029,-0.33797567,0.586877
0.69547063,-0.46205556,0.542862,0.69455993,-0.44213073,0.558582,0.6639532,-0.44606474,0.54232,0.65117747,-0.40752289,0.538104,0.62242702,-0.38882601,0.547051,0.60771019,-0.37863516,0.557678,0.64675785,-0.38174768,0.568551,0.66298103,-0.36400585,0.577115,0.67138188,-0.3540864,0.581397,0.6793025,-0.34445981,0.585377,0.67657744,-0.38273734,0.573554,0.69472606,-0.35771253,0.583047,0.70611321,-0.34166824,0.588805,0.71453231,-0.32937258,0.592987,0.70013438,-0.38390314,0.57598,0.70649965,-0.3510533,0.583515,0.71397765,-0.33615605,0.587371,0.72989551,-0.33430966,0.590876,0.72757205,-0.38716159,0.575841,0.7237787,-0.36522149,0.580022,0.72088095,-0.35376177,0.581942,0.71860833,-0.34348501,0.583637
0.70289808,-0.47158032,0.549134,0.68950923,-0.44053997,0.558754,0.66461539,-0.45527971,0.543607,0.63753509,-0.42191121,0.541269,0.60150714,-0.39384261,0.536517,0.59285027,-0.3649856,0.531723,0.6252001,-0.37901344,0.558087,0.6345056,-0.35438935,0.56016,0.63938806,-0.34122321,0.561197,0.64399651,-0.32873393,0.562163,0.65634579,-0.37935539,0.567915,0.66416419,-0.34957961,0.569659,0.66907443,-0.33089789,0.570757,0.67276519,-0.31690862,0.57159,0.68179317,-0.38040903,0.574972,0.69590199,-0.3516989,0.576227,0.7037853,-0.33584528,0.576983,0.71140379,-0.32067693,0.577758,0.71271989,-0.38406372,0.581354,0.72578553,-0.38631493,0.579019,0.73667495,-0.38674649,0.577946,0.74077132,-0.39751027,0.580538
0.710498,-0.47190908,0.555281,0.68931117,-0.43331081,0.56196,0.66871355,-0.4514514,0.545598,0.63637375,-0.41276978,0.534356,0.59162764,-0.40845956,0.532124,0.57277737,-0.38547596,0.529655,0.61351992,-0.37872607,0.553883,0.62311859,-0.35150547,0.5564,0.62811068,-0.33707328,0.557658,0.63654004,-0.3251472,0.558802,0.64379786,-0.37884696,0.568321,0.65213346,-0.34935161,0.567076,0.65763429,-0.33099288,0.566531,0.6642695,-0.31565043,0.566306,0.66913366,-0.37974099,0.579491,0.68711359,-0.35503629,0.577237,0.69725445,-0.34138904,0.576112,0.70717185,-0.32835036,0.575169,0.70099825,-0.38288654,0.5912,0.7169854,-0.37963159,0.585662,0.72512576,-0.37814744,0.583117,0.74713067,-0.38422796,0.592252
0.70063797,-0.46554174,0.548231,0.67192487,-0.43062377,0.554201,0.66096816,-0.44556589,0.541359,0.61968074,-0.41482746,0.533953,0.57452651,-0.40853302,0.53355,0.556641,-0.38540162,0.532055,0.59868101,-0.37394418,0.549302,0.60464308,-0.34702086,0.550332,0.60776523,-0.33275374,0.550847,0.61083949,-0.31938026,0.551315,0.62835449,-0.37208656,0.559886,0.63168193,-0.3435154,0.557418,0.6339781,-0.32567173,0.556048,0.63582052,-0.31234511,0.555125,0.65322935,-0.37147281,0.567958,0.65996826,-0.34557311,0.564422,0.66399479,-0.3313537,0.562706,0.66808054,-0.3177991,0.561241,0.68479442,-0.37316434,0.576205,0.69466524,-0.37228501,0.570539,0.69981658,-0.37198423,0.567935,0.72046535,-0.38008365,0.578271
0.66235829,-0.46400613,0.538524,0.63976366,-0.42981518,0.542663,0.62493477,-0.4469959,0.528879,0.58658379,-0.40649457,0.516199,0.53984406,-0.39658708,0.512532,0.52247835,-0.37155455,0.509655,0.56627191,-0.36696849,0.532911,0.57510384,-0.33846572,0.533308,0.57974269,-0.32344963,0.533506,0.58425455,-0.30942005,0.533686,0.59720772,-0.36856186,0.546605,0.60352602,-0.33733498,0.542597,0.60768527,-0.3179712,0.540291,0.61092627,-0.30358169,0.538689,0.62329348,-0.37095264,0.557436,0.63290922,-0.34211513,0.552059,0.63852958,-0.32641655,0.549384,0.64413694,-0.31153279,0.54703,0.65640914,-0.37651488,0.569229,0.66791424,-0.37274885,0.561558,0.67390466,-0.3710635,0.558033,0.6943558,-0.37762512,0.566967
0.67255905,-0.4761506,0.547825,0.64173172,-0.44018731,0.545998,0.63658408,-0.4595878,0.539456,0.58458135,-0.41972199,0.518805,0.53538447,-0.41295537,0.514151,0.51608438,-0.39089414,0.512256,0.56694845,-0.37382996,0.533856,0.54074152,-0.33568895,0.52309,0.53724197,-0.31853294,0.517706,0.53679985,-0.30411683,0.512813,0.59372406,-0.37413182,0.544258,0.59430809,-0.3384627,0.532925,0.59498649,-0.31692828,0.526314,0.59563918,-0.30118494,0.521592,0.61689672,-0.37596083,0.55302,0.60303425,-0.33608088,0.542257,0.61863821,-0.33270412,0.53675,0.62853153,-0.34401055,0.531744,0.64762124,-0.38169005,0.563534,0.65357852,-0.37353419,0.551289,0.65687428,-0.36979081,0.545663,0.67781428,-0.372491,0.554334
0.65248269,-0.48012842,0.55401,0.61685824,-0.43940937,0.547898,0.61570927,-0.46457156,0.543081,0.56372838,-0.41920763,0.518915,0.51236979,-0.41333166,0.510682,0.49069055,-0.39113494,0.507056,0.53521179,-0.37490069,0.529513,0.51516436,-0.3344271,0.518974,0.51475105,-0.31741073,0.513704,0.51668619,-0.30335883,0.508914,0.56188019,-0.37439928,0.542076,0.56515498,-0.33866626,0.530152,0.5674526,-0.31713996,0.523196,0.56928604,-0.3014248,0.518227,0.58553478,-0.37581225,0.553081,0.5708664,-0.3361815,0.536827,0.5634,-0.31547383,0.528511,0.5566372,-0.29636929,0.520951,0.61777907,-0.3812769,0.567003,0.62285804,-0.35732462,0.551677,0.62553412,-0.34610447,0.544635,0.64360574,-0.34438178,0.55172
0.57200551,-0.4887344,0.547751,0.57360543,-0.44897111,0.553913,0.55544293,-0.47113847,0.55539,0.54282078,-0.44432137,0.558457,0.52177528,-0.42590916,0.573139,0.5136956,-0.4070349,0.581453,0.5549513,-0.38068587,0.568046,0.54385059,-0.37440343,0.56741,0.5502296,-0.39334127,0.568207,0.55631886,-0.41109062,0.5691,0.57148037,-0.37694002,0.559782,0.56266986,-0.37621093,0.559876,0.56835764,-0.40213074,0.559932,0.59051382,-0.42660642,0.576375,0.58471003,-0.3751901,0.552312,0.5746154,-0.35276826,0.554053,0.56952296,-0.34068185,0.555511,0.56468287,-0.32908993,0.556971,0.60089781,-0.37675154,0.542483,0.58717588,-0.38160864,0.542653,0.58514476,-0.39847504,0.542732,0.59664575,-0.42308565,0.555204
0.58407987,-0.49512478,0.560932,0.56274548,-0.44798782,0.557411,0.56401235,-0.47928028,0.56733,0.53719577,-0.46684535,0.565516,0.48898312,-0.4385249,0.555417,0.47224212,-0.42155711,0.560207,0.51736418,-0.38561593,0.563354,0.4869187,-0.35432482,0.553791,0.47864569,-0.34369114,0.557038,0.47309064,-0.34783102,0.55999,0.53129419,-0.37726546,0.554058,0.50521034,-0.3346339,0.54227,0.49267283,-0.34321895,0.535393,0.50837584,-0.36920698,0.548457,0.54392397,-0.37216171,0.546782,0.51635629,-0.34769223,0.537,0.50174308,-0.33593456,0.531995,0.48811578,-0.32501587,0.527445,0.56254665,-0.3706714,0.538999,0.5307537,-0.34384939,0.531469,0.51614828,-0.33152755,0.52801,0.50564906,-0.32217697,0.527448
0.55236081,-0.49258804,0.560482,0.52940802,-0.44886387,0.553184,0.53070752,-0.48135074,0.567428,0.49247266,-0.45539988,0.565482,0.4553453,-0.42912147,0.561388,0.437186,-0.40631055,0.555576,0.48148003,-0.38678232,0.557276,0.45054717,-0.35299462,0.545037,0.43574041,-0.33663792,0.539662,0.42422656,-0.33600043,0.534776,0.49487218,-0.37721297,0.546234,0.47240062,-0.33479095,0.539652,0.45609038,-0.31616377,0.535812,0.46116906,-0.3279538,0.549687,0.50720631,-0.37137414,0.537927,0.4786387,-0.3344256,0.523452,0.46383103,-0.31517463,0.516047,0.45024526,-0.29745035,0.509314,0.52588101,-0.3694249,0.529658,0.49392614,-0.34566148,0.519886,0.47909513,-0.33462961,0.515397,0.46592621,-0.32483259,0.511436
0.56131233,-0.50476522,0.568536,0.53603874,-0.46443862,0.559322,0.53856029,-0.49383458,0.575062,0.50078198,-0.47352328,0.572001,0.46059597,-0.44483509,0.564015,0.44235212,-0.4212752,0.558785,0.4837817,-0.40302982,0.561567,0.45746354,-0.37548063,0.559837,0.44432047,-0.36172321,0.558971,0.43464999,-0.36097092,0.558185,0.49745849,-0.39190765,0.550548,0.46775997,-0.34665322,0.533868,0.45057514,-0.32057267,0.524138,0.45405791,-0.32699549,0.534914,0.51015954,-0.3849465,0.542467,0.47226244,-0.35378904,0.53182,0.45270116,-0.33770234,0.526373,0.43481022,-0.32298674,0.52142,0.52962455,-0.38183231,0.534818,0.50439678,-0.39597931,0.52352,0.49257862,-0.40283837,0.518329,0.49641058,-0.42284745,0.526725
0.53700644,-0.52160056,0.584978,0.50714014,-0.4672938,0.561688,0.5118578,-0.50041183,0.584416,0.46643279,-0.48114298,0.567831,0.42484582,-0.45828768,0.559078,0.40242321,-0.4328996,0.553629,0.4539468,-0.38871141,0.545143,0.42008241,-0.39668155,0.519853,0.42634175,-0.42359857,0.536337,0.4388854,-0.45288184,0.552902,0.47184801,-0.38850508,0.539508,0.43130202,-0.3449374,0.506439,0.40777272,-0.31973094,0.487149,0.40515165,-0.33127001,0.492225,0.48951403,-0.39162706,0.537377,0.4565395,-0.35218024,0.507062,0.44144385,-0.33327749,0.493564,0.42768186,-0.3159681,0.481293,0.51700031,-0.40268976,0.539282,0.48131079,-0.40110727,0.515079,0.4604566,-0.40492012,0.503959,0.45747724,-0.41482383,0.507778
0.49002555,-0.49253905,0.555012,0.46988789,-0.45124978,0.550426,0.47221605,-0.48051634,0.563881,0.44128274,-0.48094775,0.565685,0.39238294,-0.45003839,0.552788,0.37090144,-0.43015983,0.552185,0.42799559,-0.3900477,0.558864,0.39485614,-0.36523292,0.55301,0.37827311,-0.35281576,0.550082,0.36887791,-0.34687044,0.555993,0.43755709,-0.38150097,0.546058,0.40352904,-0.34631513,0.535909,0.38360337,-0.32570762,0.529989,0.37101562,-0.31236406,0.528153,0.44657365,-0.37631441,0.536007,0.43034493,-0.32755248,0.522814,0.41284219,-0.33189113,0.516065,0.40287231,-0.34696996,0.509929,0.4608268,-0.37497063,0.525202,0.43553818,-0.34201353,0.516824,0.42390753,-0.32685408,0.512974,0.41364012,-0.31346979,0.509578
0.4806976,-0.48726691,0.551898,0.45002024,-0.44340984,0.545211,0.45114156,-0.47321692,0.557447,0.4186621,-0.47045766,0.553485,0.37122371,-0.44291823,0.542604,0.34934198,-0.4259433,0.543302,0.39789545,-0.38329108,0.547896,0.36177017,-0.35701894,0.535337,0.3433678,-0.34558792,0.529057,0.32651975,-0.33513537,0.523348,0.41206127,-0.37492905,0.538841,0.37477861,-0.33897325,0.524072,0.35258073,-0.31913615,0.515456,0.33596668,-0.30876575,0.509303,0.42517623,-0.36997808,0.532105,0.38833359,-0.33335157,0.519807,0.3691068,-0.31540661,0.513515,0.35061217,-0.30465717,0.507795,0.44488783,-0.36886857,0.525544,0.41304818,-0.33909599,0.517797,0.39767257,-0.32817816,0.514238,0.38405631,-0.31851077,0.511097
0.4352019,-0.47994889,0.539786,0.41442279,-0.44128782,0.538458,0.41225474,-0.47032446,0.54617,0.37070842,-0.45154736,0.544963,0.33555494,-0.43246751,0.547138,0.31720868,-0.41451062,0.549792,0.36402713,-0.38451202,0.545871,0.33419299,-0.35538962,0.539165,0.31924577,-0.34079943,0.535812,0.30563962,-0.32751849,0.532764,0.37874063,-0.37424448,0.537193,0.34837164,-0.33716947,0.528519,0.33057513,-0.31543838,0.523459,0.3174303,-0.30047375,0.519845,0.39181775,-0.36735793,0.53019,0.36056977,-0.33015253,0.524125,0.34464477,-0.31119408,0.521022,0.32854995,-0.29666632,0.518201,0.41059943,-0.36324845,0.522311,0.38838787,-0.32814777,0.516155,0.37706454,-0.3263345,0.513326,0.36675998,-0.32473414,0.51083
0.41058761,-0.48780702,0.541892,0.39214252,-0.44678831,0.539341,0.38931556,-0.47716851,0.54928,0.35187873,-0.45364176,0.554245,0.31615105,-0.42999747,0.553567,0.29984905,-0.40831228,0.554642,0.34701969,-0.38652908,0.547232,0.31812138,-0.35600403,0.540225,0.30366922,-0.3407384,0.536722,0.29052873,-0.3268583,0.533537,0.36131547,-0.37662702,0.536911,0.3311123,-0.33924986,0.528031,0.31342462,-0.31735779,0.52285,0.3004716,-0.30208183,0.51915,0.37388445,-0.3702007,0.528687,0.34495258,-0.33105917,0.521556,0.33017045,-0.31106202,0.517908,0.31426967,-0.3029143,0.514591,0.39175525,-0.36700139,0.519621,0.36976212,-0.33294212,0.512126,0.3579102,-0.32339098,0.508682,0.34723564,-0.31479414,0.505644
0.4061483,-0.48674949,0.539993,0.38225072,-0.44895129,0.538407,0.38418132,-0.47699726,0.547132,0.34091469,-0.45890795,0.551964,0.30859581,-0.4400392,0.55713,0.2972357,-0.42264865,0.56295,0.33179505,-0.39313607,0.54663,0.30819187,-0.35793003,0.538527,0.29933712,-0.3399105,0.534476,0.28610732,-0.32697989,0.530793,0.34627537,-0.3821344,0.536898,0.31720683,-0.34352068,0.529309,0.29922578,-0.32239214,0.524882,0.28635114,-0.30726333,0.52172,0.35907992,-0.37467556,0.529054,0.33136303,-0.33619509,0.524476,0.31697217,-0.31691898,0.522134,0.3009027,-0.30471003,0.520004,0.37742742,-0.36993065,0.520248,0.35823559,-0.33242123,0.512737,0.3461512,-0.32407881,0.509286,0.3352447,-0.31656401,0.506241
0.40269668,-0.48377761,0.539372,0.37471503,-0.44122008,0.537689,0.38077564,-0.47458874,0.546718,0.33553806,-0.45315763,0.553438,0.30211506,-0.43282973,0.556331,0.2800628,-0.41391599,0.551136,0.32336929,-0.38664919,0.546115,0.29647284,-0.35216923,0.536301,0.28305521,-0.33496916,0.531394,0.26840229,-0.32403259,0.526934,0.33672431,-0.37559224,0.536087,0.30655344,-0.33640824,0.526334,0.28893951,-0.31369158,0.520645,0.27571275,-0.29822033,0.516582,0.34870842,-0.36805852,0.52801,0.32234519,-0.32772169,0.522163,0.30894983,-0.307234,0.519171,0.29555878,-0.3006049,0.516451,0.36625323,-0.36317313,0.518951,0.34722707,-0.32600565,0.51192,0.33417508,-0.32083935,0.50869,0.32234444,-0.31619044,0.505839
0.39616308,-0.48331437,0.540275,0.36632249,-0.44341625,0.537083,0.37386646,-0.47431654,0.547432,0.32631829,-0.45174417,0.552019,0.28864554,-0.43182158,0.551495,0.267448,-0.41103595,0.549392,0.31926335,-0.38574096,0.544239,0.29170833,-0.3579548,0.543587,0.27897946,-0.34427426,0.543262,0.26740365,-0.33183297,0.542966,0.33275657,-0.37515599,0.534043,0.30231453,-0.33558988,0.523981,0.27920653,-0.31646332,0.518112,0.26431709,-0.30280663,0.513919,0.34491492,-0.36813592,0.525992,0.31037052,-0.33170477,0.518912,0.29408823,-0.31245143,0.515289,0.27631619,-0.29975989,0.511996,0.36048419,-0.36623097,0.517246,0.3436449,-0.3267062,0.509922,0.33044411,-0.31953511,0.506557,0.3185292,-0.31308521,0.503588
0.39170588,-0.4822043,0.538754,0.36303813,-0.44290259,0.53588,0.36711174,-0.47219038,0.546964,0.3254942,-0.45286491,0.553717,0.28944292,-0.43322618,0.555041,0.26887865,-0.41299235,0.553981,0.31465082,-0.38621631,0.544623,0.28844601,-0.35679689,0.541404,0.2748929,-0.34255395,0.539795,0.26233862,-0.32984886,0.538332,0.32722161,-0.37549576,0.533143,0.29648308,-0.33578268,0.523129,0.27611674,-0.31603327,0.517288,0.26115258,-0.30238497,0.513116,0.33851826,-0.36836294,0.524,0.30297921,-0.33207172,0.517338,0.28618234,-0.3134811,0.513929,0.27202722,-0.29970993,0.510831,0.35213641,-0.36460592,0.513927,0.33339205,-0.33191195,0.511424,0.31967831,-0.324135,0.510274,0.30731411,-0.31712981,0.509259
0.38960608,-0.48224205,0.538628,0.36218014,-0.44302073,0.535829,0.36564858,-0.47253521,0.547021,0.32508398,-0.45305108,0.554054,0.28962989,-0.43357632,0.556071,0.26925444,-0.41348931,0.555302,0.31418235,-0.38631188,0.544861,0.28722641,-0.35624723,0.540428,0.27331264,-0.34170868,0.538211,0.26036123,-0.32882544,0.536196,0.32647492,-0.37550032,0.533163,0.29579085,-0.33594774,0.523359,0.27542367,-0.31627272,0.51764,0.26046045,-0.30266085,0.513555,0.337535,-0.36829009,0.523833,0.30294641,-0.33203577,0.517282,0.28618289,-0.31348171,0.51393,0.2708313,-0.29995241,0.510884,0.35186302,-0.36432285,0.513528,0.33337444,-0.33189443,0.511397,0.3197679,-0.32422583,0.510417,0.30749152,-0.31731289,0.509553
0.38397837,-0.47961467,0.53737,0.35851556,-0.44089179,0.534328,0.3603984,-0.47068207,0.545398,0.31905549,-0.44712255,0.551898,0.28035316,-0.42800112,0.550547,0.26659395,-0.41035144,0.552288,0.31062565,-0.38338492,0.542717,0.28278404,-0.35357496,0.537582,0.26853918,-0.3389805,0.535015,0.25712702,-0.32598778,0.532821,0.32283462,-0.37320108,0.53143,0.29225989,-0.33380615,0.521796,0.27173085,-0.31442601,0.516176,0.25659386,-0.30110015,0.512161,0.33388498,-0.36652071,0.522463,0.30120875,-0.32985393,0.515755,0.28453806,-0.31114747,0.512323,0.26646394,-0.29873282,0.509203,0.3502901,-0.36298829,0.512627,0.33242917,-0.33090685,0.511221,0.3184073,-0.31808286,0.510575,0.30739677,-0.30821817,0.510005
0.38186126,-0.47468854,0.53478,0.35667609,-0.42270697,0.530038,0.35703404,-0.45886391,0.542482,0.31944108,-0.43475302,0.548596,0.28218023,-0.41513383,0.549191,0.26622276,-0.39456911,0.551045,0.3045312,-0.367038,0.536852,0.27391074,-0.33774057,0.529963,0.25861911,-0.32310904,0.526519,0.24472846,-0.30981763,0.523388,0.31685361,-0.35660717,0.525523,0.2841992,-0.31718114,0.514166,0.26246156,-0.29813707,0.507541,0.24638193,-0.28528275,0.502808,0.32817475,-0.34978881,0.516705,0.29943548,-0.30976528,0.509788,0.28490721,-0.28954276,0.50625,0.26688276,-0.28593825,0.503033,0.34528994,-0.34613023,0.507361,0.31960287,-0.31504418,0.502461,0.30473967,-0.30562519,0.50021,0.29146867,-0.2972209,0.498223
0.38021514,-0.45514874,0.531508,0.35760536,-0.41269842,0.526946,0.35851111,-0.44671409,0.539261,0.31928245,-0.42525555,0.544197,0.28153985,-0.40641371,0.544885,0.26486202,-0.38935092,0.547314,0.30399387,-0.35816391,0.533946,0.27293271,-0.32931119,0.527221,0.25743099,-0.31491054,0.523858,0.24343759,-0.30506949,0.520801,0.31641784,-0.34680441,0.5226,0.28332232,-0.30797948,0.511647,0.26147321,-0.28913039,0.505258,0.24534266,-0.28024158,0.500694,0.3278212,-0.33919908,0.513749,0.29864026,-0.30007514,0.507445,0.28389681,-0.28031732,0.504219,0.26614502,-0.27655999,0.501287,0.34507547,-0.33451144,0.504333,0.31904059,-0.30446178,0.49998,0.30421038,-0.29526003,0.49798,0.29096018,-0.28704395,0.496216
0.38299413,-0.45217771,0.52864,0.36974063,-0.41272466,0.525847,0.36365102,-0.44128321,0.535298,0.32981755,-0.4242569,0.540479,0.29591096,-0.40372915,0.542866,0.27519199,-0.38354318,0.541557,0.31665656,-0.35744992,0.532623,0.29484652,-0.33520392,0.538671,0.28392352,-0.32406232,0.541695,0.27398329,-0.31392295,0.544444,0.33062045,-0.34662714,0.523187,0.30071391,-0.30987838,0.51677,0.28332898,-0.28851783,0.513026,0.2709394,-0.27329572,0.510352,0.3432133,-0.33935007,0.515717,0.31676246,-0.30267244,0.512746,0.29778173,-0.29048324,0.511225,0.28700444,-0.29518829,0.509843,0.36168913,-0.33484687,0.507572,0.33592535,-0.30313161,0.501804,0.32111735,-0.2962554,0.499153,0.30778029,-0.29007878,0.496815
0.39300689,-0.44356119,0.529583,0.36955424,-0.39825814,0.529376,0.37118779,-0.43574084,0.537186,0.33298314,-0.41169742,0.54557,0.29343162,-0.39011184,0.543211,0.27663572,-0.3712074,0.545783,0.31864272,-0.34631774,0.539137,0.30174167,-0.31172649,0.535683,0.28798208,-0.30003197,0.533956,0.27517058,-0.2891475,0.532386,0.32964417,-0.33412406,0.529178,0.30282132,-0.29641309,0.522925,0.2798826,-0.28940598,0.519277,0.25811391,-0.28472684,0.516671,0.3397453,-0.32548059,0.520999,0.31660799,-0.28332259,0.514458,0.29823831,-0.26925434,0.511111,0.28407266,-0.27442701,0.508069,0.35510598,-0.31891632,0.511545,0.33682304,-0.28325697,0.505789,0.32300018,-0.27731607,0.503145,0.31046948,-0.27195055,0.500812
0.39768992,-0.44498237,0.534288,0.38363942,-0.39803688,0.532591,0.37507967,-0.42740199,0.538828,0.34253713,-0.39994059,0.544077,0.30586945,-0.37071565,0.538705,0.28772978,-0.34640716,0.530136,0.34005841,-0.33379046,0.537351,0.32000396,-0.29635415,0.527174,0.30847926,-0.27923386,0.522086,0.29794404,-0.2635718,0.51746,0.35618314,-0.32659954,0.530974,0.32981368,-0.28561332,0.522063,0.31043648,-0.2795156,0.516864,0.29602735,-0.27504544,0.513151,0.37041962,-0.3223235,0.525906,0.33969779,-0.28466755,0.519821,0.32133264,-0.26997392,0.516708,0.30784946,-0.27089727,0.513878,0.39031988,-0.32156926,0.520342,0.37083656,-0.28737044,0.513874,0.35974659,-0.28600793,0.510902,0.34964681,-0.28481584,0.508279
0.39522177,-0.41757635,0.533152,0.3907097,-0.37326133,0.531673,0.38491853,-0.39978085,0.541099,0.366242,-0.36930623,0.553053,0.34339301,-0.3341668,0.553811,0.33626479,-0.30780095,0.555044,0.37546209,-0.30331609,0.541021,0.35036025,-0.27187217,0.53428,0.3425023,-0.2596663,0.538397,0.33505782,-0.24816239,0.54214,0.38382073,-0.29830589,0.530265,0.38544976,-0.2615049,0.535072,0.36977838,-0.24948786,0.537876,0.35800501,-0.24046572,0.539879,0.3912262,-0.29593589,0.521567,0.36186662,-0.2604683,0.518076,0.34349008,-0.26088886,0.51629,0.3322193,-0.27156293,0.514667,0.40177362,-0.29793971,0.511748,0.38222646,-0.26318309,0.50657,0.37339794,-0.24752777,0.50419,0.36568837,-0.23387774,0.502091
0.42513953,-0.39923649,0.521822,0.42176685,-0.36321121,0.530673,0.40481877,-0.38470124,0.526817,0.38582751,-0.35458525,0.53829,0.35594184,-0.32114422,0.535837,0.34704559,-0.29786832,0.539309,0.39199019,-0.30211644,0.543189,0.37649179,-0.27231286,0.545838,0.36599189,-0.26225471,0.547163,0.35927257,-0.2638534,0.548367,0.41051891,-0.29640858,0.539102,0.40328926,-0.26203359,0.54165,0.39212766,-0.25691666,0.543136,0.38353685,-0.25296754,0.544197,0.42578005,-0.29271571,0.534784,0.40423179,-0.25836444,0.537962,0.39320538,-0.24078676,0.539588,0.38318095,-0.22480587,0.541067,0.44491123,-0.29154415,0.528107,0.43101128,-0.26217056,0.531184,0.424417,-0.24881591,0.532597,0.41847334,-0.23707835,0.533844
0.46245404,-0.37589734,0.546217,0.4396488,-0.33028858,0.538131,0.43731993,-0.36218591,0.548805,0.39642885,-0.33107387,0.540078,0.35689018,-0.30521555,0.53541,0.33898255,-0.28610948,0.536522,0.38955422,-0.26593295,0.536011,0.36047824,-0.25518331,0.522456,0.38254373,-0.28116367,0.543028,0.40383525,-0.29657424,0.556595,0.40634997,-0.2577969,0.53043,0.37695808,-0.21437217,0.513648,0.36004547,-0.1895367,0.503859,0.34598742,-0.17686444,0.496867,0.42171759,-0.25295756,0.526705,0.38772308,-0.23756611,0.514149,0.37792076,-0.2406859,0.507725,0.36875463,-0.24383504,0.501885,0.44413915,-0.25173704,0.523902,0.41615689,-0.23788232,0.511127,0.403037,-0.23620818,0.505257,0.39123813,-0.23475946,0.500078
0.53342984,-0.37515463,0.57782,0.48935813,-0.3308378,0.557536,0.50299396,-0.3663467,0.578867,0.46488456,-0.34790145,0.572372,0.42480072,-0.33148428,0.57003,0.39643839,-0.31049589,0.564623,0.4124011,-0.27491513,0.545128,0.39110174,-0.28527229,0.521425,0.40988988,-0.30959963,0.538661,0.4324581,-0.33308508,0.554899,0.42734875,-0.26400885,0.538218,0.4049776,-0.22660767,0.535983,0.3905047,-0.20560483,0.534679,0.37586514,-0.19019614,0.533747,0.44276547,-0.25727226,0.534714,0.41713012,-0.27547166,0.511826,0.41048972,-0.29060736,0.500116,0.42063119,-0.31524894,0.507763,0.46848702,-0.25417476,0.534459,0.43747726,-0.27030904,0.51293,0.4300018,-0.28115722,0.503039,0.43583688,-0.2979231,0.50801
0.51950062,-0.32830613,0.553065,0.48655896,-0.28869355,0.54548,0.48612744,-0.31895521,0.550459,0.45640493,-0.29241144,0.554898,0.41448618,-0.26938668,0.550546,0.39296222,-0.25443823,0.55082,0.41599213,-0.23595161,0.536936,0.39304055,-0.23502213,0.521326,0.41376855,-0.2601985,0.542387,0.42954257,-0.28224581,0.556961,0.43666324,-0.22577726,0.538256,0.40762201,-0.19792286,0.538584,0.3901099,-0.18112882,0.538775,0.37733335,-0.16887701,0.538912,0.45591196,-0.21873868,0.540161,0.42539808,-0.17852182,0.525196,0.41086433,-0.17294809,0.51754,0.41266117,-0.17423925,0.530273,0.48420889,-0.21369654,0.543797,0.45690448,-0.22129454,0.52903,0.45218545,-0.23415685,0.522246,0.46139123,-0.25257183,0.531163
0.54314356,-0.2977864,0.545588,0.51436379,-0.26078174,0.542206,0.51049481,-0.28882523,0.543736,0.47641547,-0.26699252,0.530349,0.42884863,-0.25493535,0.524682,0.4125339,-0.24807996,0.533035,0.4468756,-0.20974134,0.537497,0.42766048,-0.21396872,0.525751,0.44632987,-0.23614481,0.547302,0.46030436,-0.25652794,0.560547,0.46810928,-0.19946699,0.538985,0.46560301,-0.1713106,0.557122,0.46389907,-0.15442525,0.567701,0.46257754,-0.14216408,0.575258,0.48755872,-0.19211268,0.540575,0.45672562,-0.16632878,0.539031,0.44033813,-0.15814127,0.538241,0.44104511,-0.15772414,0.555178,0.51554732,-0.18637185,0.543056,0.49914833,-0.14926491,0.535587,0.4916681,-0.13241881,0.532155,0.48509707,-0.11766188,0.529127
0.55073008,-0.29422902,0.549794,0.53086037,-0.24678487,0.544806,0.52210986,-0.27436975,0.547121,0.4780409,-0.23348274,0.532152,0.45196085,-0.21327697,0.541455,0.4422703,-0.20104974,0.551049,0.47116154,-0.18562385,0.537938,0.45007113,-0.18614461,0.524312,0.4690812,-0.20817823,0.545638,0.48221528,-0.22804322,0.559535,0.49531105,-0.17861081,0.540055,0.4855719,-0.14713847,0.55213,0.47961135,-0.12830317,0.559174,0.47522908,-0.11463745,0.564205,0.51715287,-0.17422703,0.542336,0.47847677,-0.13984581,0.531329,0.46068742,-0.12732339,0.525697,0.46336323,-0.12344864,0.539858,0.5477547,-0.17273009,0.545922,0.53233868,-0.14239286,0.544245,0.52888477,-0.12973537,0.547018,0.5271246,-0.1189298,0.550771
0.58715581,-0.24398793,0.554363,0.55691206,-0.21186303,0.55393,0.54657109,-0.23716357,0.546956,0.51231303,-0.20802615,0.548201,0.47122398,-0.19230057,0.547388,0.45200152,-0.18561042,0.552688,0.47750699,-0.16829802,0.543989,0.46497797,-0.16329812,0.530883,0.48976909,-0.1811609,0.55081,0.5092938,-0.19796826,0.563942,0.50655329,-0.15815772,0.553517,0.48961883,-0.13419412,0.567896,0.47937291,-0.1198724,0.576284,0.47189292,-0.10949165,0.582276,0.53244525,-0.15049145,0.56141,0.48573403,-0.12509049,0.550157,0.46848973,-0.1123733,0.5444,0.47188324,-0.10578607,0.557259,0.56797477,-0.14348965,0.570654,0.54490281,-0.12122666,0.571199,0.53799781,-0.11203767,0.575009,0.53321791,-0.10424383,0.579715
0.58159483,-0.24621185,0.550604,0.56550607,-0.21505435,0.559181,0.55107683,-0.23927568,0.551697,0.52006062,-0.20056463,0.546479,0.4798858,-0.17813061,0.542993,0.46578673,-0.16863055,0.552238,0.51730172,-0.16147293,0.566429,0.50466801,-0.12844345,0.567912,0.49830805,-0.11182667,0.568653,0.49934019,-0.098003576,0.577232,0.54211926,-0.15439233,0.567349,0.54136253,-0.12500324,0.583527,0.54085706,-0.10772813,0.592963,0.54046981,-0.095332485,0.599704,0.5626017,-0.14968943,0.567183,0.54862913,-0.12394486,0.580761,0.54201326,-0.11092306,0.588235,0.53611296,-0.099111096,0.59515,0.58834154,-0.14716198,0.565378,0.58389927,-0.11971214,0.573143,0.58288882,-0.10737761,0.577692,0.58233335,-0.096560362,0.582037
0.57664142,-0.24811385,0.549515,0.57130548,-0.21632371,0.559117,0.5495804,-0.2377053,0.551668,0.5350194,-0.188407,0.548252,0.50106298,-0.15672968,0.542886,0.49462306,-0.14273694,0.553207,0.5495703,-0.15060514,0.568442,0.54683516,-0.1149537,0.570909,0.54542285,-0.09681414,0.572142,0.54411307,-0.080139583,0.573263,0.57464347,-0.15028359,0.568263,0.57837651,-0.11582245,0.580405,0.58051583,-0.095550644,0.587488,0.58202686,-0.080996695,0.592547,0.59472638,-0.15126567,0.56708,0.5905386,-0.11960998,0.579479,0.58901023,-0.10358773,0.586399,0.58777312,-0.089055464,0.592838,0.61843341,-0.15600764,0.563902,0.61710439,-0.1330732,0.575131,0.61863754,-0.12310206,0.582231,0.62057668,-0.1144253,0.589045
0.57004022,-0.21313681,0.552518,0.58304959,-0.18257393,0.568457,0.54896428,-0.19571577,0.555276,0.54104311,-0.14772961,0.555315,0.52124519,-0.12109093,0.561196,0.52014647,-0.11430028,0.576185,0.56709192,-0.12520745,0.582872,0.56434174,-0.09247583,0.591355,0.56284268,-0.075722135,0.595596,0.56140888,-0.060266951,0.599452,0.59292411,-0.12659552,0.583636,0.60573697,-0.097435446,0.60282,0.61317908,-0.080263983,0.614011,0.61868007,-0.066628689,0.622004,0.61285891,-0.12867822,0.582548,0.62058001,-0.10745128,0.605443,0.62462865,-0.095786787,0.617156,0.6283171,-0.085116736,0.627805,0.634923,-0.13400936,0.57829,0.64073758,-0.1175322,0.595622,0.64513111,-0.11034671,0.605139,0.64960875,-0.10411383,0.614097
0.5710317,-0.20318091,0.553479,0.58369884,-0.16221383,0.56909,0.54990447,-0.17575938,0.556227,0.54181573,-0.12752057,0.556108,0.52195202,-0.10114254,0.561957,0.52069805,-0.09446369,0.576796,0.56747817,-0.10549266,0.583269,0.5644324,-0.072400546,0.59145,0.5627907,-0.055479813,0.595541,0.56122907,-0.039880262,0.59926,0.59325022,-0.10667836,0.583957,0.60599019,-0.077382058,0.603072,0.61339079,-0.060137548,0.614223,0.61886308,-0.046397229,0.622188,0.61316715,-0.10863441,0.582841,0.62077784,-0.087444326,0.605636,0.62477338,-0.075772695,0.617299,0.62841418,-0.065095688,0.627902,0.63527654,-0.11386006,0.578612,0.64091723,-0.09750366,0.595789,0.64525158,-0.090324473,0.605252,0.64970396,-0.084083129,0.614187
0.59209458,-0.18272916,0.566471,0.6007559,-0.15048815,0.580465,0.56790755,-0.16494662,0.56719,0.55602956,-0.11569993,0.563752,0.53177771,-0.084352093,0.56355,0.52754303,-0.073709268,0.575831,0.57670801,-0.091155105,0.590902,0.5704692,-0.056980234,0.596323,0.56722896,-0.03952455,0.599034,0.56421196,-0.023440525,0.601498,0.60458777,-0.092578942,0.593791,0.61269606,-0.06139774,0.610374,0.61739025,-0.043069525,0.620048,0.62105027,-0.028586432,0.626957,0.62652418,-0.094846592,0.594663,0.62884705,-0.071559165,0.614769,0.63020726,-0.058833627,0.625056,0.63145991,-0.047203292,0.634408,0.65154566,-0.10067482,0.593044,0.65208861,-0.082513774,0.607475,0.65279799,-0.07241617,0.614105,0.6537031,-0.06249942,0.619956
0.58833043,-0.18092336,0.566607,0.6001825,-0.15056817,0.583095,0.56311913,-0.15924205,0.563985,0.55046661,-0.10436652,0.55769,0.52507339,-0.073546654,0.557071,0.51736168,-0.061626426,0.567161,0.57691125,-0.088664076,0.590875,0.57795603,-0.051908546,0.597308,0.57883653,-0.034195188,0.600524,0.57967037,-0.017883485,0.603448,0.60759083,-0.095426242,0.598798,0.61373794,-0.064531274,0.611945,0.61899545,-0.044931231,0.619614,0.63460316,-0.029175195,0.625091,0.62728083,-0.10769597,0.603545,0.62786058,-0.07102673,0.612823,0.6307985,-0.050827133,0.617569,0.63254042,-0.032626642,0.621884,0.6508733,-0.12274461,0.605956,0.69017715,-0.12084813,0.622601,0.71074393,-0.11249965,0.630248,0.71562673,-0.11149462,0.636996
0.59583092,-0.17837052,0.571652,0.60381769,-0.14117335,0.587439,0.56679188,-0.15659153,0.566491,0.55199717,-0.09948685,0.557067,0.52406285,-0.064547828,0.550498,0.51417939,-0.049641042,0.557328,0.56438816,-0.083430574,0.591435,0.57621622,-0.049629523,0.601909,0.58367885,-0.033453916,0.607146,0.58767565,-0.017267522,0.611907,0.59768381,-0.089521242,0.602473,0.60212569,-0.069701147,0.624904,0.60574738,-0.055832667,0.637988,0.61772405,-0.037539753,0.647334,0.62415564,-0.095515698,0.609862,0.62214263,-0.066783725,0.620509,0.62696897,-0.045474838,0.625956,0.63134669,-0.025756581,0.630908,0.65464016,-0.10547996,0.61547,0.66070111,-0.085321505,0.626201,0.66677226,-0.071872456,0.631132,0.6745284,-0.057902923,0.635482
0.61150654,-0.16830584,0.573338,0.61971258,-0.13933086,0.590178,0.58599157,-0.14744862,0.566465,0.56994543,-0.096870909,0.555884,0.53812487,-0.060059797,0.543953,0.52760125,-0.044493495,0.550842,0.56773375,-0.084614347,0.592661,0.58031125,-0.051653507,0.603853,0.58489946,-0.03435406,0.609449,0.58907871,-0.018371796,0.614537,0.60306132,-0.09058949,0.606217,0.60495689,-0.07177739,0.628719,0.60710375,-0.058457192,0.641846,0.61862128,-0.04015997,0.651222,0.63127049,-0.096448173,0.615565,0.62573553,-0.06841984,0.625451,0.62905918,-0.047273552,0.630509,0.63205776,-0.027752898,0.635108,0.66489483,-0.1054618,0.623249,0.66737783,-0.086486218,0.6339,0.6723861,-0.073141808,0.638794,0.67937075,-0.059167983,0.643112
0.62280849,-0.17005253,0.583829,0.62956556,-0.14104032,0.601922,0.5939084,-0.14879368,0.577497,0.5810996,-0.095884609,0.568128,0.55094702,-0.056200503,0.553927,0.54085521,-0.037805902,0.558573,0.58521828,-0.08331697,0.605961,0.59909164,-0.050190234,0.619225,0.60604218,-0.033172137,0.625857,0.61236767,-0.017440164,0.631885,0.61997886,-0.090030217,0.619154,0.62346397,-0.070882932,0.64248,0.62660699,-0.05735417,0.656087,0.63926515,-0.039092983,0.665806,0.64748817,-0.096491823,0.628069,0.64438452,-0.068421195,0.639376,0.64922655,-0.047312546,0.645161,0.65361321,-0.027790922,0.65042,0.67886387,-0.10689729,0.635015,0.68505461,-0.087625683,0.647601,0.69147438,-0.074472093,0.653384,0.69980614,-0.060682338,0.658487
0.65574084,-0.15840716,0.607261,0.65491662,-0.13389415,0.625562,0.62002434,-0.138544,0.59874,0.5981733,-0.089779934,0.587551,0.58168664,-0.047361159,0.570791,0.57336039,-0.026517378,0.570031,0.60351041,-0.081420986,0.626889,0.61962569,-0.049679743,0.641371,0.6282911,-0.032964366,0.648613,0.63619365,-0.017504435,0.655196,0.63935354,-0.089525213,0.642991,0.63402669,-0.073080563,0.661984,0.64554698,-0.048726621,0.673064,0.66406798,-0.0344089,0.680977,0.66790184,-0.097026481,0.654279,0.64751899,-0.070864019,0.660347,0.65757089,-0.048223676,0.663451,0.66826445,-0.027598198,0.666273,0.70084976,-0.10837987,0.663941,0.69445173,-0.083125237,0.669009,0.70821545,-0.071873438,0.671337,0.71821859,-0.06177401,0.673392
0.6557519,-0.15826353,0.607131,0.65495158,-0.13374457,0.625465,0.62008211,-0.13840768,0.59867,0.59829184,-0.089629583,0.587549,0.58182994,-0.047189217,0.570816,0.57341886,-0.026329295,0.569979,0.60360986,-0.081264085,0.626892,0.61974249,-0.04949981,0.641389,0.62841671,-0.032771654,0.648638,0.63632792,-0.017299665,0.655228,0.63939952,-0.089360912,0.642926,0.63395837,-0.070718792,0.660697,0.64577174,-0.046002178,0.671064,0.66425218,-0.032253039,0.678469,0.66789551,-0.096855161,0.654153,0.64754373,-0.070688284,0.660266,0.6589454,-0.048622684,0.663393,0.67012156,-0.028226002,0.666236,0.70077499,-0.10819977,0.66374,0.6944026,-0.082942706,0.668838,0.70818937,-0.071684446,0.671181,0.7190239,-0.061545018,0.673248
0.65529679,-0.15795696,0.606521,0.65476089,-0.13348853,0.624961,0.61974236,-0.13819336,0.59821,0.59812656,-0.089478914,0.587277,0.58170843,-0.047042786,0.570599,0.57333503,-0.026197594,0.569747,0.60382872,-0.081171941,0.626657,0.62007364,-0.049403492,0.641217,0.62879859,-0.032668053,0.648497,0.63675718,-0.017187169,0.655116,0.63956929,-0.089180412,0.642523,0.63417693,-0.069850939,0.659821,0.64601953,-0.045019214,0.669911,0.66436969,-0.031438784,0.677118,0.6680085,-0.096598427,0.653601,0.64787755,-0.070516329,0.659854,0.66156759,-0.048631911,0.663053,0.672719,-0.02900836,0.665961,0.70078976,-0.10784389,0.662994,0.69461423,-0.082625053,0.668195,0.7083776,-0.07134663,0.670584,0.71944494,-0.061200531,0.672693
0.65607126,-0.15815007,0.606533,0.65533622,-0.13362576,0.624724,0.62099794,-0.13851881,0.59873,0.59792264,-0.090278605,0.588074,0.57560635,-0.050188618,0.574352,0.56583847,-0.030005425,0.574866,0.60492404,-0.081424908,0.626912,0.62104608,-0.04962357,0.641307,0.62970701,-0.032877094,0.648504,0.63760755,-0.017389566,0.655048,0.64001603,-0.089305762,0.642049,0.63517435,-0.068526991,0.658478,0.64717392,-0.043467603,0.668062,0.66358245,-0.031226339,0.674907,0.66791282,-0.096611092,0.652553,0.64735119,-0.071128884,0.658644,0.6601494,-0.049700986,0.661761,0.67195127,-0.029654753,0.664594,0.70006789,-0.10771182,0.661326,0.69370668,-0.08252375,0.666292,0.70730824,-0.071254571,0.668573,0.71832647,-0.061043619,0.670586
0.65299684,-0.15742721,0.602945,0.65477984,-0.13360179,0.623069,0.61991859,-0.13823371,0.596905,0.59883166,-0.090850526,0.588976,0.57969716,-0.050618642,0.576449,0.57703099,-0.027073913,0.574235,0.61526542,-0.08408091,0.628867,0.63212901,-0.054966538,0.644567,0.64112134,-0.039601231,0.652417,0.64705398,-0.021814017,0.659554,0.64937486,-0.092292002,0.642236,0.64633583,-0.07240463,0.659221,0.66061165,-0.047449185,0.669129,0.67968612,-0.035985806,0.676207,0.67613164,-0.099795361,0.651076,0.65844884,-0.076845282,0.659609,0.67161038,-0.055175473,0.663975,0.68560622,-0.03537627,0.667944,0.70634818,-0.11098515,0.657554,0.70345561,-0.086747839,0.664472,0.717837,-0.075450125,0.667651,0.73099207,-0.064985177,0.670455
0.65301114,-0.15751342,0.602731,0.65534814,-0.13395068,0.623206,0.62024713,-0.13840137,0.597012,0.59652585,-0.093297513,0.58959,0.57938919,-0.051334457,0.577164,0.57233358,-0.030192713,0.577197,0.61315843,-0.084186343,0.629659,0.62998039,-0.054994443,0.645849,0.63991116,-0.042033898,0.653943,0.64676227,-0.022815596,0.661302,0.64678271,-0.092126918,0.642706,0.6452679,-0.073632404,0.659698,0.65937812,-0.048743376,0.66961,0.67835975,-0.037209776,0.67669,0.67490622,-0.10062969,0.651243,0.65753682,-0.078049212,0.660228,0.67079304,-0.056379158,0.664825,0.68160784,-0.033590739,0.669004,0.70470267,-0.11167372,0.657304,0.70203368,-0.087731938,0.664585,0.71650574,-0.076386845,0.667931,0.72756289,-0.064319929,0.670883
0.65336919,-0.15765905,0.602899,0.65610617,-0.13434154,0.623679,0.62053932,-0.13857041,0.597165,0.59479132,-0.094181261,0.589909,0.57920533,-0.051896058,0.577693,0.57036976,-0.031776286,0.578701,0.61364994,-0.085018268,0.63032,0.63141586,-0.058522933,0.647572,0.64129449,-0.043087831,0.656198,0.65043394,-0.025854813,0.66404,0.64743097,-0.093017154,0.643469,0.64516048,-0.07466303,0.660441,0.65913561,-0.049813111,0.670341,0.67805254,-0.038217097,0.677413,0.6750308,-0.10140862,0.652058,0.65783029,-0.079095942,0.661357,0.67115483,-0.057403784,0.666114,0.68310194,-0.034808093,0.670439,0.70487707,-0.11240276,0.658121,0.70011069,-0.09166037,0.66572,0.71596079,-0.078220652,0.669211,0.72677918,-0.06467273,0.672291
0.65441321,-0.1579827,0.603889,0.65617587,-0.13456649,0.623734,0.6221012,-0.13923537,0.598854,0.58809113,-0.099202818,0.591733,0.56837508,-0.059099833,0.58371,0.55874685,-0.040433311,0.586363,0.61242664,-0.08626949,0.630651,0.62820974,-0.060327422,0.647137,0.63762715,-0.044640573,0.65538,0.64605237,-0.022659644,0.662873,0.64617784,-0.093386534,0.642634,0.64301815,-0.076949824,0.660318,0.6551043,-0.053462435,0.670634,0.67377662,-0.037944024,0.678002,0.67189149,-0.10027131,0.650363,0.65856934,-0.072907871,0.658903,0.65994256,-0.048265238,0.663272,0.67366968,-0.029300519,0.667244,0.70097011,-0.11064133,0.655604,0.69799046,-0.092499493,0.664437,0.71130463,-0.077489546,0.668496,0.72038095,-0.06306958,0.672077
0.65375421,-0.15782302,0.603086,0.65579945,-0.13459495,0.623156,0.62145837,-0.13924962,0.598141,0.58909642,-0.098279991,0.591236,0.56854324,-0.057451854,0.582006,0.55825623,-0.038023013,0.583966,0.61294526,-0.086277227,0.630342,0.62855175,-0.060303291,0.647459,0.63844116,-0.04432606,0.656017,0.64944522,-0.026387427,0.663797,0.64639633,-0.094342774,0.64227,0.64322874,-0.07391156,0.658231,0.6566001,-0.049003445,0.667542,0.6731193,-0.03844141,0.674193,0.67225101,-0.10105652,0.649929,0.65925944,-0.071492693,0.658727,0.65991652,-0.048188897,0.663228,0.67372329,-0.029186889,0.66732,0.70146872,-0.11117609,0.655047,0.69801348,-0.093061467,0.664535,0.71135447,-0.077974748,0.668894,0.72208446,-0.063893374,0.672741
0.65406017,-0.15803504,0.603442,0.65595425,-0.134852,0.623353,0.62192194,-0.13961817,0.598735,0.58846137,-0.099151641,0.591979,0.56404363,-0.060530064,0.584568,0.55246744,-0.041028004,0.586867,0.61228727,-0.08721522,0.630742,0.62847864,-0.060551389,0.64779,0.63863802,-0.044238691,0.656314,0.64986467,-0.026392705,0.664063,0.64558159,-0.093962135,0.642316,0.64221241,-0.074722565,0.658095,0.65495874,-0.04987808,0.667299,0.67275188,-0.038300242,0.673874,0.67109809,-0.10054512,0.649701,0.65884505,-0.071059221,0.658414,0.65921348,-0.0483352,0.662871,0.67342768,-0.029373016,0.666924,0.69994412,-0.11051913,0.654531,0.6978932,-0.093660712,0.664898,0.71150562,-0.079904603,0.669661,0.7237024,-0.064614754,0.673863
0.65400894,-0.15815048,0.603234,0.65648787,-0.13523913,0.623585,0.62121234,-0.13976176,0.598001,0.59181366,-0.096648561,0.590972,0.57004903,-0.05483688,0.579388,0.56592035,-0.032719252,0.578763,0.61192514,-0.087538762,0.630586,0.62792351,-0.061225077,0.647889,0.63821075,-0.044873646,0.65654,0.64912778,-0.027179036,0.664405,0.64601458,-0.094319943,0.642967,0.64290485,-0.074646232,0.658876,0.65579069,-0.049745554,0.668157,0.67362734,-0.038264017,0.674786,0.67223181,-0.10092584,0.650968,0.66033624,-0.070986321,0.659965,0.66098083,-0.04862793,0.664568,0.67574715,-0.029907329,0.668753,0.70186602,-0.11092303,0.656431,0.69914653,-0.093684675,0.666231,0.71247362,-0.07865922,0.670734,0.72472671,-0.065139727,0.674707
0.65469235,-0.15976443,0.603793,0.65624641,-0.14944433,0.624476,0.62165023,-0.14144818,0.598443,0.59192941,-0.10877948,0.591495,0.57607943,-0.06415176,0.576291,0.56766151,-0.040595788,0.57451,0.61161213,-0.10118059,0.631552,0.626464,-0.07605605,0.649549,0.63719299,-0.059574866,0.658547,0.64920968,-0.04281299,0.666728,0.64564091,-0.10790347,0.644174,0.64306688,-0.080010678,0.659378,0.66198401,-0.056149233,0.668247,0.68030775,-0.050370243,0.674583,0.67233383,-0.11409347,0.652339,0.65916603,-0.081302369,0.661645,0.6634595,-0.056466804,0.666406,0.67968536,-0.035716348,0.670734,0.70252382,-0.12352244,0.657929,0.70071859,-0.10456464,0.668428,0.71403009,-0.090574706,0.673252,0.72829409,-0.074097727,0.677509
0.65446077,-0.16151453,0.603551,0.65626296,-0.15106723,0.624612,0.6200368,-0.14596535,0.598036,0.59136116,-0.11039141,0.591152,0.57678102,-0.065533898,0.575463,0.56878725,-0.041480022,0.573054,0.61144165,-0.10286716,0.631729,0.62608941,-0.078850123,0.650367,0.63669005,-0.062756307,0.659685,0.64859214,-0.04621247,0.668157,0.64580225,-0.10958291,0.644671,0.64624017,-0.082462167,0.660379,0.66270491,-0.057926072,0.669541,0.68124623,-0.052182125,0.676086,0.67274798,-0.11575847,0.653058,0.66250632,-0.083382866,0.66271,0.6619303,-0.06267428,0.667648,0.67588894,-0.043737191,0.672138,0.70319031,-0.12515255,0.658835,0.70026519,-0.11175461,0.6701,0.71455672,-0.093968884,0.675276,0.72679331,-0.08104089,0.679843
0.65328675,-0.16326016,0.603687,0.64589591,-0.15278394,0.625129,0.61625239,-0.15618732,0.598558,0.58170837,-0.11227799,0.592268,0.56600004,-0.067672264,0.577633,0.55694296,-0.044100221,0.575425,0.60202064,-0.10473699,0.633008,0.61625131,-0.081758981,0.652126,0.62706019,-0.065521593,0.661685,0.63936941,-0.048813234,0.670374,0.63593002,-0.11133081,0.645551,0.63666966,-0.084259984,0.661708,0.65296835,-0.059735884,0.671133,0.67133734,-0.054023709,0.677866,0.66247055,-0.11738932,0.653568,0.6489654,-0.089988382,0.663726,0.64624546,-0.071239139,0.668923,0.65784977,-0.051387024,0.673648,0.69238536,-0.1266143,0.658844,0.69097407,-0.10715191,0.669594,0.70418747,-0.093311477,0.674533,0.71645094,-0.080865279,0.678891
